P2
64 64
255
30 27 27 21 24 28 18 19 34 19 33 23 29 21 37 22 28 38 34 37 19 34 35 18 24 30 34 30 31 33 28 25 31 34 26 34 29 36 22 32 34 25 26 33 33 25 18 20 28 28 28 28 23 31 18 37 31 26 21 28 24 30 26 36
19 19 19 30 23 23 22 37 18 38 33 26 21 23 30 21 18 33 36 19 29 38 30 32 23 34 20 22 30 31 26 25 27 18 37 18 26 18 38 26 36 20 36 29 32 32 23 30 30 27 20 29 21 35 30 19 26 36 24 26 32 36 24 29
28 31 32 32 36 28 30 32 35 28 18 19 22 28 20 21 26 33 27 33 30 32 35 33 20 38 32 36 37 33 34 37 37 36 26 32 27 22 34 33 34 18 21 26 33 30 26 22 18 25 23 20 36 19 21 23 32 28 33 30 18 27 37 28
32 19 22 30 30 38 35 34 38 24 20 38 36 31 25 25 38 31 20 34 27 33 34 35 30 20 38 21 34 31 29 23 19 26 19 29 36 37 21 32 29 30 21 23 20 33 22 20 30 27 21 35 21 30 25 38 27 26 23 22 36 27 32 27
34 26 35 21 24 18 33 29 30 35 26 18 20 26 33 38 37 35 21 31 30 23 29 26 31 26 28 20 32 18 32 37 23 26 22 27 29 19 25 24 24 37 29 31 19 21 29 37 37 38 29 23 24 28 28 20 23 34 28 24 24 29 26 23
38 22 30 23 33 38 24 18 33 20 31 28 26 23 32 28 21 26 38 21 23 26 30 20 38 22 23 21 24 18 32 20 22 27 37 29 21 20 29 21 21 38 21 20 21 35 35 30 24 27 24 19 27 26 23 26 32 37 21 29 34 27 28 19
29 31 22 28 36 28 23 22 18 31 32 37 31 34 27 35 19 19 28 35 33 23 20 28 19 27 22 31 19 34 28 34 37 28 24 18 38 29 23 28 38 24 37 21 21 23 26 23 27 19 21 30 33 31 35 20 33 20 33 34 20 30 31 27
25 34 27 19 26 26 31 22 33 36 22 29 26 18 23 31 28 18 19 26 36 33 35 26 34 34 22 36 34 18 35 25 37 23 31 19 21 31 25 34 37 27 22 23 25 30 36 20 26 24 33 25 20 32 31 25 31 38 27 30 21 31 31 19
36 29 34 34 26 25 31 27 29 19 23 21 28 34 35 38 26 27 34 32 26 35 38 24 34 33 22 22 18 27 29 36 26 29 38 24 37 35 38 20 25 36 35 38 24 24 20 29 32 29 20 30 24 34 36 24 38 25 27 35 37 36 18 20
19 20 25 20 19 22 18 28 20 25 37 32 18 32 30 38 31 33 26 19 26 33 25 35 27 33 29 26 19 18 19 36 30 32 32 36 37 34 36 29 26 33 25 27 32 19 24 37 34 24 19 23 34 32 36 22 31 35 36 20 31 18 27 30
22 27 30 38 35 22 22 33 21 19 19 35 29 34 31 34 37 30 22 36 33 27 29 20 30 34 18 25 31 33 22 29 30 23 38 23 28 35 37 26 36 28 29 34 28 26 29 32 20 22 31 30 30 36 22 37 33 32 20 33 22 33 38 26
27 29 36 34 32 27 29 19 29 30 32 18 34 31 27 36 26 30 33 26 34 30 34 21 31 18 25 33 19 32 29 22 26 34 33 28 30 31 34 36 25 19 26 20 36 27 24 27 34 32 21 22 27 26 37 29 30 21 23 25 33 35 21 38
36 25 18 38 33 22 23 20 37 34 30 26 34 19 29 37 37 27 19 36 20 24 24 21 20 18 18 27 30 18 21 20 33 29 35 29 38 22 38 27 27 23 20 31 36 29 30 34 36 33 23 23 26 31 38 36 36 20 24 20 30 20 18 36
32 26 38 37 18 35 35 28 36 31 19 20 18 27 24 25 18 18 22 28 29 37 19 18 35 29 32 28 31 36 24 26 30 35 20 36 21 25 18 31 31 21 22 20 33 18 18 26 21 19 30 22 25 36 21 31 38 32 24 23 36 21 32 18
23 38 18 25 33 19 32 31 36 27 34 26 36 33 25 27 21 20 23 18 35 36 30 31 30 35 22 38 38 26 25 37 21 19 29 35 20 23 36 28 24 32 32 34 26 32 30 32 19 35 26 35 26 37 26 22 35 18 24 26 19 36 33 30
38 19 29 18 27 32 33 33 19 38 35 20 38 34 26 34 29 21 31 20 25 34 35 18 25 20 33 21 32 19 36 36 37 30 22 25 23 32 30 20 25 25 23 36 23 31 27 20 35 19 29 35 21 18 19 27 21 36 30 24 21 36 38 25
31 35 29 34 24 33 28 36 25 35 26 25 27 38 27 31 28 21 21 35 28 35 32 31 37 32 27 38 29 22 37 19 30 34 20 37 36 30 30 37 37 37 35 18 22 32 23 19 20 34 32 38 22 18 27 22 31 31 23 36 20 19 20 21
33 19 38 35 24 34 25 23 27 21 25 22 23 37 24 32 23 23 26 31 37 22 20 25 26 34 28 38 26 37 28 34 24 31 21 34 34 35 29 34 27 32 35 27 24 27 30 19 18 21 20 22 23 32 24 27 22 18 20 20 21 25 27 25
37 21 31 21 33 22 38 24 33 21 20 22 19 24 25 35 24 22 33 22 27 33 21 19 21 27 23 36 38 29 30 31 38 30 28 35 29 33 22 19 29 27 20 35 23 30 26 24 38 22 35 25 23 28 34 35 25 18 23 35 37 35 23 21
27 35 21 21 36 24 36 32 19 34 27 19 20 22 31 32 28 25 21 41 25 40 23 35 40 23 33 21 30 34 18 22 27 37 35 38 37 18 23 19 33 35 25 39 23 26 23 28 32 28 26 36 23 31 32 26 28 20 19 35 18 25 36 35
37 26 26 37 35 36 21 38 20 26 37 37 24 38 19 31 41 33 35 30 41 38 28 44 28 25 28 21 21 27 34 34 20 30 30 37 36 39 25 36 31 33 45 43 36 25 26 30 23 23 28 18 31 37 19 32 34 29 25 32 21 26 34 19
21 31 21 30 34 24 35 25 29 37 26 29 35 33 29 27 45 30 34 34 30 33 40 39 35 34 38 40 29 34 30 20 28 113 34 34 39 43 40 44 33 29 47 38 31 43 30 38 32 42 24 36 28 36 25 21 24 21 19 37 27 28 19 32
24 18 26 35 20 20 38 26 33 22 34 37 22 44 41 36 36 34 37 43 35 48 40 52 38 31 45 31 27 36 19 25 18 107 38 35 35 35 33 32 51 41 45 37 43 51 49 36 32 45 26 40 29 21 37 31 24 33 29 29 19 36 18 21
20 36 26 25 36 34 29 37 26 19 33 25 36 42 39 36 49 55 44 51 42 56 52 39 39 45 40 41 35 37 36 31 118 33 41 116 39 37 38 52 35 52 47 45 50 49 46 53 43 51 48 27 38 31 34 28 34 19 21 24 25 32 36 18
23 33 29 32 22 36 29 28 36 30 27 40 45 32 37 39 55 38 59 42 60 54 46 56 48 54 35 41 35 35 24 31 27 118 36 37 118 51 46 52 51 45 48 42 44 46 48 41 57 41 49 48 45 32 37 30 25 25 24 28 28 30 22 22
30 20 23 26 32 34 32 26 33 26 41 31 44 45 49 43 59 59 57 52 53 50 50 55 42 59 51 53 32 32 28 31 113 32 130 47 40 135 52 60 60 47 54 63 61 58 62 53 55 39 47 37 46 43 34 39 27 34 26 31 25 20 36 31
26 32 33 31 18 29 33 28 20 27 37 29 41 38 49 48 62 51 66 53 66 61 66 63 61 63 44 42 38 50 35 120 34 115 34 39 35 125 43 50 45 47 66 55 51 52 63 47 55 49 55 36 50 36 34 38 21 20 20 21 19 33 27 35
36 23 35 18 29 32 32 38 21 42 28 49 39 57 45 61 48 55 54 55 73 53 55 56 53 60 58 58 43 43 32 49 127 116 135 36 50 145 47 59 65 57 70 60 69 56 67 58 60 59 58 47 48 42 27 26 25 25 21 34 31 33 24 33
27 26 29 34 20 31 24 34 21 30 42 37 46 44 50 63 53 58 58 64 75 72 59 63 57 51 57 54 52 37 51 32 39 205 128 56 139 51 47 67 62 57 69 63 59 70 74 68 67 64 58 55 49 36 48 35 23 34 21 18 25 26 25 34
30 24 23 32 27 30 20 22 25 27 38 53 44 52 48 57 62 67 70 69 75 68 60 67 70 68 67 63 51 57 126 52 52 211 37 125 126 59 60 54 68 71 72 80 68 70 57 72 54 51 62 56 45 34 31 46 42 31 28 20 21 18 29 25
22 38 35 37 30 23 31 28 24 35 40 49 40 55 65 54 67 75 79 82 73 78 65 63 75 72 68 62 54 58 44 135 44 38 216 142 145 61 58 55 66 60 75 68 69 67 69 70 58 66 52 58 43 39 38 47 29 29 24 24 19 31 33 36
20 35 32 22 30 26 30 32 24 45 40 53 45 63 65 69 66 68 64 73 70 74 80 63 75 67 54 67 60 39 142 51 51 52 44 255 139 59 57 64 66 63 83 72 77 81 70 69 69 68 49 62 52 52 38 41 32 30 30 25 22 24 18 19
32 25 33 32 26 22 35 27 41 38 38 49 41 44 64 69 62 59 75 82 72 78 67 66 71 69 52 61 48 135 43 49 54 40 139 220 130 53 64 55 61 66 68 70 79 77 79 71 69 66 50 46 53 42 47 42 28 30 37 28 34 38 32 20
29 36 35 34 27 31 34 29 44 38 32 40 41 43 58 60 63 66 77 68 79 83 70 64 74 63 61 50 55 142 45 47 43 56 55 214 130 143 68 69 61 80 83 79 84 75 70 65 68 61 62 46 56 36 35 31 36 38 21 36 22 32 24 37
27 23 42 25 28 28 30 38 47 38 48 58 46 58 53 63 63 72 79 84 75 89 84 72 72 74 74 55 62 139 50 58 56 60 133 52 239 149 71 60 69 86 77 87 87 89 81 65 81 59 55 54 56 51 49 52 46 32 37 47 43 41 27 31
29 44 45 31 35 44 30 49 35 49 55 47 49 54 77 69 70 86 75 91 79 76 84 89 86 66 82 78 56 145 63 63 64 155 56 55 161 234 68 71 71 92 85 98 94 83 94 91 72 68 69 68 70 56 68 46 58 38 55 55 40 41 46 47
54 46 48 49 39 49 55 45 43 53 48 52 68 71 72 74 71 85 76 90 84 81 81 80 83 87 70 70 70 70 145 66 157 61 64 156 65 75 254 81 90 98 91 91 87 90 87 90 97 87 71 82 68 81 72 59 57 53 59 68 49 67 68 60
46 58 41 42 59 60 60 49 61 67 57 64 63 77 83 84 79 95 82 87 84 83 83 83 85 76 88 86 83 71 74 251 74 81 79 76 156 80 84 255 94 100 91 89 104 105 98 89 91 82 83 76 83 74 81 69 76 62 65 74 77 69 67 62
36 44 36 44 46 52 40 50 43 55 62 65 66 63 66 77 67 71 73 81 76 85 77 74 89 75 71 63 76 68 63 63 233 69 62 63 150 65 168 169 80 89 93 90 89 93 77 86 75 91 89 75 63 65 75 60 60 68 53 69 70 68 54 55
30 48 49 31 30 43 35 38 42 39 42 56 49 66 52 72 68 59 76 77 73 62 72 73 69 60 61 69 50 58 63 136 126 54 55 59 53 225 150 77 75 66 83 73 81 65 70 73 74 78 64 72 61 66 56 56 43 45 48 46 58 54 56 41
32 38 24 39 35 32 43 32 36 36 37 38 46 53 56 62 64 55 67 55 55 51 51 52 49 63 45 42 43 43 35 48 127 117 40 42 126 142 55 148 55 68 55 61 55 70 56 59 58 58 49 43 57 53 41 49 31 36 45 38 48 42 48 40
30 27 35 31 27 34 20 34 38 36 37 31 34 34 39 31 48 48 37 57 38 48 49 44 44 51 45 32 32 44 31 27 32 206 26 128 35 128 39 135 47 44 57 41 38 39 56 55 54 33 33 35 37 41 30 34 21 21 19 32 24 35 25 38
18 27 25 24 29 28 35 26 20 30 36 35 38 28 26 40 41 42 45 41 43 44 35 39 47 47 40 43 37 41 23 28 113 38 105 30 208 29 39 116 45 52 48 50 36 35 48 46 33 40 26 44 26 23 21 22 32 29 37 23 38 22 34 19
23 18 34 21 30 27 24 30 18 34 22 26 33 32 23 29 27 45 35 42 30 32 40 45 31 36 35 40 28 26 38 21 113 34 118 21 118 122 28 131 38 37 44 34 30 49 37 28 31 26 29 35 23 32 34 32 19 23 22 20 23 38 23 31
33 21 26 32 20 33 23 25 21 27 23 37 30 29 33 35 33 32 25 25 40 37 36 27 28 41 27 22 22 25 38 115 38 119 35 20 123 121 23 42 122 38 29 28 27 45 37 42 35 39 37 33 36 24 29 18 25 34 24 29 20 22 33 18
32 21 23 29 30 27 22 26 31 35 27 27 30 34 23 26 22 22 26 21 39 33 35 30 28 19 33 34 33 34 115 26 21 121 21 27 30 198 19 123 35 41 41 36 23 30 27 22 19 26 29 29 29 37 20 30 33 19 37 25 33 36 35 27
23 21 19 36 19 38 35 34 33 35 38 21 27 30 28 22 18 24 22 38 34 38 33 35 35 27 30 32 29 34 20 118 26 25 108 37 108 104 19 121 19 19 24 38 27 24 36 18 37 23 35 38 37 25 22 38 21 31 32 34 23 30 36 18
34 26 33 38 29 36 28 33 36 26 19 21 27 35 20 36 37 36 33 35 32 26 37 19 30 33 20 27 20 22 30 122 33 22 24 113 114 122 36 116 31 29 37 32 20 37 27 23 32 30 37 34 20 38 28 32 27 28 35 19 24 34 24 19
23 20 18 33 20 24 30 25 33 30 28 29 35 29 33 18 28 23 35 30 26 29 38 20 38 32 37 18 33 32 123 22 25 26 29 107 23 123 117 19 116 18 24 25 37 22 37 26 21 29 36 37 37 35 32 34 32 28 31 29 26 35 37 36
37 33 38 25 37 20 26 34 28 29 22 25 29 30 31 20 31 19 26 30 18 30 28 18 31 27 37 20 29 20 122 33 37 37 19 107 118 19 115 31 29 122 23 32 34 26 28 19 28 36 31 32 32 33 24 25 21 18 20 18 21 27 34 31
21 22 38 19 36 36 35 18 24 33 30 37 35 25 27 31 20 36 29 20 35 30 30 21 32 37 22 35 34 29 25 111 35 26 28 34 106 120 32 109 27 109 33 31 18 38 19 35 31 32 29 31 25 31 32 23 25 34 37 35 29 27 21 23
19 29 31 38 20 37 34 33 33 34 20 21 19 33 38 28 34 34 30 25 32 36 29 37 37 35 32 32 32 37 19 116 34 19 29 113 29 22 104 25 103 114 36 37 27 27 36 21 35 34 29 27 20 30 28 34 31 22 20 29 20 38 37 37
29 25 37 36 33 25 30 31 38 34 35 26 37 22 32 38 34 24 22 23 21 37 26 37 21 38 18 27 33 25 25 20 107 20 25 120 22 105 24 38 18 206 20 26 29 35 22 34 31 32 22 36 34 30 27 38 27 26 35 27 22 38 19 30
36 34 36 28 38 22 30 19 30 19 21 36 19 20 19 24 35 19 34 25 19 33 21 23 33 29 28 28 25 33 27 27 111 38 112 24 24 35 28 20 106 23 118 34 35 23 23 30 35 31 37 27 26 34 25 25 28 30 23 18 33 25 35 22
29 33 38 19 37 31 32 31 29 24 22 37 36 25 21 29 27 22 30 29 34 32 22 29 23 36 36 29 31 37 22 111 21 27 114 21 27 37 26 38 108 116 33 26 19 27 25 37 36 34 37 30 32 33 22 37 32 26 24 26 21 27 28 20
33 19 20 23 23 23 32 32 21 34 37 21 35 31 29 28 36 36 19 36 20 23 37 29 30 33 23 20 22 36 120 33 30 20 110 20 21 31 35 28 118 21 23 23 22 35 36 36 20 28 23 36 29 37 19 38 34 24 22 34 18 18 21 38
36 22 36 23 33 36 26 30 26 24 37 30 29 22 22 19 37 32 20 27 20 28 37 36 19 19 36 32 34 30 19 123 34 109 24 35 30 38 33 111 24 29 28 35 18 21 21 37 24 33 33 25 26 36 36 20 27 21 37 21 27 33 31 19
33 38 38 27 29 38 18 26 34 26 33 22 30 25 38 37 38 27 33 28 38 18 18 29 30 21 36 27 28 33 104 20 36 106 32 22 34 18 25 30 24 37 24 26 27 34 37 33 38 22 28 34 29 25 25 18 30 33 36 27 32 36 20 26
20 25 38 38 36 19 36 24 28 34 22 19 30 18 37 35 30 31 36 33 31 29 38 22 30 37 35 33 36 22 108 35 120 37 31 29 32 38 20 26 19 32 38 29 18 35 31 23 22 31 20 37 38 37 21 35 19 22 24 18 34 34 37 25
24 24 20 20 38 25 22 33 33 19 23 27 22 18 30 27 22 23 30 22 19 19 27 26 32 27 32 20 26 22 36 121 35 29 20 27 25 33 29 26 38 29 36 28 22 36 26 29 29 20 24 28 30 35 28 34 30 25 34 25 33 23 31 23
23 27 28 31 35 23 35 30 35 30 32 30 28 20 27 21 38 28 32 32 30 26 37 19 19 25 29 23 37 37 25 107 25 38 24 31 18 27 27 36 30 20 33 33 33 23 26 28 24 27 24 21 38 19 32 23 37 25 31 20 22 25 25 33
31 32 23 31 18 18 28 37 38 34 20 37 20 37 22 36 38 35 21 18 36 29 27 38 28 37 18 28 21 30 37 21 24 34 23 23 23 36 19 23 29 28 24 27 26 25 26 37 23 19 30 23 37 24 19 28 21 26 22 23 23 25 31 33
38 37 34 26 33 36 21 29 30 37 21 26 34 32 38 29 25 29 20 29 35 18 31 26 25 18 34 23 33 22 31 35 19 24 20 35 33 24 24 35 37 25 32 33 24 29 25 36 30 32 34 25 34 24 30 31 36 25 19 19 32 36 30 38
20 21 21 22 31 33 21 25 27 34 24 31 32 30 28 20 34 26 23 34 29 23 23 24 19 32 25 36 31 28 32 34 20 23 24 37 18 37 19 38 31 21 25 20 29 24 29 21 20 27 25 21 33 30 25 38 21 24 22 29 30 28 37 29
