P2
64 64
255
22 22 21 23 22 24 27 30 38 23 29 20 28 38 33 25 23 25 38 18 28 24 25 24 24 33 25 33 37 30 37 31 20 26 25 32 28 25 18 20 36 29 32 28 35 26 30 20 26 35 24 33 26 26 27 24 34 34 37 34 27 27 31 21
19 35 36 33 18 19 25 32 21 38 35 26 31 26 38 25 27 36 28 19 25 32 18 36 18 37 31 32 19 34 25 33 36 33 37 34 18 29 27 38 23 19 29 22 29 31 27 37 35 26 28 37 37 36 32 32 19 18 25 37 19 23 26 19
18 32 37 31 32 20 18 29 18 35 29 38 28 21 19 24 30 37 30 18 24 28 37 26 34 29 30 24 20 32 26 28 36 32 23 21 34 31 22 26 37 33 31 34 26 33 25 31 29 34 33 26 33 23 36 27 26 23 18 24 19 18 30 21
23 26 22 20 24 31 24 29 31 24 27 34 31 33 20 28 34 26 38 27 21 27 37 20 19 31 25 36 29 20 28 32 32 38 32 20 26 38 33 27 23 29 37 24 19 36 22 20 27 25 21 36 33 36 18 27 30 36 35 37 25 34 20 29
31 38 21 24 21 27 35 29 20 29 25 27 32 22 30 34 30 29 18 18 20 24 38 27 34 25 36 26 31 31 36 32 19 30 34 22 31 21 31 28 34 27 19 29 24 26 27 32 28 23 32 36 33 24 38 31 28 28 24 22 38 36 23 29
35 28 29 27 37 28 23 31 30 34 29 29 20 22 21 26 30 33 20 22 29 35 34 29 27 24 37 25 32 38 20 23 24 18 22 30 24 36 29 21 19 22 34 32 24 21 27 34 22 32 38 35 22 24 23 32 37 21 33 28 21 35 19 30
20 36 25 25 25 30 28 36 38 38 23 20 37 19 25 27 24 31 30 24 32 21 38 25 35 24 32 33 23 27 19 34 18 33 32 24 25 38 27 30 30 30 32 32 25 29 35 38 37 31 34 35 37 29 18 27 35 38 29 30 24 24 35 18
23 20 20 32 26 31 20 31 25 23 30 30 34 30 38 26 32 23 18 25 37 23 32 30 25 32 19 37 33 20 37 20 20 24 23 32 37 27 28 22 18 22 38 23 22 29 24 38 22 30 20 34 33 32 32 27 20 23 23 20 30 33 31 26
37 31 35 35 24 28 24 30 20 32 18 31 22 29 26 37 26 24 29 25 28 23 34 27 20 36 24 23 38 28 31 33 18 19 31 20 30 25 32 18 35 36 20 22 37 35 29 33 37 35 18 30 30 21 29 31 23 23 19 30 30 38 22 23
25 37 24 24 22 22 23 19 26 35 23 35 33 19 37 31 26 21 28 36 28 25 25 27 37 18 32 25 31 29 38 23 31 21 34 26 36 28 25 38 21 29 33 30 25 31 37 26 34 24 35 27 23 18 34 18 25 18 21 32 37 24 30 31
37 36 35 18 36 28 27 21 38 21 23 29 37 19 37 32 25 26 26 23 34 31 26 35 27 19 19 20 33 23 32 24 30 18 35 38 35 20 18 35 24 31 19 37 32 36 35 22 36 31 28 22 23 24 26 34 18 34 30 27 18 35 23 19
36 28 23 30 32 18 28 18 31 33 34 33 27 37 37 35 30 21 24 34 30 33 30 31 32 32 27 34 24 29 28 24 31 22 26 31 20 19 38 35 37 21 27 28 31 32 24 19 25 35 28 33 28 36 21 20 19 34 37 29 21 29 25 21
35 31 31 23 34 27 24 38 20 22 22 18 32 22 23 31 24 35 21 36 36 20 19 22 29 32 21 32 26 38 28 35 20 34 29 37 37 28 19 21 35 34 20 27 18 21 19 30 24 33 37 20 21 18 22 28 24 34 22 33 20 21 32 33
27 20 30 35 35 21 37 25 23 33 30 25 30 32 22 27 28 18 28 27 37 22 37 28 26 19 29 38 21 30 19 31 24 35 27 34 38 31 29 34 33 34 20 27 18 35 18 20 38 26 34 29 36 35 30 20 22 34 32 34 19 23 30 32
33 34 32 29 27 37 34 18 34 38 36 25 19 30 30 36 28 34 23 21 28 26 28 25 32 18 26 25 31 37 37 23 21 21 27 28 21 36 21 32 20 34 33 19 35 33 33 22 30 20 20 21 26 34 28 30 24 28 19 24 38 37 33 24
34 38 33 23 27 21 21 37 37 29 36 21 35 37 36 18 30 20 26 25 25 18 21 19 29 20 20 19 38 38 24 37 24 26 28 35 31 33 29 26 27 21 35 31 34 34 20 34 24 21 35 32 31 26 20 21 30 35 28 34 23 28 34 26
24 32 31 32 35 33 34 33 23 20 29 25 26 21 27 33 34 24 38 37 32 38 29 27 35 33 24 32 21 30 32 38 26 33 28 23 37 22 29 33 20 23 29 22 19 38 35 35 24 34 24 37 29 34 35 37 22 38 18 19 23 38 22 25
26 24 20 29 19 28 25 24 36 18 24 23 32 23 29 25 19 27 31 25 27 27 37 19 27 34 26 24 29 33 29 18 36 34 20 24 20 35 30 38 31 32 37 30 27 24 29 37 24 22 24 32 26 31 28 33 35 31 28 36 23 33 36 35
23 26 37 34 21 24 33 27 34 32 28 38 32 20 25 25 28 22 35 28 28 33 36 38 27 18 32 27 20 22 19 36 33 38 21 20 32 36 26 37 21 37 26 32 23 25 21 29 34 22 36 28 22 23 35 37 23 22 38 24 21 23 20 19
24 28 27 29 35 33 29 31 21 24 21 27 27 29 29 18 28 20 37 31 27 30 33 32 36 21 25 32 30 37 18 23 26 38 23 31 19 34 36 34 26 29 22 23 32 21 32 22 26 36 32 27 19 23 25 35 26 32 18 38 21 31 30 22
21 23 18 27 36 35 35 30 37 30 35 27 37 37 23 24 28 34 40 34 39 46 39 44 42 42 24 38 31 33 30 24 18 29 18 33 35 25 26 36 36 27 43 28 32 36 32 41 35 36 22 31 36 36 33 38 32 24 19 18 37 33 18 27
37 23 28 23 32 24 18 33 21 28 23 34 29 31 38 44 37 47 35 49 33 38 38 30 28 26 42 34 20 34 29 36 28 38 121 19 28 28 44 41 36 33 49 29 48 29 32 35 29 30 39 24 23 30 29 37 28 26 26 36 28 22 24 38
19 18 37 38 22 37 20 37 28 22 25 35 33 44 45 33 39 46 40 47 41 44 37 45 47 33 28 26 30 32 37 20 37 120 32 25 39 33 47 48 41 50 51 36 49 39 40 39 40 30 39 38 41 34 29 24 28 30 33 37 25 31 31 37
29 34 37 23 33 32 33 25 37 31 30 23 38 29 39 43 35 54 47 48 49 38 55 55 44 38 39 35 47 44 28 107 34 23 117 25 44 31 49 35 52 40 55 54 44 42 47 48 44 44 47 38 31 30 25 21 25 33 22 20 38 37 33 35
31 33 34 22 18 34 33 34 33 26 28 39 46 37 49 53 43 54 51 46 57 47 41 45 46 48 44 47 30 43 121 25 35 29 33 128 31 35 54 38 38 45 49 48 58 47 41 50 53 52 46 36 27 44 31 25 30 20 22 29 24 22 38 28
26 29 33 29 30 27 18 19 31 33 40 45 38 33 50 47 42 57 56 47 52 49 48 63 57 40 48 51 34 124 41 43 31 35 125 49 134 41 47 59 46 59 47 65 62 59 52 60 55 39 47 35 45 34 37 40 34 24 27 29 29 21 29 20
20 28 31 27 33 31 28 34 26 24 41 45 51 40 46 45 58 50 52 51 69 53 58 52 64 44 43 57 36 126 33 26 32 36 41 131 54 140 50 43 58 58 51 52 51 51 48 64 63 50 40 36 44 29 41 35 31 35 24 26 38 30 26 18
24 25 32 38 24 28 30 22 29 27 43 43 35 46 51 47 46 64 67 62 63 53 66 56 57 52 60 49 130 44 50 131 34 48 47 136 51 50 145 48 61 55 67 53 65 72 56 66 59 44 51 37 38 35 29 26 20 19 35 35 38 31 20 33
37 26 22 26 24 18 20 22 34 26 48 39 54 49 46 56 69 70 64 63 75 67 73 71 53 54 64 45 46 129 48 35 129 46 48 125 41 139 63 57 59 65 65 77 71 70 59 62 56 64 57 47 50 49 31 38 41 32 38 23 18 21 18 38
18 35 23 26 30 32 30 35 37 43 33 36 45 50 45 54 61 67 68 59 65 72 75 61 60 57 55 48 45 131 38 130 123 40 54 128 45 53 137 69 66 77 75 72 77 79 77 55 62 57 63 58 51 34 50 39 22 37 30 23 21 32 18 30
34 37 35 27 25 23 19 39 38 45 39 49 52 62 52 67 69 68 74 69 71 83 77 64 71 59 57 53 47 139 54 122 123 38 39 140 61 61 66 150 73 67 68 79 65 70 62 68 56 69 58 50 40 40 38 47 41 30 34 29 27 21 25 21
22 21 20 20 24 23 22 34 34 28 49 49 53 45 50 68 75 59 63 81 87 70 83 75 64 61 55 50 129 42 56 123 136 48 38 124 44 66 60 62 153 67 81 75 83 69 73 73 72 52 59 60 51 38 44 33 28 34 35 32 18 23 30 33
20 20 31 21 19 33 27 21 24 42 33 53 44 59 54 60 62 71 79 68 85 87 77 75 68 70 57 64 134 56 55 131 51 122 51 55 143 51 60 160 74 71 72 84 89 79 76 68 65 59 51 55 48 43 40 31 26 32 32 21 32 30 29 35
35 36 33 38 34 34 28 24 33 31 39 41 51 46 51 55 61 60 62 79 73 84 80 74 64 73 68 60 129 48 139 37 133 36 51 48 139 53 154 55 65 63 65 68 83 80 77 70 65 55 54 49 47 53 40 39 27 34 33 21 20 32 37 19
36 41 39 41 28 39 37 24 28 52 42 43 57 58 65 65 74 74 77 80 89 72 71 83 70 65 76 145 60 47 142 129 57 47 44 52 135 70 66 157 71 83 84 82 81 75 75 73 74 74 65 58 56 56 55 49 46 28 39 31 37 38 29 38
32 47 45 48 38 43 32 34 40 48 60 51 58 62 66 62 70 82 77 89 78 84 75 88 86 69 150 60 57 152 58 154 51 56 68 59 72 154 164 74 81 86 76 86 97 92 81 90 72 81 66 77 75 58 65 59 51 47 43 43 58 42 52 56
37 52 54 46 46 43 51 51 52 61 62 59 64 65 66 82 85 86 80 90 90 79 77 78 81 73 165 75 74 65 158 64 159 65 69 81 68 169 165 87 98 83 93 101 104 83 101 91 87 92 72 72 83 76 62 66 56 66 68 59 50 62 55 55
40 49 47 55 44 46 47 47 64 65 65 64 66 64 83 82 77 87 96 99 85 90 97 97 80 76 161 75 70 65 73 147 147 75 81 86 167 169 89 99 102 86 105 90 91 103 99 91 96 94 96 80 93 86 83 71 62 65 69 72 67 76 72 65
44 36 56 44 39 48 52 44 55 57 45 62 57 61 69 81 79 75 81 73 79 81 86 79 70 70 73 165 70 72 141 151 68 51 68 77 252 66 88 78 86 85 90 83 94 94 95 81 87 88 77 73 72 69 60 69 59 53 59 69 72 58 67 59
40 45 44 48 30 39 37 31 35 43 39 46 52 62 65 65 58 62 60 64 68 77 69 69 60 57 65 52 136 146 136 52 50 56 55 132 139 73 73 65 68 69 74 74 73 69 77 69 66 71 63 61 52 62 50 59 59 42 50 42 51 55 42 47
35 35 35 36 35 26 37 39 31 32 36 36 48 47 40 47 50 53 51 54 60 60 65 66 46 55 48 42 141 139 125 38 43 32 134 52 125 56 65 67 65 69 57 59 66 54 67 62 59 62 60 59 55 45 37 41 35 43 40 40 34 45 41 34
25 31 29 19 27 20 24 22 36 33 35 33 40 29 48 39 51 48 55 57 53 46 40 43 41 48 39 42 125 195 29 32 19 109 22 120 29 48 50 47 41 45 40 42 39 58 47 50 52 36 48 38 42 34 25 31 35 27 36 35 33 28 37 31
24 36 27 25 36 34 31 18 37 29 20 36 40 26 39 44 41 31 35 53 52 48 47 34 47 42 40 42 115 203 38 28 34 24 109 119 36 41 39 38 37 46 51 53 37 37 44 43 35 38 37 24 26 39 28 21 19 19 32 34 32 18 30 22
24 26 33 21 23 35 36 34 34 19 22 37 28 24 30 40 30 30 33 37 46 47 31 34 35 27 41 122 35 114 111 34 19 33 112 104 33 28 38 31 44 34 41 46 42 32 30 43 30 41 32 22 18 18 33 19 25 30 25 36 30 33 24 28
24 18 29 30 28 21 22 30 20 22 35 28 37 34 35 23 32 28 40 39 30 44 28 31 24 38 40 35 200 22 109 22 34 104 25 25 121 31 27 42 34 31 31 39 34 42 43 38 38 41 19 26 21 26 22 18 34 22 28 20 33 24 33 24
31 35 27 28 30 34 31 30 36 36 28 33 27 29 26 37 26 39 39 39 23 38 33 34 30 37 21 119 25 120 113 34 33 118 28 120 37 32 30 27 27 39 28 32 33 33 26 25 22 36 38 21 21 19 29 26 31 18 36 34 24 19 28 20
19 33 20 29 31 35 21 21 22 20 34 21 31 35 29 23 18 28 31 30 33 20 26 32 22 34 117 33 31 25 113 105 35 111 28 116 23 26 32 34 31 27 24 25 30 38 27 27 26 18 19 25 28 29 30 36 33 18 27 24 20 35 34 23
27 19 22 30 27 23 35 35 28 25 36 23 30 26 33 24 18 38 31 26 38 34 19 19 33 21 117 24 24 23 195 36 110 31 33 123 33 20 23 22 37 34 22 27 20 28 24 36 34 18 29 29 23 33 33 36 28 31 30 35 35 37 20 38
30 22 38 29 36 25 22 22 28 32 27 23 26 32 35 21 21 37 37 28 25 28 27 24 20 34 119 27 19 38 199 116 37 38 22 109 21 35 35 34 29 38 26 25 19 27 30 32 25 26 36 36 36 27 25 20 25 29 31 36 23 33 24 25
31 28 35 27 35 25 23 27 29 38 33 28 24 35 24 37 20 29 32 23 27 23 29 23 34 24 120 23 35 105 115 104 36 31 37 32 122 25 24 27 18 37 23 33 37 37 31 38 29 35 21 21 19 25 23 33 38 37 31 28 31 25 38 30
30 20 35 28 25 21 33 34 23 30 22 37 18 20 35 24 36 24 27 37 35 35 33 34 26 111 30 37 24 115 110 28 120 21 19 32 117 22 33 27 18 37 18 30 37 27 27 36 21 23 27 38 23 22 36 22 23 34 28 30 38 37 24 22
19 20 19 22 30 35 32 25 33 20 26 32 30 30 20 27 29 33 30 25 30 32 34 20 30 116 37 19 28 198 26 26 28 103 34 113 29 35 19 19 25 27 28 34 29 30 30 23 23 25 21 32 30 38 27 25 20 29 21 33 21 25 37 25
31 36 36 22 21 38 27 20 19 38 34 18 27 31 31 19 18 31 28 25 31 35 37 28 32 122 32 36 118 33 107 35 114 18 24 119 36 20 27 21 20 29 33 18 37 36 35 30 37 33 24 27 36 30 36 23 33 35 22 38 18 20 22 29
27 18 18 32 32 35 38 25 30 32 28 38 29 37 33 28 21 36 18 35 18 37 23 27 36 113 28 31 32 192 22 110 20 32 34 24 30 32 28 18 25 34 21 22 34 38 22 23 30 32 18 28 29 32 19 23 18 37 35 28 31 38 25 18
36 33 20 23 30 29 26 20 24 20 21 30 29 28 35 28 19 24 20 19 27 18 31 32 25 116 31 31 35 121 109 20 105 34 26 20 27 32 34 28 32 18 23 38 20 18 29 38 22 21 28 38 29 33 23 25 18 26 24 36 37 20 31 31
19 32 26 24 36 31 21 20 23 23 32 26 32 25 25 22 23 32 19 34 18 28 24 22 19 24 104 36 123 36 37 123 35 28 28 20 20 28 38 19 20 26 23 25 34 24 34 23 21 35 30 27 28 25 32 30 22 34 33 37 29 31 24 34
36 32 35 27 36 27 35 38 30 26 21 25 22 24 24 25 25 22 30 26 25 33 19 18 25 103 18 32 116 37 20 22 105 26 25 24 19 22 26 31 30 38 20 18 18 36 38 27 24 32 21 29 34 32 20 19 31 32 36 28 31 25 23 28
21 24 34 26 30 38 20 19 29 30 18 37 37 36 38 22 26 32 18 32 37 33 37 24 25 104 29 29 18 33 28 30 20 120 23 30 27 26 32 29 37 30 21 28 35 18 31 20 24 20 21 30 36 24 30 23 34 26 20 21 30 31 35 30
36 29 32 28 23 27 27 28 26 37 27 36 22 28 38 18 23 22 18 19 18 20 36 30 29 35 116 32 20 25 21 36 109 21 23 22 25 24 33 29 21 28 29 22 35 27 20 29 30 23 20 22 38 28 25 38 34 35 20 19 24 37 25 30
31 27 34 37 38 38 31 33 36 30 20 23 34 33 33 33 25 36 21 23 38 21 38 29 33 122 34 33 23 21 27 25 24 26 33 34 30 22 33 34 20 32 24 20 27 36 22 32 28 19 36 20 37 19 33 21 20 32 23 37 36 38 38 29
37 36 36 19 38 18 32 30 28 21 37 38 36 24 19 24 36 37 18 24 31 31 32 36 31 110 28 37 20 19 22 21 19 18 36 19 27 34 30 23 31 20 31 33 28 31 27 20 24 22 34 35 21 35 38 38 29 33 32 22 25 26 37 27
37 34 30 27 28 20 21 19 30 32 27 36 28 20 23 19 38 35 29 28 18 21 29 37 34 30 33 31 22 20 34 19 38 24 18 28 18 34 24 31 37 25 23 32 21 22 27 21 36 32 38 26 32 22 35 35 25 18 32 35 36 30 32 38
30 28 28 34 32 22 18 33 32 28 35 38 20 27 36 26 27 29 34 26 25 18 20 18 32 28 25 26 29 20 27 25 35 27 31 19 30 35 25 36 25 19 22 23 31 18 31 32 24 19 35 33 34 25 26 22 31 26 27 33 32 22 18 29
23 37 34 18 22 31 26 32 28 23 22 19 19 28 23 33 24 37 28 30 30 36 18 33 20 26 28 27 27 25 19 18 36 33 35 25 30 22 28 31 32 27 32 18 29 22 26 32 36 25 25 32 24 20 35 20 33 29 20 28 38 38 34 20
