P2
64 64
255
22 14 20 25 23 26 26 18 22 23 18 21 17 20 15 23 17 16 25 16 21 18 18 20 26 16 17 18 16 17 15 24 20 17 18 24 23 20 25 20 25 14 17 20 14 17 19 26 19 22 22 24 21 18 24 14 24 24 14 16 21 15 15 14
14 20 20 22 21 24 16 14 26 20 25 25 20 17 22 23 26 26 14 24 21 19 18 26 18 17 26 24 25 15 21 16 21 20 22 21 18 20 20 15 21 26 20 15 23 26 19 16 16 16 15 14 19 22 15 26 22 24 15 24 20 15 20 23
17 18 22 17 21 25 17 23 18 14 21 24 16 25 15 19 24 15 20 16 21 23 24 18 16 23 20 14 16 19 15 25 18 19 20 25 18 23 18 20 18 21 19 24 24 17 23 24 23 25 22 17 14 23 19 26 18 24 25 16 23 25 15 14
26 16 20 14 15 20 19 15 18 18 14 23 19 23 26 14 23 17 20 21 14 19 17 23 17 18 20 14 26 26 14 25 16 14 17 18 19 21 26 22 15 17 19 23 20 15 21 16 24 14 21 26 21 24 24 23 26 17 26 16 18 16 26 14
23 25 14 16 18 15 22 23 24 24 25 16 26 14 19 19 25 15 26 21 21 25 20 21 17 25 21 15 20 23 16 26 19 16 18 23 25 19 14 20 19 17 21 25 18 19 21 15 15 21 16 20 19 17 16 25 21 15 18 17 15 23 21 24
25 22 20 23 21 19 23 18 26 17 24 18 24 15 23 15 23 22 23 24 17 24 24 17 19 20 14 21 19 18 20 15 22 14 14 26 19 20 14 19 23 20 15 23 16 20 23 25 21 16 19 22 21 14 20 18 26 19 24 19 18 22 21 14
20 17 21 26 15 16 25 19 20 22 15 15 25 19 25 18 23 26 24 16 15 15 26 21 24 21 15 17 21 19 18 24 21 26 15 14 25 26 16 22 19 15 25 17 20 22 17 14 25 18 26 24 26 26 25 23 18 25 22 15 18 26 19 21
24 20 25 14 18 18 22 24 18 18 24 18 17 26 18 22 20 18 24 24 18 20 15 14 18 20 16 22 23 18 17 21 26 22 23 25 25 20 15 25 15 15 26 18 15 17 24 24 26 25 21 21 14 22 24 16 14 19 26 22 17 23 16 14
24 22 19 14 19 15 18 21 22 14 16 22 24 24 22 21 25 26 23 22 16 19 24 23 15 23 21 16 17 23 22 22 26 18 24 20 14 19 17 22 14 20 25 15 19 18 22 17 15 18 14 19 14 17 21 22 25 26 23 22 19 26 19 21
19 22 18 25 26 24 22 23 21 19 16 15 14 21 24 20 20 21 16 16 18 16 19 14 14 26 17 14 26 19 18 15 15 21 19 14 18 16 17 20 22 19 14 19 16 14 17 23 25 20 26 18 15 15 15 19 25 18 26 24 25 14 14 26
19 16 26 16 24 18 20 21 19 26 15 17 24 19 21 16 17 19 24 23 24 25 25 26 23 16 25 24 25 19 16 23 22 16 17 18 19 25 20 18 24 17 17 18 15 15 16 16 15 15 17 15 15 25 22 23 15 20 21 21 23 15 23 19
22 19 16 24 22 21 16 22 23 14 21 25 17 24 21 16 26 14 22 23 23 21 14 26 17 22 18 24 24 23 22 16 20 22 22 25 25 25 25 20 14 19 23 15 26 17 25 14 14 26 19 25 26 16 24 20 22 20 14 24 25 17 19 19
20 17 16 23 24 24 18 19 24 26 20 20 18 17 25 15 14 25 26 25 19 22 24 23 20 15 14 25 20 22 26 14 21 18 18 21 26 15 15 25 15 20 18 20 24 14 16 23 17 18 25 23 16 19 15 17 19 26 22 26 17 25 21 23
22 24 21 26 14 22 17 25 15 18 21 19 15 21 25 18 14 16 22 24 17 21 17 18 17 18 17 20 16 21 26 14 19 15 17 16 20 17 15 22 19 23 25 15 17 17 14 15 25 24 22 19 19 16 15 19 19 14 16 15 18 19 25 16
19 23 14 17 26 18 23 25 26 26 21 20 19 26 25 18 21 22 22 24 21 24 21 23 17 21 21 22 22 18 26 19 26 25 23 19 19 15 23 26 20 15 20 25 18 25 22 23 22 17 16 15 16 23 26 21 21 15 15 19 19 21 25 21
25 25 20 26 25 14 15 20 25 18 24 19 15 23 24 16 20 15 18 25 16 18 25 14 26 17 21 24 26 14 26 26 20 19 22 15 22 17 16 18 20 25 18 20 18 17 15 25 15 14 18 15 17 21 15 24 21 17 14 18 14 15 14 19
19 22 16 23 24 26 25 24 23 19 24 15 23 16 25 16 20 24 21 19 14 16 26 19 19 17 26 26 16 15 18 26 17 25 24 20 14 21 23 24 19 15 16 24 14 16 18 18 20 22 19 22 15 17 26 20 16 20 19 19 22 22 14 21
25 24 24 18 14 24 24 18 23 15 17 19 16 26 18 17 26 23 24 18 18 15 25 19 24 17 20 21 15 15 23 24 24 26 23 14 17 26 15 21 17 21 20 26 19 20 15 21 14 19 25 14 21 19 14 18 25 17 15 16 20 22 21 19
16 24 25 15 17 20 14 18 19 14 18 17 15 15 26 20 14 17 21 22 25 22 26 24 20 16 23 17 26 16 14 15 15 21 26 21 17 17 22 21 22 26 25 23 19 17 21 24 17 14 15 15 23 16 21 26 21 23 18 25 17 25 16 16
25 22 15 17 19 19 19 18 15 17 21 15 20 25 17 16 19 16 24 28 29 19 18 21 24 16 24 26 26 23 21 26 16 19 17 26 16 19 18 24 22 24 20 22 25 22 25 22 20 19 18 19 25 24 18 22 16 23 24 24 21 16 24 18
18 18 15 21 21 18 17 25 23 15 18 18 22 22 23 22 21 26 30 31 28 25 22 21 21 23 19 19 20 17 22 17 19 22 15 20 26 22 19 23 21 23 30 25 33 23 29 26 28 20 27 19 17 19 21 26 23 23 21 17 24 18 20 18
16 26 26 16 25 26 24 17 17 15 15 20 20 29 25 20 30 35 25 29 28 29 35 31 35 34 29 21 28 18 17 19 29 20 27 16 17 19 26 24 26 34 27 30 31 33 34 23 24 23 30 27 21 16 18 16 20 14 17 26 14 23 23 26
21 23 20 21 18 20 22 20 16 24 17 22 23 29 31 31 29 31 28 39 29 32 41 30 28 35 35 33 26 36 33 35 35 23 27 32 36 33 29 28 27 32 40 34 38 30 40 36 33 28 22 26 22 18 26 18 19 21 16 18 14 24 15 21
24 24 14 21 14 23 25 21 17 16 24 27 27 24 34 32 29 31 37 42 42 44 43 40 40 38 37 39 40 41 39 29 30 35 39 41 45 46 45 43 34 37 38 35 33 38 34 34 29 39 29 23 23 23 22 17 25 16 25 16 16 26 17 14
19 23 18 18 21 14 26 22 24 25 20 22 31 28 28 39 37 39 37 48 46 45 46 49 48 50 50 43 51 52 48 50 38 44 41 42 50 55 46 49 51 42 42 38 47 49 47 44 39 41 35 34 30 22 21 22 22 22 15 20 18 14 24 25
26 21 21 19 23 17 24 18 19 27 30 24 34 28 37 45 39 44 51 41 47 42 46 57 54 61 55 54 51 50 52 46 50 56 49 60 52 57 57 60 49 57 56 53 48 46 49 45 38 43 43 39 32 30 20 25 17 19 24 19 25 18 24 15
17 17 20 25 17 16 21 25 15 30 23 35 33 40 35 41 39 47 52 54 51 53 64 59 66 67 63 61 61 66 64 57 64 64 59 62 72 61 66 67 58 56 59 57 55 45 49 43 51 44 46 39 40 29 27 26 21 25 18 16 14 22 21 17
19 21 25 24 14 18 26 16 22 20 30 27 31 39 48 50 50 47 52 56 52 60 60 65 69 78 70 79 68 74 74 71 65 74 70 73 72 79 69 76 71 64 68 62 61 59 49 52 46 44 45 38 37 31 24 28 28 17 25 26 18 24 15 20
16 24 23 17 15 16 24 23 20 29 34 34 33 35 46 44 45 54 59 57 59 72 75 77 76 79 85 80 84 86 81 84 81 83 72 81 77 86 85 84 82 76 71 70 61 65 57 53 50 48 44 38 43 29 25 27 18 21 15 20 14 26 25 22
20 15 19 26 19 18 21 16 27 32 34 30 37 47 49 53 58 58 57 69 76 75 75 81 86 93 89 82 87 82 84 88 82 92 90 88 84 91 86 93 82 79 86 82 69 68 65 62 53 49 51 38 40 32 36 25 20 20 20 14 16 21 21 14
22 20 15 24 18 18 23 26 26 29 29 38 34 50 43 56 50 54 62 73 83 87 89 89 98 90 98 97 95 90 89 97 96 98 99 99 97 89 98 89 97 90 84 86 74 77 58 58 58 55 42 49 41 42 33 23 29 20 26 17 19 25 26 19
19 17 24 20 23 22 22 24 24 34 28 36 46 46 46 52 52 59 62 72 82 91 95 101 91 95 97 104 103 100 96 100 103 102 98 95 98 96 96 103 100 95 99 88 82 79 71 57 51 59 50 48 36 36 36 34 29 23 19 14 18 16 16 16
14 18 17 14 24 16 17 26 29 27 35 37 41 50 45 56 60 58 64 83 95 98 96 101 97 97 100 100 107 102 107 104 109 108 110 106 111 107 97 102 99 102 95 99 85 75 73 56 54 53 46 51 38 36 39 30 30 16 23 21 17 14 14 21
16 26 16 21 22 15 21 22 25 25 36 39 42 41 53 59 55 58 75 78 82 93 101 100 102 99 107 102 111 110 112 115 111 108 113 113 115 111 102 110 98 105 100 88 84 74 75 58 60 54 51 44 46 43 39 32 30 28 16 23 26 21 17 24
14 25 14 19 25 20 17 26 23 32 30 37 42 48 51 53 60 63 66 72 83 97 93 103 103 103 106 105 115 119 119 126 122 117 110 109 107 106 109 104 104 100 97 93 84 79 74 54 51 49 45 40 42 40 32 25 26 21 23 19 18 18 22 23
21 21 23 18 24 22 14 24 21 26 30 40 38 46 49 45 49 55 69 79 88 86 99 99 98 104 112 105 117 113 112 122 131 124 113 108 110 105 109 108 99 102 89 90 86 73 71 58 50 52 52 41 41 36 31 32 24 26 21 17 18 18 17 25
18 23 17 22 17 21 17 18 25 32 33 30 39 45 50 54 49 55 67 73 77 83 96 92 94 103 108 115 112 108 111 118 129 116 115 109 106 115 111 103 104 92 86 80 74 68 65 57 47 50 39 40 37 31 31 30 18 20 25 26 21 23 21 14
26 24 14 22 24 21 14 23 19 29 32 39 33 35 48 45 43 50 61 71 79 80 84 97 95 101 102 99 108 115 111 114 115 116 110 115 108 108 104 98 101 92 91 81 70 74 59 57 45 40 43 44 37 35 30 21 21 19 22 24 17 16 26 25
15 17 20 24 19 19 20 14 19 30 30 25 30 33 40 48 39 42 59 63 70 77 81 85 90 97 97 103 108 108 101 111 109 113 111 105 101 106 104 100 90 86 77 82 75 61 57 45 44 37 45 39 37 25 32 27 19 26 18 26 19 18 15 22
26 25 24 20 21 16 23 14 26 19 31 31 30 36 36 41 43 44 57 53 70 77 80 80 85 93 97 96 91 99 96 104 94 104 101 99 99 96 89 95 85 81 76 69 63 55 50 46 43 39 31 29 33 23 25 23 15 23 25 22 22 15 15 19
26 18 24 21 14 23 24 21 16 22 20 32 23 33 30 33 38 43 43 58 56 69 65 78 73 88 89 86 85 96 96 86 90 87 91 90 94 86 86 81 79 75 71 65 63 57 40 37 34 38 38 28 26 22 23 16 25 26 26 18 14 20 17 16
16 21 19 26 24 22 26 22 20 17 20 29 31 34 34 29 35 32 42 46 58 52 59 64 78 80 76 78 86 87 84 86 85 79 87 87 83 75 76 82 69 68 69 61 48 52 35 36 38 27 29 32 25 21 18 19 24 17 26 20 17 24 16 22
18 16 25 24 23 14 22 22 22 14 16 25 23 28 22 25 38 33 34 45 44 54 51 57 63 65 73 67 76 80 77 79 72 75 72 80 72 78 75 75 68 65 58 46 46 43 36 33 35 34 33 30 29 27 15 21 25 22 15 24 15 14 20 26
22 15 15 16 15 26 20 18 18 26 15 21 23 26 22 22 23 30 31 33 36 43 45 48 58 65 64 60 66 70 75 66 73 70 70 63 71 59 59 66 60 53 52 49 39 35 35 25 31 23 19 25 19 16 16 22 22 18 16 26 26 23 20 23
20 26 26 22 14 24 15 19 25 16 26 14 18 14 25 20 25 32 28 21 31 38 40 51 52 52 49 51 63 66 65 59 69 61 60 55 57 61 53 57 47 46 39 36 38 26 21 30 28 29 26 24 18 14 18 18 19 24 16 18 17 16 20 25
20 23 17 20 17 25 22 17 22 25 26 25 14 14 16 19 23 17 28 22 25 27 39 43 46 50 47 46 55 54 60 52 63 64 62 53 50 45 50 46 42 43 38 35 22 29 23 16 27 17 15 19 19 22 21 21 21 17 26 15 25 14 24 24
22 15 17 16 26 22 21 17 21 20 25 25 26 15 22 20 21 16 20 18 25 22 20 37 38 33 47 45 50 45 54 50 47 51 52 43 43 38 44 33 40 33 28 19 18 20 26 16 14 25 25 17 24 24 21 26 23 25 17 15 17 18 21 21
22 22 25 21 17 19 20 19 24 23 26 21 26 19 24 17 24 14 26 20 16 15 27 23 28 30 39 43 41 44 39 48 47 45 48 45 35 35 37 35 26 25 17 17 20 16 15 23 24 20 18 18 16 26 18 14 21 20 24 26 21 24 24 14
14 25 20 17 19 19 22 25 15 16 17 23 24 22 22 14 20 22 22 17 14 18 19 15 23 31 28 27 33 42 32 43 35 44 41 34 35 35 35 22 29 21 20 14 16 24 14 25 20 22 16 16 24 20 23 15 23 23 17 22 20 17 14 21
24 15 16 21 20 19 19 26 24 15 17 20 18 15 19 15 22 17 25 26 18 20 19 26 23 25 28 23 34 25 26 33 37 36 26 36 25 26 21 27 22 16 23 25 17 14 16 16 26 16 15 21 24 14 19 16 20 21 16 15 24 20 21 26
15 19 19 19 24 26 17 21 25 21 19 24 20 15 19 24 19 17 20 18 20 26 26 18 24 15 23 23 28 21 31 32 21 25 28 22 20 16 26 22 25 16 15 26 20 14 25 20 14 20 25 18 21 15 25 20 22 18 15 16 26 22 24 19
19 18 24 19 14 24 19 20 20 25 24 20 21 26 22 24 20 15 20 25 18 20 20 21 24 21 16 16 26 23 14 26 20 25 17 26 22 16 25 19 14 20 19 24 24 21 22 14 25 15 14 20 20 23 14 18 19 21 20 18 15 14 19 16
23 23 15 15 21 14 24 17 20 14 23 23 24 26 21 14 24 20 24 16 23 15 17 24 21 19 17 20 14 23 24 21 14 22 25 15 25 18 22 19 18 17 26 16 16 20 26 26 20 16 14 21 18 25 19 22 18 18 26 17 26 17 26 23
17 23 18 25 25 26 18 18 15 26 15 21 19 25 20 19 24 17 17 23 16 26 16 25 23 19 23 24 19 18 15 15 15 16 24 23 19 24 21 22 25 19 17 21 15 22 23 22 20 15 24 16 14 14 19 17 17 14 23 16 18 25 19 20
19 26 18 23 18 17 24 19 18 23 14 16 16 24 20 22 24 17 18 19 21 16 23 14 14 24 25 20 22 22 15 21 16 15 17 24 19 26 16 23 23 15 24 26 15 24 16 16 23 19 18 25 19 21 14 20 18 23 22 16 17 17 15 18
14 26 14 18 16 18 16 20 15 22 16 26 23 19 23 24 21 20 14 15 26 16 21 21 15 22 15 26 14 18 15 23 24 18 23 15 26 14 17 14 21 19 23 25 22 16 20 19 25 25 19 19 26 16 19 20 22 15 23 25 24 25 14 23
15 19 22 25 26 21 16 19 23 18 15 19 22 24 20 23 23 19 16 17 17 24 19 15 25 22 14 18 15 24 17 23 24 20 16 26 14 17 26 14 22 19 19 15 25 19 22 25 15 16 23 20 16 17 14 26 20 16 15 14 26 16 15 15
26 24 26 19 18 22 25 24 16 19 25 23 23 18 20 15 18 21 20 19 21 24 26 18 19 24 16 14 16 20 26 20 23 19 17 26 20 19 24 21 16 20 18 20 19 25 26 17 26 19 22 25 19 19 26 23 15 21 22 23 14 17 22 15
22 14 20 19 18 16 17 17 18 23 18 21 16 14 15 18 21 17 20 20 20 14 14 17 22 22 26 23 25 14 19 23 24 17 21 19 24 14 25 15 22 25 23 16 26 17 24 23 20 22 17 19 21 17 15 22 22 17 14 21 17 16 18 23
15 25 23 14 21 25 19 20 20 26 17 25 21 19 18 20 26 26 23 26 23 14 26 24 17 21 14 26 24 16 21 18 18 18 22 20 14 14 19 23 22 16 17 18 18 23 17 23 17 19 20 25 25 26 26 24 15 22 15 15 21 21 20 15
21 19 16 15 21 24 21 15 17 16 16 22 24 26 15 25 23 24 17 24 24 15 18 17 20 14 22 20 20 22 23 25 19 18 22 19 16 23 16 16 16 22 22 18 18 14 15 18 20 16 14 18 21 17 14 21 18 21 23 19 18 22 19 21
16 21 21 20 25 17 25 25 16 16 26 22 26 26 24 21 21 16 22 17 20 18 24 15 19 19 22 18 21 22 23 18 15 21 26 26 16 16 20 24 18 24 14 15 17 16 14 14 22 18 25 16 20 16 14 18 23 23 26 22 24 17 20 17
17 20 23 16 23 19 25 16 15 19 14 22 17 25 14 21 21 26 26 14 19 21 19 21 14 19 23 16 20 16 16 15 26 25 21 26 14 15 15 26 20 23 25 16 15 25 17 18 17 16 24 21 21 24 23 14 22 17 24 17 14 18 16 23
16 19 24 16 23 22 19 24 16 17 14 18 17 26 15 25 14 23 22 26 26 14 22 19 14 24 16 21 26 22 17 15 20 17 22 22 23 16 22 14 22 18 18 18 15 26 21 14 21 26 20 18 16 18 14 16 23 19 15 19 17 16 20 20
