P2
64 64
255
24 22 19 28 21 31 28 37 31 34 36 20 28 37 27 24 23 22 24 37 19 34 33 35 32 27 38 21 38 19 22 35 29 33 33 31 18 29 25 27 25 34 34 19 24 34 19 25 31 20 22 18 25 32 27 23 33 28 21 36 34 28 27 28
31 21 28 35 37 19 27 34 27 29 31 37 18 29 22 21 27 18 37 22 34 38 32 28 32 27 25 22 18 21 20 23 31 27 23 36 37 38 27 25 27 21 34 37 27 22 21 19 25 38 33 18 33 34 19 36 19 33 31 29 32 28 19 32
32 34 36 20 31 32 27 31 28 36 18 37 36 28 26 23 20 29 19 18 27 25 28 18 28 38 25 19 25 37 18 36 33 23 38 22 34 37 30 20 30 28 19 20 19 22 24 29 21 28 34 32 35 24 31 30 38 35 29 34 36 20 36 19
25 19 22 20 24 25 25 20 31 21 32 34 29 30 38 26 38 32 32 22 28 32 34 18 38 26 38 24 23 22 30 30 31 34 24 30 36 36 19 20 20 18 27 23 33 34 27 26 26 26 34 28 38 23 31 34 34 36 37 30 37 19 30 36
33 21 27 30 22 26 30 38 34 26 29 35 27 24 31 28 29 21 30 19 27 36 26 35 25 26 20 33 31 20 18 33 27 33 34 24 28 37 28 33 31 29 37 30 35 22 36 24 31 28 35 30 28 20 35 22 30 28 38 22 32 30 21 26
28 37 18 22 21 20 26 21 26 36 22 22 29 20 18 32 32 34 23 31 34 19 31 36 20 33 31 23 34 19 21 29 31 33 35 22 32 25 18 25 34 33 20 35 29 21 29 28 31 26 20 33 36 29 35 20 31 27 22 30 28 32 28 22
33 25 26 38 26 21 31 27 20 27 23 36 37 27 26 26 20 24 24 34 19 38 25 36 22 19 38 20 36 29 37 32 25 33 35 25 18 29 34 36 18 27 25 24 22 20 20 25 31 32 23 27 18 19 21 25 19 27 37 35 38 36 36 35
32 18 32 23 36 27 34 32 37 28 30 19 27 28 33 36 36 24 21 24 28 23 37 28 23 27 35 26 31 37 33 23 29 37 27 31 18 28 23 38 33 20 35 18 25 25 22 22 18 28 34 35 21 30 31 23 38 24 23 20 38 36 34 27
23 18 35 37 18 30 34 21 30 32 19 19 38 18 26 21 19 18 36 33 35 19 38 31 34 25 35 30 19 22 27 26 37 37 30 24 37 23 35 25 26 37 36 25 18 18 32 29 24 38 28 28 32 19 19 38 27 37 19 29 32 33 28 38
30 30 32 21 18 24 35 22 38 37 28 22 21 31 36 36 37 23 30 27 25 37 37 20 33 36 34 34 37 24 34 27 25 36 28 27 28 28 24 22 38 22 37 18 18 36 37 38 26 28 26 35 35 25 20 34 25 19 27 35 30 36 35 28
38 28 30 34 37 37 22 19 30 33 25 23 28 29 26 30 27 21 33 24 36 19 27 20 31 19 18 22 36 25 28 24 21 25 38 33 22 21 19 24 26 35 24 26 32 25 27 28 19 32 27 31 19 22 36 34 18 19 37 31 21 25 29 24
38 19 32 23 32 27 33 37 28 21 27 33 24 32 32 21 25 34 36 23 20 26 38 23 18 21 28 38 30 32 34 33 27 28 27 26 34 21 21 23 22 27 28 37 27 35 30 27 37 38 31 27 23 31 22 21 22 26 33 18 36 28 37 31
21 20 29 27 22 30 18 25 37 33 32 25 34 18 25 31 29 25 30 34 35 32 18 36 28 31 34 32 31 22 38 19 35 37 21 32 21 27 30 23 37 34 34 31 38 24 38 26 18 19 34 23 30 33 24 25 37 34 19 37 32 35 35 18
33 30 29 25 27 36 34 36 28 19 20 29 34 35 25 19 26 28 37 31 33 33 26 22 38 23 37 30 23 21 18 18 34 37 38 31 20 37 38 27 29 21 28 30 34 24 31 20 21 24 22 22 26 37 30 19 28 27 35 27 23 24 19 19
23 21 29 28 21 31 21 34 22 35 20 37 28 33 27 37 27 22 29 26 30 35 25 23 30 31 30 37 27 22 26 31 28 35 20 20 27 31 28 22 34 38 23 18 21 35 33 34 36 24 38 35 25 38 36 35 32 18 29 34 26 28 30 23
19 22 29 38 25 18 36 30 28 28 33 29 18 36 34 27 32 20 28 33 24 18 26 25 32 34 29 32 28 22 32 18 34 36 31 22 26 36 21 19 20 26 33 36 19 18 19 27 34 36 36 26 36 25 26 19 38 20 35 35 28 33 38 37
19 38 37 21 30 20 38 21 18 33 20 30 20 30 32 34 28 21 18 26 22 23 25 36 36 34 26 18 35 22 33 31 19 20 21 35 20 18 37 28 25 30 28 38 36 22 33 30 29 18 18 32 19 28 27 26 28 20 24 24 27 30 29 28
26 31 29 35 22 23 34 37 36 19 31 26 32 25 31 27 23 38 19 20 33 27 23 38 32 29 38 24 23 21 30 26 21 22 26 24 31 24 18 34 38 37 18 36 28 20 37 33 24 20 26 18 19 19 31 32 25 23 20 20 21 27 28 36
38 19 23 29 26 25 37 23 24 21 27 26 25 18 29 36 25 38 30 19 24 28 24 35 18 28 27 28 22 27 32 34 18 26 23 21 37 20 38 33 24 37 20 38 32 19 27 20 28 37 31 29 27 24 28 36 31 23 26 20 33 19 27 35
33 31 25 19 20 29 23 37 38 35 20 38 37 31 33 27 22 24 26 23 31 28 35 37 29 23 37 19 27 35 20 21 22 27 37 23 30 20 33 27 31 32 23 38 31 25 35 30 34 22 26 23 22 21 32 21 19 27 20 22 35 18 24 34
22 24 30 28 26 37 21 24 35 26 19 21 33 22 32 23 22 28 25 37 42 31 41 42 44 34 22 31 20 37 30 29 24 20 30 29 29 27 39 32 40 43 43 42 32 30 43 26 25 23 22 24 24 32 34 38 21 28 32 29 18 34 32 33
23 37 19 21 31 32 21 18 21 26 30 23 24 31 27 26 30 42 48 34 41 47 44 38 27 38 32 41 22 24 37 35 29 23 21 25 30 28 38 44 42 32 40 47 42 47 33 35 35 33 30 26 24 23 36 37 18 30 24 33 28 24 37 27
27 30 27 20 28 27 23 31 23 38 37 39 40 42 40 46 50 49 49 51 34 36 45 38 46 36 33 37 26 27 29 19 25 29 39 27 46 49 55 49 45 54 47 43 33 41 33 40 45 32 46 36 34 21 36 38 25 18 30 19 21 20 27 34
28 23 23 30 27 26 19 29 31 26 23 34 41 47 30 34 34 39 48 51 50 40 40 41 39 53 45 46 35 34 41 35 38 26 28 47 48 53 69 79 63 67 68 65 56 49 37 36 53 41 47 33 29 39 34 19 23 37 37 33 33 35 26 28
20 33 38 31 33 35 28 32 33 31 24 24 37 43 34 52 49 51 50 61 46 50 54 58 47 47 55 43 38 33 24 34 23 38 48 67 68 68 88 95 83 94 83 62 58 49 51 46 44 43 51 49 43 44 38 23 29 31 32 27 25 23 24 18
21 23 20 27 37 34 32 34 35 28 32 29 40 34 48 54 42 54 49 63 65 64 50 44 54 56 48 44 49 48 38 23 23 42 51 75 81 85 92 110 94 110 91 86 82 73 43 46 41 38 49 45 46 30 39 40 28 30 18 23 29 20 27 21
28 38 35 37 31 28 25 35 31 27 39 39 41 55 48 42 50 51 63 62 63 59 67 54 62 44 52 50 51 39 38 31 51 52 68 83 100 110 110 121 117 111 103 98 93 78 55 65 43 55 48 45 44 48 43 37 22 20 21 22 28 22 27 19
28 37 29 22 32 19 30 20 35 35 30 46 46 46 42 47 63 66 65 63 69 64 64 61 49 46 44 40 48 35 37 46 49 53 82 83 98 116 135 134 133 125 124 117 91 78 79 69 64 44 48 49 50 38 41 40 38 26 19 20 36 25 21 27
21 36 18 32 33 32 19 29 33 40 30 50 52 54 60 64 60 52 54 66 62 57 58 55 63 65 58 57 56 38 50 36 49 78 90 88 120 126 151 157 158 142 125 126 111 88 75 58 51 63 44 51 40 32 48 35 33 26 30 24 22 22 18 34
20 36 31 26 25 36 20 39 25 33 37 46 45 53 46 55 66 62 65 72 71 61 70 61 69 69 59 45 59 41 49 36 52 76 85 92 129 132 159 167 169 141 146 119 106 89 76 57 59 55 62 45 40 43 50 42 32 26 21 34 18 27 38 32
26 18 37 38 32 37 31 23 23 33 38 44 54 51 57 51 71 57 71 70 74 71 69 60 72 65 70 60 50 54 40 54 54 63 87 102 108 129 158 159 160 157 135 124 106 109 76 65 60 56 54 51 43 36 45 28 41 31 18 30 32 22 36 21
38 35 23 25 21 21 30 32 32 41 40 52 43 45 50 54 72 64 64 74 82 72 79 77 64 61 70 62 47 58 46 55 53 69 82 97 122 117 138 152 150 132 127 134 117 107 91 62 63 54 49 49 58 38 36 39 29 22 28 27 37 18 35 37
35 23 35 27 32 23 32 27 34 29 32 35 57 53 65 54 71 60 79 83 78 75 83 72 71 72 57 50 48 59 49 50 43 58 67 89 98 123 136 139 137 140 134 112 101 94 71 71 60 67 55 51 52 46 41 37 34 33 18 38 19 25 23 28
34 26 31 29 35 31 28 31 25 43 49 38 55 45 67 68 66 65 65 68 78 70 82 77 72 64 60 58 43 47 47 57 55 66 66 87 103 108 107 109 128 129 106 110 103 77 65 74 64 61 63 46 53 35 43 33 33 32 33 38 36 23 28 37
24 25 21 26 27 27 18 38 35 32 35 40 53 56 48 58 63 75 71 70 70 64 79 61 57 63 53 53 66 57 71 72 74 63 87 91 98 83 106 95 108 114 101 99 94 79 61 66 63 64 55 57 41 40 49 34 41 26 22 18 26 36 18 29
33 33 30 31 31 31 25 29 32 31 37 34 37 57 61 54 58 65 72 67 73 64 67 77 54 64 52 72 64 75 76 84 85 89 73 74 77 95 85 98 93 96 91 95 88 65 69 57 56 63 58 41 44 44 48 34 42 36 38 26 31 28 22 29
26 20 23 26 19 25 24 36 38 25 31 52 48 52 61 51 58 54 66 67 60 67 72 61 68 50 70 80 68 79 93 89 101 81 94 85 73 81 88 74 80 80 92 83 86 73 67 62 50 54 55 39 42 40 48 43 23 35 21 34 23 23 23 24
24 19 22 36 25 32 31 28 40 29 36 38 45 46 47 50 52 68 70 71 60 72 56 69 49 60 79 69 93 96 99 93 94 102 91 87 91 76 78 80 87 83 79 98 82 83 82 63 47 49 49 42 49 33 45 35 38 22 37 21 27 37 21 25
36 32 27 24 25 37 38 38 37 42 39 48 44 37 44 56 49 61 51 50 62 57 54 60 45 56 81 70 91 105 95 106 119 113 103 103 84 99 89 87 93 95 99 85 84 87 82 55 54 58 51 46 32 43 33 22 19 24 25 38 27 27 28 34
21 22 22 30 25 26 29 36 23 24 27 45 41 35 36 55 55 47 54 49 64 56 51 62 50 53 77 88 84 96 101 107 129 121 109 105 97 91 85 97 96 103 102 91 85 83 85 67 56 41 35 32 43 45 35 40 33 22 19 38 30 19 28 20
26 27 23 18 26 28 20 24 22 21 34 29 32 37 42 53 47 41 42 47 48 41 42 43 44 65 74 77 86 90 103 110 124 128 99 105 89 96 93 88 86 108 115 101 101 85 82 74 46 37 38 33 35 41 37 23 24 20 34 35 35 29 28 32
18 19 22 19 31 21 27 28 19 28 24 27 36 44 29 44 33 49 40 56 54 56 52 46 51 64 70 84 89 95 110 117 108 108 104 98 93 103 82 81 90 101 109 92 88 92 76 71 60 47 44 39 26 37 39 32 23 18 18 29 27 21 18 21
21 34 22 24 29 20 37 36 29 38 25 38 28 37 36 28 50 43 52 50 35 39 42 40 32 48 56 75 71 94 85 93 106 110 102 76 96 75 88 85 78 94 89 98 91 70 74 58 44 29 42 28 22 29 27 32 21 34 34 36 29 27 27 38
30 28 28 22 30 19 37 22 19 24 27 34 38 32 39 40 29 42 33 45 39 44 39 37 39 30 45 53 61 84 84 85 83 96 82 70 81 70 75 75 72 76 91 87 72 72 69 50 43 43 38 39 20 19 38 34 27 25 21 31 23 37 24 20
30 28 20 32 38 31 23 35 32 26 33 30 30 28 31 28 30 32 36 28 27 35 31 30 31 36 31 49 62 68 82 86 84 85 76 59 52 66 57 62 72 62 77 76 62 58 61 51 31 24 24 37 36 18 29 23 29 31 19 18 37 28 34 28
36 38 25 22 23 26 25 31 27 28 32 29 30 21 25 21 28 27 28 37 32 22 21 25 30 34 37 42 43 45 54 61 61 63 53 53 52 54 38 56 60 63 63 59 63 59 40 33 19 22 28 22 32 29 19 22 28 29 20 37 38 37 19 20
38 26 37 20 30 32 28 32 33 20 27 21 31 28 23 28 33 22 18 22 24 26 29 22 29 27 22 32 46 39 44 43 43 43 40 51 45 24 32 38 48 50 37 52 47 46 39 20 37 25 19 34 38 20 31 33 38 27 20 21 22 23 21 32
21 29 30 27 32 22 29 19 29 38 27 19 29 34 30 36 19 25 30 28 20 38 22 27 20 34 23 32 29 25 44 29 39 46 33 35 32 21 27 30 27 35 46 36 27 23 22 36 24 19 36 18 26 23 29 36 28 30 18 24 27 30 27 22
21 23 35 21 23 19 30 30 31 35 26 33 28 19 29 19 21 37 18 28 18 36 34 21 20 26 23 37 29 34 18 22 24 33 19 25 30 33 24 38 27 38 38 38 24 30 32 20 20 28 38 30 35 29 30 36 20 27 34 24 18 25 29 22
27 32 24 23 38 19 27 38 27 23 23 31 21 20 22 30 20 37 25 38 26 30 20 31 32 25 31 33 20 24 28 18 23 25 23 21 32 28 21 38 32 24 24 26 38 19 32 26 24 22 38 32 25 30 19 29 29 27 30 26 23 31 27 25
18 22 32 22 36 34 19 38 28 37 22 35 36 34 26 28 36 23 19 27 19 22 35 21 36 36 24 24 21 27 18 37 19 21 35 22 34 27 28 23 33 36 31 21 34 22 28 33 28 28 23 35 27 33 28 32 31 28 34 24 33 28 21 26
26 36 26 23 33 19 25 36 28 21 23 32 31 31 32 31 32 27 38 20 32 36 21 25 26 18 27 33 34 22 19 26 28 20 34 37 25 18 38 33 18 29 18 19 18 28 27 20 32 21 36 30 38 30 26 38 28 37 36 19 20 25 26 34
26 22 22 21 25 35 32 19 24 24 23 30 30 27 25 27 21 28 24 27 37 21 21 25 34 29 22 29 18 32 30 38 23 35 27 24 33 24 31 24 29 18 18 31 23 27 27 38 27 36 34 23 27 35 23 19 38 26 33 27 25 28 27 36
32 21 29 19 19 33 22 33 38 36 28 33 19 38 36 20 19 38 22 19 29 37 33 25 23 28 38 23 29 32 37 28 32 32 28 29 29 38 29 20 23 36 27 29 28 38 36 22 21 19 28 21 34 30 25 23 23 23 30 29 21 35 21 32
30 30 33 24 23 29 33 36 22 26 33 34 28 27 21 25 34 35 31 28 23 22 27 31 21 21 24 36 20 34 36 19 31 26 36 27 29 30 30 23 37 26 20 30 22 27 19 34 31 22 18 22 25 34 37 21 30 35 30 29 21 37 18 26
36 30 22 28 31 30 34 23 26 29 26 32 22 21 28 20 19 37 33 18 24 22 27 23 28 32 34 30 38 32 37 21 34 20 33 18 28 33 29 20 20 27 24 29 33 31 36 35 30 30 34 33 25 31 19 24 19 20 21 36 27 31 20 21
20 29 21 37 31 23 24 38 18 20 18 32 19 32 32 26 36 31 18 34 32 20 25 19 36 22 35 19 27 29 19 23 37 30 19 31 30 34 37 33 35 27 38 33 33 37 33 22 36 24 18 29 25 22 23 26 37 22 21 24 38 33 30 28
33 35 21 27 32 26 36 37 36 19 32 36 34 18 20 28 32 25 32 24 19 22 21 25 22 34 32 23 22 33 31 21 34 21 31 31 36 35 35 30 22 20 21 30 33 37 29 27 28 21 19 36 22 31 23 37 36 28 28 29 26 34 28 21
34 23 36 31 37 34 28 19 21 23 37 28 28 31 33 31 28 29 29 25 23 25 24 22 31 18 26 18 18 23 29 20 34 32 26 28 21 36 27 32 26 31 24 27 34 25 34 33 18 36 21 37 31 23 37 24 28 18 31 23 35 29 35 19
33 28 28 37 22 34 27 31 22 30 38 20 24 28 35 31 20 35 19 36 26 19 29 25 19 21 38 20 34 32 37 18 28 34 20 33 22 31 32 23 27 24 18 37 19 32 26 32 26 22 28 18 27 20 18 18 30 21 24 32 19 23 19 38
29 34 31 32 23 20 32 25 22 18 22 33 28 26 27 35 23 18 23 38 27 19 25 27 31 26 22 32 19 22 18 30 21 36 20 37 23 35 31 21 30 23 35 18 29 35 23 32 22 30 23 32 22 37 27 19 37 38 27 25 37 22 24 37
26 25 23 26 30 19 22 36 27 20 28 19 37 28 25 33 32 29 24 23 29 18 27 20 21 18 37 34 23 36 33 28 24 34 25 27 30 32 36 29 24 34 20 31 28 21 18 26 27 22 33 37 20 27 35 34 36 18 37 25 29 21 33 29
29 34 30 38 23 32 26 26 37 18 38 25 21 18 20 19 19 34 34 23 33 32 33 33 32 31 26 33 36 27 25 31 26 25 22 29 19 33 37 24 26 21 27 27 20 32 30 38 37 32 31 23 20 29 35 33 35 34 28 34 22 28 33 21
34 32 34 33 18 25 33 31 37 32 21 19 28 28 36 19 29 23 28 24 26 31 30 28 18 32 32 26 36 30 35 25 19 23 29 18 19 23 33 30 29 18 35 34 27 38 34 31 27 30 32 21 31 38 29 34 36 21 37 28 22 27 36 31
