P2
64 64
255
20 21 16 14 24 14 22 26 18 19 18 18 18 19 24 16 22 25 20 25 19 17 19 18 23 21 14 22 18 15 19 19 24 23 25 26 24 19 22 18 24 15 21 14 21 16 24 16 17 21 15 22 24 22 17 16 25 21 19 15 18 15 26 24
14 15 21 21 26 25 25 15 23 26 20 26 20 18 24 24 20 14 26 23 23 23 22 19 19 19 17 15 22 22 19 16 24 18 26 15 20 26 19 26 19 23 24 20 26 25 25 15 21 16 25 25 22 23 21 16 24 23 18 22 18 25 24 15
16 25 25 23 19 18 23 18 21 21 14 16 17 26 17 21 23 14 24 15 15 21 18 22 15 18 22 25 21 23 25 14 15 25 25 25 15 19 19 25 20 15 17 18 21 23 22 22 21 16 25 17 24 19 22 21 23 23 14 25 22 24 16 23
18 22 20 18 19 19 20 19 19 18 21 22 21 24 18 17 17 25 17 17 20 18 18 20 26 16 19 14 15 14 20 25 16 26 17 23 24 15 19 17 14 16 23 21 22 15 14 21 21 22 14 18 14 26 14 26 21 17 26 26 23 14 15 18
14 19 16 17 14 25 17 16 21 24 24 18 20 15 17 24 17 23 24 20 26 26 14 17 24 16 18 20 24 17 23 25 25 17 23 19 21 26 17 22 26 26 16 20 15 19 15 21 16 15 14 20 14 19 22 18 19 26 14 24 24 14 22 14
16 19 26 19 23 23 22 23 20 23 16 22 22 21 25 22 19 19 19 25 26 17 19 21 19 22 16 14 23 14 24 16 14 17 15 17 23 26 15 17 16 15 16 25 16 18 25 23 19 18 18 19 26 19 24 17 18 23 23 25 16 21 19 26
26 23 16 16 16 21 15 16 22 17 18 24 26 21 25 25 21 15 16 26 14 17 25 17 20 16 20 16 22 17 19 17 18 20 18 24 16 19 24 15 26 25 15 19 14 20 18 20 20 21 17 26 25 20 20 23 25 17 21 16 21 14 23 18
18 23 23 21 14 17 24 14 24 25 19 24 25 23 18 18 25 19 21 25 14 17 15 21 14 21 15 21 18 15 23 26 19 16 14 21 17 24 19 25 20 19 23 25 25 14 25 18 20 23 24 14 20 19 21 18 22 25 16 17 21 14 25 17
20 24 16 17 20 23 24 15 20 19 17 26 16 26 16 22 19 20 25 26 19 26 18 14 26 24 23 19 24 21 24 20 26 25 21 19 22 24 16 23 25 14 15 16 16 20 17 24 23 23 17 26 23 23 14 23 22 22 15 17 24 18 15 23
24 20 20 23 21 20 18 19 19 17 26 26 17 19 23 18 20 22 14 22 25 21 23 24 17 23 14 24 17 18 17 23 18 20 25 20 14 18 17 17 22 22 25 25 14 23 19 20 25 24 26 17 14 25 14 19 17 18 17 19 18 21 24 25
26 21 17 21 22 14 21 21 19 14 25 21 17 22 23 18 17 24 21 22 18 21 14 21 15 23 15 21 24 18 15 26 24 22 25 21 23 22 26 16 16 26 15 24 21 20 26 20 18 17 21 16 20 15 22 15 14 26 17 21 19 17 15 15
23 19 15 26 14 19 19 23 26 26 24 18 24 18 23 21 23 26 14 23 25 18 22 22 26 25 17 19 21 17 17 15 15 23 15 21 19 25 21 14 23 20 22 17 24 17 21 18 16 15 16 25 21 25 23 21 18 24 26 18 17 22 18 16
15 17 16 21 25 15 26 26 19 26 16 24 25 15 14 24 18 16 15 20 19 16 18 18 23 21 24 19 16 15 25 20 26 15 14 19 26 21 17 24 21 16 21 25 22 19 23 26 24 15 25 22 19 20 18 25 18 23 17 17 19 16 21 26
15 22 20 17 16 24 22 19 14 23 16 21 18 17 16 17 15 18 14 23 18 22 17 14 26 16 26 21 25 20 24 19 19 24 18 17 18 22 23 25 21 18 24 19 14 24 15 26 15 22 16 26 23 20 20 14 24 19 17 22 14 23 21 20
25 16 14 19 23 18 16 25 25 16 20 20 25 24 20 20 18 15 25 18 21 24 21 16 23 14 15 25 18 20 16 17 14 25 20 17 17 15 15 15 16 20 25 18 19 25 15 19 18 15 19 22 15 21 25 17 20 26 22 22 15 15 25 23
17 15 19 20 20 22 15 24 22 23 18 15 17 24 17 20 26 18 25 26 14 26 24 21 18 17 24 22 22 18 22 16 20 26 15 19 18 15 23 17 17 20 23 22 14 18 17 14 16 18 19 20 19 20 18 20 25 16 23 26 15 25 20 21
15 18 26 14 21 25 17 20 17 24 21 20 22 21 14 21 24 14 26 17 14 16 21 25 24 18 22 22 24 25 21 25 25 23 26 20 22 25 14 26 15 20 25 21 24 15 21 22 17 14 18 21 21 17 16 25 21 20 14 23 23 25 16 18
14 17 21 17 22 15 21 26 17 25 15 15 14 18 20 26 16 18 15 15 26 14 26 14 22 22 15 22 23 23 17 22 22 23 14 20 16 24 14 20 15 21 14 14 24 23 16 26 22 20 25 17 16 22 19 16 26 23 19 14 17 23 23 16
14 25 18 16 25 15 25 17 15 21 19 26 17 18 21 21 22 16 24 23 21 22 15 25 19 18 22 22 17 20 17 23 17 26 22 25 21 26 25 22 15 22 17 22 21 23 15 14 15 24 21 17 16 24 14 24 18 22 26 16 24 26 20 15
17 16 25 21 16 25 19 17 20 16 24 14 24 16 21 18 19 25 25 29 18 27 22 17 22 22 26 17 22 16 16 18 19 26 26 15 22 19 21 26 26 27 17 27 29 17 22 20 18 23 17 23 23 26 26 15 25 14 19 26 25 20 19 25
26 20 19 25 25 26 21 23 19 15 14 23 17 26 15 29 23 23 26 25 30 34 24 26 31 23 29 26 18 21 26 18 24 23 14 18 19 18 22 26 26 23 28 28 29 24 31 20 23 24 21 17 15 23 20 25 15 17 25 26 14 20 21 22
20 15 18 20 17 19 18 23 22 15 18 14 17 29 25 20 25 29 29 34 28 33 34 27 32 29 23 25 26 25 18 22 18 24 15 15 28 23 28 28 23 24 37 32 30 36 36 25 28 23 23 22 21 17 15 17 21 19 20 24 17 25 18 16
19 25 25 14 17 16 15 17 15 26 24 18 29 20 28 29 29 31 37 36 41 39 37 35 38 33 30 28 28 26 20 18 23 16 24 20 27 32 33 30 36 36 31 36 39 39 33 36 35 25 30 31 24 16 23 15 20 21 26 21 24 15 15 20
19 17 21 22 25 21 24 21 20 21 27 18 27 24 29 28 40 40 38 36 40 40 33 34 42 29 28 35 30 20 21 15 18 19 19 21 31 27 38 31 39 39 34 33 33 36 44 40 33 34 37 35 29 20 23 20 15 26 17 17 25 15 20 25
20 15 15 14 15 25 20 18 19 17 25 20 32 33 40 38 45 36 48 37 47 48 45 43 38 44 38 29 29 26 26 26 22 23 20 33 27 37 37 35 43 38 49 42 39 46 43 39 38 38 37 30 32 29 25 15 16 23 26 16 15 18 17 20
16 19 16 22 23 15 25 17 16 16 24 24 27 37 42 38 37 40 46 42 53 52 52 41 45 41 38 38 39 37 25 27 23 20 33 26 37 42 43 38 41 50 53 42 42 46 49 49 42 38 39 35 35 26 29 20 14 14 26 20 16 24 22 16
26 19 15 23 19 16 17 24 22 18 23 37 36 40 39 49 44 49 43 48 55 56 47 44 44 49 37 38 42 30 25 28 27 27 27 29 31 39 45 50 48 44 50 48 49 45 47 52 51 48 43 31 39 27 21 30 23 22 16 15 21 14 23 16
22 14 17 19 16 20 24 22 17 29 34 38 40 38 45 49 45 49 59 59 50 50 57 52 52 50 45 47 39 35 33 25 30 26 33 38 41 46 49 49 46 53 48 58 51 51 57 47 53 52 45 41 33 31 26 22 23 16 21 17 20 21 14 21
15 15 23 24 22 16 14 22 29 31 28 34 36 42 45 53 57 58 58 63 53 63 64 57 55 48 47 41 43 34 33 39 40 29 32 36 39 41 46 55 50 56 61 53 59 59 57 60 52 52 39 39 35 37 37 21 26 23 26 20 14 21 23 14
19 16 19 26 22 15 20 18 25 29 30 41 35 46 46 55 51 55 65 59 58 59 67 58 62 50 45 43 48 35 35 42 31 32 34 45 48 45 45 56 51 57 61 57 66 67 65 51 59 45 43 40 35 36 31 28 26 21 25 21 15 17 16 22
25 15 18 22 14 26 14 22 27 24 31 39 37 45 42 52 58 64 60 60 63 67 59 56 64 61 56 54 45 36 40 37 35 35 40 43 48 54 54 61 63 67 64 67 67 59 68 56 60 50 44 47 41 33 27 35 31 15 21 23 23 25 17 17
25 16 25 21 26 16 24 25 32 35 33 42 46 44 52 57 61 59 70 74 75 76 67 64 61 62 58 53 45 41 45 42 33 43 42 44 47 55 59 56 59 60 67 71 76 63 65 55 53 53 52 42 38 31 34 29 30 22 16 22 17 26 20 23
26 23 21 24 18 14 15 28 21 34 36 40 36 39 45 55 51 66 71 75 68 72 68 69 56 53 58 50 41 42 36 45 45 40 33 44 47 43 50 51 65 62 66 72 75 68 68 64 56 58 51 39 41 43 31 24 27 21 21 24 24 16 19 24
26 26 17 18 18 15 16 23 32 31 39 37 42 41 50 54 63 64 58 73 74 73 67 70 63 60 59 45 42 37 34 34 41 44 35 44 48 54 47 60 58 65 70 72 68 67 62 64 51 50 54 40 36 37 34 29 25 23 15 24 24 16 23 14
21 19 21 22 22 21 18 26 19 32 35 36 43 41 43 58 52 60 57 71 66 67 67 63 62 60 48 52 39 36 34 36 43 41 43 39 49 53 54 49 56 59 60 61 67 63 57 65 53 51 43 48 39 33 28 23 30 20 15 25 26 23 21 26
26 21 16 26 23 18 21 23 26 25 32 30 37 37 47 53 54 53 59 65 68 59 65 58 51 48 51 44 47 40 41 36 33 35 39 39 37 49 48 56 55 60 63 63 58 56 53 60 51 50 53 48 35 36 35 23 21 23 15 23 26 24 17 14
17 17 26 14 20 21 25 22 25 32 32 37 42 38 43 53 51 56 56 64 65 59 64 59 56 48 42 46 44 36 36 36 32 30 39 35 38 43 43 51 52 55 53 60 62 62 53 48 48 45 43 41 36 28 29 21 22 26 19 16 16 26 23 24
22 23 17 25 16 16 24 15 25 24 35 27 35 42 39 40 49 52 47 54 57 59 48 59 55 46 49 47 36 41 26 34 31 26 32 40 41 46 44 50 56 58 57 58 54 49 58 49 54 45 42 44 38 36 31 22 22 15 20 14 24 22 25 16
23 24 22 26 16 24 18 18 16 25 21 30 39 42 37 40 48 43 45 48 50 54 44 51 51 43 44 43 40 30 28 27 28 23 30 37 41 45 44 51 47 49 47 53 46 56 50 51 51 40 45 40 39 32 21 24 16 17 25 26 19 21 20 15
17 17 20 18 21 29 26 25 25 29 27 32 31 36 35 43 48 45 43 45 56 47 48 44 48 46 44 46 36 40 32 35 31 27 29 33 35 45 40 43 54 48 48 50 52 46 53 45 46 47 39 44 37 37 28 28 22 30 25 26 21 25 27 30
32 30 25 25 33 27 21 24 32 31 33 34 41 37 40 45 50 54 51 54 47 50 57 56 49 50 42 44 37 36 38 36 36 36 41 36 41 47 46 53 48 54 54 55 53 58 50 55 47 47 40 45 35 35 30 26 34 28 38 34 36 32 36 30
23 27 33 32 25 26 27 26 37 36 29 32 43 37 43 40 53 51 47 57 54 58 53 48 46 42 48 43 42 38 41 37 40 31 43 35 46 46 54 45 51 50 52 53 49 49 55 49 58 50 54 52 39 35 37 41 39 37 34 33 36 44 42 45
26 26 27 28 27 31 24 24 28 29 27 32 32 35 32 41 37 45 37 43 39 38 37 41 41 35 33 38 40 37 29 27 26 31 25 33 36 37 40 46 46 44 46 50 42 51 45 46 38 43 43 36 30 27 29 28 36 38 26 27 26 26 36 29
28 25 27 18 26 24 20 29 18 25 25 18 20 23 34 25 35 32 33 34 35 32 39 31 37 34 35 26 29 25 18 18 20 28 29 25 27 24 34 39 32 30 32 31 42 42 35 40 27 37 35 25 23 25 28 19 29 24 25 32 24 20 32 22
22 20 19 25 14 16 24 16 24 25 15 18 20 19 15 19 20 29 23 30 27 29 27 27 23 18 19 23 26 21 17 14 20 15 15 22 25 22 20 25 25 33 25 29 29 31 22 25 21 19 22 24 16 20 16 19 25 15 26 18 24 19 19 15
14 15 24 18 15 18 15 16 18 23 21 25 19 17 23 23 23 24 17 28 21 29 25 26 20 25 18 14 16 18 16 21 24 23 18 20 19 19 24 22 20 25 21 25 28 20 17 20 16 15 16 21 25 22 22 26 14 19 15 23 17 23 19 20
14 23 26 21 25 20 21 26 17 24 20 19 18 19 15 23 23 22 25 22 25 24 18 26 14 23 22 26 14 16 16 26 22 24 22 22 19 24 15 24 21 21 14 16 22 25 18 19 19 18 24 14 14 23 15 19 26 23 25 16 24 23 15 21
23 21 23 25 22 19 19 22 16 19 15 19 25 17 16 19 21 18 26 21 23 26 26 26 24 18 20 15 24 21 21 17 18 15 15 20 14 16 21 14 26 24 18 18 18 15 16 17 18 16 24 24 24 18 20 21 20 22 19 25 20 14 17 23
25 18 17 20 23 25 19 22 17 24 22 17 16 20 22 15 16 15 18 20 21 17 18 15 25 16 19 14 19 20 17 22 16 20 19 18 17 25 17 20 25 19 22 15 26 15 22 22 25 19 23 14 21 16 23 21 22 15 24 19 19 20 16 22
25 26 14 24 24 23 22 23 21 16 15 21 14 22 25 24 17 25 14 21 17 15 16 23 18 15 16 18 25 17 21 20 14 16 18 17 23 24 26 17 18 14 21 15 25 22 25 22 19 20 22 16 15 21 14 23 24 24 20 22 19 24 26 15
17 20 19 16 15 24 21 21 20 24 21 25 20 20 14 19 15 24 16 25 25 26 25 22 26 18 21 16 14 14 16 20 18 24 14 14 24 24 15 19 17 14 24 16 17 15 19 22 18 25 14 25 25 22 15 16 22 22 18 14 15 20 20 14
17 18 19 14 26 19 14 21 24 21 22 16 17 20 21 24 20 25 18 24 19 22 16 15 23 18 24 21 14 26 18 24 26 23 23 22 24 17 20 15 25 22 23 26 22 23 25 25 20 21 23 25 21 23 16 14 17 16 23 19 14 22 16 25
26 17 24 19 14 14 19 20 17 26 26 19 17 15 26 23 17 22 14 17 22 20 24 22 17 15 16 16 24 22 26 24 14 24 17 16 18 15 19 24 17 26 20 20 20 22 18 19 25 26 15 25 16 26 15 21 17 20 17 14 14 19 22 20
14 15 16 19 24 14 16 18 19 20 22 20 16 20 23 17 24 25 19 26 14 19 25 25 20 17 14 21 25 23 22 17 15 15 22 21 17 15 26 18 21 26 16 16 25 14 17 16 15 25 17 21 24 21 16 18 17 26 19 17 19 15 14 22
16 26 16 19 22 20 17 20 25 18 24 15 19 23 23 22 16 26 21 21 19 15 18 22 21 19 22 14 18 16 17 16 18 18 22 24 14 21 21 19 21 14 26 24 24 25 20 22 16 22 14 19 26 15 20 25 17 24 18 21 18 16 14 19
15 26 15 21 19 24 26 20 21 21 26 14 23 16 15 14 19 19 19 14 15 17 22 15 14 20 19 15 19 25 15 21 22 17 19 23 23 23 25 25 20 14 23 24 14 20 17 24 16 25 22 20 14 17 23 18 16 24 14 23 17 24 20 17
15 22 21 23 16 14 17 19 17 23 16 18 26 19 25 20 17 25 19 24 20 24 19 19 15 19 23 22 14 18 21 17 23 17 19 25 24 15 19 24 22 14 15 24 16 20 15 15 24 17 23 14 14 24 23 19 22 18 26 18 17 18 19 15
18 25 15 15 14 22 25 19 16 21 24 19 25 14 26 23 16 18 16 15 19 14 24 24 21 18 21 15 26 24 26 26 25 24 23 18 24 26 19 18 19 18 19 25 25 24 24 21 17 16 18 16 25 16 16 19 14 15 24 20 16 14 24 19
19 14 26 20 16 21 25 23 22 25 20 18 26 22 19 21 22 19 15 16 26 17 14 26 23 26 24 21 15 24 25 20 26 26 14 19 24 20 14 16 22 14 19 20 14 21 16 17 25 19 18 14 18 18 18 17 16 19 24 16 22 23 20 19
18 16 22 18 14 25 17 20 18 24 21 21 26 23 20 23 15 20 26 24 16 26 21 23 14 19 20 24 25 18 15 14 25 15 24 17 25 26 24 15 23 17 20 14 18 20 26 19 20 20 18 23 15 25 18 15 21 16 16 19 25 18 26 22
18 24 18 24 21 16 18 24 14 22 15 20 20 18 18 15 15 14 20 20 18 26 15 25 23 17 14 26 22 17 18 22 17 17 18 26 14 14 18 23 22 26 21 20 22 22 16 15 20 15 17 16 20 22 23 16 23 16 23 19 19 22 17 16
26 16 23 15 24 23 24 17 14 25 22 19 18 22 17 14 15 24 22 22 23 25 17 16 17 19 23 14 17 18 21 23 20 18 25 25 20 20 20 19 14 19 25 15 25 25 16 14 21 16 25 19 25 22 18 19 23 21 23 24 14 23 14 21
21 25 20 25 26 25 18 18 18 14 20 24 26 24 20 18 16 26 26 15 20 22 14 20 14 15 17 14 20 16 24 14 26 26 17 16 21 17 20 22 21 23 19 25 14 16 15 15 26 22 23 15 22 24 14 14 26 23 17 23 21 16 25 25
16 22 18 26 16 18 26 16 18 19 24 18 16 14 26 24 16 16 15 21 24 25 15 16 24 21 26 23 16 18 18 22 14 24 18 21 26 15 20 18 25 15 15 24 19 18 20 22 17 20 17 21 26 20 26 22 21 24 23 26 17 24 23 22
