P2
64 64
255
25 23 23 22 21 26 21 21 21 24 14 23 20 14 21 25 21 24 16 25 17 20 17 25 25 15 22 15 17 16 16 15 22 21 23 25 21 17 20 15 20 23 20 16 17 21 18 18 20 25 14 14 23 23 16 22 20 26 20 25 17 14 16 26
21 20 20 25 20 22 25 26 18 19 18 16 18 26 15 15 26 14 19 23 17 17 19 14 22 17 21 25 20 17 22 24 26 23 17 22 18 21 21 16 20 20 23 17 21 17 17 21 18 21 25 15 14 25 24 20 18 25 24 22 22 21 15 14
24 22 25 25 18 18 26 14 17 22 14 14 25 24 19 25 23 24 18 24 16 20 24 23 25 17 21 22 21 25 17 14 17 20 22 14 16 26 24 17 16 24 14 15 26 25 16 16 14 22 19 22 24 18 17 17 20 17 26 19 21 14 25 23
15 17 26 19 25 16 20 14 22 20 25 26 18 15 25 18 23 25 22 20 21 22 26 26 14 15 20 24 23 16 21 21 26 23 23 26 22 20 18 15 25 21 23 14 14 17 19 16 16 22 22 21 26 23 15 17 25 14 16 26 16 20 25 21
19 15 18 26 15 23 24 20 15 22 20 24 20 26 20 14 16 26 25 22 25 15 20 25 26 26 21 26 26 24 20 23 23 23 15 19 17 24 18 23 22 23 22 14 21 17 21 15 14 23 19 18 23 16 23 24 19 22 23 19 15 18 23 21
26 22 17 17 25 22 24 23 26 23 15 20 23 22 22 26 14 25 16 25 19 14 18 26 19 17 20 21 20 20 16 25 15 17 14 21 23 14 22 18 26 19 16 21 23 14 15 25 22 26 26 17 15 25 22 15 16 24 25 18 15 16 15 22
19 26 21 16 25 26 14 15 21 14 20 24 22 23 18 15 23 20 17 25 15 25 18 22 22 21 20 15 18 25 18 21 26 25 22 21 20 14 26 24 19 18 21 21 19 15 20 22 21 14 20 21 14 20 15 25 14 22 20 21 21 24 15 26
14 14 15 24 21 15 21 17 25 15 19 14 18 17 17 15 25 18 21 21 19 25 23 26 15 26 14 18 22 20 14 25 26 24 26 18 15 22 25 25 15 22 15 14 23 21 23 25 25 26 23 15 26 19 24 23 14 23 17 18 19 23 15 23
24 17 24 22 19 17 15 14 16 15 16 16 14 19 22 16 15 15 19 25 21 15 23 23 16 21 14 16 23 22 21 22 18 15 23 18 21 17 25 22 25 17 20 18 24 21 16 25 16 18 23 23 22 17 24 23 15 17 23 25 26 20 15 24
26 14 16 20 25 22 22 18 15 17 21 26 25 24 25 21 18 18 25 16 21 20 22 26 22 25 22 17 25 18 14 15 26 25 16 24 16 23 20 24 18 26 23 26 19 17 20 26 18 18 18 15 24 18 14 25 20 21 19 15 21 16 20 14
17 15 23 20 20 17 20 14 22 20 17 25 24 24 18 25 15 18 19 25 26 23 23 18 23 20 17 23 21 14 22 26 25 16 14 20 16 14 18 22 23 17 18 21 15 21 15 23 23 23 14 23 14 23 15 16 16 17 19 23 18 16 22 22
25 17 16 18 17 25 19 20 18 25 22 26 14 15 25 24 16 15 14 24 24 15 24 17 24 24 18 25 18 17 21 14 18 19 16 16 24 20 19 25 26 17 24 14 23 19 16 23 22 24 16 19 15 24 20 21 20 21 22 20 22 21 21 19
26 21 22 26 20 15 20 16 17 20 20 26 20 20 22 18 19 14 18 14 19 18 26 22 26 14 19 23 20 17 22 25 24 22 20 20 25 25 21 26 17 14 26 23 26 23 18 21 25 20 18 19 15 19 25 18 19 17 19 20 14 22 22 19
20 16 26 25 18 15 22 16 21 25 19 23 24 14 18 26 20 25 23 24 21 19 18 25 23 15 20 19 26 25 21 22 24 23 17 25 16 24 17 18 25 26 15 25 24 22 21 20 14 22 21 21 16 20 26 23 23 16 21 25 14 17 25 20
18 16 24 16 15 18 25 26 21 15 21 23 16 20 25 25 18 24 23 14 21 17 22 17 14 22 26 24 14 23 17 23 17 15 19 17 21 26 17 26 24 17 24 24 19 19 15 19 24 25 15 14 24 15 15 23 15 17 16 20 24 23 20 15
21 20 16 22 17 24 18 23 20 16 20 25 20 26 23 23 23 14 14 26 17 26 22 23 19 14 17 25 24 15 18 25 18 15 26 26 25 22 20 20 20 19 24 17 25 20 24 16 24 23 16 17 16 17 23 22 25 14 16 14 14 21 23 26
24 15 16 20 19 21 23 15 15 16 21 16 15 14 22 15 15 22 26 25 23 19 20 18 24 21 21 24 20 21 19 16 26 22 21 26 20 14 24 22 26 20 18 22 14 15 26 23 17 25 14 21 19 23 21 25 24 16 20 20 15 15 20 22
20 23 21 14 24 23 17 24 19 16 22 25 19 20 25 26 23 17 23 23 15 20 14 15 20 24 16 20 22 25 18 18 24 15 23 16 24 21 21 24 24 18 21 14 23 17 18 21 24 22 20 21 26 25 15 24 21 20 14 24 15 16 26 17
21 25 14 18 17 19 21 15 25 16 26 23 14 14 14 24 21 21 21 21 17 15 15 15 22 21 18 17 19 14 25 20 14 21 17 22 17 20 24 15 22 20 23 25 25 25 17 25 26 18 20 14 21 15 22 16 15 15 14 26 17 17 17 22
18 25 25 21 25 20 18 20 19 21 16 17 19 19 24 14 27 27 19 19 21 25 20 21 26 22 18 23 26 22 20 25 23 22 21 20 23 17 26 18 16 25 26 29 24 19 18 18 27 24 21 14 15 22 25 21 16 14 18 18 19 25 15 15
26 23 24 18 19 21 17 26 14 16 22 14 18 26 20 25 19 26 26 28 26 34 29 22 29 21 23 20 17 22 24 16 23 21 25 18 15 25 22 28 24 23 25 27 26 32 25 20 18 29 22 22 14 16 26 15 21 16 19 17 21 21 16 14
14 14 20 18 17 18 17 21 20 22 25 22 26 28 19 27 28 26 30 29 26 26 29 27 33 34 24 26 24 24 19 18 16 18 21 22 17 24 25 26 31 27 31 25 37 27 36 26 31 21 30 27 25 16 21 25 14 18 16 23 26 17 25 14
22 25 19 24 18 22 21 23 24 22 23 25 24 32 32 29 30 31 30 34 30 41 39 40 36 30 28 23 31 19 23 22 25 18 15 18 31 29 26 36 38 39 36 35 33 39 35 28 34 27 32 26 19 20 20 26 18 21 21 22 20 17 22 19
26 26 16 17 16 19 23 17 24 18 20 18 31 26 26 38 29 39 36 40 40 33 43 39 38 37 38 26 28 23 18 17 21 19 21 23 28 30 34 41 41 38 39 35 39 38 35 35 34 27 27 24 26 24 25 22 15 21 18 19 15 25 16 25
16 21 15 14 16 17 15 18 15 16 23 29 26 34 31 42 35 46 43 48 44 48 37 36 39 44 37 30 35 23 32 18 24 24 29 24 37 32 33 42 40 44 43 37 39 48 47 42 36 33 31 31 25 25 24 24 24 21 18 23 17 15 18 18
21 20 24 18 21 18 23 20 14 24 27 22 30 33 39 45 41 49 48 46 48 50 42 48 49 45 44 42 39 27 31 26 27 30 33 28 30 31 45 39 45 51 48 43 43 44 43 48 37 40 37 28 29 32 26 20 16 16 23 15 20 18 16 25
15 15 14 14 18 22 19 17 17 18 26 28 29 43 38 38 50 47 45 46 56 52 52 52 45 40 45 45 37 39 31 24 33 29 26 35 43 36 42 39 51 55 55 53 45 53 47 48 39 38 41 33 31 28 33 27 16 20 19 14 23 23 24 15
16 23 25 20 14 24 25 20 18 21 24 28 40 33 39 44 48 54 58 49 54 57 54 58 51 43 39 45 45 31 37 29 29 33 32 41 41 46 39 49 48 52 54 58 55 51 47 45 47 42 47 39 36 36 30 29 17 25 25 22 22 25 26 19
24 23 15 19 23 16 22 17 21 29 26 30 38 47 48 54 52 55 54 64 58 57 63 52 58 50 44 49 41 39 33 35 38 29 39 44 46 49 48 45 48 56 56 53 60 55 59 57 52 47 49 39 41 35 26 33 29 20 24 25 25 16 15 23
23 22 25 23 24 23 15 22 20 33 29 36 41 48 45 55 47 54 62 56 61 59 57 57 51 59 49 42 37 41 42 39 42 37 31 33 41 41 56 59 57 57 61 64 59 64 61 52 52 54 41 49 44 39 38 25 29 18 22 17 21 17 23 16
19 26 26 20 26 17 17 17 23 35 37 39 40 45 50 49 55 59 68 67 71 65 65 64 62 59 49 42 49 40 39 34 38 40 34 41 41 43 56 51 62 66 64 60 63 71 56 64 49 51 47 42 41 41 27 32 24 16 24 24 20 22 20 22
17 20 15 22 17 21 14 24 28 34 36 37 44 47 48 55 58 59 65 70 64 72 70 63 54 52 53 43 46 36 35 43 34 43 40 43 46 43 47 58 55 60 62 64 66 66 59 56 54 55 43 41 42 36 29 33 28 24 14 16 18 21 18 21
25 23 15 15 19 22 24 17 21 31 40 32 43 41 51 51 56 56 64 71 79 71 71 59 65 62 57 43 43 35 36 37 44 39 43 39 43 51 47 63 63 61 75 76 78 72 66 63 63 48 53 41 35 38 38 36 20 22 22 17 24 18 16 18
15 21 23 21 26 15 26 28 27 26 32 36 38 39 55 55 53 61 64 68 66 69 72 59 65 54 48 50 46 35 39 42 39 33 39 44 48 49 55 55 64 63 72 68 70 64 60 57 56 57 45 39 44 37 29 31 24 24 22 15 21 24 23 20
17 21 16 21 16 25 16 24 27 28 39 39 34 40 46 55 54 57 56 59 61 66 59 61 58 55 49 50 49 45 34 36 36 42 43 39 48 45 56 57 57 58 66 67 71 66 62 61 51 51 45 42 34 43 27 24 30 25 26 14 16 21 24 15
22 25 23 14 16 24 20 16 27 23 32 40 36 39 51 48 59 52 65 60 66 65 56 57 62 52 53 48 45 34 37 42 31 31 35 34 47 46 46 52 53 65 62 64 59 65 60 63 52 53 52 43 37 42 28 33 30 25 20 21 26 14 15 14
24 19 26 23 25 25 22 16 24 28 31 29 43 47 43 48 48 58 54 59 53 54 54 54 49 45 53 46 46 41 38 39 30 37 33 39 46 47 49 54 56 50 55 60 54 63 61 59 53 48 49 45 43 36 29 26 27 14 24 20 19 18 24 18
15 17 21 19 21 19 23 16 20 27 24 36 35 40 37 43 47 52 56 54 52 58 58 53 54 42 39 42 43 40 36 25 28 26 33 42 42 42 40 49 53 54 49 57 52 60 53 47 49 50 44 35 39 34 24 21 22 26 24 23 24 21 18 14
16 17 18 21 17 25 23 15 20 19 28 25 34 38 43 45 45 46 54 56 56 53 45 50 52 49 43 41 42 29 36 31 26 22 36 32 39 34 45 51 52 44 46 52 51 47 46 42 50 39 35 37 31 30 28 19 20 22 25 24 15 18 17 24
19 19 27 28 19 17 17 24 24 20 30 38 31 41 42 45 49 48 43 56 50 55 46 44 44 41 45 46 43 30 29 36 33 28 36 30 41 39 49 44 55 56 51 49 57 53 55 46 46 40 40 40 39 34 34 24 31 32 26 22 26 28 29 24
25 32 29 25 23 24 27 28 27 22 36 32 34 34 42 51 52 53 56 54 55 55 48 45 51 47 43 37 41 32 41 33 27 33 30 39 41 41 52 47 53 50 60 53 60 55 53 45 45 47 41 45 46 38 40 28 37 27 32 32 37 35 28 38
28 25 26 35 30 26 35 25 25 31 26 40 42 44 45 50 47 52 52 48 51 52 54 50 48 42 52 46 48 41 42 40 37 37 40 38 47 47 49 48 52 57 61 58 58 58 58 60 57 52 53 51 44 35 36 35 35 44 44 39 37 44 34 43
25 32 25 25 31 21 33 23 30 26 30 26 26 39 34 32 43 40 38 42 42 41 42 45 44 38 43 43 41 29 33 34 32 26 31 30 31 36 37 41 38 49 46 41 51 48 45 45 40 46 34 39 39 31 38 37 37 29 30 33 31 28 37 28
29 21 26 20 17 18 28 26 17 20 23 19 21 24 32 34 27 30 30 32 40 35 30 32 35 35 24 28 31 24 30 29 28 27 18 18 24 36 36 31 40 29 36 37 40 39 39 31 36 30 29 23 21 30 20 26 32 22 28 22 29 30 25 27
17 16 26 21 22 14 18 21 23 26 26 17 23 24 18 26 19 26 31 25 31 24 21 33 27 20 18 21 21 14 25 14 17 19 23 20 17 18 29 30 30 23 25 33 28 21 25 26 27 20 20 25 20 19 16 15 26 18 18 18 16 16 17 25
14 19 25 25 15 15 20 16 24 26 23 15 14 24 20 18 23 28 18 17 28 26 18 25 20 22 25 23 18 19 18 23 14 20 26 25 14 22 17 25 22 29 24 21 28 17 21 16 15 16 19 26 23 23 19 17 16 21 20 20 16 18 19 14
21 14 23 16 15 15 25 22 15 21 17 25 20 19 25 21 19 21 18 20 17 25 19 18 16 20 19 17 25 24 14 21 20 20 22 22 23 24 18 15 17 22 20 19 18 19 17 23 18 22 26 19 14 18 25 25 19 16 18 14 17 26 21 17
21 15 24 25 21 18 25 23 24 26 16 14 23 20 23 18 23 18 19 23 24 17 25 17 20 17 22 17 22 15 23 24 25 23 18 17 17 14 22 18 19 23 14 22 26 26 19 26 25 17 23 15 19 14 25 24 17 17 24 26 20 21 14 22
25 19 25 20 15 21 21 24 23 25 16 18 15 26 16 24 23 21 18 15 19 19 25 16 15 17 22 17 15 23 19 20 22 26 16 18 24 17 23 26 19 23 18 21 16 16 26 21 18 24 14 25 25 22 25 15 17 26 22 18 18 16 25 15
20 16 17 15 15 18 22 17 18 20 26 21 20 26 20 17 22 20 26 17 22 17 21 19 15 21 20 24 19 15 21 17 26 19 25 22 26 18 26 16 21 19 16 22 22 25 14 18 18 20 21 14 23 23 23 17 17 26 17 25 25 23 17 19
19 17 26 20 22 22 19 22 18 19 17 26 24 25 26 23 15 23 26 23 20 16 16 25 24 15 18 16 24 18 14 20 23 14 23 23 25 17 20 22 23 15 15 21 15 16 24 19 19 22 26 22 21 15 18 26 14 20 22 20 25 14 16 24
23 16 22 26 23 18 16 14 25 26 19 16 17 19 18 18 16 18 24 23 21 15 19 26 17 21 19 18 14 18 22 14 18 15 14 14 15 26 18 20 16 26 14 23 14 17 25 20 21 20 26 24 25 19 18 18 18 18 26 20 18 24 20 17
17 21 23 16 21 15 19 17 19 17 22 25 21 14 24 25 21 22 24 16 22 22 26 23 24 16 20 15 20 24 25 15 18 25 22 23 25 26 17 18 21 15 20 16 19 20 26 18 14 22 24 20 22 23 16 17 23 22 16 18 22 23 24 17
15 24 17 14 25 14 24 21 16 16 20 14 21 20 18 14 20 15 17 24 19 23 14 14 23 26 25 26 19 18 22 14 14 16 23 17 22 15 15 15 19 20 21 14 22 17 18 23 16 20 15 18 19 17 24 26 22 23 26 17 19 18 20 20
24 21 26 15 15 17 24 15 22 15 16 19 19 15 24 15 18 17 20 20 18 16 23 15 14 18 17 17 21 17 19 17 16 26 18 24 18 17 26 26 26 26 24 16 25 18 26 21 19 20 21 19 17 22 17 18 25 26 24 16 17 24 14 16
23 19 23 22 23 14 17 25 24 21 16 23 19 14 26 24 23 20 22 19 16 22 17 18 14 21 19 21 25 16 14 17 15 19 26 25 21 24 26 19 20 21 25 18 26 25 14 25 16 18 19 14 18 23 21 23 23 14 14 15 21 17 25 23
18 16 22 15 17 21 23 26 19 19 21 26 18 25 24 25 15 20 18 23 17 26 20 21 25 20 15 19 15 24 16 20 18 19 14 17 21 15 26 15 24 23 17 26 15 23 24 24 16 24 26 26 16 26 17 16 24 24 17 26 19 17 14 23
18 26 21 20 14 17 24 18 21 14 26 25 16 18 16 15 18 25 16 24 21 15 15 25 22 19 20 20 25 14 15 24 23 24 16 21 21 14 21 24 14 19 17 24 25 20 19 21 23 24 26 22 25 18 26 24 17 16 20 20 17 18 22 25
22 23 20 19 23 15 23 24 25 19 20 20 16 14 15 24 20 15 14 25 24 26 15 15 25 24 22 14 16 16 21 15 25 24 20 25 25 19 16 22 26 26 15 26 23 20 20 19 23 19 15 19 15 25 14 16 18 20 20 21 21 15 24 25
15 24 18 23 18 22 17 15 25 17 24 18 17 18 17 17 16 20 26 23 16 20 22 20 14 20 17 18 26 20 25 20 17 17 19 15 20 24 16 25 24 24 24 14 24 14 26 23 24 23 15 22 15 17 17 19 15 25 21 26 19 17 20 18
21 14 18 16 26 24 20 25 26 26 24 18 14 16 23 15 15 25 20 19 25 17 16 14 22 18 15 24 16 23 26 23 26 14 21 22 22 22 19 16 20 18 20 14 24 21 25 16 26 20 19 26 23 16 20 19 22 26 26 18 24 14 19 26
15 19 22 21 16 22 14 24 21 21 20 26 17 25 15 24 26 18 20 21 17 26 18 25 21 22 18 26 16 16 15 16 15 15 21 26 17 17 23 14 25 14 22 17 22 25 26 14 20 21 18 20 16 25 22 22 26 23 23 20 23 25 23 24
25 24 24 23 21 26 22 21 26 17 24 14 19 25 17 19 17 20 14 23 18 21 19 18 15 20 17 25 16 23 25 17 23 16 17 14 26 22 17 26 16 19 23 18 17 22 25 19 18 26 16 20 16 16 15 14 20 21 14 18 25 25 19 24
17 25 17 25 16 24 20 24 23 25 20 24 23 25 14 25 15 14 26 21 25 20 18 25 16 18 26 23 20 25 22 23 24 19 25 17 26 19 22 23 18 24 24 26 26 25 25 15 17 17 19 18 22 25 22 19 18 15 23 18 22 21 19 21
