P2
64 64
255
24 23 16 20 20 21 15 22 26 15 25 26 15 25 24 16 15 22 23 14 26 23 17 17 20 24 26 25 18 20 26 23 14 19 23 24 19 20 14 22 21 25 22 24 23 17 16 24 20 23 14 15 16 19 15 24 14 25 19 24 25 20 14 26
21 15 19 21 26 15 15 17 24 24 21 25 14 15 17 17 26 19 23 17 20 26 21 23 24 17 21 25 19 20 18 24 22 15 16 15 15 18 24 25 19 14 26 14 25 22 16 23 16 18 16 16 25 18 15 20 22 14 21 25 21 23 25 19
17 15 14 18 18 25 22 26 20 23 21 16 23 25 15 22 19 25 17 14 19 14 16 22 19 17 16 26 15 16 16 24 26 15 19 26 21 18 21 15 17 26 22 24 15 20 26 17 14 18 26 14 21 23 20 16 20 20 19 14 17 24 21 24
24 15 21 14 25 25 17 25 14 19 23 14 18 25 25 16 20 15 19 21 14 23 23 21 16 25 20 24 21 20 16 23 23 18 23 18 25 17 17 14 20 18 24 22 20 14 20 19 24 20 23 17 14 21 18 16 26 16 19 16 16 19 17 17
23 16 25 18 19 23 17 21 21 25 17 22 22 26 23 23 16 14 19 25 19 24 26 26 18 16 19 23 16 14 16 16 18 16 17 21 22 24 25 19 20 25 21 23 15 19 21 16 18 20 15 14 14 22 17 20 15 26 25 23 25 16 26 22
15 21 20 18 17 26 23 19 17 17 17 24 19 25 25 25 25 22 23 24 24 22 26 16 16 15 25 17 26 23 17 24 17 21 19 23 20 19 20 16 19 21 14 26 17 26 18 26 17 20 18 17 26 26 18 26 23 23 22 20 23 22 26 14
19 25 18 19 14 21 19 19 18 25 15 15 14 17 14 21 25 18 18 18 17 24 26 22 17 17 18 14 18 21 20 15 15 25 20 19 20 21 24 19 15 18 18 22 16 22 16 14 25 17 25 16 22 14 17 26 25 19 14 26 23 15 14 17
19 26 17 23 14 14 17 24 16 14 19 18 15 19 22 14 15 14 17 23 23 25 23 19 24 22 14 21 16 19 25 26 16 21 14 25 21 22 23 19 16 23 16 22 19 20 19 15 24 17 23 14 17 22 18 25 22 25 25 21 17 18 23 25
25 23 26 25 22 16 15 22 23 19 15 16 25 26 20 21 17 19 22 15 24 22 16 21 23 15 23 26 15 18 14 16 21 24 25 20 19 26 15 25 21 24 16 20 17 20 16 20 16 26 15 25 16 22 21 18 20 25 16 23 22 21 21 17
16 16 24 17 17 15 22 19 25 14 26 21 26 22 18 19 20 23 24 18 16 17 16 23 19 25 15 24 24 17 15 14 18 21 18 19 20 14 16 23 23 15 18 19 24 25 14 22 14 14 15 25 23 25 20 15 18 14 15 23 15 26 24 14
22 25 19 25 24 18 24 26 15 16 23 16 17 19 25 26 21 24 15 24 17 25 16 26 17 18 25 15 17 20 18 18 15 21 18 23 22 16 25 17 15 15 18 18 18 16 22 20 19 23 14 20 25 17 18 19 15 21 14 24 16 23 22 22
14 26 20 17 17 19 20 15 16 21 25 14 21 25 17 17 24 26 23 18 19 15 23 19 19 26 24 25 24 23 21 19 18 24 16 26 16 18 24 20 18 26 22 20 14 18 18 16 15 19 22 16 14 21 17 17 18 20 14 19 16 17 22 26
19 19 21 22 26 15 21 24 14 20 16 22 18 17 16 22 21 15 15 16 14 24 23 17 17 25 19 23 26 25 14 24 25 19 18 24 20 22 20 24 15 17 18 25 17 26 23 22 26 25 23 18 21 26 16 24 25 15 21 23 26 15 24 20
23 22 18 20 17 14 23 26 18 15 24 17 26 20 25 23 21 19 19 21 22 21 24 25 26 17 26 26 22 22 25 23 18 24 17 21 25 25 14 20 18 14 18 20 19 14 15 24 26 25 20 20 14 24 24 24 18 19 16 20 21 17 17 20
26 14 18 15 24 22 18 17 22 20 25 21 20 20 26 22 18 16 20 15 17 17 23 24 23 15 18 14 24 26 18 22 21 14 25 22 26 19 17 26 26 26 24 19 23 14 16 15 21 22 18 25 25 24 20 17 18 20 15 14 26 19 19 20
23 21 15 19 17 15 21 18 18 14 15 26 20 24 23 22 14 19 20 20 18 16 19 14 18 21 14 19 14 26 26 17 16 16 26 21 15 19 20 25 14 20 20 15 24 24 22 18 26 22 16 21 22 15 25 22 21 24 22 15 26 14 24 23
24 16 24 23 24 24 21 14 22 14 23 21 16 23 20 22 19 15 19 25 23 26 18 21 14 21 15 26 23 15 22 19 15 16 21 24 19 25 24 21 26 23 17 21 14 21 26 25 17 14 23 14 17 17 24 18 19 23 19 18 18 19 24 16
18 19 26 23 21 19 17 25 19 25 19 18 26 24 16 23 16 19 17 16 25 14 20 23 23 26 24 19 24 15 19 15 24 18 20 18 23 14 16 17 20 21 16 20 14 14 18 18 20 14 21 14 21 21 14 23 26 24 18 19 14 17 25 14
18 25 25 18 20 15 24 22 15 26 19 22 15 22 25 16 21 17 26 15 26 20 16 15 21 22 21 21 16 21 20 26 15 19 19 14 18 24 26 17 15 22 19 22 25 18 24 26 14 18 18 21 25 17 17 20 25 17 14 14 17 25 20 20
25 16 14 20 18 20 26 20 14 21 21 20 18 26 17 21 22 28 19 25 28 24 25 20 21 15 22 22 23 18 25 16 26 26 20 25 23 22 26 16 26 27 18 21 20 24 27 19 17 16 15 18 17 14 18 20 16 26 23 26 23 19 25 21
25 21 15 26 19 16 14 21 25 26 18 22 23 26 15 21 30 28 23 21 25 27 27 32 25 24 17 24 25 23 17 21 24 19 16 18 23 19 24 21 21 24 29 32 22 33 24 25 27 24 24 22 19 21 15 18 19 24 25 21 26 20 15 22
17 24 17 24 14 22 20 25 15 17 15 26 23 17 22 22 25 25 30 29 32 25 25 28 30 23 22 23 22 26 27 20 27 23 23 21 16 28 32 24 29 30 30 35 37 28 30 35 32 25 29 27 19 25 15 20 20 15 17 26 25 14 15 24
14 16 20 21 18 25 23 23 20 14 21 18 28 23 28 27 30 30 39 38 34 41 41 34 39 27 28 28 26 36 26 34 26 35 25 26 37 26 25 37 35 29 41 37 32 40 36 31 31 31 34 32 19 20 15 17 16 17 14 15 25 23 17 23
17 14 20 24 16 14 24 16 20 19 26 29 26 30 34 27 32 33 42 45 44 38 38 42 38 40 42 34 38 41 40 37 32 41 38 45 42 38 45 36 37 33 39 45 45 33 42 36 38 28 25 23 24 19 23 17 17 16 23 25 17 19 20 14
25 16 20 17 14 20 14 19 14 21 18 28 24 29 39 41 43 43 38 40 48 46 48 50 44 54 47 50 43 44 51 48 45 40 43 43 43 53 43 42 50 47 41 39 40 45 41 43 35 33 35 36 30 24 29 20 14 17 25 16 15 21 26 19
15 14 26 23 26 15 16 22 14 28 24 34 30 35 32 42 39 47 41 49 43 53 53 52 61 51 63 57 60 50 51 53 49 50 58 53 55 64 61 60 50 58 51 52 46 50 51 44 41 43 42 28 27 26 19 21 16 18 19 26 17 15 19 21
19 18 22 21 24 23 16 25 18 24 28 28 36 33 46 46 43 46 43 49 55 51 63 61 57 61 67 70 64 69 62 57 59 59 62 65 69 72 60 65 69 62 55 56 48 44 46 49 40 49 38 33 36 25 26 26 15 26 26 23 22 25 19 25
25 22 14 23 22 25 18 17 25 22 24 39 34 35 37 48 51 45 53 51 58 56 72 75 67 76 76 71 78 75 72 66 75 65 70 67 68 73 73 75 69 65 72 57 56 49 54 54 43 40 38 38 36 35 23 24 23 20 18 17 21 16 18 24
19 20 20 18 23 16 25 15 22 24 33 34 40 42 40 42 49 49 51 56 68 64 76 81 84 78 79 80 75 85 74 81 83 79 83 86 76 80 79 80 77 78 70 74 71 59 58 60 53 51 45 40 38 36 31 26 22 20 24 23 23 16 16 22
26 25 18 23 14 15 15 22 30 24 26 36 44 39 47 51 51 52 60 69 67 76 85 85 80 86 83 86 90 83 86 91 82 86 83 89 87 84 83 89 90 88 86 72 71 65 63 60 49 47 45 43 38 42 27 31 28 16 19 24 19 20 16 20
15 23 14 18 16 24 25 19 24 34 35 40 38 49 45 49 54 59 66 67 72 78 88 87 93 89 89 98 99 92 97 93 99 93 98 93 95 93 89 87 96 93 88 86 83 69 66 65 55 55 43 47 34 32 37 34 25 17 25 23 21 21 24 20
20 16 24 24 17 20 16 22 25 33 28 38 44 51 50 56 61 64 65 78 90 87 97 90 102 102 99 98 96 94 103 101 102 107 95 101 95 98 102 103 92 89 87 86 87 76 72 54 60 51 47 39 38 39 27 27 30 16 19 26 17 17 26 25
16 21 16 24 26 20 23 20 27 36 37 39 35 43 47 53 53 65 68 81 86 97 100 104 97 106 101 102 105 109 113 115 108 108 104 106 106 109 108 99 104 100 101 100 94 86 73 58 54 55 49 46 39 34 35 26 24 24 26 21 18 18 25 20
21 23 23 14 15 23 19 28 30 31 32 32 46 44 55 59 55 54 69 79 86 97 102 100 97 103 110 109 104 104 111 119 115 108 112 111 111 108 107 98 105 106 93 91 91 84 67 55 59 58 46 41 38 40 30 34 30 17 25 20 18 16 24 24
14 23 26 14 26 18 23 21 26 23 37 38 46 39 42 48 54 55 75 73 81 96 99 94 107 105 105 111 117 115 121 120 125 119 110 116 109 105 111 106 104 103 100 89 87 82 68 60 50 58 49 41 42 42 33 23 27 25 25 17 21 17 25 26
14 25 22 24 21 20 14 27 26 34 37 42 43 47 50 44 55 56 65 77 78 93 95 102 105 102 112 113 107 110 119 120 128 124 120 115 117 106 112 105 98 104 99 83 83 81 65 55 54 56 47 44 35 32 33 25 27 21 23 24 16 17 15 14
21 20 21 14 24 23 18 19 20 30 31 31 37 36 40 48 55 51 59 70 84 90 88 92 105 107 111 114 106 117 111 125 123 120 115 109 110 112 101 107 103 98 92 90 79 70 63 50 46 42 39 45 39 36 34 30 23 21 17 26 18 21 22 19
26 21 26 20 24 26 16 25 18 30 30 35 40 44 43 45 46 47 61 62 76 81 90 94 93 98 102 104 103 115 107 122 120 116 117 106 114 108 108 100 98 92 84 82 79 62 61 54 54 44 44 37 38 29 25 28 17 21 18 20 21 21 14 16
17 24 14 26 17 17 17 18 21 28 22 31 38 42 39 42 47 47 62 64 70 82 81 88 90 90 94 104 109 107 110 102 109 112 105 111 109 100 97 93 94 80 77 82 75 57 51 42 42 47 37 40 32 26 31 24 26 16 15 15 17 18 23 22
17 19 19 16 23 14 15 19 26 28 21 29 28 34 41 38 39 46 56 58 61 76 82 83 79 84 88 101 98 99 97 104 104 97 99 105 101 89 90 89 88 77 74 77 60 58 45 41 45 41 40 34 31 31 29 23 20 25 26 16 15 15 15 16
24 14 24 24 25 26 16 26 16 20 21 28 30 28 40 34 37 41 40 52 61 65 68 73 82 83 88 89 86 95 92 94 92 87 92 92 96 94 88 81 76 74 70 64 59 51 49 44 45 36 35 28 28 24 24 14 15 21 15 25 20 16 17 25
22 20 26 18 17 18 15 17 20 21 25 17 31 26 37 30 35 33 40 49 52 63 62 64 73 81 81 78 86 85 86 85 82 77 83 86 78 83 76 81 78 70 64 60 59 52 40 31 33 36 29 28 20 18 27 22 24 16 26 14 21 18 26 18
24 19 26 16 18 22 22 22 17 26 23 20 25 21 24 32 33 37 39 40 45 46 51 66 63 70 77 70 77 69 74 80 75 70 77 80 81 67 66 74 60 63 62 55 52 43 35 30 36 29 30 27 25 16 19 20 16 24 19 14 25 22 20 14
17 18 18 15 18 26 18 16 23 16 18 24 24 26 26 20 28 34 35 32 45 48 45 51 53 67 67 65 61 70 66 67 64 65 66 67 72 70 65 62 58 54 51 44 34 39 32 27 33 24 22 19 25 17 16 21 18 23 25 16 24 15 25 14
16 18 26 17 15 26 19 20 22 25 18 15 14 14 27 28 25 27 28 33 29 40 45 51 44 46 57 60 60 63 69 67 67 69 59 67 59 61 54 55 47 45 40 43 38 32 28 27 25 21 24 16 24 15 25 15 16 19 14 22 26 21 15 18
23 19 25 17 25 19 21 24 26 25 26 16 19 17 25 22 27 25 18 26 21 24 40 38 39 40 43 48 59 61 58 52 63 61 58 55 54 53 42 41 47 39 31 33 29 29 26 23 24 24 17 14 16 26 22 21 17 22 15 22 25 17 20 24
20 26 23 14 24 17 20 25 19 24 24 18 26 19 19 17 15 14 19 15 17 25 27 33 36 32 43 42 46 52 54 46 56 45 50 53 43 44 42 43 33 27 32 23 14 20 16 16 21 17 20 26 16 24 24 22 18 20 24 21 20 21 16 20
14 18 15 23 22 25 25 15 17 26 14 23 20 23 24 17 15 14 25 24 19 15 28 20 32 28 30 36 40 47 38 51 44 43 44 43 39 37 34 31 30 21 19 26 19 25 17 22 20 21 25 22 23 21 24 17 16 19 16 19 15 18 18 16
21 16 25 19 17 14 21 14 17 25 22 24 14 18 22 17 16 24 19 24 22 25 21 25 30 30 36 38 40 42 39 35 35 37 43 41 29 33 27 29 24 27 14 19 20 24 20 17 20 18 23 23 15 25 16 26 18 22 24 21 23 20 14 25
17 14 18 25 26 16 25 19 16 23 23 20 19 24 23 15 15 25 14 26 15 23 19 26 18 24 27 21 32 37 32 37 30 36 37 32 30 31 21 28 25 19 18 14 17 22 16 24 21 24 15 26 19 15 16 16 23 19 23 18 14 20 21 23
16 15 20 21 19 22 24 14 17 15 20 16 26 26 15 15 15 20 16 22 18 22 25 14 24 24 20 24 17 26 28 32 27 26 25 23 27 27 21 15 21 26 15 19 23 17 23 23 15 24 20 18 26 23 15 19 22 18 14 23 17 25 16 18
25 14 14 25 17 19 21 20 18 15 21 26 19 25 26 14 17 24 18 18 17 20 20 19 24 15 22 26 26 15 22 21 18 18 25 16 16 24 18 20 21 26 15 16 20 17 25 22 16 16 20 17 15 22 14 18 23 17 26 22 15 18 19 17
17 25 26 21 19 25 14 25 17 23 17 15 26 15 16 20 15 18 14 22 18 22 17 19 26 21 15 26 21 19 15 23 18 20 21 22 16 24 24 23 18 19 21 19 23 19 16 18 15 16 17 19 23 20 18 14 23 15 23 22 23 26 17 25
20 21 22 26 22 22 17 25 16 20 25 21 23 16 21 21 14 22 16 21 23 15 23 24 15 23 18 21 16 18 15 26 21 16 19 19 17 18 19 14 16 18 16 21 23 22 24 26 26 16 23 14 23 14 24 14 22 24 18 25 22 16 20 24
20 21 23 21 24 14 15 25 15 14 17 16 14 14 22 21 18 16 19 23 21 21 15 16 24 22 24 21 21 20 15 18 14 21 18 25 19 16 14 23 17 23 24 26 14 23 17 21 20 21 16 21 21 16 23 24 16 20 14 23 20 26 23 24
22 26 14 19 19 24 26 20 24 23 17 20 20 26 22 15 14 16 15 15 18 22 21 14 23 23 19 26 21 20 15 23 22 24 16 19 16 22 17 20 16 18 18 19 25 16 18 26 15 18 18 21 25 23 18 18 14 15 21 19 26 23 22 26
23 23 22 18 23 18 26 16 17 15 26 19 25 14 23 26 26 22 21 21 15 21 22 20 23 16 15 18 19 26 16 20 26 23 25 17 18 17 21 18 19 16 21 17 15 18 24 17 19 14 14 22 19 17 24 19 23 19 15 26 22 14 20 23
22 16 21 23 20 18 22 20 16 15 22 21 24 16 20 26 26 15 18 17 21 26 23 17 24 20 15 19 22 24 24 25 20 26 21 17 26 15 17 22 15 20 24 14 21 20 23 24 26 24 24 26 16 17 24 17 25 15 25 20 14 14 21 21
20 26 16 19 23 24 15 17 22 15 24 26 20 18 21 21 26 22 16 18 15 17 19 18 26 21 26 19 20 23 22 14 22 21 26 26 25 21 18 14 26 26 18 18 14 25 24 14 26 25 26 18 24 14 26 24 26 22 23 21 17 25 24 20
26 16 17 26 19 20 25 19 22 24 23 16 24 26 20 24 14 24 21 26 18 26 17 16 21 17 24 15 25 26 17 23 25 20 19 21 26 16 22 21 20 21 26 22 25 16 21 17 17 14 22 23 19 25 24 14 22 15 19 17 23 14 21 19
16 17 17 17 26 24 19 19 21 18 25 18 25 16 25 19 24 23 14 24 19 14 22 17 21 15 24 24 24 14 26 19 14 20 16 21 23 22 22 24 16 25 18 17 23 23 24 24 17 15 23 15 20 26 15 18 22 19 25 21 22 17 19 25
15 16 18 15 20 22 20 19 22 25 21 17 19 19 15 21 22 17 21 22 19 15 15 22 21 15 23 23 23 26 22 19 17 17 15 20 26 18 15 21 26 16 15 18 17 15 19 23 15 26 17 17 25 14 20 17 19 19 18 18 16 24 18 15
20 21 25 16 16 24 18 20 18 25 24 24 25 14 23 18 14 25 17 22 19 14 24 16 25 19 16 22 22 17 25 15 17 24 25 18 26 21 21 17 14 25 25 17 26 21 20 20 15 22 25 15 14 23 17 18 14 17 26 23 25 24 15 18
18 21 26 14 26 19 20 15 16 18 22 24 18 23 24 20 15 17 16 21 20 16 24 14 19 19 15 17 23 16 14 25 26 14 14 16 20 17 26 26 23 16 17 18 17 23 20 18 22 18 14 22 19 14 17 25 16 21 21 25 15 25 24 25
