P2
64 64
255
15 19 16 16 22 19 21 26 15 20 21 18 15 19 19 24 25 26 14 25 15 16 26 24 23 17 17 15 21 23 18 25 14 14 16 25 26 22 19 26 23 19 26 23 20 15 15 18 14 18 19 23 14 14 25 16 18 17 15 15 15 16 16 20
22 16 19 22 17 14 16 19 22 19 20 24 25 20 24 25 23 18 21 24 19 21 14 26 19 20 19 16 24 16 22 25 17 26 16 15 24 24 19 16 26 17 15 22 17 26 14 19 24 23 19 17 22 24 18 21 25 16 14 16 20 19 14 18
19 26 16 26 20 24 20 19 14 21 22 15 25 21 21 24 24 19 20 22 15 18 16 16 24 20 25 17 17 21 26 20 18 23 25 25 14 15 17 23 15 20 26 21 22 19 25 21 17 16 24 20 17 19 26 26 20 14 21 24 23 22 14 21
25 20 18 24 23 25 23 23 20 20 17 24 19 18 20 15 16 21 18 14 22 25 15 16 22 20 20 22 16 23 25 16 26 21 19 14 19 21 19 19 24 25 18 24 20 14 26 22 21 24 17 25 14 15 19 25 18 23 22 20 14 15 17 21
24 18 25 16 23 20 16 26 16 22 16 17 20 24 18 24 20 23 17 18 23 21 26 24 22 15 16 18 18 24 14 26 21 18 19 19 19 24 20 24 19 20 16 22 14 21 22 16 21 24 25 25 22 25 20 16 19 16 23 23 25 22 26 17
14 26 15 16 23 21 14 24 14 16 17 22 14 21 17 16 26 17 25 24 24 15 21 16 25 22 25 23 24 16 26 24 20 23 14 14 24 24 25 21 25 15 17 14 24 25 21 23 21 24 17 23 25 26 20 19 26 26 19 20 26 26 23 24
24 17 15 25 15 14 18 22 16 23 22 15 21 24 21 20 26 16 24 17 25 21 24 16 15 25 16 14 16 24 22 16 17 22 19 15 25 20 25 17 24 16 19 26 21 17 23 16 20 20 23 23 26 18 14 21 20 18 21 17 25 16 17 22
18 17 16 17 15 20 17 24 17 26 17 17 18 22 16 26 16 21 20 17 14 20 26 16 18 15 20 24 17 23 23 24 14 16 22 26 14 18 14 22 25 26 15 15 14 26 20 19 21 24 14 20 18 24 25 19 14 23 19 21 18 14 24 24
15 22 22 25 26 23 23 21 17 25 24 15 22 19 17 26 19 26 14 19 26 18 25 23 18 18 19 19 18 16 20 14 20 23 24 24 15 24 16 21 20 15 25 17 20 20 25 16 22 23 16 26 24 24 19 21 17 26 18 15 21 14 21 21
15 14 16 22 20 21 22 18 23 18 19 24 17 24 24 23 26 21 24 23 19 18 19 19 16 20 25 14 18 18 15 16 22 23 26 23 15 17 26 24 18 19 25 14 17 16 20 24 16 21 16 14 18 24 21 19 25 18 21 15 19 23 25 15
17 17 18 15 22 25 19 22 22 15 22 19 25 18 15 22 23 18 17 18 19 23 19 14 19 24 22 17 25 25 23 18 17 17 17 23 20 16 22 18 25 16 23 26 18 22 16 18 22 20 15 26 25 15 18 16 15 25 15 17 23 16 23 19
23 25 17 20 21 20 25 25 17 24 23 21 19 22 23 16 21 14 25 17 19 20 19 25 21 21 16 22 15 26 24 16 23 17 22 16 25 20 21 22 25 26 24 24 16 24 26 24 17 25 23 21 17 15 23 21 16 21 14 21 17 23 19 15
19 26 16 16 19 22 23 15 16 19 24 25 17 23 17 17 26 18 15 24 21 18 26 14 19 15 16 14 22 15 23 14 24 17 20 14 18 23 23 24 16 24 18 20 16 16 19 16 21 25 22 17 15 25 24 26 20 21 20 20 24 19 22 15
16 15 24 15 22 17 15 25 17 23 17 26 26 25 21 19 24 23 18 25 16 16 19 15 24 19 15 26 14 17 17 22 21 22 19 22 18 17 18 20 20 15 17 24 24 25 20 16 21 19 16 20 17 18 21 24 14 17 22 20 22 14 24 17
14 17 23 16 16 14 25 24 21 21 15 15 14 23 23 23 22 22 17 22 15 20 22 21 20 14 19 19 26 24 19 21 26 17 25 25 20 15 25 22 22 17 15 23 17 22 21 22 21 14 25 21 17 18 23 26 20 17 16 21 15 17 26 21
25 16 17 25 16 20 20 14 25 18 15 15 15 15 14 25 24 17 19 19 22 21 22 22 22 25 26 24 26 24 15 22 23 25 23 20 19 17 20 16 26 20 18 23 22 19 17 20 19 24 17 22 21 20 25 24 21 22 24 23 16 17 17 15
17 17 19 22 23 14 22 14 17 18 18 14 18 15 24 18 15 20 23 25 15 18 19 22 18 17 22 19 22 23 21 16 14 24 17 26 24 15 18 24 24 17 15 14 17 19 24 25 19 18 23 23 24 14 20 22 19 24 20 25 26 20 22 21
18 21 19 15 20 23 15 23 15 24 14 15 22 19 25 14 19 23 15 22 17 17 17 14 16 24 15 22 19 21 22 16 18 20 17 23 26 25 21 24 18 22 18 20 26 19 15 19 23 20 17 19 26 22 25 24 20 23 20 25 26 18 19 22
22 26 19 14 24 14 23 15 16 19 25 19 24 24 20 23 22 15 24 22 23 20 26 18 19 20 24 20 23 20 14 20 14 20 20 19 22 19 26 19 26 22 21 15 19 23 24 15 24 23 20 21 15 26 22 24 20 26 23 23 23 14 14 14
16 14 26 20 20 19 22 20 24 17 16 20 19 14 25 19 22 19 28 17 26 26 21 19 17 27 15 15 20 26 25 14 22 19 23 26 22 16 24 24 24 24 19 25 29 26 24 25 27 19 21 17 24 19 21 21 25 14 26 26 18 25 19 18
18 20 19 21 23 20 14 23 14 20 18 20 14 23 17 20 18 27 26 33 23 33 29 27 23 29 26 16 22 17 15 23 18 18 23 16 26 20 26 25 27 23 24 30 27 31 33 31 22 25 27 15 15 20 20 25 16 18 17 21 19 16 23 17
24 20 22 22 17 21 19 25 19 22 14 21 26 28 20 20 25 33 35 35 27 26 25 31 31 34 31 24 19 18 21 27 29 24 21 23 17 22 28 27 30 29 27 28 31 34 32 24 34 26 25 23 25 15 16 21 15 19 23 23 16 18 23 14
19 18 19 14 15 21 17 14 17 26 18 17 21 27 22 35 33 28 38 32 39 37 36 37 39 30 25 28 33 36 26 30 30 30 35 35 25 33 25 37 28 31 32 29 35 36 37 28 34 28 28 31 29 19 25 19 26 22 17 26 17 25 26 20
20 24 15 16 20 23 19 26 19 20 19 26 24 32 36 29 41 38 39 41 44 33 40 41 40 38 40 38 34 43 34 30 39 38 43 42 35 38 40 43 32 32 43 43 42 38 41 36 33 34 30 31 31 20 24 19 17 15 15 21 24 19 22 19
17 17 19 19 22 20 21 24 26 25 18 31 34 38 38 32 33 44 46 37 41 43 49 50 42 42 43 51 48 42 44 49 36 47 50 44 55 54 54 44 42 46 37 38 46 48 41 45 38 35 39 34 31 23 24 23 21 19 24 14 17 20 15 25
14 23 25 16 18 16 22 14 25 21 28 29 38 36 37 45 45 42 46 44 50 52 47 50 50 58 56 55 53 57 50 55 52 54 58 53 54 57 64 60 49 48 51 44 43 45 51 49 43 35 41 31 36 33 19 21 14 14 26 15 21 23 17 21
18 25 26 26 24 25 21 22 16 27 27 36 34 40 44 45 51 44 43 45 52 56 60 55 58 63 61 65 60 62 59 64 66 54 58 60 63 60 61 68 65 59 55 49 56 56 54 44 51 40 40 31 39 36 33 24 19 22 22 24 26 14 25 17
23 17 15 20 20 20 20 19 24 27 23 30 37 42 49 47 54 53 51 49 54 57 64 74 67 67 76 78 77 76 76 68 65 70 73 75 73 71 68 74 72 70 63 66 52 53 57 56 43 40 39 33 40 28 28 31 27 19 23 19 19 15 15 24
16 22 14 22 19 25 26 26 23 27 25 30 34 35 50 42 57 50 61 53 59 75 80 75 76 74 78 79 84 75 79 81 82 83 82 80 85 76 86 74 80 81 68 65 62 63 62 60 45 48 49 38 34 35 29 28 20 18 20 26 18 18 22 26
16 15 20 21 25 25 14 16 25 27 31 39 41 49 45 48 48 53 55 64 70 78 75 85 88 82 93 93 86 90 88 88 87 82 91 81 93 93 94 85 79 79 77 75 67 61 55 53 51 48 49 44 33 40 26 34 23 23 15 17 23 20 17 20
25 18 25 17 14 16 19 21 20 33 33 34 40 41 48 50 51 55 62 68 72 88 90 91 91 99 101 92 93 92 98 100 91 100 94 88 100 97 101 98 91 85 93 80 77 70 60 61 53 51 42 49 42 32 30 29 25 18 18 25 17 19 21 20
14 16 18 18 25 25 20 19 31 35 32 40 35 46 47 49 58 64 72 73 80 93 94 100 100 102 94 95 101 105 107 107 99 101 100 98 98 95 101 99 99 91 88 90 78 83 69 64 53 55 43 47 39 43 36 25 28 21 24 15 23 19 24 14
22 25 22 23 25 24 14 26 31 27 40 39 47 50 53 47 56 66 74 82 95 96 98 101 105 102 100 108 105 105 111 107 114 107 106 99 109 103 108 100 96 98 95 95 91 77 72 67 57 48 47 40 43 40 40 24 20 16 21 26 17 22 24 23
23 22 24 15 23 14 14 20 32 32 37 31 42 48 54 51 57 60 74 79 93 88 98 106 102 101 102 111 107 106 110 114 109 115 113 105 114 114 104 106 107 98 101 88 88 80 72 57 63 59 52 51 39 43 32 32 21 18 14 23 17 16 26 20
24 14 18 19 14 23 22 21 24 34 35 31 37 50 49 54 57 56 70 80 84 98 95 100 103 101 108 110 110 107 116 126 125 118 111 112 115 115 112 106 107 97 99 88 85 76 64 57 59 54 51 46 42 32 30 24 31 17 22 19 21 15 24 26
18 25 20 26 17 23 26 27 19 29 30 34 37 42 46 54 59 54 71 69 77 83 99 100 95 107 111 112 113 115 123 124 129 119 116 115 117 114 111 110 96 104 93 89 77 77 73 57 52 54 49 42 41 42 26 34 27 15 26 19 15 24 23 25
20 19 19 25 20 25 26 25 17 25 35 40 39 37 45 51 46 55 60 72 74 81 88 100 98 103 103 107 112 119 121 126 129 126 122 116 106 109 100 108 101 90 94 80 84 71 63 62 47 54 40 39 43 31 26 33 27 25 17 17 26 24 21 22
16 26 16 15 18 15 17 17 25 32 26 32 42 41 39 50 48 56 59 62 81 87 87 87 93 98 103 107 104 105 113 119 118 118 115 105 102 102 99 101 92 88 90 82 69 74 59 58 49 40 39 39 42 27 35 23 17 21 25 20 19 17 22 15
19 25 26 22 26 26 25 22 22 27 27 34 28 42 42 48 40 46 53 65 65 73 75 91 93 100 102 102 99 110 102 113 113 112 103 111 97 95 94 92 86 81 84 73 70 59 51 46 46 49 36 37 35 36 30 24 23 17 16 21 25 25 15 26
19 20 21 17 19 23 18 15 18 19 22 26 30 39 38 41 37 49 50 62 66 65 82 85 80 90 94 93 96 100 103 95 97 102 94 98 92 95 87 94 79 87 74 67 70 63 50 46 48 40 32 33 26 28 22 17 16 19 24 16 16 15 17 23
25 14 17 17 21 22 25 15 18 15 21 24 31 38 39 38 38 44 46 58 63 67 70 69 82 84 86 85 87 91 91 95 94 95 94 91 96 91 91 84 74 74 70 68 60 55 45 34 39 34 39 26 26 24 18 26 18 24 17 20 24 21 19 16
24 14 18 23 14 20 22 24 16 26 21 24 31 33 31 27 31 37 37 42 55 52 61 73 69 78 82 87 86 81 83 85 87 81 84 82 79 85 76 78 67 74 61 60 49 45 43 32 35 31 29 28 26 27 21 19 15 20 21 21 17 15 19 20
26 17 23 26 22 15 20 25 24 24 26 17 24 21 25 33 37 39 40 35 43 46 63 63 64 65 68 73 80 78 73 80 73 78 75 78 73 71 65 69 67 61 51 46 52 36 36 35 38 26 26 27 17 25 25 26 19 23 17 21 17 24 15 24
25 14 20 25 25 16 14 23 18 14 22 14 23 28 20 29 27 35 36 37 42 50 49 58 54 61 61 65 64 61 66 65 68 65 70 61 64 64 64 55 57 51 53 40 43 35 30 33 32 30 31 18 21 24 14 23 21 23 16 16 25 25 17 16
16 17 15 21 25 19 20 14 18 26 26 15 17 18 27 17 23 32 23 24 27 40 37 47 51 51 50 54 60 66 67 58 68 69 65 57 64 59 59 49 56 45 38 32 34 23 21 23 20 22 16 14 17 17 18 22 26 20 24 19 19 24 17 17
25 16 26 14 15 19 17 15 15 16 22 20 24 26 16 20 22 19 19 24 19 36 35 41 36 46 47 50 49 61 51 60 52 63 61 58 57 48 48 44 38 33 35 28 25 18 18 22 20 19 25 22 14 24 24 20 17 20 17 15 14 16 18 17
23 22 24 25 16 16 24 19 23 18 17 24 26 24 15 19 18 23 19 24 19 23 21 33 39 41 37 40 50 48 45 55 49 47 44 54 51 40 42 32 29 36 25 20 22 26 22 20 22 21 14 21 18 19 14 22 22 16 22 22 25 16 23 16
18 24 21 26 17 14 23 19 17 15 25 23 19 24 22 14 15 17 15 16 16 15 25 25 36 35 40 38 35 44 43 47 45 40 41 40 42 35 37 29 25 23 16 19 15 17 17 24 19 22 14 20 17 25 16 18 21 18 17 24 20 22 20 15
23 17 20 19 19 18 22 17 17 21 19 16 16 25 15 24 19 20 17 17 15 26 24 21 24 34 30 32 30 42 42 43 44 42 44 35 29 34 29 26 19 15 22 17 19 17 19 14 17 18 24 23 21 26 17 14 18 25 17 19 21 17 24 19
21 15 17 16 19 20 25 19 15 21 26 22 17 26 17 24 14 26 26 16 26 16 14 26 24 20 31 32 25 29 29 28 30 33 35 33 35 33 23 19 14 17 19 17 24 15 16 15 23 24 20 22 15 18 20 20 14 17 23 17 20 23 20 22
18 26 23 23 24 17 15 20 18 20 22 20 17 15 17 25 22 24 26 21 18 16 20 21 20 20 16 22 19 20 22 31 23 24 31 31 23 21 17 19 21 19 20 14 16 20 23 16 26 14 20 21 26 25 20 23 19 20 26 22 25 22 21 20
25 15 18 25 18 26 14 17 24 15 20 18 22 22 19 15 15 16 14 22 17 19 15 16 15 21 19 23 23 18 19 18 15 20 20 21 21 14 19 26 20 17 14 16 14 22 26 17 21 22 23 24 16 24 26 18 20 26 14 20 14 19 20 18
26 24 23 15 22 26 17 22 14 20 14 15 15 21 14 25 24 16 18 16 14 26 17 15 26 23 22 22 23 21 25 26 19 17 16 26 19 21 25 22 24 15 24 17 24 19 26 23 24 18 21 19 16 14 24 25 25 26 23 24 26 17 17 20
15 21 18 17 14 21 22 14 19 17 25 20 18 16 24 17 24 14 14 25 16 24 19 15 25 21 16 25 24 20 19 17 16 24 19 26 26 15 24 21 19 16 22 17 26 17 25 16 15 22 19 16 24 26 14 21 20 23 18 17 24 18 14 24
15 20 20 18 19 14 18 20 23 19 20 19 14 24 26 19 23 18 15 25 18 24 22 17 23 18 22 16 19 20 19 24 19 17 22 21 16 26 15 19 26 17 20 18 26 17 24 15 16 20 24 23 26 18 26 14 18 21 18 16 18 23 24 23
17 24 18 26 26 21 18 18 14 17 21 22 26 21 15 25 21 15 15 22 20 15 26 16 16 16 17 17 26 22 16 22 23 26 17 24 26 20 19 18 21 18 16 15 15 14 22 23 25 15 16 26 20 16 22 18 14 16 18 21 26 22 22 15
19 18 20 23 25 24 16 18 19 24 14 23 17 22 22 23 23 16 22 23 19 14 20 25 17 15 24 17 17 26 19 23 17 17 26 21 16 16 22 19 23 15 19 17 17 19 18 16 23 24 20 14 26 16 19 18 18 24 17 22 21 15 17 14
15 17 17 22 26 15 19 19 19 24 25 25 16 26 22 20 19 17 17 14 14 17 15 20 19 22 22 22 20 26 22 17 17 25 17 22 17 23 16 16 22 20 18 24 20 15 14 21 20 15 26 25 20 15 24 20 16 19 24 17 22 20 18 14
18 26 15 24 20 26 15 25 26 26 21 23 26 22 16 19 22 20 24 26 20 26 21 20 14 24 24 17 20 18 22 17 22 19 18 16 15 21 19 19 18 14 22 14 21 23 15 16 23 17 17 18 18 21 21 22 14 16 17 20 24 25 15 19
24 14 14 25 20 26 15 14 24 25 20 19 26 25 25 17 20 24 25 15 17 17 17 25 19 24 14 21 24 21 21 15 20 18 20 22 24 16 26 22 23 21 17 24 20 16 20 19 17 14 19 26 21 19 26 16 16 20 18 24 23 19 26 19
23 16 14 23 21 24 20 16 22 14 15 21 18 16 22 22 20 14 22 23 22 26 18 18 18 24 21 16 18 19 17 25 21 18 22 18 14 19 26 19 18 14 21 23 17 26 16 15 23 14 22 18 22 16 19 16 18 20 17 26 15 19 18 26
25 22 20 24 19 25 20 19 21 18 26 23 26 17 18 19 26 26 14 15 19 19 24 15 19 19 18 25 25 21 23 19 24 16 26 18 24 24 23 14 19 24 23 20 25 21 15 19 16 17 23 24 22 23 23 25 14 19 21 16 19 14 18 25
25 15 15 18 20 23 22 21 22 21 23 21 26 19 18 22 19 17 25 16 17 15 15 26 23 19 15 14 26 23 16 22 20 19 17 16 23 16 15 25 14 19 18 21 19 15 16 23 23 22 25 18 17 26 25 16 25 17 26 18 21 24 26 18
18 19 18 25 22 22 17 25 22 19 23 22 14 18 19 25 24 21 19 16 18 17 17 25 22 15 17 15 14 18 16 20 16 14 20 16 26 19 15 18 15 20 21 25 14 24 22 20 15 16 18 21 20 25 24 17 25 25 21 17 14 22 19 18
