P2
64 64
255
19 25 29 32 37 23 23 36 23 32 38 36 24 19 19 34 26 18 35 25 26 31 22 35 22 19 32 19 28 27 23 38 18 34 22 24 22 19 31 23 25 31 20 27 24 34 34 30 18 30 23 31 27 24 23 25 27 27 18 33 23 18 25 31
29 26 34 33 38 35 21 38 19 27 27 33 24 37 35 36 32 26 32 37 31 28 31 30 31 36 18 20 33 21 23 20 37 34 25 20 21 31 38 27 30 19 35 37 22 24 36 29 21 31 19 19 25 33 27 29 26 26 22 18 25 26 19 29
26 35 28 30 18 25 31 32 20 32 30 23 33 36 38 37 36 27 18 36 23 28 28 27 18 26 21 25 19 28 35 35 27 28 27 38 26 29 35 33 34 24 20 38 32 26 24 29 35 36 32 31 18 18 27 19 26 20 21 36 25 34 21 29
19 30 31 23 20 30 20 18 25 35 34 21 33 32 20 22 19 35 18 32 22 18 35 34 18 21 38 28 20 19 24 38 29 30 25 18 18 24 35 26 38 24 24 38 23 26 25 31 31 33 34 20 25 36 27 29 28 34 32 23 38 32 21 37
18 23 28 38 29 29 37 22 30 26 26 23 26 19 38 26 22 26 27 29 33 32 30 38 30 24 31 22 31 33 29 28 27 27 25 34 37 20 31 26 35 24 30 30 27 38 34 22 34 26 23 21 25 21 23 31 19 19 25 28 35 38 33 33
29 35 37 20 32 19 20 23 31 25 38 18 36 32 20 21 38 38 22 26 20 22 25 23 35 25 33 30 36 31 21 23 31 25 35 33 26 25 24 23 30 26 33 28 32 37 29 32 31 37 23 23 33 24 18 18 27 19 21 23 27 36 32 24
24 38 36 34 21 30 22 22 19 20 18 35 25 19 20 35 33 27 29 32 36 33 32 20 34 32 20 38 31 37 22 18 30 18 21 28 26 37 38 23 38 23 35 19 33 28 22 37 20 35 18 30 36 28 24 28 21 25 28 31 22 29 26 19
24 31 37 22 23 32 27 21 37 19 27 35 22 19 19 22 19 27 36 24 25 36 37 26 24 18 38 26 29 32 36 34 20 25 31 32 28 26 38 23 36 32 25 20 26 29 18 19 19 34 24 28 28 22 31 31 25 20 19 38 36 23 25 31
29 37 32 18 18 26 19 36 38 23 38 30 30 27 20 25 37 35 32 27 31 32 23 32 36 37 28 32 32 19 33 29 22 26 21 36 31 18 24 34 20 34 38 23 31 33 32 22 22 18 32 21 26 36 36 29 28 35 34 34 19 21 20 36
28 31 19 28 38 27 24 19 24 31 37 36 28 31 23 38 26 23 25 23 23 20 35 23 30 20 24 20 22 37 21 38 30 19 19 18 35 33 23 32 33 28 34 35 34 38 29 19 24 22 28 31 30 21 28 35 32 18 26 36 35 28 32 23
29 26 31 38 37 36 34 21 21 31 29 26 22 24 27 33 24 36 18 29 29 38 36 29 38 36 29 24 29 23 35 19 35 36 31 38 28 27 30 27 22 35 38 26 30 24 29 29 26 19 21 20 19 18 31 27 38 19 38 22 35 22 33 30
26 36 34 20 22 36 21 25 20 27 19 20 37 31 34 38 27 32 28 23 35 37 29 22 34 19 22 36 18 32 30 24 25 22 34 36 31 30 33 38 28 29 26 33 28 19 28 20 19 30 38 26 18 27 23 19 30 26 29 34 25 25 36 24
21 33 24 28 26 23 32 19 29 22 22 25 37 38 31 27 37 26 30 26 18 20 31 36 32 25 33 25 28 30 20 28 18 20 30 20 35 33 24 30 22 36 24 36 19 19 24 34 23 23 24 19 29 34 34 20 29 20 27 37 35 38 20 20
26 25 36 36 25 23 38 20 36 24 23 22 22 29 38 20 25 23 23 24 26 35 21 26 26 27 24 32 37 29 35 30 38 34 37 35 20 25 37 38 33 30 20 38 27 32 36 21 32 34 27 33 32 32 20 18 26 21 31 33 36 23 36 29
29 20 30 26 19 31 33 21 22 22 21 30 18 35 20 36 18 34 23 37 18 30 35 34 31 24 21 38 27 38 21 31 21 29 28 38 30 32 25 29 20 37 30 28 38 34 26 36 19 20 22 24 37 24 19 25 32 20 28 27 38 37 25 24
28 23 21 19 35 32 34 34 31 34 19 25 33 38 34 33 38 27 29 20 23 27 22 24 38 30 34 37 30 37 32 37 38 25 27 37 33 27 24 27 23 22 30 27 33 28 18 25 30 30 18 22 23 34 34 25 18 23 34 21 29 29 38 27
34 22 36 32 20 30 28 26 18 26 35 37 36 30 22 27 35 27 36 37 19 21 33 24 38 21 26 26 27 38 37 36 30 32 34 30 30 20 29 22 26 38 28 34 19 25 24 37 37 34 19 19 33 32 32 37 29 22 33 37 23 35 26 25
36 24 27 22 21 21 24 19 18 26 24 22 37 38 22 29 30 31 31 22 34 22 24 30 25 20 20 23 21 36 32 23 22 36 29 19 19 32 20 36 24 30 26 18 21 34 21 18 35 19 26 30 25 26 31 25 30 23 34 29 29 19 19 31
24 29 21 29 38 37 18 20 31 36 29 22 33 37 26 23 18 30 29 22 33 18 33 26 35 21 31 19 23 35 19 23 26 38 23 32 20 25 28 32 32 19 24 25 34 32 35 38 27 20 33 32 25 27 19 27 38 29 20 37 29 24 22 36
38 36 34 33 32 37 36 25 36 26 36 22 27 18 31 35 35 22 37 26 27 23 37 26 40 30 18 26 29 35 34 36 22 30 23 35 19 27 35 30 36 31 22 28 42 23 41 35 21 32 27 37 31 36 37 19 27 24 29 19 35 18 37 20
32 29 34 26 38 28 37 36 21 23 34 28 22 33 22 23 40 37 43 45 35 44 33 33 31 29 21 28 26 23 19 37 19 37 22 19 19 28 24 27 37 26 37 44 28 40 34 37 34 35 24 26 35 29 26 38 27 37 27 21 36 19 31 26
31 34 18 36 33 35 34 36 18 33 18 27 26 24 37 38 39 38 44 45 33 33 37 47 37 26 41 32 38 19 24 30 34 28 36 29 26 38 37 38 45 47 46 45 40 46 35 47 29 30 28 32 36 21 18 37 33 36 24 32 22 38 34 23
24 30 38 34 31 32 30 34 33 20 28 24 27 33 46 39 40 46 49 41 46 39 35 40 33 46 37 35 39 37 34 31 43 34 32 47 44 40 38 41 45 50 43 33 48 52 42 49 34 31 36 35 27 31 36 29 23 19 28 32 19 22 34 33
19 23 33 34 29 37 37 25 24 20 24 31 41 29 42 47 39 35 40 54 44 53 52 51 37 41 43 48 55 53 43 52 46 41 45 41 39 58 49 55 36 55 50 42 41 38 52 54 41 48 40 32 40 39 25 20 29 28 18 20 19 27 27 21
37 18 35 29 37 37 38 35 22 19 22 39 27 39 41 35 39 47 43 56 61 45 45 46 64 52 61 60 67 64 58 59 45 53 51 51 47 63 61 65 52 57 52 45 45 47 60 54 39 44 41 30 34 28 30 38 38 20 25 32 26 35 22 31
34 29 29 20 19 18 21 36 21 21 31 27 38 47 43 54 43 50 44 65 59 47 58 50 69 72 59 70 75 72 58 55 64 65 53 58 58 70 72 70 69 69 57 56 45 62 63 43 51 52 53 46 47 36 37 22 33 33 25 25 30 30 28 22
23 18 31 30 23 38 33 20 36 42 41 49 46 35 55 41 49 61 62 52 53 57 69 61 65 70 84 71 65 73 68 62 80 76 64 74 83 68 84 73 73 70 69 61 59 61 61 60 53 49 55 40 52 35 43 32 18 32 25 30 37 23 24 19
30 38 28 21 32 31 21 34 20 28 28 32 51 47 59 57 65 58 52 62 72 75 64 87 84 81 75 87 73 72 88 77 72 72 70 91 89 79 76 72 86 71 78 79 56 72 62 64 54 46 54 56 47 31 28 37 32 33 23 24 31 26 38 35
27 37 34 36 36 19 34 34 39 45 34 41 42 48 47 66 61 57 70 74 69 72 84 75 87 78 92 98 81 82 76 98 98 90 76 79 92 91 84 79 80 88 75 72 71 72 71 70 64 57 62 51 45 35 32 42 28 29 28 20 30 35 31 38
36 34 29 22 21 26 24 29 32 29 44 54 44 60 53 54 59 55 75 68 77 89 94 83 87 100 98 89 102 98 95 87 95 94 101 87 105 88 94 102 85 92 91 88 89 77 59 61 58 64 56 56 39 53 32 30 33 33 20 29 38 28 20 21
28 28 29 26 33 27 25 37 28 30 31 39 55 57 55 61 71 75 81 76 90 91 92 102 92 106 109 98 104 107 98 110 103 104 97 97 94 113 96 93 91 97 97 87 83 69 72 69 64 58 59 44 58 49 47 41 35 22 28 31 22 22 19 20
24 34 36 20 34 27 27 25 33 31 49 38 55 62 67 51 71 64 68 76 84 89 105 111 108 102 113 103 102 101 105 105 105 119 113 110 115 117 101 103 115 99 99 92 99 87 74 69 55 70 60 49 45 55 35 47 30 22 32 25 25 19 23 19
36 28 20 19 30 19 29 35 39 33 43 39 43 47 49 55 65 68 69 79 91 95 102 109 109 117 120 103 114 120 118 121 115 111 117 106 122 119 104 101 100 101 110 94 93 90 87 70 74 67 61 45 41 45 36 31 25 32 25 20 25 22 20 19
27 31 25 19 38 30 37 40 24 42 35 43 57 46 66 58 71 76 84 90 89 111 101 100 108 113 110 121 108 110 122 120 113 127 118 118 115 118 112 106 101 110 98 111 93 94 71 77 70 64 67 49 42 48 48 34 34 30 22 33 24 30 32 18
22 26 31 29 26 18 25 28 26 37 32 48 44 53 61 57 62 78 70 89 89 93 107 110 119 117 108 118 112 128 134 126 121 129 128 128 115 114 120 112 105 106 114 106 103 93 75 70 58 67 50 56 41 41 43 38 36 25 27 30 37 25 35 21
29 22 32 32 33 38 34 27 35 42 47 47 52 46 51 61 70 72 77 78 99 103 95 102 102 120 105 125 125 115 118 136 141 134 130 115 122 121 107 117 106 103 91 100 93 84 66 63 68 67 52 56 45 34 39 43 22 19 21 35 23 32 28 28
19 35 25 23 30 18 37 21 30 41 43 50 45 46 49 60 55 73 73 74 86 98 89 110 113 107 115 108 115 132 131 131 133 132 131 114 127 121 106 106 105 96 89 100 85 85 74 71 66 57 43 58 52 47 40 25 41 25 36 29 29 34 27 34
19 31 20 28 22 20 27 30 28 33 36 50 47 39 47 60 63 64 72 71 82 89 104 92 98 101 117 121 120 129 125 123 132 131 127 125 109 110 120 115 96 98 90 86 89 67 63 64 53 64 41 47 46 37 41 26 21 35 38 30 22 18 21 21
22 20 19 32 35 35 18 32 22 34 25 42 37 42 55 61 44 52 66 73 71 93 89 99 89 97 98 119 101 124 112 120 113 119 117 111 113 111 111 95 99 89 82 87 69 79 60 59 53 44 48 43 46 29 34 42 24 35 20 29 23 31 19 19
26 34 25 31 34 34 37 38 19 37 35 37 41 51 44 48 56 52 56 66 73 87 95 84 87 96 105 108 98 116 108 102 98 108 110 113 112 111 104 98 96 97 78 82 76 75 63 44 46 47 48 41 34 33 42 20 31 19 35 38 28 27 34 25
33 34 38 18 21 25 20 21 28 35 28 31 36 50 36 50 52 58 54 64 57 72 72 90 78 95 84 103 109 95 99 103 100 108 103 95 104 88 87 99 78 86 78 74 77 68 52 43 45 52 51 43 32 28 40 30 18 26 37 29 24 34 20 20
29 37 36 37 32 30 38 23 26 30 23 39 26 38 37 44 36 54 45 50 64 57 75 76 79 80 88 97 92 95 89 89 93 91 82 99 98 83 84 83 73 83 70 66 54 46 39 50 51 43 46 33 29 39 33 35 36 32 33 26 32 29 26 31
35 36 27 20 37 18 25 28 26 31 25 33 22 32 33 36 34 43 43 59 44 63 62 62 78 70 82 72 83 86 78 78 81 91 82 80 83 72 77 68 66 59 73 59 51 58 35 35 44 35 28 33 33 33 34 28 29 33 23 31 38 32 22 26
34 26 21 38 25 29 29 24 23 30 18 25 28 27 36 40 40 39 31 42 50 44 54 70 70 75 71 66 80 72 82 86 79 75 73 82 72 63 64 69 75 66 48 45 43 45 38 34 29 27 35 24 34 25 24 33 24 25 33 18 36 28 29 24
34 31 32 25 26 37 36 27 33 33 35 21 26 19 38 35 30 42 27 30 32 55 51 55 65 63 53 58 65 76 76 75 65 73 70 61 63 71 56 69 54 63 47 39 31 37 27 36 23 34 27 31 18 31 27 35 35 30 31 24 22 18 21 24
33 21 31 18 22 32 37 18 29 19 18 25 34 31 24 38 31 23 29 33 41 36 45 48 49 45 56 66 68 69 72 72 57 74 71 53 65 65 57 61 51 41 52 44 32 23 41 34 23 19 36 22 38 23 26 18 25 23 28 24 22 28 38 33
31 33 21 26 32 21 37 19 31 34 28 35 24 35 30 23 36 30 19 28 22 33 36 48 43 45 57 62 63 65 64 64 56 50 55 47 53 62 41 41 53 40 38 34 21 25 18 29 23 20 36 20 19 33 23 32 31 22 20 34 26 27 21 26
35 30 23 28 34 24 32 24 33 24 21 28 18 26 36 25 38 34 22 25 24 35 33 31 32 48 47 49 53 58 61 60 46 55 56 59 42 52 40 31 39 34 37 28 33 20 28 38 30 33 37 22 30 30 19 18 29 38 25 20 25 24 21 38
37 28 36 25 18 34 26 29 35 29 18 27 23 34 31 21 19 37 38 32 20 25 25 37 27 30 41 33 47 36 55 40 39 55 47 39 53 50 48 29 39 38 20 20 33 21 36 37 19 29 35 28 18 38 34 27 32 23 20 18 32 25 30 26
20 29 26 28 37 36 26 36 28 20 23 19 28 28 30 38 31 36 22 22 18 36 32 37 25 29 33 41 30 44 30 51 48 44 36 32 43 45 26 27 25 29 31 20 28 22 32 33 33 38 24 21 27 25 21 27 27 28 23 18 23 20 21 32
19 36 26 28 28 22 27 38 19 36 24 26 38 32 22 36 21 33 30 24 27 25 32 23 21 35 27 36 34 24 33 37 36 29 30 40 27 31 34 28 21 30 27 31 31 28 24 37 25 35 30 37 25 35 20 34 24 26 32 21 31 27 33 23
18 26 34 35 38 22 32 21 31 19 27 25 30 27 21 18 27 21 35 19 25 35 38 28 24 23 22 21 20 37 37 35 26 21 26 29 31 27 19 35 34 35 18 19 25 19 20 21 23 30 36 20 22 25 30 26 38 38 36 25 36 32 37 37
35 31 30 35 30 27 20 20 32 36 36 28 30 31 18 33 18 37 24 24 25 26 22 29 28 37 19 34 34 33 20 27 26 21 24 27 37 26 23 24 33 24 22 24 31 32 25 25 36 29 33 33 30 36 30 38 20 25 22 38 37 37 27 19
32 23 24 37 26 21 19 27 19 20 35 22 18 24 19 34 38 28 25 18 30 18 29 23 26 24 32 21 18 22 38 21 22 25 36 33 34 38 31 26 21 34 34 38 21 30 25 34 26 32 29 38 24 30 38 18 21 18 33 37 21 28 25 23
25 37 26 18 35 19 22 29 21 22 35 34 24 31 19 20 34 30 21 33 27 30 24 31 18 34 35 28 35 23 38 30 25 33 33 29 30 25 28 27 30 20 23 32 33 36 27 34 35 19 23 27 21 36 19 28 32 20 19 28 27 29 36 38
28 23 36 26 36 33 24 33 31 19 38 23 27 32 19 21 35 35 38 37 36 22 20 25 34 36 23 18 23 35 20 27 19 22 30 20 29 38 20 29 31 36 37 32 31 35 20 18 37 23 20 24 31 28 29 34 19 30 23 38 26 28 20 19
35 37 33 27 34 35 32 32 29 30 26 36 21 25 27 26 33 34 24 36 37 37 28 33 35 33 28 23 28 20 22 28 28 20 28 19 24 29 28 35 28 38 26 33 24 24 37 29 32 35 29 34 35 22 35 19 34 28 26 34 22 22 25 19
38 32 24 34 30 33 21 23 20 37 23 33 32 22 22 18 29 37 25 22 23 25 18 22 35 25 30 18 22 28 23 31 28 25 18 38 32 18 38 32 27 19 22 29 33 32 19 25 28 31 35 37 27 36 22 29 28 25 35 27 31 26 36 26
37 19 27 24 19 23 28 24 29 20 35 35 32 27 34 31 19 25 30 29 23 18 26 37 34 35 27 25 28 22 23 20 31 29 33 18 19 21 26 31 32 22 19 20 29 26 37 29 21 31 21 27 20 30 33 29 26 29 20 23 31 34 21 26
30 32 20 34 25 33 33 35 32 22 23 35 29 32 18 27 28 21 34 33 35 38 26 34 33 26 29 26 38 38 36 28 33 19 28 37 30 33 27 36 35 34 35 32 18 25 33 31 38 29 37 31 26 35 30 25 19 33 27 35 32 19 24 18
33 22 37 31 35 32 25 18 29 21 35 21 33 28 35 21 20 28 25 35 29 35 25 37 25 36 29 37 35 33 33 25 30 27 25 19 37 20 37 25 35 19 19 28 22 20 24 34 24 18 38 19 20 34 36 20 35 36 20 21 34 26 24 22
33 31 20 26 24 28 26 20 31 31 30 19 34 24 25 32 25 35 31 37 24 26 31 18 18 32 30 28 24 34 29 28 32 21 32 33 24 22 26 31 32 21 21 25 22 22 22 24 29 20 31 28 37 35 29 33 27 29 33 36 27 38 19 29
34 38 30 30 36 30 35 26 18 36 38 30 20 34 38 37 28 36 18 19 37 21 37 24 37 21 23 34 25 25 34 29 22 24 18 28 22 35 31 28 25 34 27 29 25 23 36 22 32 25 29 33 38 18 33 30 22 29 31 25 20 33 23 35
32 22 26 28 30 29 27 28 26 18 34 18 23 25 19 33 29 19 26 29 32 20 37 27 22 36 28 33 23 26 32 28 30 23 19 33 25 31 19 28 31 20 24 36 19 18 38 31 20 25 32 38 21 24 29 31 24 30 28 38 27 29 20 24
