P2
64 64
255
16 25 24 22 21 16 26 24 24 17 21 17 14 20 24 20 15 21 17 26 19 23 24 23 17 15 14 15 23 23 17 26 17 16 14 19 18 14 24 26 17 18 14 15 21 14 19 15 20 23 15 22 26 21 20 16 20 16 25 23 19 14 21 24
14 24 22 24 26 21 17 23 26 24 22 17 24 18 17 18 25 24 19 14 21 18 17 14 25 24 24 20 22 15 15 25 22 15 18 15 20 26 16 14 23 17 22 15 14 23 16 20 16 19 16 17 25 20 24 19 16 25 15 15 19 24 25 21
20 14 20 25 20 22 16 23 25 20 15 25 16 24 20 22 21 24 20 24 25 24 20 18 22 19 26 23 19 23 18 14 21 15 14 26 18 18 16 16 17 14 23 23 21 19 19 23 14 26 17 17 19 22 24 15 20 17 23 20 17 21 19 20
25 18 26 14 17 21 20 25 23 26 24 21 19 17 17 22 17 16 25 19 18 19 26 19 19 14 17 17 23 19 21 21 19 22 16 22 17 20 20 20 16 19 15 23 23 22 25 22 19 23 15 25 20 20 14 20 15 15 22 18 21 18 14 20
25 24 22 17 20 23 16 25 19 16 15 19 19 24 23 25 17 17 17 25 19 18 16 18 25 17 26 23 15 19 18 25 25 23 20 26 16 15 15 21 26 14 19 21 21 19 14 19 22 14 25 16 18 22 17 14 20 25 15 16 17 18 14 24
24 19 20 24 20 21 23 14 18 24 18 18 17 22 15 14 24 18 16 21 15 19 21 25 18 22 17 17 21 24 14 23 15 25 21 19 19 25 15 18 19 25 15 16 17 22 19 21 16 19 23 23 23 14 19 14 26 23 17 18 15 22 18 17
25 17 14 19 21 19 14 24 14 15 21 17 25 21 22 22 14 15 21 18 20 26 22 14 16 25 17 22 22 16 14 20 26 20 14 21 15 23 20 26 15 25 16 24 14 23 23 21 17 17 26 18 22 15 15 18 24 17 24 24 22 14 14 21
16 21 17 14 24 26 22 24 15 26 17 16 22 26 16 25 19 26 14 14 24 23 23 21 25 18 22 24 22 14 18 23 23 26 20 23 25 15 26 22 14 21 15 20 16 25 23 18 26 15 22 16 15 19 23 24 15 18 25 15 23 25 24 23
20 25 26 17 23 20 21 16 25 16 19 15 14 26 21 16 25 18 17 21 21 26 15 19 19 21 14 26 26 22 20 17 24 17 21 20 14 19 22 22 26 17 24 24 24 20 20 19 21 23 21 22 14 14 20 19 15 21 25 14 17 25 23 25
15 23 20 25 21 18 14 22 14 25 17 18 20 18 16 19 26 23 20 15 14 14 18 15 22 24 23 15 18 23 21 26 16 20 26 23 22 23 26 26 23 14 22 19 26 17 24 20 26 23 26 15 22 25 17 19 19 25 21 17 14 15 18 22
23 22 19 18 22 26 26 25 16 21 19 18 25 14 19 23 18 25 19 20 25 20 21 18 25 22 15 26 17 17 17 24 18 16 23 14 21 25 20 16 23 17 23 15 16 16 21 18 24 17 15 25 16 24 20 23 20 14 17 24 20 21 24 18
19 22 21 26 24 16 15 19 25 22 25 18 23 25 26 17 23 16 26 16 19 18 15 16 26 14 23 25 22 15 25 17 15 23 17 21 25 23 22 26 24 25 20 17 18 17 18 22 15 22 19 20 17 16 16 20 24 20 15 21 26 20 19 25
15 14 23 21 16 26 23 16 19 22 17 18 20 19 23 16 17 19 15 23 16 18 19 14 25 19 23 16 22 18 24 15 26 17 26 16 23 25 24 19 23 17 14 19 24 24 17 25 19 18 18 20 26 15 20 17 17 22 15 18 20 15 14 24
24 17 18 23 25 26 17 16 24 22 14 15 26 17 23 18 15 25 19 18 23 21 21 17 14 25 24 16 26 25 23 23 26 20 22 14 22 18 22 21 21 23 16 21 17 16 18 22 24 26 20 24 19 15 26 15 18 20 17 15 19 15 21 16
18 19 15 15 24 19 20 25 24 25 20 25 26 15 26 26 15 25 19 26 24 17 17 23 15 24 23 14 18 16 16 24 20 19 20 20 21 23 19 14 20 17 18 19 17 21 15 19 14 25 17 14 23 18 20 14 19 24 21 26 24 14 18 17
25 25 26 15 16 14 15 19 22 25 21 25 20 20 19 24 14 20 16 25 15 25 24 18 20 26 20 19 16 19 20 22 20 20 21 24 23 26 17 17 20 24 19 22 23 18 22 19 22 20 19 15 26 22 20 19 21 14 18 19 17 24 14 17
19 14 23 14 25 20 22 22 17 22 24 24 20 25 17 15 20 16 20 18 24 24 14 21 20 20 14 16 14 18 22 15 25 23 14 26 24 14 18 25 17 26 15 17 26 18 19 15 15 19 24 26 20 17 15 16 22 23 20 21 14 18 23 19
18 25 16 19 23 19 18 15 15 15 17 26 25 20 16 26 15 17 15 16 23 21 23 25 21 26 20 21 20 26 19 19 23 14 24 18 22 18 25 25 15 26 16 23 25 26 19 17 15 15 14 15 21 24 15 15 21 18 16 24 17 26 26 19
23 26 19 23 24 23 25 23 15 21 24 21 24 26 17 16 20 22 21 14 22 18 20 24 18 17 19 24 16 18 20 16 17 19 25 23 20 16 25 19 26 25 16 23 21 17 21 23 14 25 15 22 16 22 25 21 16 25 21 23 22 22 22 21
16 22 26 16 24 22 15 20 16 15 18 16 18 19 14 14 27 20 26 27 23 29 25 17 19 23 26 17 26 22 22 21 25 19 21 23 23 24 21 26 28 23 22 22 26 24 21 21 17 25 17 16 23 15 23 14 22 18 14 25 23 14 25 25
18 25 16 23 17 16 14 21 20 23 20 14 20 17 20 21 24 29 23 31 26 28 24 32 20 24 24 15 24 18 17 21 17 23 24 22 21 25 17 28 23 28 27 34 25 31 24 22 23 27 19 15 19 16 25 17 16 20 19 16 18 22 26 14
25 26 19 26 15 17 20 19 19 23 22 19 19 17 21 25 24 34 24 25 27 34 27 29 27 24 24 26 27 15 28 23 19 19 17 22 17 24 20 30 33 34 27 27 37 25 28 24 28 20 20 26 17 26 24 19 25 23 17 20 18 23 22 20
24 25 21 17 23 19 23 19 18 21 20 20 26 23 28 35 31 28 36 37 37 31 41 29 37 37 30 32 31 25 28 32 35 31 34 36 25 31 26 29 29 36 35 36 38 39 30 31 36 29 22 29 29 20 26 23 17 15 15 24 18 24 25 17
17 24 14 16 25 25 16 22 24 24 20 27 22 34 30 31 32 31 36 44 33 33 37 42 43 37 42 44 42 43 36 38 41 34 34 36 44 36 44 44 40 34 37 38 41 40 38 37 34 32 37 35 29 18 15 17 22 26 20 17 19 23 20 15
20 15 21 23 22 21 20 19 25 23 19 32 25 30 29 40 45 46 43 45 43 38 41 42 44 49 51 46 52 46 47 45 42 43 47 42 46 50 55 42 40 51 45 46 42 39 38 39 43 36 37 36 26 29 22 17 26 14 14 25 14 15 22 24
18 19 17 25 15 18 19 18 26 22 19 34 32 28 41 43 38 40 41 43 48 41 50 53 49 61 52 60 54 58 48 55 55 56 48 51 56 64 60 56 55 53 50 51 41 49 50 47 42 39 41 31 27 31 28 21 25 16 23 18 25 19 26 21
15 24 21 19 26 17 24 17 22 20 31 28 33 42 41 38 51 49 53 49 51 55 59 64 65 66 71 60 60 70 59 60 59 64 59 64 69 69 64 65 57 61 55 57 52 51 43 51 42 42 36 38 35 32 22 28 25 26 18 26 26 21 16 20
24 25 18 23 18 15 19 25 23 26 26 31 42 36 44 47 43 49 54 54 63 65 68 67 73 74 78 69 78 72 68 64 73 73 69 78 77 77 73 75 70 73 66 62 52 51 58 54 42 50 38 43 35 29 29 21 28 18 26 19 26 15 20 25
21 19 20 21 21 23 16 17 25 27 37 30 39 43 44 44 47 53 55 64 71 64 79 79 78 83 83 81 85 86 77 77 75 79 79 75 79 78 85 76 79 82 69 71 71 61 62 48 56 42 46 35 41 33 30 32 24 23 25 19 20 16 18 15
19 19 16 17 19 16 21 23 19 22 36 32 36 49 51 47 49 56 61 64 70 77 84 88 81 89 88 91 89 86 85 92 84 89 90 83 83 83 84 82 87 88 85 80 71 64 61 56 57 45 52 40 41 33 27 30 18 25 14 20 25 24 16 23
16 23 22 22 26 21 19 22 22 30 34 37 44 45 53 55 58 60 58 65 80 89 88 96 97 94 89 93 95 89 91 101 99 96 93 94 99 96 97 88 86 91 86 89 81 75 69 59 49 51 43 44 36 38 39 31 23 16 17 14 25 25 24 21
23 16 19 18 16 14 17 21 32 35 39 40 35 47 51 51 53 63 73 73 84 90 96 94 97 99 104 104 101 105 102 97 99 105 107 104 101 97 103 93 91 101 94 85 86 78 61 66 54 49 43 46 41 36 27 23 20 24 21 19 16 25 15 24
26 26 18 22 22 17 19 27 24 27 31 41 35 42 51 53 56 67 75 80 90 100 92 100 101 106 100 110 100 108 111 105 110 114 108 106 99 111 109 103 104 102 97 91 93 86 66 66 57 48 51 46 41 37 31 35 31 23 21 18 24 26 15 18
19 26 24 14 22 16 23 19 30 33 28 41 47 46 55 58 59 60 66 83 82 95 94 98 97 109 101 105 105 109 111 109 120 113 117 105 112 108 103 99 104 106 97 100 84 77 66 58 56 54 50 43 42 34 29 23 26 22 15 21 15 22 24 20
17 15 21 25 20 25 14 17 27 28 30 33 43 47 47 48 56 59 75 84 87 90 92 97 106 103 106 113 114 107 114 124 120 122 121 116 110 109 111 100 97 101 91 87 80 80 64 54 49 56 49 47 43 42 36 27 31 15 24 15 20 26 22 22
24 25 21 15 14 14 17 15 26 23 31 35 33 49 43 44 51 55 73 76 83 83 90 98 96 107 102 108 106 113 117 122 125 120 122 120 114 113 105 108 99 101 98 84 84 79 71 61 58 46 45 47 45 38 27 28 28 26 18 22 14 24 18 17
16 25 19 22 16 15 25 20 26 23 28 28 32 38 46 44 53 59 70 77 81 88 94 92 102 101 110 103 111 111 120 121 123 124 113 113 113 104 108 98 100 94 92 79 82 70 67 51 48 53 46 44 41 38 33 33 19 22 26 25 17 18 15 16
17 15 24 19 20 19 19 15 16 24 26 38 32 38 40 50 43 54 61 65 74 81 84 93 94 98 102 107 113 108 114 121 112 115 108 106 106 103 98 104 101 92 80 81 76 65 57 55 51 52 37 45 38 34 34 28 20 21 17 26 18 18 20 25
18 16 20 24 24 20 22 18 26 22 27 27 34 31 41 40 50 51 60 66 73 76 82 89 91 93 94 103 99 111 108 113 103 103 109 106 100 101 100 95 94 81 80 71 72 63 58 51 50 38 38 32 28 25 27 27 16 16 23 25 16 15 20 19
22 23 23 18 19 17 16 14 19 17 28 30 36 33 35 34 40 44 51 56 67 73 76 87 91 83 89 91 94 93 97 95 99 101 101 96 91 92 87 92 89 84 75 69 66 62 49 47 36 46 39 39 35 25 31 27 14 26 25 19 25 22 21 24
19 20 20 20 25 25 19 24 21 14 25 20 28 37 30 33 36 42 49 49 53 65 72 76 85 86 85 94 89 87 88 92 85 88 96 90 87 91 83 85 78 69 73 64 62 59 41 42 35 36 35 27 34 21 28 25 14 17 26 16 21 26 20 24
17 21 22 19 19 22 15 22 26 19 18 17 31 29 32 27 34 36 42 51 47 53 65 62 71 73 81 81 78 88 80 86 84 87 89 86 85 87 83 75 74 71 59 61 59 47 39 36 38 35 36 26 20 26 25 19 23 25 16 18 19 26 25 26
20 18 24 15 26 19 19 16 15 23 24 21 25 32 25 28 35 31 38 38 51 57 55 58 62 65 67 69 69 70 70 78 71 78 73 78 79 79 75 73 62 56 60 50 52 42 31 27 34 29 32 29 29 27 23 22 24 25 25 16 23 24 20 26
21 21 15 19 23 22 25 15 26 17 20 26 18 20 29 29 29 29 24 31 34 45 45 53 59 59 65 59 68 61 68 75 74 75 73 64 69 59 58 61 63 56 52 40 45 30 35 23 25 21 24 24 14 19 20 16 21 22 24 14 25 25 21 24
14 22 15 23 20 15 19 18 20 14 20 19 24 18 26 25 26 22 26 30 35 33 43 52 45 53 51 62 57 58 57 62 61 68 61 62 56 50 57 48 53 49 40 43 36 25 31 24 29 19 25 20 22 22 19 17 14 18 18 19 20 23 26 26
26 17 18 21 15 25 18 26 17 18 15 22 22 22 18 19 15 25 23 29 19 30 37 41 47 47 49 50 51 51 54 61 58 57 63 54 52 46 51 42 41 44 34 34 27 23 24 16 24 25 22 24 25 19 16 21 25 24 26 19 19 24 17 16
16 18 22 26 15 25 18 20 20 21 19 23 18 15 26 17 19 22 19 23 22 26 27 32 36 35 44 45 46 55 45 55 50 47 49 50 46 41 43 35 29 25 30 26 24 19 18 17 15 25 23 17 15 18 20 16 17 17 26 18 17 16 19 18
15 23 25 17 14 14 19 22 15 25 25 24 25 18 26 26 23 21 14 14 24 23 22 23 25 39 32 42 40 43 39 40 39 43 43 48 47 38 39 36 27 22 25 23 25 23 22 26 22 16 21 15 23 25 25 26 26 19 26 23 21 23 21 24
25 23 16 22 23 23 20 16 26 26 17 22 25 17 25 26 18 25 15 25 24 14 23 19 25 28 35 39 38 37 32 42 36 44 37 41 33 31 36 22 27 27 24 17 21 25 23 20 25 26 18 14 17 25 17 19 18 17 22 15 16 23 17 15
20 20 20 15 15 14 22 25 16 18 20 20 21 14 15 23 21 19 22 17 25 16 24 26 14 16 25 22 25 27 26 37 32 32 26 25 29 27 23 25 21 24 20 24 19 16 23 23 17 21 22 26 17 18 15 25 16 14 19 24 20 17 14 23
24 21 15 26 17 25 20 19 19 20 16 15 14 15 18 24 25 25 26 22 19 18 14 18 23 24 22 23 22 23 26 22 25 25 29 28 22 22 22 19 24 23 23 19 24 25 21 22 23 21 21 21 24 15 21 17 24 20 15 16 19 22 23 21
25 14 18 18 16 25 17 15 21 25 15 23 24 22 23 21 20 25 16 20 25 23 16 16 21 22 19 14 19 19 15 24 18 26 26 16 20 17 20 16 26 25 25 20 21 15 22 18 23 25 20 25 26 17 19 19 22 23 23 21 17 23 21 18
20 15 23 24 21 23 18 21 24 20 17 26 21 23 15 22 25 20 16 16 25 24 22 24 26 19 18 23 14 19 15 16 22 25 15 21 22 15 20 26 23 16 21 21 16 14 14 25 21 20 24 19 24 15 21 22 25 18 22 16 23 23 14 15
19 14 26 25 15 20 15 21 26 15 15 15 20 20 17 14 21 22 24 14 24 15 18 17 25 16 24 26 18 15 18 24 26 26 18 19 25 19 24 23 22 18 14 26 19 15 22 25 16 20 19 16 24 14 14 14 20 15 15 20 14 24 26 25
15 22 15 16 24 21 15 21 22 20 14 25 25 24 14 19 16 16 15 26 22 18 15 23 14 19 19 22 25 18 24 24 26 14 21 26 20 14 17 25 25 21 25 26 21 19 21 21 22 24 24 24 16 25 20 19 19 14 25 14 20 23 14 17
26 25 22 24 16 25 20 25 23 14 15 17 24 14 19 19 23 14 19 23 23 17 23 22 22 26 15 20 18 24 19 16 14 23 16 22 23 22 19 25 26 14 26 26 17 19 14 23 18 23 16 24 18 19 24 21 20 14 20 18 19 24 20 16
21 20 14 15 19 18 17 15 19 25 22 25 16 23 14 26 16 18 21 21 19 24 25 20 22 16 25 24 18 21 17 17 21 23 21 24 18 25 22 16 18 20 23 23 21 25 14 14 19 17 21 23 26 20 15 17 24 21 19 18 14 17 18 24
24 23 21 25 17 22 21 22 25 14 19 18 16 17 18 15 24 19 15 26 18 23 20 16 22 19 15 20 25 25 24 25 24 21 15 22 22 15 19 24 22 15 16 22 19 24 25 15 21 14 20 25 21 25 16 18 25 23 16 17 18 17 14 25
20 23 21 25 14 24 25 21 15 22 20 21 14 20 25 19 16 16 18 18 18 23 20 22 15 15 22 21 16 18 16 20 15 15 18 18 16 20 18 14 21 20 25 17 19 20 25 25 14 23 21 16 14 17 21 22 24 14 19 20 14 25 19 20
23 18 15 19 25 26 15 25 18 16 21 21 26 14 21 24 20 24 14 22 15 20 26 24 18 16 26 21 17 17 17 23 19 21 25 20 25 17 23 24 23 18 21 26 26 22 20 17 21 15 25 26 20 18 25 15 19 26 25 20 26 24 20 14
20 17 19 20 24 19 18 24 21 21 14 24 24 20 16 17 16 24 17 14 25 17 17 21 22 19 15 17 18 25 25 14 15 22 22 25 25 25 17 15 26 17 17 21 14 19 26 18 26 14 24 20 18 20 15 20 14 15 26 24 16 20 26 17
24 21 17 20 16 22 24 16 19 22 26 17 22 14 17 26 22 21 22 18 14 14 18 22 19 18 15 26 17 19 20 15 25 25 25 17 18 20 18 14 18 15 21 19 24 25 14 16 14 25 17 26 26 22 21 26 26 14 14 26 23 16 20 18
23 23 26 21 22 23 18 18 15 24 26 23 23 25 21 19 18 21 18 19 18 24 25 22 25 14 16 18 22 16 18 21 18 19 26 18 17 23 17 26 20 24 19 15 15 20 26 14 14 21 26 18 25 23 15 20 22 17 15 24 17 23 25 22
18 17 20 26 16 16 22 25 14 17 21 15 14 25 20 17 16 14 26 19 14 20 16 23 25 22 15 24 18 21 22 14 14 17 25 24 25 14 22 15 20 20 22 17 21 22 18 19 26 18 16 24 15 25 22 15 19 20 15 20 18 22 14 25
