P2
64 64
255
19 23 25 15 17 18 19 17 23 22 23 16 17 18 19 14 19 23 14 20 17 16 18 24 26 24 21 22 19 19 25 25 16 22 22 21 21 18 26 16 17 20 17 18 20 15 15 17 14 18 20 20 18 18 16 26 17 19 18 17 19 16 15 24
21 16 20 15 20 26 14 15 26 26 23 25 18 20 25 23 15 16 26 23 20 17 21 18 23 23 19 22 17 18 21 26 22 23 25 18 22 22 23 18 17 14 22 15 26 25 24 25 25 15 16 24 18 23 20 20 21 17 18 16 23 19 15 14
16 23 14 18 19 22 14 26 24 22 21 25 20 25 15 20 24 20 25 24 16 19 24 23 18 23 15 19 21 16 14 14 25 20 15 20 21 26 14 17 24 21 23 22 23 16 17 20 23 17 19 18 19 14 23 19 16 18 22 20 22 18 21 14
22 14 16 17 18 22 18 25 22 24 22 14 22 16 21 25 22 23 23 17 24 24 25 21 22 24 23 16 17 24 22 17 18 26 26 17 14 24 26 26 22 26 14 15 25 17 17 24 20 23 14 17 15 16 18 24 21 16 22 22 14 25 23 17
17 25 18 26 26 15 14 21 16 21 14 26 21 25 24 19 17 23 22 26 15 26 20 16 15 25 25 23 26 19 17 20 24 25 26 25 21 17 24 21 24 22 20 25 21 19 17 15 19 22 24 19 24 25 15 23 21 17 15 26 16 16 23 26
14 25 24 17 22 21 22 26 19 14 15 25 18 26 14 24 21 24 22 18 25 21 25 23 22 21 26 26 16 20 20 22 17 22 16 24 15 25 20 20 21 18 18 17 25 25 14 17 25 23 25 22 19 20 20 25 24 15 14 17 21 18 14 26
22 26 15 16 22 17 19 21 24 23 17 22 14 22 19 23 17 23 15 16 17 19 16 26 20 22 26 21 26 25 17 22 25 22 26 22 20 17 22 25 21 16 26 24 18 16 17 26 22 18 18 14 15 23 26 22 22 20 18 21 17 23 19 21
23 17 21 17 23 18 14 26 19 18 16 17 20 19 24 21 19 14 22 14 25 22 17 26 19 26 16 21 22 20 16 15 16 22 24 16 23 15 15 20 15 20 20 18 19 17 26 19 19 24 19 14 19 18 15 26 15 20 16 23 18 25 19 22
24 16 22 18 23 14 23 14 16 16 20 15 16 16 14 24 21 15 23 20 23 20 14 15 14 15 17 25 22 26 20 15 21 21 25 15 21 20 26 22 15 17 25 20 19 16 21 20 15 17 23 21 22 16 19 14 24 23 17 14 25 17 20 19
23 26 19 21 19 14 23 23 21 23 25 17 18 20 24 24 22 15 21 18 17 14 19 19 20 15 23 21 24 22 18 15 24 19 23 23 15 25 26 18 24 20 24 15 24 22 21 24 25 25 26 18 23 14 15 25 18 16 17 16 16 14 14 22
22 15 20 14 16 19 24 14 18 14 22 14 19 21 15 18 22 22 24 14 16 19 22 16 19 25 23 14 16 15 21 21 20 23 14 23 25 21 16 21 15 20 25 14 24 21 22 25 16 17 17 23 20 18 17 22 25 23 14 25 20 26 18 15
18 14 21 26 22 26 20 17 24 23 20 19 18 15 26 19 24 19 19 16 16 23 18 24 22 24 16 25 18 25 14 19 16 19 26 19 14 23 25 20 23 23 20 22 26 26 20 23 18 17 24 16 21 23 14 25 15 17 17 16 15 22 25 18
15 20 20 15 24 17 25 26 14 23 18 25 22 25 25 25 20 14 14 19 21 21 21 25 26 14 26 14 25 16 14 16 15 24 19 22 19 26 25 18 18 20 26 16 14 21 20 21 17 14 15 24 26 25 18 26 17 19 19 26 19 14 24 17
14 16 23 15 19 25 20 18 24 26 16 23 15 16 24 18 19 20 16 18 19 15 26 24 18 18 26 19 16 17 17 25 22 18 15 24 15 21 25 21 15 24 20 22 17 24 17 20 14 21 26 15 22 25 20 22 19 26 25 19 22 15 19 16
18 26 16 14 22 25 24 18 18 16 17 16 20 22 19 18 17 18 24 26 18 23 15 24 22 14 26 23 22 20 18 19 25 23 20 26 15 26 15 18 19 24 14 26 17 19 21 26 20 24 17 26 24 15 16 18 14 17 24 15 24 24 17 25
20 23 16 25 19 20 20 15 17 16 22 25 24 21 14 18 18 22 17 23 16 18 26 18 19 19 15 18 24 25 25 18 24 26 19 19 20 20 16 24 18 21 19 15 25 24 19 18 18 15 15 21 14 14 26 15 21 23 14 26 19 20 24 24
18 25 17 15 25 26 15 22 24 23 21 14 16 25 24 23 24 18 23 20 23 20 23 21 21 25 15 23 23 20 16 22 18 18 15 25 20 14 25 25 20 26 16 18 20 14 23 15 14 16 17 23 14 14 15 17 18 16 21 24 17 22 24 22
25 15 25 24 21 21 17 24 15 19 14 22 24 15 17 20 23 21 15 24 17 26 17 23 16 25 14 21 25 23 18 22 24 15 22 17 15 16 25 22 21 25 21 25 18 20 14 20 14 24 26 23 15 22 20 19 17 23 19 20 26 16 18 23
15 24 20 21 25 23 17 15 19 15 15 23 17 25 20 17 19 16 15 14 20 15 24 20 18 18 26 21 18 19 25 14 20 26 17 25 26 22 18 22 16 18 25 21 16 21 21 22 21 15 17 25 19 14 24 23 17 16 25 24 23 20 23 22
16 22 26 19 21 22 25 23 14 15 15 17 15 25 14 23 26 22 25 23 18 23 29 27 24 19 22 25 25 25 19 25 23 18 17 15 19 17 16 20 25 18 28 18 22 17 27 17 17 17 18 20 26 25 21 23 17 25 22 18 26 23 19 16
22 22 22 19 24 19 22 15 16 15 18 18 16 16 16 25 26 24 32 26 32 30 26 27 20 27 24 24 18 16 23 25 20 23 16 26 25 16 24 29 21 24 21 24 25 31 27 24 23 23 16 20 22 16 21 17 25 24 16 23 24 24 15 23
20 16 24 17 20 14 17 14 18 26 15 15 17 21 24 31 26 32 33 25 29 36 29 28 23 30 25 26 16 26 20 17 17 18 16 21 17 24 23 27 30 27 36 34 35 28 26 29 25 20 31 20 25 24 18 25 16 25 21 25 20 23 25 15
23 22 22 26 14 15 15 23 23 24 24 16 26 21 33 32 37 38 39 29 29 41 41 33 32 27 27 32 21 28 19 19 17 23 23 28 32 33 36 34 38 33 34 30 41 35 36 37 27 24 34 22 25 17 16 23 24 16 15 26 16 23 19 14
19 15 23 16 14 19 17 21 19 16 19 17 22 24 36 33 39 31 44 44 37 35 39 35 38 40 37 36 30 22 21 14 21 26 20 29 34 26 33 39 33 36 40 34 40 42 34 34 40 29 29 30 25 27 16 24 21 14 14 18 16 23 20 24
18 14 19 26 16 23 25 26 20 24 19 25 30 31 38 37 36 44 40 45 43 49 41 41 34 43 43 28 35 31 29 26 18 27 21 27 26 39 38 35 37 47 46 40 47 39 41 39 37 33 36 36 34 31 27 19 22 18 22 15 17 22 25 24
21 17 24 15 19 16 22 15 25 20 27 26 36 28 40 41 38 38 45 50 41 46 46 48 45 39 42 35 40 25 31 25 24 22 26 34 38 41 34 40 46 44 45 47 47 45 46 48 40 38 38 36 29 29 28 25 15 20 24 18 20 18 20 23
22 16 16 26 18 14 16 15 15 29 26 32 35 40 44 46 45 42 48 46 52 48 44 50 47 41 49 39 31 34 31 29 34 32 33 38 40 41 48 42 47 47 49 52 47 56 44 42 39 41 45 38 36 31 22 25 18 16 20 25 18 19 22 25
21 21 22 25 16 15 14 21 27 20 34 37 31 34 38 44 49 57 49 54 51 53 60 59 56 46 41 47 36 32 29 33 33 33 38 37 33 43 47 46 57 53 59 56 54 54 57 52 53 44 37 37 39 39 24 32 18 15 18 17 26 14 22 23
24 25 25 15 23 16 26 16 21 31 27 31 40 35 42 49 51 59 60 55 60 65 54 58 48 48 42 45 38 41 37 29 39 39 30 38 47 45 54 55 51 51 58 62 63 59 53 58 57 43 51 40 33 39 37 29 26 14 26 14 15 22 22 16
26 26 16 26 22 14 15 18 20 34 34 37 42 49 42 51 47 61 58 64 63 68 66 63 58 51 49 41 38 39 30 36 34 33 31 43 37 51 53 54 59 57 65 67 65 62 55 59 52 53 51 45 45 41 36 31 24 16 22 19 14 16 22 18
22 24 15 20 18 21 17 23 24 28 30 31 35 46 42 54 49 59 60 67 70 70 62 57 61 58 56 48 45 40 33 38 40 43 35 35 44 50 46 54 64 64 66 68 60 59 63 60 56 48 42 49 36 33 29 27 28 18 25 22 25 24 23 20
23 22 16 21 25 26 18 20 25 26 33 40 41 50 51 50 61 65 67 62 73 64 63 66 58 62 50 54 50 46 43 33 35 44 42 43 40 50 49 57 59 69 65 66 68 65 62 61 56 55 51 48 37 32 39 35 27 19 24 23 22 22 20 24
21 23 15 16 14 25 22 28 20 35 31 31 38 40 46 55 53 62 71 66 69 69 64 59 56 63 51 55 44 37 42 37 46 37 39 42 50 55 47 54 61 62 65 72 71 70 59 64 54 48 52 46 36 38 35 25 20 23 23 21 20 17 17 14
25 14 19 22 18 24 19 24 22 35 36 36 46 43 47 53 63 66 60 65 66 68 70 61 62 52 56 48 40 44 33 43 39 43 39 35 50 43 56 60 64 65 65 64 69 67 63 62 60 52 49 51 39 39 32 32 32 25 17 22 16 20 14 22
20 19 15 17 23 17 17 16 29 23 27 32 39 42 47 47 50 59 61 69 68 62 70 60 65 60 55 48 46 41 34 44 37 34 32 42 45 44 56 51 59 63 70 61 69 60 59 56 50 55 54 45 41 41 36 26 28 25 26 19 19 26 23 18
26 19 17 16 20 24 26 25 27 26 33 33 33 42 49 49 53 60 60 56 62 65 64 58 62 58 55 41 46 35 37 36 41 31 36 43 38 43 48 56 51 61 56 62 59 67 62 51 50 54 50 41 39 39 30 31 29 16 24 24 24 22 26 16
20 25 15 26 26 21 22 26 23 22 28 28 39 35 41 54 53 58 51 55 58 55 53 62 55 48 49 44 39 36 28 33 33 37 38 37 42 42 47 47 59 53 57 59 58 56 57 52 51 50 45 38 32 33 35 27 25 22 24 21 22 25 22 26
20 16 16 23 25 16 25 20 23 31 24 32 40 45 48 48 46 48 50 60 53 49 51 56 56 52 50 38 41 35 28 29 34 36 30 39 36 40 51 49 57 59 60 49 51 60 54 57 44 50 44 45 30 29 24 20 19 26 24 14 16 22 14 19
26 14 25 18 20 21 15 23 22 23 30 25 39 39 41 45 51 45 51 50 54 48 55 52 43 48 40 37 43 35 35 32 33 28 37 32 33 42 40 43 46 51 49 52 55 50 53 47 44 39 39 31 34 27 23 30 17 16 25 20 17 17 18 16
24 25 23 24 19 22 19 20 29 26 29 28 35 34 37 38 52 44 44 48 45 52 45 46 42 48 39 44 40 38 38 33 24 35 37 32 44 46 45 50 45 47 47 55 49 51 55 47 47 49 49 35 36 40 36 28 28 32 24 27 32 31 21 25
24 28 33 22 28 29 23 21 29 26 31 32 43 34 37 39 44 50 46 55 45 47 49 47 54 44 49 42 43 40 33 36 24 38 31 41 41 47 42 48 57 54 55 52 53 58 47 52 47 50 45 41 36 42 41 30 35 35 32 35 34 30 31 30
30 36 27 29 30 29 29 29 35 35 38 36 39 46 41 43 47 47 51 57 53 50 48 53 44 50 50 48 37 39 40 30 37 29 43 41 45 51 50 44 54 51 61 61 59 60 58 48 51 49 48 44 45 37 44 33 38 43 40 34 33 33 44 41
24 27 27 25 30 21 22 23 28 29 32 33 34 37 37 43 44 43 48 39 47 48 43 45 42 40 41 36 33 28 25 23 23 25 27 32 38 38 38 42 47 43 40 47 45 49 51 41 38 37 42 43 36 37 33 34 31 37 37 32 29 30 33 36
22 22 27 26 18 22 23 21 21 22 25 25 19 26 31 31 28 29 30 37 36 36 31 38 30 33 27 31 30 26 23 22 26 18 22 27 27 34 30 31 32 35 37 35 40 41 34 30 34 34 28 34 26 23 21 29 25 22 24 25 30 28 24 25
19 24 20 21 18 26 25 19 20 25 16 16 20 25 25 23 18 20 31 24 30 30 23 32 28 21 23 17 26 15 24 20 23 19 14 23 15 16 18 30 20 30 30 27 31 28 30 22 19 20 15 21 19 26 21 18 24 23 18 25 21 18 18 26
16 16 26 23 17 14 14 21 19 14 22 23 26 23 24 23 22 17 25 21 27 29 19 18 24 19 17 18 18 19 26 22 19 15 20 14 19 17 24 20 25 27 21 26 21 22 17 18 22 18 21 14 22 14 22 22 26 26 25 24 18 19 24 24
26 14 14 23 14 25 21 20 20 26 25 21 14 15 22 26 21 21 23 19 22 16 22 17 14 18 19 16 24 18 15 23 25 22 16 18 22 24 26 18 15 21 18 24 26 23 20 21 24 18 20 21 23 15 19 17 17 22 24 22 22 17 17 22
22 22 20 26 25 17 14 16 24 26 23 16 24 16 21 19 19 14 21 25 24 21 26 22 21 19 25 14 21 24 17 21 24 23 25 25 22 19 19 14 20 26 22 21 24 25 21 25 18 16 24 15 15 24 22 14 24 23 15 15 21 23 18 26
19 17 17 23 14 17 16 20 18 25 24 18 15 14 22 16 17 15 20 19 21 26 23 23 17 15 15 24 19 18 23 14 26 17 23 14 21 26 16 15 18 19 18 23 18 18 21 14 20 19 16 20 18 17 23 20 18 19 17 20 21 15 22 15
20 16 26 14 26 18 15 20 19 20 17 23 16 22 26 21 18 15 17 25 22 15 23 26 21 16 25 14 26 18 20 19 25 21 24 15 24 26 21 14 23 17 18 16 20 22 21 26 26 17 15 17 15 16 20 17 19 20 20 19 24 18 21 18
26 24 23 16 23 18 23 20 25 26 14 24 20 25 18 18 24 18 17 14 26 14 26 26 18 20 22 22 18 23 15 21 14 16 20 23 22 14 24 25 16 16 23 21 15 22 23 20 18 21 19 15 18 21 25 16 22 14 21 15 22 22 21 16
26 15 26 17 19 24 17 20 19 18 16 16 24 17 14 26 22 17 16 24 25 16 26 19 18 23 17 21 24 26 17 15 17 21 24 21 25 18 20 14 24 26 17 19 25 19 25 21 15 16 21 18 26 21 17 19 26 22 18 15 24 23 24 22
23 22 25 15 24 19 20 15 23 24 24 17 14 17 23 20 22 20 26 17 22 18 19 22 21 19 21 24 20 23 26 26 20 21 25 23 14 23 17 18 26 23 24 19 22 20 16 21 20 21 21 20 22 26 23 20 21 14 14 24 25 23 16 23
22 21 15 26 17 25 17 18 19 22 14 18 23 14 24 25 21 18 15 24 19 23 26 15 26 14 26 19 23 22 25 24 25 16 25 16 16 17 19 15 25 15 23 18 20 19 21 19 20 25 21 22 26 25 15 24 17 18 20 25 15 15 25 22
25 23 23 21 20 21 14 25 15 15 16 18 18 21 23 23 20 22 24 16 14 17 17 18 19 21 22 14 25 26 26 18 20 20 23 20 20 23 25 22 24 23 14 18 24 25 26 20 18 22 21 14 26 17 16 14 18 18 15 18 26 24 25 19
23 15 17 18 22 23 17 16 26 26 18 15 21 17 19 16 17 16 21 26 23 23 17 22 18 21 21 17 14 15 25 26 18 14 26 18 23 24 26 22 24 14 15 26 22 21 18 26 18 16 24 20 25 16 24 24 20 14 16 20 22 21 20 15
18 17 20 16 23 18 19 23 18 23 14 20 17 17 19 14 23 22 22 15 18 26 24 19 23 14 15 25 22 14 20 26 21 16 24 23 18 16 20 14 25 19 26 16 23 26 19 15 22 26 16 22 23 22 21 24 17 20 26 16 16 15 26 22
21 18 20 21 23 26 20 21 22 25 24 21 25 17 26 20 18 16 15 20 15 20 21 17 26 19 19 25 26 25 23 16 21 25 26 23 21 16 16 26 14 21 20 24 25 22 21 17 23 25 15 17 24 20 20 25 17 24 26 25 15 22 16 24
19 18 26 16 19 17 26 15 16 23 25 19 23 20 25 21 21 19 16 15 15 19 22 19 24 26 20 14 20 22 22 20 23 26 23 23 14 22 14 19 21 25 16 16 21 25 17 23 25 20 23 18 19 19 23 19 21 14 19 20 17 24 18 18
20 16 25 23 19 16 23 21 26 22 23 17 19 16 21 23 26 24 14 26 19 23 20 21 14 17 14 14 26 26 18 25 19 20 23 14 26 21 23 23 22 22 19 23 25 18 16 24 22 26 22 23 24 21 23 18 24 20 21 17 19 23 14 14
20 20 15 15 21 14 25 21 23 18 17 16 15 23 23 23 21 21 22 16 23 19 26 23 24 20 22 14 20 24 16 21 25 17 16 14 23 26 22 19 19 14 21 15 17 14 17 23 20 17 18 21 25 26 26 19 18 15 21 15 17 20 24 16
25 25 22 18 21 24 18 23 24 17 22 23 25 18 14 24 26 15 19 19 20 17 14 18 24 17 20 26 15 14 20 18 24 19 25 19 20 20 20 24 17 23 24 18 19 18 18 20 21 23 21 26 16 21 23 23 18 19 24 19 15 15 16 23
24 24 17 24 16 16 15 26 26 17 24 15 20 17 23 19 23 24 24 22 24 24 25 23 24 17 24 21 18 24 20 25 14 24 15 19 24 22 17 26 18 24 19 20 16 24 26 22 17 17 21 26 18 14 25 20 23 25 26 24 19 18 26 17
22 26 15 15 15 21 18 18 17 26 18 18 24 17 25 14 23 18 19 17 17 14 18 24 17 15 24 26 19 26 15 15 26 26 14 18 26 16 26 18 16 24 24 21 21 25 24 26 18 23 23 19 26 23 15 18 18 25 26 24 20 20 26 15
