P2
64 64
255
17 16 14 17 17 19 16 16 23 19 16 23 18 15 18 14 16 21 26 18 15 16 18 14 23 25 22 22 19 21 18 14 26 20 26 17 15 14 22 20 23 25 17 23 15 18 24 14 22 14 24 25 25 26 21 18 16 21 21 24 15 15 22 25
22 17 23 21 18 19 19 24 21 18 23 26 19 22 26 19 19 17 16 15 26 24 25 16 22 14 22 26 20 22 20 20 25 19 16 21 20 21 17 20 14 26 19 15 23 16 23 18 26 15 19 21 16 15 20 24 16 24 23 22 21 26 17 18
23 23 24 20 17 14 15 21 17 23 23 26 16 26 22 25 21 20 17 17 24 16 25 26 25 17 20 21 22 17 20 16 16 16 17 21 18 22 25 18 19 17 21 18 22 18 17 22 26 26 15 19 14 20 21 17 16 19 14 21 17 19 17 21
14 18 15 26 22 26 17 25 15 24 17 14 18 21 21 14 24 26 16 21 20 23 26 14 14 19 26 17 20 14 17 25 20 19 23 22 23 20 19 14 19 14 19 17 26 14 15 19 23 14 24 24 15 16 16 22 22 26 25 18 18 16 25 23
19 21 16 26 22 21 16 25 26 14 23 26 15 17 17 21 14 18 16 19 16 24 23 14 25 21 16 24 18 25 19 16 25 16 19 16 15 22 17 19 18 17 18 23 15 15 26 26 21 22 17 16 25 26 18 26 22 18 18 21 23 24 18 19
19 19 14 21 20 18 14 14 21 17 19 17 26 24 21 26 17 23 18 24 22 14 16 26 17 25 25 26 16 23 18 25 15 26 25 18 26 16 17 14 21 22 15 22 24 17 19 17 20 20 16 19 15 25 26 24 23 21 26 15 24 23 18 20
23 16 17 19 22 21 22 21 25 24 20 19 18 16 17 24 16 26 25 18 23 19 24 14 16 15 24 18 21 23 15 19 14 19 20 25 15 24 14 26 14 15 22 22 25 23 26 25 26 19 23 26 21 17 26 26 16 18 19 25 23 21 23 23
22 21 14 17 14 24 21 16 18 22 15 17 20 25 26 25 21 26 15 21 20 23 18 24 19 17 26 18 24 26 26 19 18 21 15 23 14 16 20 17 20 23 21 23 20 22 19 24 15 17 25 26 24 25 23 22 22 14 20 25 18 23 24 23
25 17 14 14 14 18 15 23 14 18 21 21 17 20 18 17 25 24 14 14 16 22 21 19 24 25 26 21 24 17 24 26 17 17 21 14 16 21 19 19 22 21 25 23 20 20 24 23 16 26 25 20 20 24 20 19 25 18 22 19 16 16 21 22
15 25 25 24 17 25 18 16 25 20 24 16 17 25 26 16 24 20 26 22 25 15 25 14 24 14 15 19 22 19 26 17 24 25 22 21 19 21 20 20 14 18 25 26 21 19 21 23 25 16 18 25 22 23 21 15 25 16 18 20 24 21 17 18
21 17 16 24 21 25 17 25 16 19 20 15 15 17 24 24 25 21 21 24 23 26 16 15 18 16 20 17 17 14 23 20 16 22 22 23 14 20 26 18 25 17 20 22 22 16 20 26 18 23 18 16 22 18 24 20 26 17 20 24 21 16 17 14
23 26 14 19 23 20 23 18 20 18 16 20 22 24 26 15 26 23 21 19 23 23 16 21 21 15 17 17 18 15 17 20 21 24 17 23 19 17 18 17 14 22 18 14 24 14 16 24 18 16 21 25 14 18 23 15 23 18 23 18 25 21 22 16
16 18 26 25 19 26 22 15 24 22 18 26 14 21 16 18 16 15 16 23 23 22 23 23 22 20 24 24 18 24 23 22 17 17 15 24 18 21 19 25 25 18 17 22 20 21 14 22 21 24 25 15 26 18 21 18 19 23 25 16 18 20 15 21
23 21 25 17 18 14 20 19 26 16 21 22 22 22 20 15 15 20 19 24 24 22 17 17 21 25 15 18 19 26 17 14 23 14 16 24 24 22 16 24 21 20 19 21 15 22 18 21 19 15 22 18 20 25 17 26 23 15 24 25 26 16 14 15
23 22 17 18 18 16 18 18 18 21 24 18 25 23 19 14 17 22 24 26 18 23 23 17 21 14 24 24 23 22 16 17 20 25 18 22 20 17 26 26 16 19 25 17 17 22 20 15 14 15 26 19 18 26 25 19 24 21 15 26 24 25 21 22
18 14 17 26 14 16 23 17 22 20 16 23 18 25 21 19 24 17 21 16 25 24 19 20 14 16 23 19 23 17 18 19 21 21 22 17 23 23 15 15 24 26 14 26 23 26 26 24 16 19 24 25 24 19 22 22 14 18 15 26 18 25 21 15
18 15 20 20 19 19 19 16 23 18 26 16 22 17 23 22 18 18 26 20 20 20 24 20 17 18 22 25 25 25 25 16 20 15 21 17 24 18 24 25 21 21 26 24 14 14 25 22 19 22 14 23 16 20 24 15 17 20 20 21 20 22 15 24
15 18 24 26 14 17 16 21 24 16 14 19 24 16 20 16 15 16 16 15 20 26 15 23 19 24 21 16 26 26 20 25 16 15 17 20 17 23 26 14 23 21 20 21 25 24 22 23 26 23 22 19 25 25 19 21 26 20 14 26 19 23 26 26
21 23 25 14 14 18 16 20 20 16 25 15 19 22 23 17 23 23 26 14 24 23 24 20 21 22 24 17 17 26 22 19 20 26 21 14 25 21 15 22 25 19 19 16 26 26 15 20 20 19 23 14 24 16 23 24 17 19 16 17 23 24 25 17
21 16 26 15 18 15 17 26 21 14 18 14 20 26 15 23 17 17 28 25 26 20 17 25 20 25 24 17 19 26 21 20 22 24 19 15 14 24 17 26 16 27 22 19 19 18 21 21 21 22 19 16 24 15 18 14 24 21 24 25 23 15 14 26
17 23 21 24 17 16 19 16 14 17 17 22 15 25 15 28 29 32 21 30 28 25 26 31 24 25 20 26 18 14 21 19 22 23 21 17 26 17 17 25 20 21 22 22 26 28 24 21 27 22 21 16 15 22 22 17 22 25 25 20 26 23 24 22
26 20 17 15 15 22 18 18 21 23 16 21 14 26 20 26 25 24 29 25 32 30 26 24 35 34 22 23 25 20 24 18 27 25 23 22 22 29 25 24 31 30 25 33 32 34 35 31 33 30 20 29 19 18 16 15 25 25 23 14 26 25 19 18
21 20 25 15 22 16 14 22 25 19 17 20 17 30 23 24 33 33 29 34 38 29 37 37 31 30 25 27 28 26 34 31 26 30 30 26 25 37 25 28 31 33 30 30 30 29 40 30 29 26 23 32 20 24 24 14 25 15 21 26 25 21 23 14
14 25 22 20 18 23 24 19 20 20 27 24 30 33 34 39 41 40 35 39 41 36 45 36 34 38 43 38 41 35 37 29 37 41 42 41 46 36 37 42 33 35 34 42 44 39 42 41 40 31 32 26 25 29 17 26 22 18 23 16 17 16 17 19
21 14 17 16 26 15 18 19 18 25 18 21 35 26 40 32 35 34 48 48 47 42 43 49 48 53 54 51 53 54 51 44 43 50 47 48 53 53 44 52 42 45 46 38 40 48 39 45 42 40 38 36 35 27 19 16 26 17 18 24 24 20 19 21
15 19 23 20 17 15 22 24 22 21 19 28 37 32 38 43 37 43 45 41 48 53 46 55 52 61 57 59 58 62 51 46 49 54 51 61 52 63 64 58 56 56 46 44 46 52 50 48 48 41 41 29 32 22 29 22 15 23 17 16 26 22 18 23
17 14 17 17 16 19 24 20 21 28 27 33 33 38 36 37 43 44 55 54 49 49 56 63 67 59 66 63 65 64 60 54 66 66 62 69 71 60 71 69 67 61 57 52 56 48 44 46 50 45 46 33 36 33 26 18 26 21 14 25 15 25 17 16
18 25 24 23 14 17 23 23 24 32 27 29 39 38 41 46 53 46 53 52 57 56 62 64 68 75 67 77 67 71 70 76 75 75 66 74 72 70 73 69 75 64 68 59 61 59 58 46 50 52 37 38 35 32 26 32 25 15 15 22 26 20 26 25
14 19 18 21 15 17 25 19 26 25 26 34 33 41 48 44 49 52 50 56 69 72 71 79 73 74 81 86 78 86 81 79 82 78 79 82 82 79 81 77 74 74 79 76 70 58 53 53 53 50 39 37 37 32 29 27 28 19 15 22 19 23 20 20
20 26 25 22 26 21 14 19 25 27 37 30 37 46 41 51 57 59 55 64 74 80 81 80 84 93 85 85 82 90 86 87 91 85 83 81 82 86 92 86 81 81 85 79 67 60 65 57 49 50 46 48 43 31 36 31 21 25 24 25 14 26 16 18
15 21 18 18 23 20 24 26 22 23 30 38 40 41 54 55 60 53 68 76 75 78 83 91 93 96 100 90 94 89 93 96 97 94 94 94 97 89 90 99 91 88 93 85 79 65 61 58 50 57 43 50 41 38 29 26 31 17 22 21 17 15 18 22
14 14 21 20 25 16 20 24 26 34 29 31 46 39 47 51 56 56 67 81 90 90 89 100 100 99 100 103 101 103 103 96 101 101 105 106 95 99 104 104 94 94 95 86 87 72 63 57 58 50 45 47 44 40 34 26 31 28 19 16 26 19 15 26
21 15 18 18 16 25 18 24 27 25 38 37 35 44 50 51 51 64 75 77 95 93 102 102 98 102 101 103 111 107 113 107 107 114 109 110 103 105 102 106 102 95 95 96 87 78 76 63 55 50 50 41 47 40 32 26 25 21 26 20 22 18 22 22
16 17 26 15 15 22 25 16 26 32 27 41 38 41 54 49 56 54 64 80 90 88 101 97 108 103 112 113 112 115 115 120 112 118 115 116 113 105 109 99 103 106 99 88 91 75 73 58 53 53 50 46 46 40 32 33 21 27 21 21 26 25 24 15
19 24 14 24 26 23 26 23 21 24 29 41 45 48 48 50 56 57 68 75 84 94 92 105 104 111 104 115 110 114 118 114 118 118 116 107 106 114 111 108 109 102 103 87 85 81 70 62 55 53 50 46 46 39 38 31 26 25 22 18 20 25 19 20
18 16 19 22 20 18 20 19 18 29 34 38 44 38 46 46 58 54 67 77 77 89 96 101 97 110 112 113 116 108 111 117 121 120 111 110 107 114 113 105 97 95 94 86 88 71 61 55 47 48 43 42 44 30 29 29 29 26 22 18 26 25 18 18
21 22 19 21 17 15 17 20 29 26 32 32 38 39 48 48 49 62 58 70 73 79 95 92 96 98 102 105 115 110 119 127 133 125 122 118 111 112 103 108 99 94 93 80 76 66 59 57 54 43 40 38 37 39 34 31 23 15 21 24 16 17 19 18
14 23 20 22 24 19 25 16 16 29 24 27 40 33 49 47 53 57 60 64 77 75 85 93 100 103 100 102 107 115 117 114 115 113 118 109 104 100 107 103 95 93 84 81 70 67 63 53 50 44 40 40 36 31 35 30 24 15 21 14 22 19 25 19
18 23 16 26 15 23 26 25 26 24 28 32 31 33 36 44 39 42 54 60 65 74 86 87 95 90 93 98 101 102 109 105 108 104 108 102 109 99 98 91 84 88 79 80 67 69 60 45 48 39 39 31 31 27 23 22 15 15 21 17 26 26 25 18
20 14 19 17 22 20 26 20 26 20 19 33 27 29 32 42 36 43 54 64 63 69 74 77 82 89 93 91 102 97 96 104 99 100 103 103 96 97 90 94 82 82 75 69 63 63 45 43 45 34 37 36 28 33 23 19 26 20 21 18 26 17 20 24
16 26 25 20 25 25 19 19 24 16 21 23 30 36 39 38 38 35 42 52 60 69 70 75 78 79 92 84 88 92 91 92 83 94 98 91 89 89 88 86 79 81 71 60 58 57 40 36 36 41 34 31 26 24 19 24 24 15 17 23 14 24 26 14
26 23 14 16 15 17 26 24 26 22 25 25 28 31 26 31 29 35 39 51 59 53 61 63 75 76 84 81 88 80 78 78 79 82 88 85 82 77 85 76 78 68 65 56 54 47 41 33 29 28 37 24 25 24 22 23 15 16 16 19 15 19 18 21
15 25 20 22 19 15 20 16 19 18 21 24 29 21 34 32 33 29 35 38 45 48 63 62 63 72 72 77 69 79 75 78 75 78 72 76 80 68 65 63 60 56 53 50 41 37 30 29 36 33 25 25 27 25 21 21 18 24 22 25 17 16 26 16
16 19 22 21 18 16 26 20 25 22 24 16 17 24 30 21 22 34 36 37 38 38 47 49 63 56 68 64 62 65 71 75 68 76 71 69 72 70 67 59 57 55 55 40 33 33 25 29 24 24 26 24 17 26 23 17 17 19 26 18 20 22 16 26
14 17 26 17 25 24 18 21 22 22 25 18 21 19 27 23 29 21 27 25 31 36 38 44 52 54 52 58 60 63 64 62 68 66 61 67 57 62 55 47 45 47 43 34 35 33 28 24 25 17 24 17 20 24 17 20 18 23 20 18 17 18 15 26
14 25 20 15 17 17 23 14 20 15 22 19 21 23 25 15 18 25 22 20 31 28 32 32 42 50 47 45 50 49 55 52 61 53 59 61 51 45 53 41 47 42 28 35 25 23 17 24 21 24 23 20 26 14 25 20 19 26 21 20 23 24 22 18
18 14 23 25 24 21 26 24 25 14 15 17 21 24 18 14 21 24 21 17 20 20 27 32 38 43 37 38 48 47 49 54 58 56 56 54 41 47 40 35 31 32 28 25 16 24 14 14 22 26 18 19 17 17 19 16 19 25 19 21 21 24 16 21
21 20 14 26 23 15 24 18 17 22 15 19 25 23 14 26 24 26 20 19 25 19 20 32 33 38 41 33 39 44 48 51 43 45 39 38 37 36 39 36 36 25 23 26 21 19 17 22 24 21 15 22 17 17 16 22 19 18 21 15 23 16 24 16
26 25 18 23 25 22 24 24 17 23 26 23 25 15 26 19 19 16 18 15 15 23 14 22 24 31 28 32 31 43 41 41 43 39 33 40 30 30 33 23 30 26 18 20 18 23 25 25 14 19 25 22 26 14 17 22 24 21 20 21 16 17 22 15
23 22 15 23 19 26 21 17 17 23 26 17 17 16 23 22 26 20 24 21 15 17 20 16 22 16 26 21 27 27 34 28 33 36 32 35 25 32 27 25 20 14 24 22 22 19 21 24 21 20 25 20 20 26 22 23 20 17 17 20 14 15 19 24
22 24 26 17 23 21 14 20 24 17 25 18 22 14 26 24 20 14 18 24 23 19 14 14 22 22 22 23 19 22 22 27 31 27 32 20 19 23 24 20 16 21 21 20 19 14 23 14 23 18 18 26 24 26 18 15 25 24 20 21 21 22 14 16
21 19 19 15 16 17 26 15 22 20 22 24 23 25 17 15 23 26 26 25 15 19 24 17 14 17 24 21 18 15 24 23 25 15 18 23 20 24 18 16 21 22 21 21 17 22 25 25 17 21 25 19 21 21 18 19 25 21 21 17 21 25 23 20
23 20 17 21 17 15 18 17 20 22 17 18 17 19 18 21 25 14 23 26 16 20 16 16 15 16 25 15 26 16 26 26 22 21 21 24 25 22 14 18 18 19 24 23 26 26 19 20 26 24 19 19 14 14 23 17 17 15 17 23 14 22 14 26
21 18 22 20 23 19 21 14 19 15 23 21 26 20 17 15 15 18 14 21 22 26 21 21 19 15 24 21 19 22 18 15 20 18 15 20 25 25 22 19 20 23 26 26 15 15 17 19 24 22 15 23 19 15 25 14 26 16 18 19 15 18 21 24
16 23 18 15 25 23 24 14 20 21 21 16 24 17 16 23 17 17 18 14 23 21 26 14 25 14 15 15 23 25 15 14 17 26 21 26 15 19 23 25 19 15 23 18 23 24 25 21 14 14 17 24 21 24 15 21 14 22 15 23 22 19 26 19
17 16 20 18 21 19 16 21 14 21 14 15 24 24 20 26 20 24 16 14 24 20 21 17 21 18 22 23 23 18 17 26 22 18 17 23 26 21 14 25 21 23 24 16 25 25 17 21 26 23 23 14 19 20 14 23 18 18 22 19 20 17 20 14
23 25 18 23 17 20 23 19 15 26 17 21 19 15 26 15 18 18 26 25 21 26 25 25 15 25 15 19 14 25 20 14 18 19 14 18 17 15 20 14 18 25 23 20 21 18 18 25 23 14 18 15 23 16 14 26 23 15 14 23 23 22 21 25
18 19 22 23 23 18 14 23 24 19 15 18 22 19 25 26 21 14 22 18 26 17 26 18 21 23 25 22 15 19 23 16 14 20 16 16 14 19 18 24 21 14 24 16 21 25 15 15 20 22 24 21 23 25 18 25 20 14 24 16 25 15 16 25
25 18 21 26 20 18 20 15 26 23 19 20 14 24 15 15 17 22 21 23 22 25 21 19 17 15 15 20 26 19 15 22 22 15 24 22 19 14 21 16 17 23 21 20 15 22 15 15 14 24 15 17 26 16 17 22 18 18 15 21 14 19 17 14
19 23 18 25 16 20 17 23 21 15 26 20 26 22 24 17 25 22 20 25 15 22 24 22 14 21 20 22 19 14 26 20 22 18 23 18 16 21 22 22 26 18 26 26 24 20 14 26 15 24 16 20 17 24 25 15 26 25 24 21 25 21 24 20
25 23 26 23 25 23 20 25 18 14 20 24 20 25 14 23 17 16 19 20 14 24 14 24 20 26 25 18 26 16 16 14 18 19 21 15 23 20 17 21 15 17 18 14 25 19 20 26 20 15 15 23 20 14 18 18 26 18 26 26 15 16 21 21
24 26 14 23 25 20 14 23 25 18 23 16 15 23 14 20 16 22 17 23 19 14 18 14 15 17 19 25 18 18 15 18 19 19 16 18 20 15 26 15 14 15 26 14 23 14 14 14 15 21 15 15 22 17 23 26 24 14 16 18 26 21 14 18
18 23 21 21 15 21 18 26 17 24 19 16 16 25 19 14 15 16 26 22 14 16 20 18 24 16 24 21 15 25 16 26 16 23 23 19 19 17 18 21 20 17 24 22 21 23 20 20 25 18 15 26 15 15 22 23 15 23 17 17 26 14 22 15
15 26 26 20 14 21 18 18 18 26 25 23 16 26 24 17 26 18 22 25 19 20 19 18 17 20 22 24 23 17 26 20 21 24 21 17 22 21 23 16 14 20 18 23 21 14 14 26 21 16 24 17 15 24 24 18 22 20 25 14 16 17 18 21
