P2
64 64
255
22 15 22 16 20 16 24 21 19 16 17 18 21 24 14 25 21 20 24 16 17 26 24 25 22 18 26 18 20 26 21 14 17 20 22 15 18 25 16 18 22 16 19 21 21 26 24 21 21 14 25 15 20 15 19 17 19 26 21 18 21 18 15 14
21 23 14 22 24 22 23 23 18 15 16 24 23 23 20 15 18 16 21 23 17 16 14 20 23 20 23 25 24 17 24 22 24 25 21 21 14 24 20 17 26 15 14 20 15 19 21 20 24 26 24 21 20 21 14 25 15 26 25 22 21 26 16 23
17 16 24 23 25 23 25 15 22 24 17 26 24 14 24 17 23 25 16 18 15 25 23 19 25 18 14 20 21 22 19 23 16 18 19 22 21 15 23 24 20 24 15 24 20 16 19 16 15 17 18 24 25 24 21 23 25 24 16 25 18 21 24 18
20 25 19 26 16 21 18 26 19 19 19 20 26 23 16 25 16 20 23 16 19 14 23 24 26 26 18 17 19 17 18 20 21 22 20 17 14 17 19 21 25 14 21 25 23 20 23 21 25 20 16 17 20 17 18 15 18 24 24 25 24 20 15 25
14 16 16 16 21 23 17 23 20 16 19 18 23 23 24 16 18 20 16 25 25 18 15 24 20 24 15 24 14 14 26 21 20 22 15 18 26 18 17 19 17 18 26 23 15 19 17 22 14 20 18 18 17 25 24 18 26 22 18 21 23 20 24 26
20 21 21 16 20 14 22 18 26 24 21 14 21 17 21 26 24 19 22 23 15 25 17 18 25 26 17 24 15 21 20 26 18 18 18 24 25 17 16 19 20 25 25 25 23 26 18 15 26 15 26 20 18 18 25 18 19 14 16 26 15 17 23 22
26 17 16 25 21 17 14 20 20 24 19 22 20 24 15 16 18 22 22 25 14 17 14 24 15 15 20 22 14 18 17 19 14 25 20 25 24 14 25 14 24 24 24 14 19 26 16 16 19 16 20 14 24 25 19 26 20 24 19 15 19 21 22 25
25 26 15 14 24 18 26 24 16 24 23 19 22 21 17 19 18 17 23 24 20 16 20 18 25 22 22 23 19 26 14 16 25 24 25 14 16 21 18 26 17 21 15 16 21 22 15 18 15 18 16 22 23 17 16 14 16 16 16 25 23 21 25 18
22 23 15 21 17 25 25 25 26 22 21 20 19 23 15 23 23 19 21 14 23 26 22 18 18 16 17 20 14 24 26 19 17 24 16 14 23 16 23 21 19 21 17 17 25 25 18 14 20 14 21 22 20 19 24 21 23 15 14 21 14 25 23 26
16 19 15 16 17 24 26 23 16 22 21 16 15 23 14 16 23 20 16 21 20 18 22 23 14 26 25 23 17 19 19 21 14 19 24 26 23 14 20 26 15 18 26 25 20 22 19 22 14 17 24 17 16 18 26 24 14 26 21 20 18 19 18 14
25 14 23 18 26 18 24 19 25 16 17 21 26 17 26 23 17 19 21 25 17 18 25 21 23 16 17 19 14 26 21 19 25 22 14 19 16 24 14 20 26 25 24 23 15 17 22 26 16 19 26 14 18 23 26 17 17 20 25 16 25 25 15 15
16 23 26 25 19 24 21 14 18 19 17 19 15 21 20 20 21 22 22 16 16 26 19 16 14 23 23 25 24 23 19 18 22 14 23 20 17 23 25 16 24 16 18 16 22 16 20 23 24 23 18 19 26 21 24 19 14 22 17 19 21 19 15 14
23 19 15 25 20 22 15 20 16 21 26 17 16 19 22 19 20 21 21 21 26 22 15 20 22 24 16 19 16 25 24 21 22 19 26 16 21 18 18 18 18 15 17 21 22 16 19 20 20 17 24 21 26 16 21 16 26 20 15 26 20 16 20 22
23 14 22 24 25 23 26 20 20 23 14 25 24 24 24 14 26 18 21 19 21 15 15 18 24 18 18 20 16 19 18 22 20 20 17 25 17 21 19 16 15 15 15 25 14 20 21 14 19 19 16 20 15 18 26 24 18 21 22 21 23 25 19 25
15 16 24 16 17 22 22 25 17 16 23 26 16 26 18 16 26 26 14 17 23 14 26 24 24 22 23 24 17 14 18 21 24 14 16 19 15 17 21 20 15 18 23 19 23 18 17 14 19 25 18 15 24 17 26 25 19 19 26 19 21 25 17 16
18 14 21 23 18 17 23 20 14 26 21 21 21 19 17 26 24 17 23 16 22 16 26 26 26 16 24 18 20 14 26 25 14 18 20 24 15 15 16 16 26 18 17 17 22 19 14 20 19 20 24 21 14 23 23 26 23 19 18 22 26 21 26 22
15 18 14 14 26 18 20 24 17 15 15 26 19 25 24 18 23 18 21 14 21 16 26 20 19 21 16 22 25 22 25 22 15 17 16 24 14 19 17 22 17 24 19 23 24 24 24 25 20 23 26 18 20 20 21 16 17 18 24 26 25 14 16 25
22 16 25 14 24 23 18 19 25 15 25 25 16 22 16 25 15 21 15 21 15 20 26 23 23 26 22 15 18 14 17 17 25 20 15 23 20 14 20 26 21 23 15 23 18 22 22 23 21 15 26 22 18 17 26 25 15 15 17 18 26 15 25 20
14 19 17 19 25 19 15 16 23 26 17 21 16 16 19 18 16 16 25 14 14 21 20 15 19 14 21 14 15 15 15 26 23 26 19 18 26 21 21 19 16 21 14 23 16 25 20 17 20 24 20 19 20 23 25 19 16 17 19 15 19 14 17 16
17 18 19 23 19 23 17 20 21 21 19 19 22 17 18 19 21 24 21 27 22 27 26 17 16 17 25 20 14 26 21 18 26 21 21 18 24 24 21 27 27 18 18 18 21 28 23 20 16 18 18 26 21 24 19 21 19 14 14 16 22 17 21 19
21 19 20 17 21 15 15 19 21 18 19 14 26 23 15 21 29 20 29 27 25 31 22 29 25 28 22 21 23 23 16 20 20 23 22 23 23 18 22 24 20 22 26 26 23 23 28 22 27 19 23 26 17 16 14 19 20 17 18 21 25 25 26 21
20 18 19 16 17 25 16 17 23 19 24 22 25 19 27 31 32 32 26 31 35 26 35 33 25 26 31 21 20 24 25 17 14 18 25 20 28 26 31 24 26 25 33 34 27 28 25 31 29 20 19 18 22 21 15 25 25 14 17 25 14 14 26 23
14 18 23 25 19 23 23 23 25 21 24 27 22 21 26 29 29 36 29 40 40 38 32 40 27 28 35 31 31 26 16 25 22 23 21 17 26 31 26 33 38 32 41 29 38 40 35 39 29 28 34 25 25 21 19 25 18 23 21 21 15 20 21 23
15 22 20 26 16 24 24 14 15 16 15 22 29 24 32 32 36 42 32 33 39 34 43 37 40 38 30 31 29 26 17 26 17 14 22 30 34 31 30 37 38 41 34 34 39 42 34 35 40 27 25 27 25 22 25 14 21 25 21 24 18 17 26 15
23 24 22 15 18 25 14 14 16 14 29 22 32 30 38 35 37 40 48 46 43 43 47 39 34 43 39 34 36 33 31 24 21 24 28 28 35 30 36 40 39 36 42 40 41 48 39 43 33 35 30 36 23 28 28 22 21 17 20 20 25 14 14 21
24 17 14 14 25 26 17 17 15 18 27 33 35 29 39 34 42 49 45 53 49 45 42 45 46 38 44 31 37 29 29 26 29 27 32 37 35 41 40 36 39 48 53 42 48 44 40 50 43 46 36 36 29 33 25 21 21 14 21 19 26 26 26 22
26 23 15 25 25 24 19 18 18 26 26 25 34 40 46 47 45 48 49 51 55 47 49 44 45 40 46 43 33 38 31 25 30 25 31 30 33 41 48 45 51 46 55 45 51 51 44 41 51 47 43 37 40 26 32 29 22 21 23 23 23 26 23 15
25 18 18 24 21 14 26 14 28 23 25 33 42 37 46 41 49 51 56 60 51 61 59 56 49 46 47 42 37 35 29 28 24 26 28 41 36 40 40 47 54 55 59 52 59 52 57 57 49 42 37 43 30 29 24 20 17 19 23 16 25 19 14 25
23 14 15 21 17 26 14 20 28 29 33 40 35 38 51 44 53 54 61 58 53 56 62 57 52 51 49 44 36 39 30 30 37 30 31 43 39 47 51 53 58 54 60 54 64 54 52 60 57 54 49 38 41 40 33 29 23 18 21 21 26 23 14 26
17 19 15 20 15 16 20 22 19 32 30 39 45 45 48 53 50 63 64 65 60 68 64 64 57 48 50 45 39 39 38 34 32 33 42 37 40 40 52 59 61 60 60 66 59 62 62 56 58 54 53 37 41 31 30 31 27 23 17 25 22 15 17 17
15 19 20 18 21 21 16 20 23 30 28 34 42 42 52 56 58 56 63 62 61 65 65 63 61 55 52 52 38 37 38 34 40 42 44 37 40 51 52 51 57 58 60 61 64 62 65 53 56 55 49 49 42 42 28 29 29 20 21 19 18 25 14 14
16 17 22 18 21 18 26 22 25 31 28 36 45 47 52 57 59 63 62 65 70 73 71 62 66 61 52 52 45 43 41 35 39 32 39 39 39 50 56 58 56 58 65 67 70 72 62 58 61 47 45 44 37 43 37 25 32 16 22 24 14 14 16 17
26 14 22 18 20 18 15 20 30 27 37 36 43 48 47 59 61 67 68 71 68 75 68 71 66 63 55 50 49 39 34 33 43 39 39 44 39 55 53 63 67 70 70 77 69 64 66 56 52 57 49 50 47 31 31 33 20 20 15 21 14 15 19 19
22 15 16 15 14 17 20 28 29 35 29 42 45 46 53 48 53 66 70 65 66 76 72 59 59 55 57 49 51 41 37 39 41 32 37 39 51 51 54 59 66 67 63 68 71 63 67 60 54 51 53 49 38 35 28 34 30 17 26 21 15 26 25 15
22 22 18 25 14 23 22 26 31 32 32 38 43 50 49 50 52 64 62 65 67 60 64 60 61 57 48 45 47 44 33 34 42 36 42 37 40 47 53 61 58 60 66 64 67 68 68 61 49 48 49 41 45 38 32 30 27 21 15 14 18 22 18 22
21 25 19 14 14 24 18 16 21 28 35 42 37 40 43 47 56 54 65 58 59 66 64 58 54 59 56 41 43 37 30 35 38 39 40 37 42 42 54 52 55 60 60 57 58 60 63 55 49 54 47 48 35 40 27 25 26 20 21 20 24 26 18 18
22 26 19 22 26 17 17 14 20 23 30 30 38 41 50 45 52 56 59 55 60 63 61 56 50 54 47 49 39 42 34 29 35 28 39 42 39 40 44 52 60 61 62 59 64 55 50 51 45 47 41 40 40 29 26 32 20 16 26 26 19 17 14 16
18 19 15 21 16 15 25 18 24 32 30 27 42 33 43 50 47 55 52 49 56 55 51 57 53 44 47 39 45 30 26 27 27 30 28 41 33 42 48 49 48 54 56 54 56 58 56 57 50 50 47 39 41 35 30 30 19 22 19 25 20 20 24 15
19 22 18 15 21 23 16 16 20 30 24 34 37 34 36 44 48 41 49 52 54 52 44 43 45 48 37 38 32 36 32 27 23 31 26 29 41 37 46 42 52 51 49 56 50 45 48 46 42 42 37 36 32 31 23 21 23 25 22 25 20 23 23 19
21 28 27 18 22 18 28 21 24 30 30 30 37 38 46 45 40 52 50 51 57 45 49 49 51 52 48 35 36 33 31 36 35 25 36 32 44 45 44 53 47 53 55 51 55 57 53 45 52 40 38 45 43 39 31 25 26 27 22 27 25 32 32 30
27 20 22 21 31 27 21 23 21 29 24 36 42 36 40 39 50 46 52 47 50 49 47 48 46 44 46 47 46 36 35 34 35 38 40 41 44 49 53 46 56 49 54 60 48 54 50 47 56 43 45 40 42 43 38 26 35 28 38 30 39 33 27 38
32 31 32 36 31 30 36 26 31 35 28 37 43 40 43 47 46 52 52 46 48 49 49 51 48 47 45 39 42 41 31 29 34 36 44 38 39 48 49 46 50 51 52 49 57 49 54 54 56 47 46 47 46 36 37 37 38 36 40 40 33 42 44 40
20 23 20 30 31 30 21 22 21 33 31 33 31 28 40 42 42 45 38 43 45 46 42 41 36 47 37 33 33 33 33 29 30 23 32 38 32 41 45 47 44 39 41 49 48 49 46 50 39 43 43 38 33 32 35 26 30 29 30 35 31 33 34 35
26 28 23 17 17 29 18 27 17 21 27 23 27 21 22 32 33 29 33 40 32 37 34 28 37 33 36 25 30 20 20 19 23 27 29 20 23 33 28 33 31 35 39 39 38 36 41 34 38 26 32 33 28 29 25 19 31 31 26 27 21 21 31 32
14 15 24 25 25 25 22 21 15 20 17 15 19 17 20 25 24 21 22 26 32 31 30 27 20 18 24 24 20 21 14 20 16 17 23 15 24 22 18 29 25 30 26 34 25 22 31 21 29 17 24 23 22 18 16 14 17 23 20 17 14 23 26 21
16 21 21 24 25 18 23 26 20 14 20 17 23 18 24 20 23 19 23 24 25 26 21 21 26 20 23 23 25 19 25 20 17 22 23 14 20 18 23 15 24 29 23 30 22 29 22 26 19 15 22 14 21 14 14 16 22 19 21 15 17 23 21 25
24 20 25 18 14 24 17 18 15 18 24 18 26 18 19 25 20 20 18 25 20 14 17 26 16 21 14 18 22 16 25 20 23 20 20 25 18 21 15 17 16 22 19 24 23 22 23 24 15 26 16 16 26 22 20 24 26 20 17 14 23 15 21 16
25 26 26 21 26 25 22 25 19 25 21 16 25 16 21 23 14 16 26 18 26 24 25 19 15 21 23 21 14 14 20 24 22 16 23 21 15 15 26 15 23 15 23 22 19 21 26 21 16 24 15 14 25 15 23 21 23 26 25 14 26 18 21 17
17 26 14 21 24 20 18 20 26 24 14 24 24 16 26 20 16 15 15 25 19 26 26 23 23 16 25 15 14 21 15 25 24 21 26 15 18 16 17 20 21 16 25 20 15 26 16 15 18 24 24 26 15 19 26 21 21 24 20 14 26 22 19 15
15 24 24 18 25 22 15 19 25 20 25 26 25 20 17 19 17 16 21 16 17 15 14 19 14 16 18 18 14 14 14 24 22 18 16 20 14 25 20 24 26 14 14 24 21 21 17 26 21 20 17 23 25 16 26 24 23 25 26 20 24 14 21 15
24 18 17 24 21 17 21 21 24 16 18 17 20 18 16 18 16 19 16 25 23 22 24 14 20 19 22 26 14 20 21 15 22 19 23 18 24 21 26 23 16 21 17 14 25 26 23 17 25 25 25 18 16 23 16 20 19 26 25 14 24 23 16 18
15 21 14 22 25 18 20 26 20 16 26 24 18 20 16 21 15 14 16 23 18 15 18 23 20 26 22 18 24 17 15 14 17 17 16 19 20 18 14 21 23 18 20 14 22 16 23 23 25 25 25 26 16 25 16 21 19 25 17 15 14 19 14 24
22 26 15 19 16 25 20 14 16 14 23 26 23 26 24 23 16 15 16 16 22 23 21 14 25 19 24 17 23 21 24 16 23 15 20 24 26 21 17 21 26 22 25 22 22 19 17 22 19 24 16 24 23 21 20 24 20 23 17 16 17 20 22 25
15 20 26 20 14 25 23 26 14 18 24 14 23 14 14 18 14 14 22 15 26 15 15 17 25 20 14 20 14 20 21 26 19 25 26 23 17 25 20 18 22 15 26 23 15 22 15 24 14 14 14 20 17 26 15 24 21 14 25 26 24 16 14 18
23 17 17 25 24 24 20 14 15 18 22 20 16 21 14 15 21 18 22 25 16 19 21 18 15 24 22 14 25 15 23 18 14 17 16 20 17 22 20 16 21 14 25 16 21 18 17 21 21 15 18 26 16 23 21 26 18 22 16 17 19 16 19 14
21 23 14 16 15 19 17 15 24 15 19 19 19 23 18 21 15 26 23 26 25 16 26 23 24 23 23 18 21 18 25 21 23 17 25 14 20 26 16 24 20 23 23 24 20 23 18 20 16 16 24 16 25 17 16 17 19 21 21 16 19 19 24 17
26 21 23 20 15 24 19 26 15 22 18 17 14 25 19 19 16 15 25 17 22 14 17 18 23 23 20 23 14 26 22 17 15 17 19 24 16 17 15 26 19 15 26 17 20 16 25 15 23 26 16 18 25 25 21 17 18 26 21 19 24 17 17 15
24 15 14 22 23 26 15 16 21 24 14 15 20 26 24 23 26 19 23 19 23 21 19 17 17 20 22 23 19 18 22 17 16 24 17 24 18 25 19 26 18 26 14 14 14 18 20 22 17 16 14 21 14 26 20 19 14 23 25 18 24 14 15 26
16 16 15 26 18 15 17 17 16 16 14 25 18 25 21 26 23 22 14 15 16 17 15 21 14 23 16 21 19 24 16 17 20 21 22 17 15 14 24 18 26 14 25 20 23 23 26 19 24 23 14 15 25 21 22 21 22 24 18 19 18 14 16 26
25 16 18 21 17 18 15 24 21 26 22 22 23 26 21 15 17 16 22 24 22 18 18 17 14 25 26 20 16 24 24 16 21 20 20 24 23 20 19 20 16 23 26 15 18 17 16 22 15 20 16 25 25 21 22 26 16 21 18 16 26 19 17 18
14 25 16 21 24 17 26 22 25 23 14 18 16 16 21 19 21 15 20 18 14 22 16 22 25 22 19 26 20 14 17 17 15 15 17 22 19 23 18 17 24 18 17 25 23 19 26 18 20 17 20 20 16 18 22 23 23 14 18 25 24 22 21 25
19 22 18 20 21 15 20 18 20 23 23 16 16 22 20 16 20 25 25 21 19 24 14 21 18 25 18 20 24 25 23 14 26 21 17 24 22 20 18 18 23 18 19 17 17 22 20 15 18 16 22 26 20 26 20 23 24 26 14 18 20 16 17 20
14 24 25 22 25 22 21 17 17 14 15 18 14 26 14 19 19 15 14 25 22 23 18 22 24 21 17 14 20 26 19 19 25 25 14 16 23 21 23 26 17 25 24 23 15 17 21 25 26 25 19 22 26 20 21 16 19 26 17 24 20 18 21 26
14 22 16 20 24 26 19 17 18 22 20 23 21 21 16 25 17 14 25 23 14 20 24 22 14 19 22 17 15 22 23 14 18 16 23 15 20 20 22 24 18 16 18 16 19 15 25 24 26 26 15 20 23 22 23 16 15 24 15 19 14 26 21 16
