P2
64 64
255
14 19 18 24 26 17 18 19 25 26 26 25 23 24 24 15 15 16 22 20 23 17 24 22 17 23 17 21 24 26 23 16 24 14 16 22 26 24 19 23 19 17 23 18 19 25 22 17 26 22 21 18 17 26 20 25 21 24 19 18 17 25 23 15
26 17 18 22 26 14 23 22 24 15 14 26 25 15 19 21 14 24 20 15 22 15 14 20 25 19 21 26 24 22 24 18 22 21 15 17 23 17 26 26 14 16 22 24 21 21 23 17 15 18 21 20 21 26 20 15 18 22 26 26 22 14 25 17
14 17 21 21 14 18 18 16 22 18 23 25 25 24 24 23 23 14 15 16 26 20 21 16 26 25 24 18 26 19 25 26 20 22 22 21 17 21 25 17 26 17 25 24 25 22 23 16 25 24 18 18 19 22 16 14 19 14 26 18 17 24 19 19
20 25 19 14 25 18 20 22 16 19 16 23 15 24 21 17 19 18 20 20 19 19 23 25 25 24 19 19 20 19 24 15 26 21 23 15 17 26 20 20 26 17 19 23 16 22 21 19 22 24 23 14 17 18 23 15 23 26 22 23 21 22 20 21
25 17 24 18 22 26 14 26 21 14 23 16 19 17 24 18 24 18 15 21 14 24 24 24 17 15 23 17 19 21 15 19 14 19 21 21 17 26 24 17 22 25 15 21 25 15 21 17 23 25 23 23 24 23 18 17 17 24 22 23 17 23 19 22
24 22 16 14 26 24 19 23 18 21 20 18 22 21 19 21 24 22 15 16 25 17 23 26 22 19 20 20 20 19 24 25 14 20 17 14 16 24 21 22 22 23 19 19 21 15 23 17 14 26 26 25 24 15 16 22 24 20 17 19 26 23 21 19
15 21 22 21 24 24 26 23 19 26 22 21 26 17 14 21 22 19 21 24 17 15 23 23 18 16 18 24 20 23 24 16 23 26 24 18 19 21 19 18 17 14 23 19 21 15 26 17 26 24 16 16 25 15 25 16 16 16 25 21 20 19 19 24
23 20 20 25 19 23 26 18 16 21 24 20 17 16 23 15 18 26 25 24 17 23 25 23 24 18 22 20 21 26 16 23 19 24 21 24 19 15 16 21 19 15 14 20 24 20 21 19 25 23 23 18 15 15 26 23 21 22 16 25 14 26 24 19
22 14 24 21 26 22 15 17 25 15 17 14 16 17 24 18 25 16 25 26 19 22 23 14 17 17 18 17 26 23 22 17 14 25 21 21 22 20 24 16 26 25 21 14 14 22 19 19 17 14 21 20 23 24 22 22 22 17 18 22 17 20 23 26
25 24 22 18 25 16 17 18 16 19 20 22 17 26 14 24 20 22 18 23 26 24 26 20 21 16 24 23 14 24 19 25 15 25 19 25 25 20 14 20 17 15 22 20 19 24 16 22 19 23 19 26 15 22 19 19 17 15 15 17 25 15 17 22
18 17 25 25 23 21 18 16 21 21 14 26 24 17 18 19 14 24 18 15 23 22 25 20 17 18 17 26 21 25 18 20 21 17 14 22 15 14 16 15 19 14 18 24 15 17 22 17 17 18 22 19 24 26 26 16 15 20 19 16 15 18 14 24
24 20 14 20 14 20 19 17 20 18 19 18 20 16 21 18 20 20 26 15 22 15 23 16 25 17 16 25 16 14 24 19 20 21 18 20 25 15 20 23 22 19 24 18 20 17 23 21 16 24 25 14 20 23 25 21 19 17 20 26 17 19 22 25
20 16 14 22 24 17 26 20 25 23 16 22 25 26 21 15 24 19 18 24 15 23 19 23 24 15 20 25 16 25 23 23 14 16 18 26 23 17 23 19 21 19 15 24 14 19 22 25 18 16 16 24 19 22 24 21 16 19 15 15 18 18 21 23
19 20 15 14 17 23 24 22 25 26 21 22 25 15 26 14 22 14 22 14 19 24 20 18 16 25 20 24 26 17 20 25 26 23 24 26 16 17 14 17 20 14 26 14 23 17 23 26 24 16 22 18 15 18 25 16 17 21 19 15 17 18 22 26
16 17 21 21 24 17 21 19 24 19 24 15 20 14 20 15 14 16 14 22 16 17 19 22 21 23 18 26 26 19 23 20 15 18 22 15 17 23 26 23 18 19 19 16 22 24 23 25 19 25 21 25 19 23 19 19 25 18 21 16 25 25 14 18
23 18 19 14 25 21 23 15 15 23 22 18 23 20 16 26 24 15 22 15 21 25 26 26 19 15 16 14 25 24 20 24 23 25 15 22 14 18 21 25 17 22 23 26 22 17 17 16 23 22 16 15 16 16 17 22 15 19 14 23 18 15 17 17
14 26 14 17 23 26 16 26 21 19 16 24 19 16 20 20 21 15 23 16 14 21 15 25 25 22 21 19 22 24 16 16 24 26 15 26 24 16 24 23 14 19 23 22 22 24 25 19 20 20 18 19 17 17 20 18 19 25 14 20 15 24 23 19
25 23 26 25 18 16 24 21 23 14 14 20 15 26 15 19 21 14 18 15 22 16 22 20 19 23 20 14 21 14 22 23 15 18 25 18 22 20 21 18 24 25 16 21 23 19 14 16 19 24 19 21 26 18 15 25 22 17 20 19 17 19 22 21
22 21 16 24 25 19 18 23 16 25 19 17 15 14 18 15 15 19 23 18 17 25 21 14 24 20 25 21 21 23 20 15 22 19 14 21 23 16 23 14 18 17 18 19 24 15 19 21 16 14 23 19 17 14 17 16 26 26 22 14 23 26 18 16
22 18 24 23 19 20 23 23 23 26 23 15 25 15 20 18 15 20 19 24 19 19 19 23 18 16 16 18 26 24 15 23 18 14 18 14 15 24 23 26 27 24 17 18 27 19 18 22 26 16 22 20 19 14 17 25 26 16 24 19 17 16 19 23
25 22 21 16 15 26 20 19 21 18 24 26 25 15 27 17 19 28 24 24 32 27 22 26 23 19 24 25 19 14 14 14 15 16 17 24 20 17 19 24 20 23 27 28 27 26 26 30 29 27 27 16 24 17 18 22 14 14 21 22 22 16 23 14
25 18 19 15 16 25 19 21 20 17 22 21 21 23 20 29 28 28 31 27 26 29 35 35 33 33 27 31 16 27 22 19 17 28 28 22 21 20 21 22 32 32 37 34 36 29 24 27 30 27 21 17 26 24 20 23 15 14 19 17 26 18 15 16
21 15 22 21 21 23 15 24 19 24 17 25 28 26 25 32 27 27 31 38 36 32 37 31 38 35 36 30 36 31 27 27 25 23 33 28 32 30 37 32 35 29 35 29 36 30 34 30 30 35 30 21 23 24 18 23 24 17 26 17 17 15 17 15
26 16 22 23 17 25 19 15 22 14 15 17 30 23 36 39 32 34 42 42 37 39 36 41 34 43 38 43 45 39 38 34 29 29 31 39 41 34 41 39 33 43 35 41 36 36 40 41 38 32 30 25 30 17 26 23 18 19 24 20 19 23 26 26
16 18 21 25 18 25 19 26 14 15 18 29 34 34 39 36 39 34 47 48 42 49 38 39 45 52 53 51 49 49 46 48 40 43 50 43 52 47 52 45 52 51 45 37 46 48 40 38 36 40 31 27 33 25 18 21 18 19 22 23 26 25 14 15
22 21 18 18 21 24 22 25 25 23 22 26 30 29 32 36 44 41 51 47 41 47 47 49 57 58 53 60 51 60 56 55 47 51 54 55 56 61 56 51 53 51 48 47 44 43 50 43 39 44 36 28 29 31 19 19 22 22 17 16 22 19 24 15
16 16 14 22 20 25 19 22 26 22 32 27 40 35 45 46 44 45 50 48 48 49 64 66 64 71 66 66 60 68 63 62 61 58 63 71 60 67 70 66 68 61 56 52 53 45 55 45 41 47 42 39 37 28 21 21 15 15 15 20 18 19 16 26
18 25 15 23 25 20 26 17 24 30 31 28 34 38 38 52 51 52 48 53 51 66 71 73 71 72 76 68 74 76 76 68 70 74 69 67 70 76 78 76 69 69 71 66 60 59 49 53 44 42 48 42 41 37 23 29 19 24 20 26 15 24 21 18
26 17 19 19 22 24 23 16 28 30 29 30 40 41 42 45 46 51 62 53 68 69 69 76 80 77 83 77 87 83 72 78 77 85 83 85 79 84 77 86 75 80 77 68 66 61 52 53 53 51 45 35 35 28 27 22 25 23 25 16 21 16 22 19
21 21 14 22 20 26 26 17 21 31 36 36 39 47 51 49 56 51 64 69 68 77 78 78 88 87 83 88 84 89 87 87 86 84 83 85 91 88 89 83 90 81 81 73 75 65 60 55 53 47 46 40 35 34 33 23 18 26 18 25 15 14 21 17
14 19 23 15 22 16 21 20 31 28 39 40 37 50 43 56 57 56 59 66 76 87 86 94 91 95 101 95 91 88 98 91 100 101 99 88 99 91 95 92 93 87 88 80 77 70 66 56 59 56 53 41 34 39 33 30 23 25 24 16 21 17 20 23
22 19 21 18 21 25 25 17 26 24 31 42 45 48 53 54 56 63 62 71 83 85 95 93 94 96 104 98 95 96 107 105 101 104 97 95 96 101 102 97 97 98 92 84 81 80 62 58 59 49 49 46 44 42 35 23 31 22 16 15 23 21 20 16
23 15 16 24 18 15 22 21 22 35 30 32 43 51 49 59 51 59 65 83 87 96 92 98 100 108 109 109 111 110 113 114 105 112 102 107 100 111 105 96 96 93 93 91 86 75 74 62 58 52 53 46 46 42 28 29 29 18 22 17 26 25 25 21
24 25 17 25 15 19 16 21 32 35 37 35 47 47 55 49 57 56 64 85 87 89 94 100 107 102 102 113 111 111 107 109 121 108 108 104 105 106 111 98 101 105 99 92 92 83 75 61 51 55 49 50 45 36 33 34 23 23 16 16 24 18 16 16
26 26 22 15 14 14 22 17 20 26 38 38 46 44 42 52 60 54 75 82 82 87 103 99 109 107 103 106 109 109 116 117 124 125 120 109 106 109 105 104 97 106 94 94 84 79 67 62 58 55 54 40 40 35 32 32 20 16 17 16 24 14 22 21
16 24 25 17 14 17 14 19 29 22 38 35 44 39 53 55 54 58 65 70 85 93 91 101 99 103 103 110 108 111 118 117 128 116 116 109 109 109 102 108 99 104 96 88 89 72 73 54 59 48 45 39 37 42 32 33 26 23 18 25 22 16 14 17
23 19 16 23 14 19 21 25 21 25 36 38 42 40 46 46 56 54 64 68 85 79 92 101 97 105 109 108 114 113 118 125 127 126 112 110 110 106 99 98 99 96 89 87 85 76 59 55 54 54 49 36 37 40 34 26 18 17 19 20 14 25 14 24
18 17 22 25 26 24 18 23 22 27 27 32 31 33 38 45 43 50 65 74 78 80 87 94 90 95 108 104 113 117 115 121 118 115 107 113 114 103 108 105 93 87 91 82 73 68 62 51 44 51 47 43 42 33 27 23 16 20 21 17 24 26 22 15
20 16 18 17 21 19 22 16 23 30 30 34 33 38 40 44 43 45 59 64 65 72 76 91 90 90 94 97 100 104 111 110 108 104 110 110 107 104 92 88 89 86 82 71 71 67 51 42 47 46 44 31 37 28 31 22 14 24 24 18 18 25 24 18
21 21 14 19 23 23 16 23 17 25 29 31 31 30 43 38 36 47 52 61 67 77 74 84 80 90 89 91 91 101 98 101 104 104 95 95 93 95 96 92 79 84 74 77 69 60 51 49 48 46 40 39 34 23 31 26 21 14 20 21 15 14 16 14
15 26 24 16 25 14 20 22 14 17 25 20 27 37 36 39 34 46 51 48 59 71 76 72 73 83 81 83 95 90 98 88 83 93 91 93 91 88 88 77 77 69 67 62 65 47 47 35 45 31 31 29 27 26 22 20 26 26 17 22 24 25 16 17
22 19 18 23 14 20 22 15 15 15 17 22 20 23 35 30 35 36 45 47 51 57 67 64 71 79 74 86 89 83 86 87 82 86 88 89 86 82 75 80 70 63 66 63 55 48 35 40 35 33 32 29 31 29 26 22 22 19 16 23 17 15 15 14
23 19 25 20 25 17 20 14 14 24 21 19 25 32 32 26 30 34 40 37 52 48 57 55 61 63 72 77 75 77 71 78 78 76 72 69 76 78 73 73 60 65 52 57 44 47 31 39 26 35 27 28 26 16 15 16 16 25 26 14 20 23 21 26
18 16 19 23 25 23 14 26 14 17 19 26 23 23 19 30 29 23 33 32 45 48 55 47 55 55 62 62 72 72 74 69 75 67 65 63 72 59 65 57 53 58 50 39 44 38 31 23 23 29 20 29 22 18 18 18 25 15 19 14 18 16 19 17
24 21 19 15 19 22 20 16 15 26 14 25 25 22 22 22 22 20 25 25 32 41 42 46 54 54 57 62 55 57 64 70 59 60 58 64 59 56 54 47 48 45 48 43 39 28 26 28 19 23 22 19 21 25 14 20 19 19 14 20 22 20 16 20
18 17 24 19 22 21 17 25 21 14 15 26 26 25 19 20 20 19 28 25 30 27 39 42 37 44 48 49 49 55 57 57 64 61 52 52 52 55 51 46 40 34 30 28 20 19 29 27 24 16 23 15 16 14 19 25 18 15 18 14 18 24 22 17
25 18 24 25 23 25 25 18 14 22 26 22 25 23 21 18 14 18 23 14 16 19 20 26 35 44 37 39 53 47 53 57 48 48 46 47 44 44 38 42 38 26 28 26 22 14 16 18 19 22 18 18 14 17 21 16 19 22 21 19 18 15 20 15
26 23 22 20 17 24 22 23 16 24 16 25 18 24 16 25 22 15 22 18 26 20 17 22 31 35 31 44 39 37 40 39 45 51 48 37 35 38 31 27 32 20 16 19 24 20 14 18 18 26 18 26 17 23 16 14 23 26 22 22 24 17 17 21
16 14 21 21 21 14 21 23 21 19 14 22 14 19 16 22 14 16 21 22 25 21 17 22 27 24 25 27 31 32 32 39 36 37 39 32 33 29 30 32 24 17 26 19 16 21 17 26 24 19 18 14 23 19 21 15 16 19 18 24 22 22 23 15
17 16 17 24 20 25 16 15 26 23 26 14 21 20 23 21 16 18 23 22 17 15 18 25 22 17 27 22 33 37 35 32 30 38 28 30 30 25 22 16 20 19 24 18 24 18 21 14 23 24 24 16 23 22 18 25 14 22 16 18 18 18 17 20
23 19 17 18 14 22 16 24 24 21 20 26 25 26 18 20 16 17 25 14 23 25 23 20 22 16 17 18 27 19 23 26 31 24 21 24 22 23 22 15 24 19 15 18 14 26 17 16 14 22 18 18 15 15 15 22 20 24 20 22 16 18 20 24
25 23 20 14 14 24 14 18 20 21 18 20 21 23 24 22 17 14 21 23 22 26 16 22 19 17 22 23 14 23 16 15 21 27 25 15 23 24 21 21 24 25 18 25 18 26 26 20 14 14 14 14 15 18 17 22 22 23 16 24 22 24 18 24
23 15 21 15 19 25 20 23 14 18 24 15 19 19 15 18 15 21 18 23 25 19 18 26 21 21 16 19 21 16 14 23 16 26 22 22 22 19 16 23 25 14 19 15 23 19 19 15 25 14 18 24 24 24 16 26 22 26 14 19 25 20 25 14
18 19 16 25 14 26 19 24 26 17 18 16 25 14 23 22 20 22 19 20 15 14 24 22 21 17 20 21 17 22 24 25 25 19 15 22 18 26 17 23 18 19 14 16 24 22 24 23 17 16 20 23 24 22 22 22 19 22 17 15 14 14 19 20
15 14 17 18 20 16 26 16 18 23 20 14 24 21 24 21 17 20 16 14 15 26 18 22 14 14 21 14 23 18 14 20 25 18 22 17 24 17 24 26 26 18 23 24 18 21 24 18 21 24 21 18 22 15 25 19 18 21 15 22 19 21 26 18
14 14 19 24 25 15 21 18 21 14 14 24 19 21 15 18 17 19 23 26 22 15 22 19 15 16 26 20 22 14 21 24 22 25 24 23 25 17 16 26 20 23 24 24 23 15 19 24 20 15 20 18 18 14 20 17 20 25 23 20 25 24 23 18
16 23 22 16 22 26 26 21 21 24 26 17 25 19 23 15 22 14 26 18 23 18 14 24 16 24 19 21 16 14 16 15 24 18 20 21 25 20 19 18 23 18 25 19 16 15 17 14 14 19 26 14 22 22 25 23 17 24 15 21 26 22 14 14
20 15 19 26 25 20 21 19 26 24 19 24 15 24 18 25 23 22 17 20 25 24 24 17 19 23 17 21 17 19 22 15 20 24 26 23 24 20 26 15 16 18 16 26 23 25 19 17 23 15 17 25 20 24 22 21 18 22 26 15 18 21 24 23
16 18 19 17 22 19 15 22 19 18 26 14 15 20 17 26 17 18 23 14 20 24 18 25 16 14 25 20 25 15 18 26 22 19 21 18 18 16 20 23 21 15 19 20 16 14 16 21 24 20 24 14 25 24 17 20 20 17 20 20 16 14 15 25
26 24 20 25 26 14 22 26 23 18 20 22 23 25 14 18 26 16 26 22 26 25 19 19 18 15 16 14 21 22 15 25 23 24 16 15 16 25 16 23 19 18 25 23 19 26 16 26 24 14 19 14 22 23 17 25 24 22 25 25 23 16 25 19
20 21 24 15 26 24 24 22 17 26 14 20 17 24 14 17 26 17 16 15 26 26 14 24 21 17 14 20 19 21 25 20 23 14 24 21 21 24 17 17 16 15 16 14 18 20 19 14 26 19 14 16 14 24 18 18 22 16 21 24 14 20 15 22
25 25 21 22 24 15 26 25 24 16 25 20 22 26 14 19 24 25 20 18 25 23 20 22 23 19 20 19 19 23 17 15 20 18 20 18 26 17 15 21 25 14 15 15 17 23 15 18 18 19 26 16 17 15 16 23 22 26 24 18 25 14 15 23
25 16 19 20 24 21 23 21 19 23 15 24 23 15 26 14 22 20 26 17 19 15 19 18 14 23 16 14 16 24 20 25 14 19 16 21 25 24 17 16 23 17 21 20 16 18 17 26 17 19 25 20 25 22 19 20 17 26 25 16 22 21 22 26
24 26 21 21 14 18 26 25 21 17 19 20 21 15 23 18 17 22 16 19 26 20 15 16 14 15 14 21 17 23 23 25 25 18 23 16 16 18 15 18 20 15 14 19 17 26 23 14 24 16 15 14 19 19 16 15 18 17 20 17 19 24 23 14
