P2
64 64
255
27 27 18 36 24 36 34 23 28 38 20 36 20 23 24 32 31 29 36 23 28 30 29 23 29 26 38 18 38 31 29 20 29 19 28 36 29 25 29 26 25 29 22 30 30 34 25 25 24 25 32 36 23 37 29 27 19 22 20 31 38 26 31 19
37 33 18 29 31 31 24 20 24 20 35 20 29 23 27 28 22 21 31 23 29 20 32 22 22 18 26 20 23 31 23 25 20 24 37 22 28 19 28 21 33 34 18 27 31 23 30 26 38 20 27 30 37 31 21 19 28 28 24 37 21 33 22 29
19 20 32 21 20 29 32 37 36 24 21 38 30 22 30 19 22 37 21 21 34 37 20 31 28 23 34 32 26 30 37 21 32 37 21 33 22 37 32 31 33 25 25 19 21 34 34 33 36 36 29 24 38 32 35 24 22 22 26 29 20 19 29 18
22 26 25 30 31 36 21 32 34 22 24 30 33 37 38 34 27 36 18 23 22 32 38 22 23 21 22 25 18 22 24 34 37 36 38 25 27 29 35 30 25 20 33 24 36 32 23 22 24 27 24 29 28 26 22 34 20 26 29 38 32 30 25 20
38 20 38 23 30 30 21 23 31 31 28 29 32 25 22 28 28 37 23 36 32 36 37 38 36 24 26 25 25 38 31 31 18 20 24 23 26 20 38 37 19 33 35 23 36 33 27 38 22 25 18 30 33 27 35 33 28 32 30 36 38 21 29 22
35 30 28 37 23 29 26 33 21 29 18 23 24 26 23 33 22 24 30 19 26 37 38 33 33 22 22 33 23 35 37 38 20 36 34 25 21 38 29 26 27 19 28 36 26 33 37 21 32 29 24 36 22 28 24 22 19 19 19 23 38 24 33 36
23 30 23 37 25 20 20 38 31 21 31 38 25 25 26 18 22 36 25 24 21 33 31 34 38 38 26 21 21 34 18 28 20 26 18 35 28 27 21 35 20 31 26 19 31 36 36 34 31 24 32 30 38 24 24 24 25 22 20 35 19 33 30 23
38 18 20 36 35 21 19 36 19 24 28 18 25 18 18 26 30 27 19 22 34 19 37 30 30 37 34 35 31 32 24 27 36 32 21 29 36 18 29 34 33 28 31 23 18 18 34 19 32 23 30 28 34 33 23 21 23 19 29 20 25 24 32 23
29 34 38 33 24 30 20 24 20 27 38 36 19 38 33 24 27 21 19 32 34 25 25 31 33 18 32 36 37 35 32 23 38 22 27 36 30 37 24 26 27 30 26 21 24 22 31 37 30 20 23 25 35 34 18 36 31 25 23 34 23 21 25 27
25 23 38 20 21 26 27 27 21 34 37 23 36 24 38 21 34 26 20 25 18 18 28 18 28 26 31 30 32 28 30 19 20 30 31 24 18 28 36 32 29 28 22 18 35 38 30 35 18 31 21 20 37 36 23 33 28 22 34 31 33 29 29 19
28 36 31 34 35 22 28 19 37 30 29 26 21 21 22 26 32 19 28 33 26 30 36 18 25 18 22 34 18 25 33 23 32 19 29 21 33 35 24 28 25 28 18 24 38 34 30 25 23 27 20 28 38 19 38 36 33 30 35 24 19 23 21 37
21 33 24 37 29 35 29 20 34 38 21 26 26 21 21 35 20 30 19 28 29 38 20 23 34 28 27 18 31 22 37 29 18 32 23 18 35 37 35 38 20 28 23 27 18 21 21 18 28 32 21 33 21 36 27 25 18 30 36 32 37 24 27 36
38 26 18 36 21 27 21 34 27 18 25 26 28 35 20 30 35 22 29 27 24 29 26 27 36 34 28 30 18 33 22 25 38 18 37 18 30 36 18 22 35 23 36 18 30 26 32 33 23 18 18 33 21 36 20 31 38 32 36 28 30 21 21 24
30 34 22 29 24 32 23 28 19 32 34 29 30 25 34 26 29 19 37 32 29 33 33 33 32 32 24 25 24 35 28 28 38 28 32 23 33 32 30 37 19 22 32 34 22 28 27 21 32 25 24 20 29 31 33 32 29 18 29 31 23 35 28 18
29 30 20 34 29 18 22 19 38 37 26 25 23 19 27 20 32 24 29 22 35 25 24 31 27 35 24 18 24 31 19 32 31 22 24 23 28 22 32 19 19 31 27 31 29 21 35 21 20 36 18 24 18 34 20 36 33 22 26 27 23 22 26 29
19 33 38 28 20 30 21 27 24 29 24 24 21 27 22 37 33 35 25 37 24 28 21 26 28 28 35 37 22 20 31 20 20 27 18 26 25 32 36 26 33 32 22 29 36 23 18 26 23 36 32 21 36 24 23 30 24 30 25 37 21 28 19 31
31 19 26 35 30 19 34 32 20 25 18 35 27 38 22 20 28 30 32 19 18 25 21 38 19 29 19 19 35 24 35 26 30 33 38 21 18 34 27 20 38 27 28 26 31 29 36 24 38 29 30 32 20 19 38 38 22 38 37 30 38 32 23 20
21 38 19 35 19 33 28 27 31 28 32 22 23 36 25 30 32 37 37 20 22 22 32 21 32 22 19 37 24 31 27 35 19 24 18 31 25 26 40 39 35 36 26 25 27 30 35 34 36 26 23 31 19 34 24 34 22 25 22 37 20 25 20 23
38 27 23 31 37 31 28 25 28 29 20 20 33 30 37 18 22 26 21 22 36 33 29 23 29 23 23 19 24 27 38 33 35 29 25 36 47 39 48 48 51 52 40 33 29 19 27 18 34 35 26 38 27 26 30 34 20 38 31 36 31 25 33 33
34 37 26 34 18 27 19 20 23 37 25 26 36 19 19 34 35 39 38 27 36 40 27 35 20 36 22 32 34 26 33 21 22 29 29 50 52 52 63 62 66 49 40 48 34 25 36 35 36 24 21 35 20 33 23 24 25 38 34 37 34 36 38 37
38 23 19 37 22 23 25 18 34 20 34 34 25 24 25 29 22 28 41 31 43 29 35 43 34 28 29 28 35 38 18 27 19 42 50 39 48 55 57 77 63 58 58 57 56 47 42 32 30 40 28 23 19 20 35 33 31 23 22 24 22 38 29 27
28 30 30 26 29 32 23 18 19 32 27 31 27 25 34 29 44 45 43 39 44 34 35 45 41 29 28 34 39 20 28 31 22 47 45 50 62 70 74 82 77 81 72 64 48 41 49 31 45 26 33 24 21 38 32 36 34 20 28 21 37 25 21 18
30 23 20 28 22 21 24 34 29 26 35 21 33 44 35 37 36 48 34 45 39 33 36 52 49 34 29 27 44 33 31 38 39 41 52 62 76 76 96 86 101 83 77 73 63 51 38 41 46 47 32 34 34 27 28 34 29 28 38 35 26 20 26 38
37 18 27 36 25 19 18 25 25 35 29 41 31 39 32 35 42 37 49 56 44 52 55 56 40 49 46 42 37 34 31 37 36 39 54 75 84 96 97 98 103 105 85 78 72 64 45 37 45 39 45 45 33 37 35 27 22 27 25 36 23 36 24 26
33 21 18 29 28 28 19 22 22 29 35 30 28 30 50 41 47 49 56 51 52 49 44 60 49 46 40 42 32 40 31 24 47 48 60 64 83 86 107 122 108 95 102 82 80 66 59 39 57 44 39 44 36 36 29 28 35 26 30 19 31 27 19 34
32 27 29 38 21 30 26 38 34 21 29 39 32 47 44 49 52 56 51 56 63 51 62 61 46 43 46 42 48 33 30 24 38 52 71 83 86 98 102 123 102 115 93 98 79 78 60 48 53 53 41 49 33 28 27 40 37 26 25 31 24 22 27 24
36 20 23 29 28 27 26 33 24 24 45 30 43 53 54 55 59 65 58 61 66 62 56 53 54 53 60 38 49 46 40 42 32 53 70 78 94 86 101 105 112 112 106 94 77 70 71 61 58 53 45 36 47 49 29 24 32 24 32 29 38 23 21 28
21 28 26 27 19 30 24 25 20 29 37 43 34 41 52 44 52 66 64 56 58 55 67 56 61 61 53 54 40 46 50 32 46 50 65 61 75 85 105 99 94 91 99 88 88 74 72 55 62 55 46 41 37 37 44 24 23 35 29 35 22 37 29 22
37 30 27 20 25 23 29 21 36 30 35 47 37 40 60 56 64 59 74 76 68 57 57 68 71 57 66 50 53 46 40 39 37 53 50 76 78 75 98 105 99 86 98 90 79 69 74 62 51 57 46 59 38 38 41 41 39 28 18 35 30 30 31 29
26 18 30 18 26 21 22 31 39 27 39 44 45 49 49 61 58 72 63 71 77 67 69 74 73 71 48 50 61 46 49 51 40 43 59 69 69 86 82 94 98 93 88 76 72 64 70 64 53 62 49 49 48 48 36 27 27 21 20 24 24 26 31 36
32 24 30 37 20 24 32 35 27 41 34 47 54 45 58 65 60 67 61 64 65 72 71 67 60 53 51 60 52 53 46 38 54 40 46 46 70 61 76 91 88 86 84 83 69 74 73 59 67 68 65 51 46 35 32 47 31 23 23 18 30 32 37 31
37 18 21 38 32 32 33 26 24 46 32 50 46 49 59 57 62 67 74 66 68 70 77 71 70 70 57 58 46 56 43 53 55 48 51 57 50 65 71 72 68 85 77 75 81 66 74 67 65 59 55 47 53 46 33 36 30 35 28 31 19 28 22 35
20 22 22 38 26 20 35 38 43 32 33 36 47 50 55 53 66 78 70 79 71 81 75 72 60 70 64 67 57 47 44 43 38 53 42 45 59 67 60 55 77 82 85 77 77 72 80 65 56 69 59 58 40 48 32 44 30 39 33 23 32 22 18 28
29 26 21 33 25 19 21 25 26 42 48 44 50 47 56 58 59 66 72 78 68 86 82 82 65 61 57 52 58 41 38 44 42 40 39 65 52 64 73 86 78 94 90 97 78 74 65 60 70 62 59 47 58 51 40 34 30 39 27 20 21 31 19 38
24 18 20 21 19 38 19 26 32 42 39 46 43 43 54 70 71 68 76 76 67 73 76 64 63 63 65 54 47 43 36 51 50 59 48 63 81 75 92 97 100 106 105 100 81 72 74 67 56 66 47 47 56 35 41 29 29 35 27 32 36 22 23 22
32 21 25 37 27 38 19 23 22 39 30 50 51 48 61 53 70 57 60 68 75 61 67 75 64 61 53 52 45 49 36 45 43 55 60 62 81 111 111 123 127 135 128 119 108 83 78 62 61 50 60 53 51 45 39 26 28 24 19 21 28 18 32 25
33 18 26 30 21 23 19 38 21 34 47 42 38 46 53 66 58 54 56 65 68 65 66 66 58 65 51 55 43 56 45 40 51 47 76 72 107 126 143 136 153 139 138 127 112 87 75 67 54 60 52 50 43 37 41 39 27 29 29 18 30 38 33 18
27 21 37 20 24 28 18 32 20 44 35 37 50 41 53 48 60 50 63 62 71 60 57 69 69 65 53 48 46 49 46 48 44 54 71 73 98 135 140 158 171 174 150 129 115 94 85 56 50 51 54 38 54 37 28 43 39 23 24 38 28 37 30 25
20 24 38 18 23 37 29 30 31 41 27 47 34 42 51 55 47 47 49 59 69 50 58 56 50 49 55 45 53 35 44 31 51 49 78 75 108 137 158 152 169 172 147 134 110 101 78 53 49 43 48 42 48 33 28 39 34 20 29 23 20 21 30 32
23 20 20 19 31 24 30 34 33 22 23 33 34 48 43 45 50 46 51 48 53 56 59 43 50 59 56 41 48 35 44 23 40 42 71 81 93 122 141 158 157 158 141 129 110 81 67 47 42 58 42 51 47 36 41 28 30 30 32 22 35 30 28 34
25 33 22 31 28 18 35 26 33 28 30 33 33 39 50 38 43 43 60 52 48 43 46 50 40 53 49 45 34 44 26 33 37 37 61 68 83 106 132 139 144 144 130 104 86 78 60 46 48 39 45 45 35 40 34 23 28 30 20 32 26 32 32 24
38 30 21 33 19 31 27 25 26 37 38 39 42 40 34 39 50 39 48 38 39 49 56 48 47 42 50 46 27 36 35 24 22 28 43 68 66 83 95 106 102 114 91 78 71 62 52 36 51 35 32 31 36 26 20 25 22 26 33 33 28 32 31 30
32 22 31 29 25 27 27 25 36 18 27 33 29 42 37 36 32 42 33 40 51 53 41 46 36 36 44 37 41 33 39 30 35 37 33 53 62 60 82 75 79 77 69 73 58 41 40 38 39 47 29 29 31 31 30 28 34 18 22 28 24 32 18 32
18 26 22 28 33 29 30 32 27 32 19 23 35 33 27 32 33 32 41 47 31 39 42 29 30 40 38 32 36 38 19 19 34 28 34 24 37 43 55 56 57 63 53 45 45 37 42 36 38 34 26 26 26 23 21 34 32 30 21 25 24 25 36 26
35 30 37 24 24 30 26 28 26 20 38 32 33 25 37 40 26 37 36 33 35 46 27 28 32 26 31 32 24 18 31 28 33 32 33 29 32 31 25 35 24 27 43 30 31 45 34 31 32 23 22 23 32 29 23 22 20 18 19 29 21 19 31 20
21 38 29 38 26 38 38 19 27 27 28 38 37 21 21 19 23 27 37 30 40 33 38 37 29 24 29 23 19 31 33 25 28 33 33 19 35 37 31 36 24 31 31 40 42 37 27 32 34 29 38 38 18 22 32 30 36 36 29 23 26 28 24 23
35 21 21 21 24 20 19 32 24 21 36 31 30 19 34 18 18 29 33 37 30 32 38 21 32 26 31 28 31 31 19 22 30 20 18 36 20 36 32 25 30 32 33 20 27 19 38 32 27 25 20 33 36 35 30 21 36 37 33 27 30 21 24 31
38 32 24 33 21 26 29 20 21 36 33 35 20 18 23 38 18 25 29 20 24 35 30 35 28 19 30 34 18 30 27 35 23 26 19 32 29 35 18 33 30 22 34 22 19 23 33 34 22 35 26 25 31 30 20 24 34 31 18 34 26 25 33 24
21 19 37 20 34 36 31 18 36 19 35 35 37 22 36 28 23 29 22 20 36 28 31 34 27 18 20 24 32 23 38 35 18 19 35 34 30 19 33 27 26 24 22 26 37 27 30 33 28 30 28 29 36 23 26 36 18 23 19 18 35 35 18 24
29 25 23 29 22 19 28 38 32 22 30 29 18 18 28 26 38 34 32 33 24 23 23 38 22 32 22 21 23 36 38 26 36 26 26 36 22 29 18 20 34 27 37 34 19 21 24 36 23 21 35 37 27 18 20 20 32 21 29 35 28 32 34 22
27 38 24 19 28 20 27 21 18 25 27 32 19 38 30 27 21 23 18 32 32 28 34 27 22 32 38 30 23 24 29 23 30 32 20 26 23 28 30 29 20 20 27 19 23 21 27 31 18 21 22 34 20 34 18 24 29 25 26 20 29 27 19 37
18 37 28 28 18 29 20 21 21 35 20 19 29 28 18 31 30 25 35 29 23 20 36 26 19 33 29 25 19 23 37 36 23 28 37 26 29 19 23 19 33 30 33 33 27 27 23 26 38 18 33 24 35 29 32 30 24 19 37 20 34 20 37 33
20 20 36 38 36 36 35 26 23 21 27 36 28 36 27 30 38 24 29 32 19 25 30 27 24 24 19 36 35 38 18 20 18 25 24 35 38 27 32 26 36 35 36 26 31 24 23 23 24 21 20 23 35 21 38 23 33 33 18 32 34 28 23 22
29 25 38 22 35 36 35 32 27 37 21 31 35 36 25 24 27 22 31 20 27 27 35 20 35 23 31 23 33 32 29 25 35 31 33 20 35 22 32 37 33 30 37 37 30 35 22 21 25 23 27 30 29 32 28 38 29 38 23 28 19 23 22 22
37 35 38 31 34 19 34 22 37 19 22 27 31 29 30 18 34 36 24 33 37 38 26 34 35 30 20 31 24 34 23 19 26 32 31 38 32 31 36 37 36 25 38 26 26 29 30 29 23 25 38 21 28 37 19 22 18 27 30 19 30 36 19 18
27 30 24 25 31 24 28 31 35 33 19 32 24 23 19 34 38 36 38 30 24 24 38 33 38 24 34 32 29 33 35 20 31 20 21 36 21 32 22 34 19 20 27 20 34 32 19 31 18 22 30 25 21 38 36 24 22 23 30 38 38 28 36 37
37 37 25 28 35 28 27 20 32 33 21 22 21 27 32 27 26 34 30 28 19 22 31 18 18 33 31 18 38 23 23 37 27 29 34 27 33 35 26 33 23 32 23 34 32 27 26 30 33 30 31 37 24 26 20 30 22 35 35 36 28 27 28 28
37 19 32 32 30 19 32 30 24 21 24 20 38 37 18 29 36 34 27 20 32 19 22 38 38 29 36 30 38 19 22 27 28 24 22 29 36 18 25 34 34 28 22 29 29 29 18 26 37 23 27 24 25 34 24 18 36 28 20 37 37 27 32 24
28 33 26 20 38 28 36 33 30 28 24 20 30 32 29 28 26 25 25 29 31 26 18 34 33 29 27 27 35 29 23 31 36 25 29 29 24 25 20 28 22 34 18 35 18 26 27 22 28 35 29 23 21 38 34 32 33 28 25 33 28 34 26 25
35 31 30 38 21 28 24 20 23 34 30 22 33 28 30 20 36 20 32 34 33 21 27 29 36 36 19 29 22 38 31 35 31 34 23 26 22 18 18 36 20 18 27 36 36 29 18 18 18 25 36 27 31 18 38 28 21 29 22 20 24 21 24 38
23 33 35 36 32 31 35 22 18 29 29 23 37 23 28 27 26 22 18 35 38 22 21 21 21 37 36 18 24 19 27 19 34 35 28 23 32 26 21 31 21 25 37 18 31 35 33 31 25 22 28 18 35 18 25 31 32 30 19 27 25 19 32 27
31 30 19 33 19 30 22 19 28 26 34 31 29 18 32 19 35 24 21 36 22 19 38 19 37 34 35 36 18 27 37 31 30 27 32 29 38 32 26 30 32 30 30 35 30 35 32 33 37 20 36 33 34 38 37 28 23 33 28 25 37 31 37 28
19 18 22 26 25 22 33 27 26 27 19 23 25 32 32 34 27 29 36 25 28 21 19 26 33 25 26 31 32 37 32 21 31 30 38 33 26 27 26 22 22 35 19 19 30 23 19 18 35 22 18 21 22 32 35 22 31 29 25 35 31 18 36 30
29 22 30 19 20 23 19 24 27 26 20 32 23 24 28 20 25 22 23 36 38 24 31 33 18 33 33 36 24 37 19 18 25 37 19 27 32 27 21 24 33 34 30 23 32 27 21 31 35 38 19 37 29 23 31 22 36 28 23 37 19 25 25 33
