P2
64 64
255
23 20 19 20 24 23 16 17 22 18 26 17 25 15 20 24 20 15 20 16 22 16 14 25 25 18 17 14 17 17 26 22 20 19 14 19 20 20 20 15 19 20 25 14 21 18 23 25 15 26 23 24 20 16 18 25 22 22 18 20 20 18 23 26
17 21 23 23 15 15 15 25 21 16 15 15 23 17 22 18 26 18 22 15 16 19 20 22 15 14 20 20 24 22 22 25 23 20 20 21 19 22 19 15 14 17 19 20 23 14 24 26 22 24 16 18 21 24 23 14 25 19 21 25 15 15 25 14
24 15 22 26 26 22 22 24 16 14 20 26 25 22 23 22 18 17 22 16 19 15 15 23 19 23 19 21 21 19 24 24 20 23 25 24 21 14 17 21 16 17 16 20 14 25 20 15 22 18 14 22 18 14 18 18 15 26 19 14 19 23 23 20
17 25 17 17 19 17 24 23 18 20 23 20 16 25 20 20 19 18 20 25 22 21 15 14 22 16 22 18 21 19 14 21 26 24 25 18 25 24 26 23 26 24 22 15 17 20 17 26 23 25 18 24 20 26 16 24 20 16 16 18 19 25 14 24
18 18 23 21 23 15 21 14 25 14 15 23 17 26 16 19 21 22 18 14 26 24 21 18 14 23 16 24 23 16 26 25 15 16 23 19 24 17 19 22 25 26 24 16 19 17 19 20 25 21 21 23 24 25 26 22 22 14 20 14 17 15 18 17
17 24 23 22 15 19 17 16 14 17 20 16 17 23 23 14 18 18 21 15 20 20 17 14 20 15 20 14 26 18 25 23 16 15 18 25 14 15 21 26 17 26 20 20 19 26 15 24 26 16 20 23 26 17 15 24 25 22 14 18 23 25 23 22
25 15 14 14 23 24 16 25 18 15 20 17 23 18 25 14 15 22 25 23 26 25 15 21 22 25 24 24 16 24 14 24 14 23 19 18 25 18 16 17 24 24 20 17 25 16 24 24 18 16 21 23 25 19 15 14 26 18 19 23 21 16 22 20
24 24 19 16 19 22 20 19 20 24 22 18 19 16 14 20 16 19 17 16 15 15 23 15 16 25 24 24 25 23 19 25 24 24 20 25 22 25 15 22 16 24 25 21 25 24 24 20 15 14 16 20 22 16 15 23 21 25 24 14 17 18 23 23
16 21 23 24 26 24 20 23 21 18 20 25 18 15 26 16 26 25 19 21 16 14 26 16 23 18 17 16 16 15 22 25 15 26 21 21 15 19 15 22 19 23 20 17 19 16 26 26 19 14 15 14 18 16 19 21 18 22 20 15 23 21 22 23
16 24 15 15 25 18 22 16 25 22 21 15 19 17 25 23 22 16 18 20 16 24 25 22 15 23 25 14 21 25 20 25 18 20 17 14 15 19 16 16 26 24 17 16 24 20 21 18 25 21 20 24 23 24 23 23 22 17 20 21 24 25 14 21
24 23 21 15 24 18 22 23 18 22 15 22 19 21 25 14 15 23 26 23 21 21 16 17 17 26 16 18 15 14 25 16 21 19 19 19 22 17 21 21 16 24 22 18 20 24 25 26 14 18 16 18 25 25 20 20 19 14 23 16 16 15 14 17
23 22 23 26 23 17 15 14 20 22 23 19 21 25 15 26 21 26 24 15 17 25 22 23 14 18 20 22 15 26 23 23 22 20 20 18 23 25 14 21 20 14 20 18 20 18 21 20 26 15 21 17 18 20 25 22 21 14 20 15 18 21 21 18
23 17 18 15 18 25 22 16 20 24 15 22 22 21 14 21 26 14 16 17 18 21 24 20 15 24 22 23 19 15 17 23 17 22 20 19 15 23 23 14 15 25 20 20 26 23 17 25 19 24 21 14 16 16 25 23 17 14 22 14 19 16 23 25
24 23 20 21 14 18 19 19 25 14 14 22 25 15 19 16 26 24 25 14 21 22 26 21 18 24 21 23 25 24 18 17 23 17 22 23 23 24 24 24 22 15 21 24 14 23 14 17 18 15 19 21 20 14 17 16 20 25 20 26 26 15 15 15
20 24 25 26 14 18 24 16 14 26 16 14 21 26 21 26 15 25 21 18 16 18 14 25 15 22 22 15 22 17 17 15 25 20 26 22 20 18 17 25 26 15 16 26 24 18 22 26 20 26 16 25 19 21 24 17 15 22 15 16 19 15 15 24
14 26 21 26 26 19 17 20 23 26 24 22 21 20 25 17 24 18 19 20 22 14 23 19 26 20 26 19 20 16 15 25 16 14 26 18 18 15 21 15 15 19 20 14 16 19 23 24 21 25 15 24 21 16 15 22 19 16 16 22 17 25 22 16
20 26 25 15 24 16 16 14 25 22 17 21 26 14 15 25 26 18 20 15 19 17 15 16 16 26 16 24 19 23 21 20 16 17 14 22 22 14 26 24 25 20 25 15 23 15 25 15 19 21 22 14 17 19 22 24 21 26 21 14 19 24 16 19
21 14 18 16 24 18 23 18 15 16 20 23 18 20 22 21 19 15 15 18 18 25 14 21 16 23 19 18 18 18 21 24 14 25 22 24 14 17 21 25 19 19 14 26 18 21 23 18 26 21 25 14 17 23 24 22 19 14 20 24 16 26 16 18
15 23 23 19 14 16 26 26 14 20 19 20 21 15 16 16 19 20 23 18 18 16 21 20 16 24 25 25 22 17 24 22 20 18 25 17 21 24 21 16 18 19 21 20 25 26 24 21 16 19 24 14 15 15 21 25 24 25 24 24 15 17 16 24
24 21 19 15 16 25 21 15 21 18 26 24 25 19 18 23 18 20 22 24 26 21 17 26 24 26 23 22 21 21 19 17 18 16 15 20 26 14 25 25 23 28 25 28 24 29 22 19 24 23 16 18 25 17 24 16 18 19 24 25 22 23 24 23
23 15 26 25 14 18 18 19 18 17 18 24 18 25 23 21 29 29 25 27 24 33 25 25 28 18 20 22 24 15 17 21 17 24 23 16 21 25 25 20 22 22 26 34 22 24 24 21 27 27 21 25 21 21 17 19 16 24 26 25 18 26 25 19
25 24 15 18 20 25 21 19 20 20 15 16 25 21 21 28 22 24 25 34 30 28 33 32 28 23 22 31 20 18 17 16 21 14 22 25 20 28 21 34 33 30 32 29 35 25 25 33 31 29 25 28 26 14 25 17 17 25 22 15 19 18 25 20
23 23 22 26 14 16 22 21 14 19 16 18 19 20 29 36 26 32 37 31 38 34 41 38 32 30 26 26 24 29 17 20 18 23 20 20 25 27 30 26 38 36 30 40 32 30 31 32 30 27 26 29 27 16 19 25 22 17 18 18 22 17 21 26
16 14 19 19 17 22 15 16 20 24 20 21 20 29 36 36 39 31 42 37 45 43 45 36 37 36 31 31 30 20 29 25 17 17 23 28 26 34 33 36 31 35 43 42 35 37 39 31 29 30 30 28 20 26 21 15 18 16 16 24 19 20 26 19
26 19 22 22 15 24 19 19 24 19 20 21 28 38 40 42 38 45 43 42 44 39 39 47 44 34 32 28 32 33 21 27 26 18 24 25 36 30 37 33 38 43 37 49 44 44 47 37 35 37 30 27 24 20 29 14 14 24 20 16 21 14 14 17
21 23 23 21 18 21 17 16 19 28 22 25 38 36 40 46 48 42 45 52 45 51 51 49 39 42 46 35 32 32 26 27 26 31 24 26 33 42 44 36 42 48 51 44 49 51 41 43 39 46 41 36 36 26 21 27 14 24 25 20 18 22 17 23
23 26 26 25 21 20 25 14 15 22 28 33 38 33 43 37 42 46 43 55 50 56 56 49 47 44 39 46 33 40 30 28 24 27 31 29 40 40 48 40 41 54 53 46 55 46 45 47 43 40 38 38 31 33 25 27 22 16 21 21 22 14 14 15
23 19 25 17 20 18 19 14 22 23 33 37 33 42 38 49 46 50 54 53 51 60 53 59 53 42 40 36 38 38 36 27 33 36 30 41 40 40 49 52 55 52 53 55 52 56 52 52 43 52 38 36 39 34 30 29 17 14 22 25 16 17 21 19
16 18 23 26 21 16 26 19 17 21 26 40 37 43 43 54 53 49 62 61 65 53 59 56 58 54 53 40 38 32 34 35 35 38 35 43 42 49 51 57 59 59 57 58 59 53 51 58 55 48 42 40 44 32 29 25 25 22 14 17 15 25 19 16
16 23 26 22 16 21 26 15 30 31 26 37 45 44 45 51 55 56 61 58 63 69 62 61 61 47 44 45 41 40 42 42 30 37 38 36 44 49 49 58 56 60 60 57 69 61 63 57 54 55 48 48 45 42 34 26 28 19 14 25 15 23 18 21
23 19 20 18 17 19 18 25 29 32 27 31 43 40 48 55 52 64 61 70 60 69 59 64 53 49 51 47 48 46 35 42 36 34 40 43 42 54 52 53 64 62 64 62 70 60 63 60 54 48 46 38 38 40 29 28 30 16 20 24 17 14 21 24
26 16 23 21 14 19 19 26 28 23 28 39 36 44 55 58 51 56 66 68 72 64 64 64 58 54 52 51 49 36 37 32 34 32 38 43 41 50 50 55 59 60 65 64 70 70 63 62 60 50 52 40 38 35 39 34 28 26 21 14 25 18 20 26
22 17 26 14 19 18 20 19 30 26 34 39 45 44 55 53 51 57 60 71 75 67 74 69 64 61 52 49 43 47 43 36 38 37 41 37 48 43 56 61 64 69 72 67 71 75 66 59 52 58 44 45 42 43 32 24 23 20 23 24 22 16 16 15
21 23 23 19 17 18 20 25 27 29 28 39 44 43 53 57 63 62 58 65 69 70 62 70 62 50 54 55 45 47 38 41 37 40 36 46 45 50 48 51 66 58 71 75 70 72 65 61 59 53 46 41 46 38 27 34 24 24 15 21 16 14 16 21
21 17 22 20 20 20 23 25 24 23 35 40 36 42 42 49 50 59 61 70 60 68 65 58 58 57 56 42 47 34 33 32 37 41 34 37 40 45 52 56 55 65 71 61 63 68 62 59 50 55 42 50 40 43 33 27 29 16 17 21 14 19 22 20
18 21 21 23 25 25 17 21 19 23 27 35 38 37 49 53 57 51 54 63 62 58 64 53 60 47 48 49 46 35 39 35 41 40 35 36 44 42 54 47 50 55 64 57 57 66 64 55 55 46 48 48 36 37 33 26 26 27 25 20 15 17 19 26
22 17 18 16 21 20 21 22 25 28 37 38 34 43 42 43 46 49 56 52 63 59 53 56 51 47 54 50 37 43 28 28 34 34 29 40 36 49 49 49 56 60 56 60 65 59 55 59 45 48 39 44 32 37 30 29 17 16 20 21 25 15 14 17
15 17 21 16 25 14 17 22 28 23 23 34 36 37 39 50 53 52 52 56 52 50 52 58 51 44 39 36 42 34 31 32 33 28 37 30 40 44 46 50 45 48 53 56 52 57 56 46 43 51 49 38 33 28 33 22 16 21 19 19 23 14 16 15
16 20 18 18 25 19 24 19 23 30 24 30 31 39 38 38 46 43 52 53 48 56 45 43 45 45 40 37 38 33 27 28 22 21 34 34 32 36 44 41 44 52 51 49 53 46 48 41 46 39 43 38 30 31 30 27 21 25 21 17 22 19 14 16
19 20 20 17 22 23 25 18 25 26 24 36 42 35 41 40 42 53 48 49 51 52 55 51 53 52 46 36 44 31 36 36 24 27 34 42 44 44 44 49 51 56 52 47 56 55 48 53 48 42 49 42 40 31 29 23 28 23 27 31 25 26 20 26
23 28 25 27 30 32 22 31 23 31 30 34 39 38 48 39 42 54 51 53 55 47 50 46 43 43 47 48 40 44 38 28 29 27 35 41 42 38 47 50 52 59 51 58 53 55 50 53 49 50 48 40 35 44 35 37 32 36 37 38 32 36 30 29
34 24 25 28 31 36 25 36 34 36 28 32 42 40 42 45 41 46 50 57 50 55 46 45 48 47 50 41 44 45 40 38 28 29 36 37 47 41 49 53 58 60 50 56 53 61 53 53 58 49 47 44 39 43 40 36 41 42 39 32 45 42 42 45
32 25 27 23 31 26 25 23 32 31 25 28 25 34 34 36 45 36 43 37 48 48 49 46 44 41 40 36 41 36 24 23 29 35 27 31 42 40 35 43 42 45 40 49 41 47 42 41 42 39 33 35 29 36 37 35 26 26 37 27 30 34 28 26
19 19 18 19 21 19 20 22 26 28 24 27 29 24 22 31 36 31 39 32 41 33 37 30 38 38 29 34 21 29 18 22 24 29 18 18 33 33 32 36 36 30 42 42 35 42 31 28 31 31 24 30 20 19 26 22 23 20 29 28 23 27 29 32
21 15 26 19 25 17 26 22 18 16 16 14 23 17 16 24 29 28 31 31 30 31 33 24 32 28 20 18 14 15 17 14 24 18 26 23 15 26 21 24 22 31 33 26 27 21 32 25 20 25 20 24 24 23 20 17 20 22 22 20 22 16 17 23
23 24 20 16 20 20 17 17 20 26 14 16 16 15 25 21 19 24 18 27 24 24 25 21 23 16 25 19 23 22 22 22 25 23 22 15 18 21 22 15 24 28 23 29 28 29 27 20 20 26 14 17 20 16 23 14 20 14 15 21 23 22 24 22
14 21 17 17 21 25 23 19 23 15 24 22 17 26 19 15 26 15 22 14 17 20 22 17 15 18 17 23 21 25 26 17 17 16 26 26 15 21 22 23 16 17 24 26 25 26 18 25 18 25 18 21 17 15 21 25 24 16 16 19 18 22 25 16
24 24 16 23 20 18 18 14 25 24 19 24 20 24 14 26 26 17 19 25 25 17 14 24 25 17 19 22 19 21 21 20 26 16 14 15 16 23 18 20 18 25 21 15 14 15 19 20 25 19 20 15 23 17 24 26 22 19 24 21 22 19 14 24
15 21 18 21 22 18 18 25 18 16 15 20 20 15 21 20 18 15 17 26 15 23 15 18 23 22 18 16 25 24 23 14 19 14 22 21 26 23 20 24 18 15 17 23 24 23 17 18 26 19 16 20 14 25 21 25 23 24 23 19 17 15 15 17
19 19 23 19 16 19 21 21 21 21 18 24 24 22 22 18 26 24 24 26 22 14 20 14 14 22 26 15 16 21 15 23 20 17 15 17 19 17 25 15 26 22 20 18 19 17 18 23 16 25 20 19 17 22 26 16 18 17 20 18 17 26 19 17
16 16 21 24 14 25 14 19 26 22 23 17 24 25 25 19 19 19 18 22 26 14 15 21 22 15 25 18 18 21 20 19 17 24 14 20 26 24 22 25 14 24 14 22 21 16 20 20 17 19 20 19 18 14 18 22 26 14 22 21 25 17 20 25
21 26 24 19 21 19 24 18 24 22 21 20 25 18 25 23 23 20 25 20 26 14 16 19 15 19 25 15 14 26 22 15 20 22 15 17 24 24 25 16 26 14 14 24 16 21 18 25 23 15 24 18 22 22 25 23 16 20 26 16 22 15 22 16
15 25 25 18 19 17 21 26 16 22 18 26 19 17 25 15 18 24 18 23 16 20 17 24 16 19 26 16 22 19 25 15 26 14 19 21 23 14 22 19 19 25 14 26 15 23 17 19 20 26 15 20 20 16 15 17 23 24 18 18 18 24 15 25
26 18 18 14 16 19 21 24 26 16 20 26 15 24 22 26 22 26 14 26 23 21 15 24 14 14 23 26 20 17 24 24 20 24 14 25 25 15 26 23 26 20 26 23 26 21 20 15 23 25 20 14 15 24 23 19 25 26 26 22 14 19 24 16
26 18 21 20 21 17 20 25 25 15 15 26 26 26 17 21 21 22 17 21 18 21 23 21 15 21 18 17 21 23 16 24 19 21 22 17 19 15 14 26 14 19 21 26 18 20 22 22 21 17 18 24 18 26 16 18 25 15 24 19 24 18 20 22
26 18 17 19 21 25 24 21 19 16 25 14 21 25 26 19 25 15 21 21 16 24 18 24 21 14 22 16 17 14 23 22 17 21 19 14 17 22 16 22 25 19 26 15 22 14 21 19 19 26 14 26 15 21 16 26 19 17 22 19 14 19 14 26
17 22 24 24 26 26 24 19 14 23 23 24 25 25 18 24 25 19 16 22 22 26 15 20 18 22 20 17 26 19 22 24 22 23 20 23 17 22 21 16 17 14 23 22 23 15 17 24 24 17 21 22 24 24 23 24 17 15 26 20 23 18 21 18
21 19 16 23 21 14 14 20 23 23 24 23 24 20 15 23 22 15 19 18 24 20 24 24 23 24 20 21 25 23 18 16 21 23 22 20 25 15 17 14 20 26 16 20 25 15 24 18 24 17 18 16 16 16 19 26 25 26 15 18 25 15 16 17
17 26 16 16 14 17 26 25 25 19 20 25 21 15 18 26 18 14 17 24 20 16 26 24 19 21 15 18 15 17 24 23 16 15 23 21 15 21 17 15 20 22 24 15 20 19 18 23 23 17 20 22 26 25 26 18 14 25 21 25 24 19 23 19
21 26 16 17 16 16 22 20 19 16 26 20 21 21 16 22 25 24 15 22 19 16 26 17 20 17 18 17 14 24 17 20 24 24 22 20 18 24 18 23 17 18 21 25 16 23 17 14 15 21 19 22 21 14 26 18 25 21 19 17 21 20 17 21
23 25 22 15 22 22 15 24 15 16 15 19 20 16 17 22 19 23 17 14 16 17 16 15 19 21 21 19 26 20 20 19 16 21 22 25 17 26 22 25 26 19 14 14 20 26 19 22 14 21 25 18 15 25 19 20 18 26 21 22 18 20 22 14
14 21 23 22 14 26 19 26 15 19 22 26 21 19 24 20 18 24 16 17 24 16 23 15 20 16 14 26 22 22 19 17 16 26 18 19 22 24 16 19 22 15 21 23 17 18 21 17 23 24 17 26 15 22 20 23 15 24 15 19 24 24 18 23
23 15 22 18 26 21 19 25 14 15 17 23 23 18 16 20 20 24 20 20 16 24 24 21 24 19 25 14 21 14 26 23 19 20 24 17 25 15 21 23 14 26 15 19 17 23 25 18 24 18 18 26 24 23 17 22 26 26 25 23 19 15 22 14
18 23 25 14 19 14 26 24 20 24 21 21 15 24 19 17 18 14 16 26 20 25 15 24 18 17 16 20 23 15 20 17 24 24 24 18 22 26 24 16 26 18 24 25 17 19 17 25 21 22 25 18 14 25 15 23 22 24 14 20 15 24 16 20
