P2
64 64
255
16 24 23 15 17 17 15 23 15 18 15 26 26 18 19 14 23 21 24 26 18 20 20 17 24 21 24 23 15 14 15 26 17 21 22 26 17 21 21 24 24 22 24 22 15 17 19 16 20 19 19 16 21 15 19 24 24 24 14 17 26 23 20 23
25 15 18 24 21 16 18 19 23 17 22 18 25 16 24 23 21 22 20 24 17 26 14 25 18 21 20 21 20 20 19 18 17 18 24 22 18 19 25 18 26 21 23 14 24 20 19 23 25 22 26 16 19 16 15 14 24 18 23 16 22 14 15 25
20 15 24 21 26 23 18 22 15 14 21 26 23 20 16 25 24 18 25 15 22 16 18 23 23 19 19 24 22 15 19 21 26 21 25 19 24 18 18 25 19 23 19 22 26 17 20 20 23 26 17 26 22 23 14 24 17 19 24 26 21 24 14 26
22 22 17 18 22 23 14 23 23 18 21 18 24 17 22 25 17 15 23 23 18 26 18 26 14 17 22 21 21 18 25 16 17 26 17 18 15 19 26 14 23 21 14 15 26 26 24 16 24 15 15 22 21 16 23 14 19 19 17 24 20 23 19 22
24 16 14 20 18 20 24 25 15 23 20 18 16 16 25 16 17 18 21 24 14 15 22 24 21 14 20 16 16 22 18 26 21 23 24 23 26 23 14 21 24 24 22 15 24 15 21 18 15 23 15 25 20 24 18 22 20 22 24 18 18 25 26 25
24 15 26 21 23 16 20 15 17 24 18 21 23 17 24 25 15 14 21 21 14 26 26 21 24 26 26 22 19 26 15 25 15 19 15 20 17 16 14 26 20 17 24 20 22 19 14 21 23 19 14 22 14 26 25 21 17 21 25 24 18 26 16 22
24 21 14 14 18 21 17 21 25 21 24 24 24 24 22 17 16 20 21 17 18 25 17 16 26 23 17 21 17 23 24 14 15 15 23 26 23 21 20 17 15 17 21 20 26 26 15 22 20 21 26 18 19 23 18 16 18 26 19 26 18 21 15 24
26 25 14 26 14 18 19 14 14 24 25 19 17 21 18 15 24 22 26 26 16 14 23 22 20 17 26 22 23 14 17 20 14 19 18 25 23 26 26 21 16 18 18 16 24 22 14 20 24 25 24 19 15 26 25 25 18 14 15 20 17 26 26 24
15 23 25 16 14 17 21 15 18 23 14 21 18 22 26 26 14 14 26 25 25 19 24 14 20 16 25 25 19 24 15 18 23 19 21 14 19 23 24 15 19 26 22 25 25 15 19 14 20 14 26 15 15 20 17 23 14 21 26 22 25 16 17 23
15 18 18 18 24 24 19 22 23 16 24 25 26 24 26 23 20 20 23 18 19 17 21 17 21 25 26 25 21 22 25 22 15 22 14 14 25 14 21 25 17 19 17 24 22 19 21 19 24 22 23 23 21 15 25 26 21 20 15 17 16 21 17 25
17 16 16 22 14 24 24 16 21 23 14 14 20 15 24 16 26 23 25 21 26 15 24 24 18 20 26 26 20 15 23 22 16 23 19 24 17 14 16 21 16 19 20 14 17 18 18 15 20 18 24 14 23 14 23 26 18 19 26 16 24 26 22 17
22 14 15 14 16 26 22 23 22 15 25 22 26 26 23 14 21 18 26 25 14 14 14 25 24 22 17 15 22 14 21 24 23 24 15 16 14 17 14 17 17 20 23 15 25 20 24 22 17 16 26 23 14 15 19 16 16 19 26 24 20 22 26 26
18 16 21 26 19 19 17 25 14 23 17 22 19 18 16 24 22 19 17 18 25 18 15 18 14 17 19 16 21 24 17 21 23 14 17 22 16 17 15 14 16 26 23 26 23 15 20 16 22 19 26 19 20 14 25 22 17 26 20 21 17 19 20 16
25 17 14 23 25 21 26 15 14 26 16 23 19 20 17 16 21 20 16 21 24 17 23 16 21 25 17 23 25 15 22 23 14 23 23 19 17 22 24 15 25 24 25 25 16 26 25 26 22 22 25 25 16 24 24 23 24 16 23 22 22 25 18 15
18 14 25 25 22 25 20 17 19 26 21 18 14 21 21 21 25 18 20 14 15 24 21 23 21 17 14 17 14 17 15 22 18 21 22 20 17 14 20 16 20 15 21 20 26 24 25 17 26 26 15 18 19 26 17 22 22 26 19 22 20 19 23 26
25 16 21 19 15 15 19 17 19 22 20 24 18 14 15 23 15 17 24 19 20 18 19 15 24 16 23 19 26 14 24 19 16 20 21 23 24 16 23 25 23 20 15 16 20 19 16 26 21 24 20 23 19 23 15 19 20 17 15 16 25 16 14 18
26 22 20 16 22 19 25 19 25 23 23 22 14 17 19 20 21 22 18 14 25 24 17 16 18 18 24 26 18 17 23 19 16 16 15 25 23 22 15 26 17 17 26 15 24 16 23 14 15 17 18 26 18 14 16 16 17 26 15 18 26 14 26 20
24 23 21 24 22 21 26 18 16 21 17 20 16 26 17 25 21 22 18 17 24 18 18 20 26 26 24 25 17 16 23 24 17 17 19 18 19 19 22 20 17 23 23 23 18 15 17 18 20 21 24 25 18 24 16 20 24 19 25 14 21 26 16 20
19 25 21 24 23 18 24 18 22 23 26 18 25 26 18 23 22 25 17 17 15 17 23 23 15 16 22 16 23 14 22 17 25 24 19 19 25 21 14 17 16 25 25 25 21 15 14 17 21 20 21 14 22 26 16 19 15 15 18 18 19 25 17 18
24 18 25 24 17 15 17 20 25 24 16 23 25 21 16 23 22 26 24 25 24 29 20 21 22 26 21 22 26 14 17 15 18 19 25 24 17 21 22 24 24 27 27 18 30 21 28 27 19 26 23 21 16 22 21 14 20 25 23 16 15 18 20 18
14 14 19 19 24 22 22 23 22 18 14 17 18 21 26 21 20 30 33 32 28 33 26 28 28 28 28 27 24 18 21 26 20 26 15 18 25 15 20 25 31 22 33 25 32 32 22 21 27 21 17 20 22 26 16 19 23 15 19 19 16 14 14 16
15 19 25 14 17 26 26 22 26 23 23 26 24 22 26 30 26 27 24 34 28 34 36 25 31 23 21 19 24 25 23 25 23 17 28 24 22 25 22 27 29 29 27 31 31 32 30 30 28 26 20 20 18 22 20 21 19 21 21 20 17 25 22 17
22 20 15 22 20 24 19 25 17 18 22 26 21 25 31 28 32 33 39 29 37 32 41 31 33 36 30 37 29 27 35 31 26 35 31 34 28 33 35 33 33 30 41 37 30 29 32 27 26 29 32 26 29 25 17 24 18 17 22 19 24 16 19 19
22 22 24 16 19 17 17 16 23 21 23 21 20 31 27 31 34 34 34 34 39 39 36 37 37 33 45 38 40 40 43 33 40 37 36 38 37 35 34 38 37 37 44 45 44 42 36 39 37 34 34 26 24 23 23 18 18 25 20 21 17 15 24 23
15 24 16 16 14 21 25 25 19 24 27 26 34 29 28 36 39 38 40 42 39 45 49 50 51 51 45 52 50 52 40 42 45 49 49 49 45 54 43 49 51 44 45 42 42 39 40 46 35 33 38 31 32 25 23 15 24 15 19 23 19 21 22 18
16 16 20 24 22 24 17 22 18 21 31 30 28 29 37 46 43 49 45 43 52 51 51 56 58 58 56 64 61 53 60 48 54 53 48 58 55 56 61 58 49 54 49 42 52 41 39 46 37 39 36 37 29 30 24 25 18 18 25 18 18 21 15 21
23 25 24 17 14 15 22 16 14 22 22 27 32 43 35 37 46 45 53 50 47 53 59 57 62 68 71 68 61 63 63 56 57 66 60 69 71 68 62 67 66 67 62 51 46 50 46 51 45 47 36 42 37 27 25 23 14 16 18 26 23 15 25 22
21 26 24 20 16 16 24 17 18 32 24 35 38 36 40 50 49 57 52 55 60 62 61 71 71 68 74 70 67 75 74 74 70 74 69 73 67 71 74 71 68 75 70 58 55 54 49 55 46 43 37 37 34 38 29 32 20 18 18 17 14 21 22 16
18 17 21 14 20 15 17 16 18 28 26 38 43 35 48 45 50 59 57 57 63 66 77 83 76 78 87 77 79 78 84 77 82 79 76 83 86 78 84 77 77 76 72 66 70 60 51 48 47 54 46 46 40 40 30 22 20 25 16 22 23 26 24 24
15 18 17 15 17 15 19 16 30 27 27 42 37 46 44 47 56 54 57 63 73 71 75 84 82 81 85 87 93 86 92 90 85 91 87 85 92 86 86 92 79 80 75 83 73 60 65 60 48 50 50 43 43 31 26 30 25 21 25 18 24 25 18 18
16 15 24 18 25 26 26 23 30 33 37 37 38 49 54 53 55 57 64 71 78 83 87 90 87 95 91 101 96 95 96 100 96 90 96 98 100 90 98 89 89 87 92 88 79 67 62 63 50 58 49 43 42 32 34 34 24 18 21 20 21 19 22 17
14 16 17 18 17 17 19 16 29 34 38 42 40 44 54 59 57 65 65 71 78 93 87 95 102 98 103 97 102 96 106 96 105 97 96 100 102 105 95 104 95 96 94 86 85 71 63 60 51 53 53 50 44 37 27 34 20 23 26 15 14 14 18 17
18 21 22 23 17 16 23 26 21 28 37 34 35 43 44 52 61 57 68 83 84 91 101 97 103 103 99 104 104 102 110 115 112 113 103 99 110 110 109 103 98 102 100 95 96 81 73 62 59 48 46 43 40 42 38 25 32 16 22 14 18 16 21 18
23 15 24 26 25 24 14 25 25 28 38 35 43 40 50 49 58 62 69 75 92 91 94 105 96 106 101 111 107 116 113 118 119 116 113 110 114 107 103 103 100 94 95 90 89 78 67 64 61 50 48 40 42 32 33 32 32 22 16 24 24 20 22 24
26 20 23 24 25 20 20 19 29 23 27 43 35 38 48 53 57 64 71 84 81 96 91 106 104 108 109 109 108 109 110 122 119 117 113 117 111 104 102 107 105 101 98 89 85 81 67 61 54 56 47 46 44 40 35 25 31 27 16 15 19 19 25 20
23 20 20 14 20 17 23 26 27 24 33 35 43 38 41 45 47 60 71 69 86 83 91 99 95 105 104 106 107 111 111 117 123 125 120 111 107 111 109 104 97 104 95 93 82 71 63 64 56 49 44 43 45 42 28 33 26 21 26 23 26 23 14 22
15 14 26 14 14 18 14 23 27 29 33 30 36 46 42 43 51 58 64 75 85 90 96 97 99 105 102 108 108 109 112 126 132 117 116 120 107 109 109 103 103 89 90 91 74 74 70 50 56 45 44 39 32 28 30 21 26 17 21 14 23 16 18 24
24 18 17 16 19 17 26 19 27 30 25 32 33 45 42 42 50 52 63 72 79 79 81 94 97 98 100 104 109 109 115 119 116 110 117 116 109 110 99 103 93 97 80 87 69 68 64 49 47 41 49 40 35 37 35 28 27 19 22 15 18 23 14 19
16 16 17 20 22 24 24 19 22 20 25 25 40 39 34 37 44 42 54 60 75 75 81 80 90 99 100 106 107 100 106 101 103 110 110 111 97 96 102 94 95 90 79 78 67 66 57 54 50 40 39 40 34 28 22 19 14 16 21 16 23 21 20 24
20 14 14 19 16 20 26 22 17 27 29 25 38 39 32 42 46 42 53 59 59 69 78 80 82 91 94 96 101 96 103 96 103 98 97 94 94 92 95 94 84 81 78 67 59 59 57 38 44 41 38 30 28 22 22 25 23 26 23 14 26 22 21 16
24 16 14 19 26 21 23 26 15 22 23 30 31 31 31 43 43 45 47 49 59 69 69 78 83 85 92 93 93 97 90 90 84 93 91 95 93 93 91 85 82 81 74 68 64 51 49 35 41 39 36 36 31 26 18 15 22 19 19 23 15 25 16 14
20 16 21 20 17 22 17 25 24 21 15 17 23 28 25 29 35 35 35 45 49 62 68 64 72 78 73 81 84 86 81 84 83 85 83 88 87 81 74 74 67 64 68 52 52 53 35 38 32 38 30 30 26 17 24 23 17 25 14 19 18 20 21 14
21 23 25 21 18 15 19 16 19 23 18 22 20 20 24 30 34 27 39 45 51 56 53 67 64 63 68 72 74 79 77 80 82 70 74 70 73 75 69 67 61 64 53 47 47 41 31 28 33 34 30 31 27 24 21 15 23 16 19 23 21 25 20 19
15 19 21 15 22 16 15 25 17 22 22 23 16 23 20 23 33 23 28 40 42 46 55 52 51 59 61 69 67 66 71 73 67 73 74 65 68 65 59 66 51 54 45 39 38 35 33 35 25 29 22 17 24 26 18 20 25 14 26 22 26 25 25 22
23 22 17 25 20 26 24 20 26 23 20 22 23 21 24 18 18 27 32 21 28 38 47 48 55 52 57 50 63 67 64 60 68 58 69 62 57 50 58 53 44 42 37 41 39 31 28 27 18 22 16 16 24 18 15 21 16 25 14 22 18 21 26 20
19 26 14 22 20 26 15 19 21 19 16 18 20 26 25 22 17 24 28 29 26 29 29 42 39 38 48 46 52 54 60 62 64 53 62 51 56 54 47 50 40 44 34 33 24 26 18 27 15 16 16 17 23 16 21 16 20 21 14 26 21 22 15 22
21 26 19 18 19 14 22 19 19 20 20 17 22 16 21 25 25 25 23 24 18 26 29 33 41 43 38 45 41 53 45 53 46 55 51 49 41 50 39 37 32 29 31 21 18 14 25 21 26 15 25 16 19 19 17 25 17 15 20 23 15 23 20 19
15 25 21 16 14 26 20 26 14 19 26 25 19 20 25 23 20 21 19 16 24 19 25 23 28 31 38 37 47 46 41 41 46 44 41 44 43 42 32 32 27 26 17 18 26 16 16 16 17 19 18 16 24 25 21 19 17 17 26 25 20 16 15 26
15 21 23 22 14 17 19 26 16 24 18 15 21 26 24 21 19 14 25 15 19 26 21 27 30 31 31 34 37 34 40 43 35 38 40 37 35 35 36 27 19 15 25 17 15 21 21 25 21 23 15 24 16 22 17 14 22 14 14 24 18 26 20 25
21 17 25 15 14 25 14 20 26 22 23 24 14 16 19 20 15 18 14 22 20 18 16 24 15 24 23 24 33 28 35 30 38 35 29 30 31 26 28 22 22 14 17 20 20 14 15 14 22 14 22 15 25 24 16 21 15 24 17 17 24 17 19 20
22 21 17 23 21 15 19 17 18 23 18 17 21 17 22 15 21 25 18 21 22 15 21 21 20 18 15 24 18 21 20 30 31 24 28 19 29 17 24 25 17 20 26 22 17 25 17 17 14 26 16 26 19 26 26 17 22 21 24 25 17 16 25 17
22 22 24 23 22 14 18 22 21 22 22 20 24 25 25 25 16 22 23 22 20 19 26 18 22 24 14 23 23 14 18 20 16 19 17 16 14 23 26 14 18 20 18 23 23 25 25 18 23 21 26 24 26 16 20 15 22 14 25 17 21 21 21 18
21 17 17 24 24 24 21 14 25 24 15 15 24 16 20 22 17 17 26 24 14 15 16 16 14 16 20 19 18 18 17 19 21 26 24 14 20 23 19 26 24 22 15 16 19 24 14 23 16 25 23 25 25 25 22 23 24 19 20 18 17 19 22 21
16 17 25 18 21 17 17 21 19 26 16 19 19 14 15 17 15 17 20 24 22 20 16 26 26 20 16 16 19 25 18 21 24 25 17 15 14 25 15 17 16 21 15 26 24 26 22 15 15 15 16 22 18 16 16 14 15 24 25 20 17 23 22 14
22 20 20 21 19 25 14 15 15 25 16 24 17 20 23 14 21 20 14 22 22 22 19 16 26 20 21 16 24 25 24 15 18 25 23 14 17 26 26 20 16 19 21 20 26 19 25 15 18 15 21 20 18 21 15 15 16 25 19 14 16 20 14 24
24 14 26 24 16 17 14 25 25 22 23 21 23 23 16 26 21 26 19 18 25 21 14 22 26 20 19 25 17 26 23 22 14 16 20 18 19 24 22 25 15 26 14 15 22 24 21 26 16 19 25 16 22 23 20 14 26 14 26 17 26 25 25 18
20 22 19 19 18 20 17 21 15 16 20 17 15 14 19 21 24 19 19 18 16 24 21 22 19 16 19 16 16 15 17 22 15 15 24 22 16 26 22 24 20 23 22 17 19 23 16 22 22 25 26 25 25 21 18 24 18 15 22 25 22 18 26 16
21 26 24 23 22 18 22 19 15 18 26 15 26 26 14 16 15 14 24 15 20 25 23 24 24 26 14 26 24 24 15 20 14 24 24 15 19 20 18 23 18 23 15 21 20 16 15 18 20 19 25 16 14 17 21 25 15 14 15 17 19 26 23 14
23 26 21 22 14 21 14 20 17 14 17 23 17 21 16 17 21 21 14 17 20 25 21 22 22 26 19 16 18 25 17 14 18 15 20 19 26 16 25 25 24 23 17 15 18 23 17 23 16 23 20 21 21 25 19 18 16 24 19 18 20 26 23 23
26 21 25 18 22 26 15 20 19 15 21 21 18 23 15 22 14 15 25 22 18 24 17 22 24 22 25 26 20 19 17 25 22 15 23 22 19 17 16 19 18 17 15 19 26 19 22 22 22 22 14 24 17 14 22 19 24 15 15 26 14 26 21 16
14 22 14 20 15 22 19 20 14 19 15 16 17 24 20 17 14 24 14 26 26 19 25 21 16 18 26 20 19 20 23 21 26 21 15 22 14 21 21 22 26 17 16 20 26 25 16 18 16 21 18 16 18 19 22 19 25 19 17 24 24 23 20 22
26 26 19 25 25 25 20 20 23 24 20 16 24 21 17 15 25 26 23 26 26 23 16 15 16 22 16 23 24 26 26 14 22 24 18 24 14 15 21 24 24 25 19 23 16 17 20 17 19 19 19 15 14 24 16 20 17 23 21 19 24 22 17 14
21 19 19 25 15 23 15 22 18 24 22 19 19 26 16 24 24 17 14 22 19 14 21 20 23 14 16 25 18 22 14 17 23 23 17 25 16 25 23 20 18 14 24 17 23 17 21 15 16 24 17 26 18 24 19 26 23 16 17 17 21 16 14 24
16 21 21 24 22 14 14 19 16 23 19 24 19 14 22 14 19 25 14 16 19 25 24 26 14 26 18 16 14 22 20 14 16 23 15 26 18 17 26 19 24 26 26 14 16 20 18 14 16 14 26 16 15 20 14 25 20 25 17 17 23 25 18 15
