P2
64 64
255
20 26 18 26 21 15 19 26 25 22 25 17 25 16 18 21 16 23 25 20 15 18 25 17 26 17 15 14 18 25 18 14 16 19 20 22 21 22 19 22 18 22 23 20 24 20 17 23 16 21 25 20 21 19 19 24 18 23 24 15 15 17 14 18
26 22 16 26 24 19 14 26 23 14 16 14 17 19 23 24 19 16 25 15 23 20 17 22 16 20 22 20 14 19 14 15 14 21 24 24 15 19 17 21 19 25 25 18 21 21 22 23 22 14 18 25 20 15 25 25 14 20 22 25 15 20 16 16
15 21 26 21 22 17 26 15 15 25 20 24 18 20 21 22 18 24 22 25 25 25 17 22 23 24 19 19 16 24 17 19 23 15 22 26 16 21 23 25 15 14 17 22 18 26 18 25 14 22 25 22 14 22 19 14 20 25 22 25 18 15 25 22
16 14 25 16 25 17 23 23 21 22 16 17 15 16 21 22 25 21 15 21 23 14 19 25 15 17 14 18 18 19 21 26 14 18 15 17 17 22 25 23 26 22 23 21 16 26 16 25 23 23 23 22 19 26 14 18 19 16 21 17 18 14 15 21
24 18 24 18 18 16 16 15 15 23 15 25 15 18 26 18 21 23 20 17 14 20 14 25 20 19 26 25 23 25 21 26 18 15 23 21 25 20 22 16 25 16 18 19 16 25 20 19 25 22 20 25 26 19 17 24 23 15 21 15 21 26 16 22
14 25 24 21 25 26 24 19 16 22 16 21 18 16 24 24 15 19 16 19 17 18 24 19 18 18 20 15 17 26 17 17 26 15 25 17 21 19 17 21 23 24 18 16 19 22 22 17 17 17 22 16 16 25 19 20 17 19 17 14 25 21 16 20
18 16 20 26 17 17 19 24 26 26 20 14 20 23 24 23 17 15 19 20 14 17 21 16 21 15 14 25 26 23 24 23 15 18 21 20 22 16 26 24 25 15 26 20 17 26 17 22 14 19 16 23 20 25 14 17 25 14 26 25 25 22 26 26
25 23 17 17 16 15 23 25 22 15 17 16 19 20 16 14 21 24 15 15 22 21 25 26 14 24 15 15 24 14 25 21 17 16 17 14 20 24 26 26 16 17 25 26 17 14 14 17 22 19 25 23 16 17 26 17 25 15 25 23 21 21 14 16
24 14 15 22 20 19 15 22 17 15 14 23 18 25 17 22 19 15 18 20 15 21 19 23 21 24 23 16 17 21 18 24 17 25 21 25 15 22 14 23 14 20 21 21 15 15 14 26 25 26 15 17 24 25 20 15 19 18 21 22 24 25 22 15
26 22 19 25 15 24 25 24 20 19 21 21 20 21 18 18 17 17 24 19 21 22 22 16 20 18 22 16 15 26 23 16 16 15 16 15 19 18 21 22 26 22 21 16 25 23 14 21 22 18 23 18 20 16 15 20 23 22 24 23 14 25 22 25
14 22 15 19 18 26 17 15 25 17 25 26 16 17 26 14 25 15 15 20 20 23 16 18 20 15 26 20 19 23 21 14 17 14 14 21 15 15 21 22 21 15 15 22 22 18 26 19 23 16 24 23 15 21 25 26 25 23 18 26 23 22 25 16
16 19 14 26 26 19 20 15 18 14 14 21 23 22 23 16 23 16 15 22 22 20 24 20 24 26 15 17 23 14 23 16 17 22 25 17 16 22 20 25 24 25 26 15 22 26 19 14 20 17 16 21 18 18 17 26 24 25 21 25 26 26 23 26
25 15 14 16 23 14 14 16 25 17 23 24 23 24 18 15 26 24 20 24 18 16 14 20 20 18 16 20 26 14 21 22 19 26 24 20 22 14 20 15 16 20 23 23 17 18 26 21 22 20 14 16 14 15 17 24 24 14 18 18 22 25 17 14
22 19 15 15 22 22 20 23 17 15 18 26 26 22 17 26 17 20 16 24 16 24 15 20 23 19 20 17 23 23 14 22 25 16 18 25 16 26 26 19 22 23 14 20 15 15 26 25 17 25 19 14 19 15 19 20 22 20 18 14 24 22 24 26
20 18 22 19 14 25 23 22 17 17 21 21 23 23 22 19 16 14 19 19 26 15 16 24 15 20 15 15 26 23 23 23 25 17 25 22 24 19 23 24 24 26 23 23 19 25 14 21 22 17 15 24 15 23 23 16 21 26 20 23 18 17 23 15
17 25 18 17 21 21 20 14 18 21 20 20 21 19 21 17 15 26 19 20 23 25 22 18 19 24 25 23 20 25 17 19 16 18 16 20 14 24 17 22 24 19 17 24 24 25 17 15 17 15 17 23 17 25 25 15 17 19 14 16 15 26 24 21
20 20 25 25 25 15 20 15 15 15 18 20 24 21 23 23 16 26 21 22 23 16 23 20 23 25 18 21 24 23 26 14 20 16 14 19 22 17 24 22 19 18 18 16 21 24 26 21 25 15 14 18 17 25 18 14 21 24 18 23 19 15 23 20
17 20 23 14 26 21 15 15 22 22 21 22 20 14 26 24 24 17 15 15 21 18 14 22 18 24 16 22 18 20 14 20 26 14 23 20 23 22 14 15 26 24 22 18 15 22 18 26 14 20 23 19 26 20 22 26 22 14 23 14 24 18 16 26
26 16 19 22 15 19 17 14 17 26 14 19 18 24 14 25 20 20 18 14 15 24 14 25 25 26 15 15 23 14 19 20 19 15 16 25 20 22 14 15 23 16 20 25 22 18 16 21 25 20 22 20 20 19 17 14 24 21 21 26 21 24 19 23
25 20 16 23 15 16 26 14 24 20 26 16 19 23 23 17 26 24 27 19 18 21 17 17 20 15 17 16 17 23 16 17 18 15 19 18 15 18 18 15 23 28 25 29 18 19 22 17 20 16 25 24 20 20 14 19 22 24 16 14 26 16 26 16
22 14 19 22 20 15 22 21 19 14 20 15 21 23 18 28 24 32 32 31 24 29 25 22 32 28 24 26 22 14 17 22 20 26 22 18 21 15 17 22 29 31 28 33 23 25 22 25 22 27 23 19 22 26 22 23 17 23 24 18 20 25 24 23
18 19 21 24 26 14 22 22 14 20 19 24 22 26 23 21 31 23 25 32 37 28 29 25 35 22 21 22 17 15 17 26 29 24 18 17 19 23 24 25 23 28 30 27 37 35 30 26 29 24 31 22 14 21 18 17 20 26 26 16 18 19 25 19
22 16 16 24 23 26 17 14 26 14 21 15 22 29 26 28 38 38 31 33 38 29 31 37 28 30 36 30 26 33 24 32 28 35 29 35 30 25 35 36 27 35 35 33 37 32 30 34 31 32 26 31 21 24 20 21 18 21 25 24 18 26 22 26
14 26 14 17 22 17 25 25 14 22 18 20 24 24 37 32 31 35 41 38 35 41 33 40 40 40 45 45 43 41 31 31 33 40 34 45 39 45 43 43 44 44 37 35 39 42 35 39 33 34 29 23 29 29 23 16 26 24 14 19 20 15 17 24
21 19 23 26 14 21 19 16 22 19 29 21 29 29 28 39 42 39 36 49 37 38 41 45 49 49 54 55 54 46 50 41 41 40 47 52 45 55 55 50 49 45 47 39 45 45 37 35 45 37 40 29 33 26 29 25 25 16 16 26 21 19 24 18
21 20 25 18 24 15 23 21 24 16 22 25 30 29 37 41 41 48 47 46 41 50 54 49 52 56 63 52 51 53 48 46 56 55 49 50 57 59 56 51 49 58 47 43 41 49 43 49 47 44 40 29 26 30 31 27 15 16 26 22 22 20 21 21
24 18 21 26 21 24 19 14 26 23 27 32 38 42 42 44 51 44 51 56 50 53 52 64 63 67 72 71 71 60 58 64 68 60 63 62 61 72 71 66 68 56 60 51 57 47 52 49 47 40 39 32 39 35 21 22 26 21 25 22 15 18 26 16
23 25 17 23 19 20 17 25 26 28 25 29 34 38 48 48 44 45 56 57 54 60 64 67 68 67 70 70 79 73 71 66 71 75 72 75 67 75 72 75 78 66 66 61 54 58 56 52 53 45 44 34 42 28 35 31 21 21 18 24 18 26 25 15
23 18 14 16 25 23 24 24 20 23 37 33 38 36 40 47 46 48 61 56 69 66 69 83 73 74 75 88 79 75 82 86 77 81 79 79 82 79 75 77 74 75 75 73 59 55 54 50 51 49 48 46 36 34 35 25 24 15 15 16 18 16 14 26
23 23 24 25 14 23 18 21 28 30 36 38 34 48 47 45 53 52 60 71 78 83 79 86 79 91 92 83 94 87 89 90 82 82 84 93 92 85 89 86 82 84 79 78 67 63 55 56 49 44 49 47 44 42 30 26 30 21 19 21 23 14 26 15
18 16 19 22 20 25 19 27 31 32 36 40 45 46 52 48 58 53 65 77 78 80 84 93 94 88 97 92 96 95 96 92 98 98 96 91 96 98 91 88 92 86 84 87 79 74 60 59 51 53 45 44 44 36 34 32 23 22 26 23 22 18 14 24
14 17 14 15 25 14 18 22 20 28 32 33 38 51 52 57 51 65 63 79 82 89 89 90 102 96 94 94 103 102 98 108 104 99 97 106 101 94 102 99 92 101 95 88 78 82 67 61 63 51 55 49 36 42 32 31 21 25 15 17 15 16 16 23
23 16 17 18 16 23 14 26 20 26 29 40 43 47 53 52 51 63 70 76 86 91 93 97 105 101 100 102 103 109 101 108 107 115 112 110 99 111 97 103 103 97 102 89 95 83 69 60 58 53 49 39 35 43 35 35 27 23 26 24 26 24 19 25
24 23 15 24 15 25 26 17 30 26 32 33 45 47 52 48 60 63 75 78 93 99 99 105 107 100 104 102 112 112 109 120 118 111 117 109 113 111 105 99 102 102 94 89 93 85 66 60 53 47 46 48 45 31 39 35 25 22 19 24 26 18 25 21
25 15 19 16 15 17 25 22 21 32 39 37 40 49 46 51 53 58 75 76 88 91 101 98 103 106 110 110 108 110 118 120 117 118 117 108 107 110 111 105 108 98 102 95 87 77 64 58 60 51 49 39 46 34 31 24 28 27 25 16 24 23 19 18
17 16 14 20 18 25 25 25 26 27 30 32 43 46 52 56 56 65 63 79 84 83 98 94 103 101 111 109 110 117 115 116 127 118 123 109 111 103 108 104 105 92 92 92 85 73 72 57 57 46 52 37 41 40 38 27 19 22 26 15 20 16 18 19
26 19 22 25 23 23 16 20 24 24 32 30 42 46 41 50 49 59 66 75 76 82 87 95 99 101 100 114 114 117 117 126 130 127 110 109 109 110 99 101 93 92 89 88 85 70 63 62 51 45 50 39 43 29 29 32 26 14 25 20 18 19 18 21
14 20 22 19 16 24 24 25 18 25 29 29 31 40 38 49 54 49 65 71 74 76 90 87 92 101 100 109 107 105 106 120 123 113 108 113 112 106 106 96 99 86 87 77 69 62 65 48 47 51 37 36 40 38 29 31 22 19 16 17 26 19 26 22
14 26 17 21 15 17 22 22 24 27 33 27 31 32 34 39 51 43 62 60 73 74 81 87 90 92 99 96 105 106 107 106 107 107 106 110 105 102 94 100 84 80 78 77 72 67 62 54 51 42 45 36 36 25 21 27 20 19 23 16 25 16 22 20
24 16 24 15 21 17 17 14 16 26 27 32 27 33 32 39 41 45 56 64 62 67 79 86 83 88 97 95 101 98 104 96 97 100 104 102 101 96 95 93 89 77 77 70 68 53 46 42 45 43 32 40 30 31 24 16 21 20 26 26 16 14 15 21
23 16 25 19 14 20 15 21 21 22 22 23 31 34 36 39 40 34 48 56 53 70 66 71 77 87 81 88 94 91 87 92 88 93 95 92 85 83 85 84 75 75 70 66 53 52 48 37 38 31 37 28 29 29 19 17 14 17 26 25 20 15 15 15
19 23 15 23 19 18 17 24 23 21 21 19 22 25 31 33 39 31 40 41 48 54 64 65 78 76 85 79 89 80 81 86 79 77 88 80 89 83 77 78 75 67 69 54 56 46 41 34 37 28 34 24 30 27 23 16 19 17 26 20 22 20 22 25
20 24 19 25 23 25 19 21 14 25 18 24 21 20 25 30 32 32 30 45 46 56 53 62 60 63 71 70 72 81 73 81 78 70 72 69 81 79 70 75 71 67 52 53 45 37 33 36 31 30 31 25 20 25 23 26 26 19 16 24 24 18 16 14
18 26 25 18 14 17 14 16 15 17 14 22 23 25 29 27 34 34 36 34 45 45 43 48 62 67 64 70 68 66 69 65 69 68 69 72 72 66 60 55 63 56 55 43 44 38 28 27 23 30 28 23 19 17 23 21 18 26 23 16 18 22 19 25
21 17 14 14 18 19 23 23 16 15 21 21 21 20 15 18 25 30 30 31 36 33 45 50 56 51 57 51 56 65 65 67 59 68 66 65 55 54 54 50 49 40 40 32 34 32 33 28 29 29 21 26 21 21 15 18 22 24 26 16 20 15 23 21
26 23 24 19 16 24 15 15 26 20 21 17 25 20 26 14 25 17 22 26 27 33 29 38 45 50 48 48 52 58 63 55 61 53 54 58 49 55 45 42 46 35 35 36 27 26 17 26 21 21 17 24 16 22 18 18 22 25 22 17 15 22 24 14
22 20 14 17 15 21 19 15 15 17 14 19 14 20 21 25 25 22 20 25 21 27 21 29 40 33 42 42 50 50 47 46 50 57 51 47 41 45 39 37 40 27 27 26 16 14 19 22 16 23 22 22 16 21 23 22 17 26 20 18 20 22 25 21
16 26 16 20 18 25 19 24 24 20 17 22 17 22 15 19 19 19 20 18 22 17 20 28 26 31 42 36 36 39 48 48 44 46 45 45 43 42 40 32 36 24 19 19 20 25 26 16 19 15 26 19 24 14 17 23 23 15 15 14 16 14 22 21
24 15 16 22 21 26 20 19 14 23 23 25 21 17 22 22 22 21 23 23 26 18 24 25 26 31 32 30 30 32 32 38 34 33 44 37 34 32 34 26 21 21 23 26 18 24 17 24 18 23 16 25 15 21 18 23 23 17 19 24 26 23 25 18
17 16 22 15 16 23 19 19 23 20 24 18 19 15 23 25 18 24 22 18 14 18 19 20 20 25 30 28 29 25 32 33 34 37 33 37 34 26 20 19 25 22 14 17 14 21 18 19 22 22 18 23 16 17 18 16 18 20 17 26 18 16 21 17
24 24 19 15 24 14 22 22 26 24 23 21 26 24 22 19 15 16 20 26 25 18 26 18 17 18 18 26 19 25 20 26 22 31 27 29 18 28 25 23 23 21 14 21 14 26 23 26 14 14 22 15 19 15 26 17 15 19 20 25 14 26 20 18
14 25 22 22 15 23 26 17 17 24 24 14 14 26 18 25 18 21 19 19 17 23 16 21 16 20 19 14 20 20 14 16 18 22 17 24 15 18 24 17 23 15 19 26 20 16 19 26 24 23 25 20 24 23 25 19 20 15 21 23 16 19 18 23
23 17 24 25 21 22 16 14 22 17 24 14 15 25 24 23 25 21 23 14 26 16 16 16 15 25 24 21 16 24 21 18 26 22 25 23 24 15 23 23 24 23 26 20 15 14 23 14 18 26 25 20 18 15 16 21 22 22 19 25 14 23 23 22
24 22 23 25 20 23 14 20 24 25 20 22 20 18 20 22 25 17 24 23 17 17 25 25 20 21 20 15 22 25 15 19 19 26 26 16 25 26 21 15 15 18 26 16 21 17 15 16 17 15 18 18 20 18 14 26 14 26 19 24 15 15 19 15
24 15 21 22 17 21 26 24 15 19 17 20 21 14 18 24 14 20 20 22 18 23 20 18 22 16 25 17 14 16 21 26 14 23 18 14 22 26 17 21 22 18 18 16 21 14 18 22 20 22 22 21 15 26 19 25 24 25 26 15 21 21 20 15
23 14 22 24 20 24 25 19 19 23 15 24 25 20 18 18 14 16 17 26 20 20 25 19 23 23 16 26 16 14 19 14 15 21 20 26 20 21 15 23 26 19 18 17 16 24 18 20 18 23 23 21 16 20 20 25 17 18 18 14 18 23 24 21
21 20 19 18 26 16 18 19 17 17 20 18 14 17 25 25 26 26 25 25 22 19 14 24 22 22 15 21 19 20 25 18 21 15 21 21 23 25 26 20 23 23 20 15 14 19 20 14 21 18 14 15 15 17 15 26 17 14 19 25 25 23 17 19
21 23 24 26 14 19 20 21 25 18 22 22 23 25 19 21 22 21 19 22 21 23 15 26 25 18 15 15 19 15 26 18 22 25 17 24 21 23 18 18 16 14 18 14 26 26 22 17 25 24 21 14 19 26 22 22 14 18 14 15 23 15 19 14
18 26 15 18 25 23 19 24 14 19 24 23 26 15 23 25 17 26 23 16 26 20 19 16 15 17 18 22 20 19 17 15 18 15 24 19 19 14 25 14 20 19 19 17 14 20 22 19 15 18 24 26 23 22 20 14 21 15 17 20 16 23 24 14
15 15 18 24 26 19 21 19 22 20 26 22 15 22 21 18 20 20 18 23 19 25 22 24 22 18 16 24 25 24 25 22 20 17 14 26 23 26 20 19 22 18 18 26 20 20 22 24 21 25 20 20 15 23 16 14 21 16 20 23 26 17 22 24
24 14 21 16 14 14 23 16 22 19 18 19 20 19 22 21 26 24 16 17 17 18 23 26 21 25 14 17 19 16 17 20 17 16 16 16 16 17 21 20 17 15 17 14 20 18 20 18 17 26 19 20 14 16 24 16 23 22 14 17 16 24 25 17
25 26 18 23 26 16 19 22 18 19 14 23 19 24 22 17 20 17 14 25 22 16 16 17 15 21 23 26 15 20 22 20 15 26 24 15 26 23 23 24 16 23 21 20 23 20 17 17 17 22 14 16 21 16 23 19 24 15 20 20 21 20 25 26
23 18 15 16 14 23 16 14 14 21 26 18 19 17 20 25 25 17 26 26 18 25 24 16 22 14 17 25 26 14 16 24 19 21 22 25 20 15 23 21 25 22 26 26 16 25 22 26 15 14 15 20 22 16 16 20 19 18 21 19 21 15 22 23
22 16 18 15 23 21 17 22 18 14 21 15 18 22 15 15 18 23 24 25 19 14 17 19 21 16 25 26 19 16 16 20 22 20 18 19 19 17 23 23 20 24 16 23 23 26 20 16 16 25 18 24 24 21 15 24 21 15 21 22 14 17 15 19
