P2
64 64
255
25 14 21 25 23 16 23 14 20 14 24 18 21 17 26 23 15 14 15 19 25 22 17 25 23 18 16 20 23 24 20 18 18 25 21 23 21 19 17 20 15 16 20 17 19 24 19 24 15 24 14 16 16 15 18 19 17 17 20 22 25 23 22 24
24 20 19 15 22 26 16 16 22 18 15 26 14 15 23 19 17 16 17 14 20 23 16 14 26 16 17 21 21 14 19 23 26 23 19 21 26 18 16 25 22 21 25 14 14 19 19 21 22 20 25 26 24 20 23 24 23 16 25 26 21 24 23 19
26 16 24 22 23 25 21 14 15 25 25 15 24 19 23 14 24 20 21 18 19 20 19 26 24 22 25 25 17 26 25 16 21 20 25 22 24 20 16 19 26 15 16 24 23 18 25 18 15 20 24 15 24 19 20 21 23 21 14 22 14 20 18 16
24 23 26 19 15 24 18 17 22 25 22 16 21 19 22 20 23 21 26 20 26 25 17 24 25 25 20 17 22 15 15 15 22 23 15 19 16 15 19 16 24 15 18 26 22 16 19 20 23 23 14 18 16 26 22 20 26 21 18 21 21 20 23 21
23 25 18 15 14 22 19 24 15 26 20 19 18 24 26 22 21 26 24 20 16 21 17 23 22 25 21 26 24 26 15 19 17 24 21 23 23 19 16 20 17 16 24 25 18 24 14 14 16 24 22 26 26 24 14 16 24 26 24 23 18 21 24 24
15 22 14 21 20 26 19 19 19 20 15 22 18 20 16 21 20 14 14 26 24 24 25 20 17 16 23 18 22 14 15 25 21 17 22 17 23 22 21 16 16 22 24 26 19 22 26 22 19 22 20 16 26 21 18 16 15 20 22 26 25 22 18 26
25 14 14 26 14 17 22 26 22 18 14 18 25 26 24 19 24 14 26 18 16 23 19 21 23 18 25 16 16 16 26 17 15 15 20 14 26 21 21 26 14 23 26 19 24 22 17 14 23 15 21 21 16 16 22 18 26 25 14 15 16 15 20 19
21 18 16 18 26 14 15 17 22 21 14 18 19 21 24 25 21 24 14 16 24 14 26 24 23 25 21 25 20 22 16 26 18 23 15 18 20 24 19 23 26 23 23 23 14 22 24 26 25 18 18 18 16 23 22 17 16 19 20 15 21 22 18 25
23 16 17 16 20 15 20 17 18 23 14 20 24 26 20 14 19 14 21 22 14 17 23 23 20 22 16 19 15 23 17 23 26 18 26 15 22 15 25 24 18 22 15 21 21 18 19 20 14 24 21 22 17 18 19 14 20 19 24 16 20 26 15 19
15 15 15 17 21 15 14 16 14 14 15 26 15 16 22 21 24 21 24 15 24 14 22 15 17 24 15 23 24 17 22 26 23 26 15 22 14 19 16 23 18 17 16 22 16 25 15 20 26 17 22 24 26 24 14 18 21 18 26 23 19 25 24 26
25 18 14 23 24 17 22 23 21 16 17 26 15 23 18 21 26 21 16 26 18 22 22 26 18 17 26 25 17 14 22 19 19 24 17 14 18 23 16 25 23 14 24 14 21 20 19 20 18 17 22 26 25 20 21 22 14 21 24 24 17 16 17 19
16 17 24 23 22 19 19 21 14 17 23 23 23 24 17 23 22 18 14 23 25 23 17 15 26 21 19 16 19 22 14 25 22 15 24 23 21 26 21 20 24 25 26 21 24 17 24 16 22 21 20 17 18 16 21 19 22 14 20 17 19 21 19 23
24 19 22 19 25 24 23 25 20 18 20 21 14 24 14 17 14 23 18 25 22 22 18 15 21 21 18 20 16 24 18 19 18 23 21 23 25 23 21 25 23 14 22 24 19 18 22 15 14 19 21 19 18 23 15 21 18 14 22 24 16 18 22 21
20 19 25 15 20 19 25 22 16 24 17 26 15 25 25 14 21 25 19 18 19 19 23 18 16 21 21 26 22 21 15 20 18 15 17 22 20 20 15 25 18 23 23 17 19 14 21 14 26 17 25 26 18 18 19 17 17 23 21 25 20 20 19 17
26 16 23 20 21 17 17 14 26 20 23 20 25 19 25 22 22 21 23 19 16 24 14 21 26 21 24 16 18 23 23 15 15 14 23 20 22 25 15 18 16 26 25 19 19 14 17 23 25 25 23 18 25 23 18 21 24 26 16 19 17 18 24 20
24 21 21 25 26 23 17 17 16 24 24 22 20 21 22 16 23 25 24 20 15 20 16 17 24 24 17 21 22 26 18 16 18 16 19 26 23 20 26 22 24 20 16 16 18 22 16 16 21 17 22 15 15 15 16 18 19 24 23 25 25 25 26 26
22 15 15 18 26 21 24 19 14 16 23 17 24 25 19 20 24 23 15 16 23 17 14 22 20 15 26 17 15 26 20 22 16 15 14 25 15 26 17 21 14 16 17 22 21 20 20 17 17 23 14 21 25 17 19 18 26 18 20 25 19 19 15 18
16 16 15 24 20 17 22 25 23 16 23 25 20 14 22 25 15 21 18 14 23 15 16 22 21 15 16 26 24 22 18 18 16 23 24 23 22 23 15 25 19 26 19 14 24 16 26 17 25 19 15 15 21 26 26 17 16 20 24 14 19 15 26 21
24 26 22 16 26 24 23 14 19 18 23 21 16 20 20 14 18 22 23 22 16 24 18 17 24 24 21 16 26 21 25 23 25 21 23 18 19 25 24 22 18 14 25 22 21 23 22 21 25 15 26 14 23 21 21 25 25 23 15 25 17 26 14 15
16 17 25 26 26 22 16 24 17 17 23 14 22 24 22 17 17 26 29 23 25 24 28 29 22 19 17 17 22 17 16 14 23 20 16 24 17 21 17 15 20 21 27 20 20 17 24 16 24 19 26 24 15 20 15 26 17 24 21 18 23 21 24 16
20 14 18 16 19 16 20 14 21 23 23 14 17 22 22 27 28 21 25 25 23 27 25 32 25 26 17 16 16 19 15 20 16 25 18 15 22 23 27 24 27 29 32 26 30 28 27 24 22 19 19 24 21 21 26 24 24 17 14 26 18 22 20 25
22 26 22 25 20 18 17 20 14 15 14 21 18 27 21 25 31 27 29 25 35 26 37 26 29 23 22 31 27 17 26 17 19 29 25 26 25 19 28 34 27 35 26 36 37 25 27 29 22 22 26 28 17 17 26 20 26 19 17 23 24 23 18 16
19 25 17 26 23 23 18 16 18 19 21 19 20 27 32 29 28 38 33 35 36 29 31 28 31 29 29 34 26 25 25 33 28 23 27 24 33 26 26 29 28 28 36 40 39 36 33 27 31 34 34 32 17 26 25 26 16 20 24 23 24 26 21 24
24 14 23 21 25 25 21 21 25 20 22 27 23 30 35 27 38 34 44 39 37 42 42 41 36 41 40 43 45 45 32 39 38 33 36 37 35 39 39 45 37 34 37 41 45 34 35 43 36 36 31 35 22 20 20 16 25 20 18 22 20 23 18 16
25 24 21 23 17 17 14 17 24 16 17 28 29 29 29 31 36 41 41 48 43 37 49 45 49 46 53 50 47 53 44 38 45 48 42 54 44 55 47 48 45 45 47 47 40 45 43 35 40 39 39 34 25 30 20 26 17 19 17 20 26 15 15 14
25 22 20 17 15 18 21 22 15 28 27 28 28 28 39 45 41 49 43 42 50 49 53 54 49 56 59 60 60 56 54 46 45 53 50 58 54 57 62 58 52 48 44 50 44 50 48 45 38 35 39 33 37 32 29 17 22 25 15 23 26 22 18 19
23 16 14 26 20 20 23 18 19 19 30 36 36 38 35 46 39 45 55 52 50 49 61 59 61 69 60 65 63 63 69 62 59 65 57 67 64 62 71 68 58 58 60 56 56 50 43 43 44 38 34 39 30 28 31 26 22 20 25 15 19 18 22 25
17 16 19 14 17 19 16 15 20 30 26 39 35 38 41 43 54 47 48 54 62 59 72 70 78 76 79 73 69 70 70 73 76 67 75 67 79 72 71 68 67 74 63 62 55 60 52 49 47 50 43 38 38 38 24 22 21 16 21 25 16 21 16 16
23 25 15 19 23 16 16 21 26 29 30 31 33 37 43 54 55 52 51 62 61 65 75 80 73 84 85 79 85 78 74 81 77 86 74 87 77 79 81 76 83 73 71 75 67 53 54 50 54 51 45 38 39 40 32 33 19 22 18 22 14 19 20 15
20 26 20 14 24 15 20 26 24 31 31 37 38 37 47 51 52 61 63 62 71 77 75 89 80 89 83 87 85 84 82 91 89 84 82 90 87 90 88 86 90 89 78 74 67 62 53 63 55 44 51 37 45 41 27 26 24 23 16 23 18 18 14 22
19 22 21 15 21 22 22 15 19 24 33 43 40 40 47 54 50 62 69 73 79 81 85 90 89 97 97 97 101 93 91 92 101 100 93 89 98 98 94 96 97 95 93 78 84 76 64 62 56 49 42 47 38 37 39 23 29 16 24 22 16 25 16 21
14 19 22 14 22 19 21 18 21 27 35 36 37 49 46 47 60 54 71 77 80 96 98 101 99 96 101 94 95 97 105 104 102 101 105 98 102 95 98 100 97 101 89 86 86 78 68 65 51 58 45 43 41 35 36 25 27 27 20 22 24 25 23 18
19 24 19 24 26 14 26 21 30 28 34 43 40 43 45 50 59 62 75 76 92 88 95 105 103 96 109 102 102 105 107 115 107 111 113 99 102 103 109 104 107 100 101 94 87 79 70 59 54 49 51 47 44 31 39 25 30 18 25 17 22 21 19 25
23 25 21 23 21 21 20 19 24 28 29 35 37 39 53 56 60 59 68 79 88 89 100 103 108 106 106 106 108 116 114 109 118 116 106 106 103 114 107 107 108 105 101 90 91 83 76 57 59 57 50 50 47 42 27 26 31 19 23 25 22 21 21 20
25 14 25 20 23 20 24 15 25 31 36 41 37 46 48 49 52 59 73 72 79 93 101 100 107 103 110 116 108 107 116 114 127 117 116 109 106 116 113 100 98 100 100 90 79 73 63 58 57 49 48 38 38 40 27 33 26 20 23 21 25 16 18 16
22 24 22 23 17 23 17 21 27 22 33 30 45 43 43 47 53 60 69 76 81 94 88 101 95 102 111 113 109 120 122 118 131 128 121 108 107 115 113 103 95 101 98 91 79 73 66 56 59 44 43 48 35 35 29 23 20 22 15 26 25 23 14 26
26 18 22 17 25 20 20 24 20 27 32 36 40 44 42 46 57 61 63 76 77 81 95 95 95 102 101 103 115 109 114 116 128 120 120 113 111 109 102 105 104 92 95 79 84 70 65 53 47 48 47 47 44 28 27 23 25 25 21 26 18 18 20 24
25 26 19 23 15 14 22 26 19 29 31 31 39 43 46 50 49 48 64 69 81 85 91 96 99 100 106 111 103 116 112 114 116 115 106 110 105 106 97 103 94 94 84 75 73 70 66 55 53 44 48 43 42 30 31 29 17 14 26 14 26 19 20 15
22 23 26 21 19 26 16 16 16 28 27 31 37 33 34 42 49 49 55 65 65 75 77 82 95 95 104 96 100 101 103 109 105 103 107 102 105 95 94 88 93 88 80 81 67 60 61 48 46 38 40 42 30 32 22 28 23 20 23 14 23 23 19 23
18 18 23 21 21 21 25 16 15 24 25 27 26 39 41 36 36 47 50 55 69 74 76 75 88 83 95 95 102 95 98 100 93 104 95 93 100 89 92 91 89 85 71 76 66 62 56 50 36 40 31 32 27 28 20 24 21 21 24 20 15 24 24 14
19 15 16 16 17 16 20 23 21 22 27 31 28 29 31 32 37 42 49 48 53 70 67 71 83 87 92 93 94 86 96 89 90 95 97 98 89 93 82 82 81 71 65 70 54 49 44 34 45 32 36 36 29 27 20 15 18 14 23 14 18 20 17 16
25 16 15 18 18 22 14 26 22 14 19 29 30 32 35 36 30 38 46 42 53 57 65 64 74 79 73 75 78 83 82 77 82 78 87 86 88 87 74 75 76 67 67 63 47 53 35 33 36 32 35 33 27 24 19 14 23 19 19 24 20 23 20 18
25 21 17 18 16 21 15 18 17 20 16 21 20 26 23 26 29 33 34 44 40 49 60 61 69 63 70 76 79 81 71 78 81 76 70 74 74 67 70 74 68 58 52 49 44 42 35 27 36 35 31 32 20 16 23 17 14 18 15 14 24 14 22 20
25 25 21 21 17 24 16 22 15 19 24 24 19 20 21 28 26 24 36 38 43 44 53 52 63 59 57 61 68 65 68 76 73 66 68 63 63 67 60 63 58 59 51 45 34 33 36 23 29 26 20 19 24 24 15 20 20 22 22 19 23 19 14 25
18 23 20 26 26 16 22 16 26 26 24 19 16 20 18 27 21 28 27 33 33 43 36 42 49 50 52 57 52 65 60 63 63 63 66 60 57 60 59 53 55 48 47 34 30 30 27 27 20 17 23 25 21 20 18 14 24 19 24 17 26 24 21 24
15 23 18 21 25 16 16 19 25 17 15 22 21 19 21 22 25 28 20 23 30 29 39 39 40 49 45 48 53 56 60 56 56 54 52 51 57 48 52 44 42 35 31 28 25 17 29 18 16 14 15 15 25 23 16 16 25 19 23 16 19 24 25 14
20 25 18 20 14 15 19 25 22 26 16 17 15 23 14 21 15 16 22 17 25 16 27 29 30 41 40 42 43 43 54 54 46 57 49 45 52 39 42 41 32 26 29 19 22 15 26 25 23 21 20 14 21 24 18 14 23 24 20 24 24 26 23 25
19 25 19 19 20 20 25 14 18 23 14 14 18 16 23 17 21 22 16 26 16 18 18 32 27 32 38 41 46 42 50 45 41 40 50 41 41 45 41 28 28 25 18 18 19 22 24 26 23 18 17 24 15 20 15 22 14 26 18 15 18 24 21 20
20 17 16 24 24 15 18 20 21 19 24 21 15 15 20 16 15 25 24 14 17 19 21 15 19 30 30 37 38 35 38 34 40 43 33 40 33 29 25 30 19 17 15 14 26 25 24 14 23 20 26 19 15 14 15 26 17 24 16 25 17 22 25 17
21 14 16 19 26 18 20 16 20 20 17 22 22 16 14 22 23 17 20 20 15 17 22 22 26 28 20 29 33 37 31 39 30 37 38 34 29 24 27 22 18 24 21 20 25 14 18 24 16 16 22 17 25 25 15 20 18 16 25 14 21 26 15 22
22 25 17 22 26 25 15 21 14 21 24 23 20 20 14 26 21 17 26 19 18 26 16 26 26 25 17 25 22 31 25 22 31 28 30 26 18 19 21 14 17 16 24 15 21 16 25 22 24 15 19 20 20 19 18 25 20 24 14 17 14 26 26 15
15 15 14 18 21 20 17 17 23 23 23 17 25 23 23 24 24 22 14 17 19 15 24 16 14 22 17 22 20 16 25 25 26 25 21 22 18 17 15 22 22 25 24 20 16 21 16 15 15 14 19 17 16 17 16 17 17 16 24 17 19 24 23 22
23 23 15 23 18 22 15 24 23 16 20 26 23 16 19 16 22 20 15 22 14 20 24 19 25 17 26 24 16 21 19 24 25 19 22 26 24 19 25 22 22 25 15 24 24 26 26 18 16 17 24 21 17 14 14 25 26 21 16 24 20 21 15 20
19 21 25 16 19 15 16 16 26 25 15 19 17 22 14 14 23 20 25 19 17 15 14 20 14 26 26 26 20 15 23 25 20 22 17 17 16 16 20 14 19 16 23 23 19 17 21 21 23 19 26 14 21 21 21 26 15 17 14 18 15 17 15 17
20 17 20 26 23 16 22 17 19 26 26 16 23 16 17 23 17 14 19 18 21 17 22 16 23 22 20 22 16 20 24 22 25 24 20 18 22 16 16 16 18 20 14 25 24 20 19 23 15 21 26 20 25 20 20 15 22 26 21 26 24 16 17 26
18 20 17 24 19 15 17 20 24 21 18 16 14 26 16 24 17 18 16 20 24 23 24 14 19 14 16 22 17 14 24 22 19 21 14 19 17 22 15 21 15 18 21 15 19 23 25 22 15 24 25 16 17 14 14 14 23 14 20 15 24 14 17 21
15 18 25 26 26 18 22 20 24 16 14 16 17 14 21 15 19 26 14 24 15 20 26 15 24 25 18 26 17 15 15 25 18 19 21 24 22 14 21 16 24 19 15 15 25 23 17 18 25 15 21 21 24 15 26 23 14 19 16 26 16 21 15 17
24 15 18 15 20 25 16 20 26 17 20 16 15 25 20 21 21 20 20 23 25 20 14 24 22 20 22 25 20 21 19 18 15 23 26 14 16 18 23 26 14 20 19 22 19 14 18 21 14 22 24 25 23 24 14 20 18 20 19 17 25 18 22 18
26 24 26 17 19 19 21 25 21 20 24 26 20 17 18 17 18 22 24 18 21 23 24 17 21 17 25 17 24 18 16 21 25 23 15 21 17 22 23 14 23 16 26 15 19 18 24 14 20 25 26 26 26 25 17 21 14 19 18 24 25 16 19 22
16 14 19 17 18 15 26 22 25 17 17 17 23 18 25 19 20 15 23 18 23 22 20 17 25 15 26 18 23 26 14 21 17 18 21 20 15 26 15 26 14 25 21 18 17 20 19 23 18 26 26 24 21 16 25 26 20 23 25 14 23 16 20 16
25 24 16 15 20 21 17 15 16 21 23 19 17 16 16 14 20 20 15 25 18 22 25 21 23 20 21 19 23 23 15 21 18 17 22 19 23 26 22 16 21 25 19 18 16 18 18 20 19 17 18 17 15 23 20 23 24 16 26 24 21 17 18 25
22 18 16 25 14 26 23 24 17 19 19 20 21 25 24 25 15 17 19 22 22 18 24 18 20 22 24 19 14 22 24 23 21 21 15 19 16 22 20 18 22 19 23 17 26 21 23 22 17 25 21 14 26 20 24 16 15 17 22 24 14 19 17 24
25 23 17 15 15 21 18 17 15 14 16 17 26 24 19 17 20 22 23 20 23 22 19 14 18 26 23 19 26 26 19 22 21 20 17 20 21 25 25 20 17 21 14 23 15 20 24 16 26 25 25 19 16 23 21 20 16 21 17 24 18 24 19 25
21 24 20 15 20 21 19 17 23 16 24 14 25 25 24 21 26 24 18 23 24 14 14 14 25 20 21 22 23 15 14 20 24 17 18 21 16 26 15 19 24 15 19 25 21 14 26 18 17 14 21 24 14 14 23 19 19 26 15 26 20 25 14 20
