P2
64 64
255
24 20 18 17 20 17 18 20 15 18 21 23 23 26 14 25 23 18 24 19 22 15 24 21 23 21 14 17 19 17 21 16 22 17 15 15 20 26 16 16 18 15 17 26 18 18 23 17 15 15 26 23 19 14 23 25 25 24 15 16 19 23 20 25
25 16 16 20 17 16 26 24 23 20 24 20 21 14 23 17 17 18 20 19 22 17 24 19 25 25 19 15 16 17 17 24 26 26 18 21 20 20 17 18 24 26 21 16 24 19 21 20 23 15 19 22 14 18 25 20 20 18 18 25 22 25 21 21
22 23 20 22 25 20 23 25 22 24 19 15 25 17 23 23 19 14 25 23 15 16 26 21 16 21 18 22 18 24 16 24 14 20 26 17 19 18 22 15 15 14 16 15 19 19 16 22 14 24 20 22 20 21 21 18 24 26 23 21 15 16 20 25
25 15 19 22 17 23 15 19 22 18 25 21 24 18 20 15 23 14 22 19 22 22 15 18 15 24 16 25 21 26 19 14 16 22 17 16 23 24 25 17 16 25 26 22 18 16 23 17 24 26 17 21 20 17 25 18 19 25 22 18 19 23 19 23
23 22 24 22 24 17 17 22 22 24 19 18 24 20 21 15 23 23 15 22 17 15 23 21 22 17 21 15 21 19 24 17 26 26 16 16 15 16 22 16 16 15 16 21 14 22 23 15 22 26 23 22 26 20 14 18 24 20 21 18 20 21 14 21
25 19 14 22 17 25 20 20 24 17 26 22 23 18 18 15 18 20 15 25 17 22 25 16 17 26 18 15 15 18 26 26 24 17 23 16 25 20 26 15 20 16 26 24 23 24 15 15 18 17 16 18 19 14 19 17 14 23 22 21 17 20 19 25
17 23 19 21 15 25 20 14 26 25 26 20 16 19 18 23 26 26 16 17 23 24 26 15 26 24 17 26 20 24 19 25 16 18 16 26 19 21 22 18 19 16 26 14 23 15 16 24 14 26 21 20 23 22 15 22 26 24 18 23 17 14 26 18
14 18 14 14 16 17 17 14 22 23 14 18 26 17 16 24 25 20 26 25 24 18 23 22 14 26 18 23 25 18 24 17 17 16 22 23 14 22 23 20 16 17 17 18 25 23 20 18 23 20 16 22 19 14 16 15 26 20 26 14 21 25 25 22
21 15 24 16 23 19 25 18 20 15 25 19 26 22 18 19 26 19 19 21 22 21 26 16 19 18 16 22 24 23 19 17 22 16 15 15 18 22 18 15 19 21 22 26 25 14 19 14 25 18 18 16 21 14 23 20 20 22 16 23 14 15 24 23
14 15 21 21 24 16 19 19 20 19 15 20 17 16 17 25 23 15 21 15 17 21 25 16 17 18 22 24 24 23 19 17 14 18 19 23 23 15 16 21 23 17 17 23 26 20 15 17 16 20 23 23 18 22 22 14 14 14 20 17 20 24 24 17
24 16 15 23 15 14 26 26 14 15 25 23 23 22 21 19 20 24 16 22 25 16 14 26 16 14 16 26 24 16 22 18 19 19 18 14 26 24 21 16 16 22 21 16 18 24 22 20 14 18 22 18 26 14 16 25 17 17 16 23 14 20 22 16
26 20 23 22 18 23 16 26 18 23 16 26 24 20 14 18 14 25 18 21 26 25 14 16 24 21 22 18 24 20 18 18 25 22 21 23 24 14 22 19 18 25 26 20 15 14 14 15 20 19 16 22 20 14 21 21 15 23 18 21 17 20 26 23
24 25 26 18 26 16 26 16 20 18 24 20 26 19 25 24 19 14 19 22 14 20 21 25 14 19 26 26 19 23 17 16 22 21 21 16 23 22 22 21 23 25 20 17 25 26 21 23 18 26 20 22 21 21 22 24 18 19 14 17 19 25 22 21
22 22 19 20 23 21 23 16 17 15 22 17 24 17 15 25 16 19 25 26 24 18 24 15 23 24 20 24 16 14 15 18 17 16 14 14 20 26 18 20 19 16 16 21 21 24 26 20 21 24 19 25 17 22 17 14 17 17 20 15 17 17 26 16
14 21 23 21 15 24 17 24 18 15 19 21 16 24 14 25 24 22 19 26 15 15 14 22 26 20 21 21 26 22 24 21 15 26 20 17 24 16 23 16 24 15 26 16 15 20 24 25 25 18 20 17 22 21 16 22 17 23 18 21 24 25 16 20
26 21 20 23 14 26 17 24 15 20 16 19 22 16 14 24 24 23 16 19 24 25 21 20 21 18 18 15 16 15 26 26 19 26 23 15 22 18 22 23 22 16 26 23 24 21 15 23 21 15 25 25 22 17 19 17 16 15 25 14 17 14 25 22
17 14 14 26 16 14 21 14 19 20 18 14 17 25 20 20 14 19 21 18 17 17 14 15 16 15 22 22 22 19 24 22 20 19 21 19 25 23 26 25 20 16 18 23 23 19 18 14 23 17 21 24 22 18 17 22 24 14 15 19 21 16 20 17
25 23 26 25 20 18 24 16 19 20 24 18 23 22 26 14 18 23 20 24 17 20 22 26 18 16 24 20 19 14 17 18 22 22 19 16 21 15 26 15 15 17 16 24 18 17 18 17 24 15 22 16 18 18 22 20 20 21 15 16 21 21 15 18
25 21 25 25 26 19 21 19 25 25 18 24 14 24 25 23 26 25 25 17 16 20 17 23 24 25 18 22 22 24 15 19 15 15 20 25 16 15 16 18 17 16 17 21 15 24 20 22 17 14 23 26 14 21 16 16 18 17 26 25 20 26 17 26
22 23 17 14 26 20 15 18 20 23 20 21 20 19 14 22 15 16 23 17 25 27 21 22 21 26 26 14 22 24 18 24 20 22 18 21 26 18 22 23 26 23 22 25 18 26 17 25 24 18 19 15 23 26 18 17 19 14 22 24 15 18 23 21
25 23 19 26 23 20 24 16 17 16 16 14 16 16 24 28 28 25 23 21 23 31 26 22 30 24 29 18 21 15 15 21 24 18 22 19 19 16 23 18 20 22 22 30 26 26 28 21 18 22 23 24 26 19 23 16 18 16 16 17 14 17 23 24
23 23 14 22 14 20 24 23 17 23 21 21 19 28 25 20 24 26 27 36 31 34 34 29 34 26 30 26 28 23 21 21 20 24 20 26 22 19 27 29 26 31 26 32 36 34 29 24 27 21 24 29 16 16 23 17 21 26 19 24 22 21 21 21
23 22 20 23 23 26 17 23 25 22 26 23 20 24 30 27 29 32 36 34 33 40 39 29 30 31 27 28 25 24 24 25 28 23 28 25 36 31 32 30 38 31 36 31 29 30 32 36 28 28 28 24 29 21 18 25 19 17 26 26 18 17 26 21
20 19 18 22 18 24 25 18 22 16 27 25 29 35 32 33 32 42 43 43 34 44 37 34 37 44 45 36 37 35 36 31 41 36 35 36 34 46 41 34 38 36 33 35 43 40 43 40 37 36 37 31 24 22 24 20 21 26 14 22 25 26 23 14
20 25 19 15 19 15 24 23 23 23 22 29 24 38 40 32 44 34 40 44 46 43 40 48 50 53 50 53 45 45 47 43 44 45 42 43 51 51 51 54 47 50 46 49 44 38 41 41 35 43 34 26 25 22 26 22 21 24 22 19 15 26 25 16
19 19 16 17 16 16 25 26 18 18 21 25 32 36 34 37 42 42 46 48 43 46 52 47 51 54 58 58 51 54 58 58 50 49 55 60 59 56 58 61 57 48 54 42 45 46 48 47 37 45 42 38 30 23 29 20 14 14 20 18 25 14 25 23
17 23 14 15 20 17 14 23 24 24 24 28 28 39 36 42 49 41 48 50 51 49 52 67 64 70 66 63 63 68 61 66 61 56 69 67 62 63 62 66 64 59 57 58 55 48 45 53 40 46 45 39 39 29 27 19 20 14 17 24 22 17 14 19
25 14 16 19 15 17 18 20 23 25 26 37 35 44 37 49 52 45 53 51 60 58 61 69 76 71 77 79 78 69 70 73 65 74 70 67 69 80 67 73 71 67 63 58 61 54 52 54 53 51 37 42 41 31 30 25 20 17 26 14 25 24 16 15
18 24 26 23 23 18 17 16 26 27 30 40 43 36 47 47 46 50 51 63 70 65 70 73 76 74 77 83 80 78 76 76 84 79 74 83 76 85 80 83 78 79 76 71 60 59 62 55 56 53 39 37 42 31 27 24 19 22 26 15 20 20 22 16
22 23 26 21 19 25 24 23 21 32 36 42 45 38 41 46 56 63 65 70 75 71 83 88 88 92 92 87 86 83 86 91 92 92 85 92 89 87 88 86 89 81 86 80 74 63 54 62 55 51 48 45 33 30 31 27 21 20 22 15 21 17 26 16
14 19 23 17 16 20 21 21 27 28 38 34 43 48 51 50 61 63 61 72 80 84 93 86 87 92 89 89 89 92 96 93 95 101 97 90 96 93 100 96 95 91 90 77 77 70 64 64 53 53 46 46 41 33 34 35 26 20 15 16 21 23 23 22
23 23 20 26 23 20 14 22 32 31 35 38 39 46 50 56 60 58 64 78 79 93 94 91 93 95 97 99 100 106 95 100 100 96 95 99 100 99 99 102 101 97 88 90 87 75 63 60 55 58 45 46 41 43 34 35 22 25 22 20 15 16 18 22
18 21 18 17 23 25 18 20 31 26 28 32 43 42 47 58 58 65 74 80 94 96 95 96 107 108 99 106 109 107 112 103 110 110 106 99 102 101 100 105 98 105 102 94 95 84 73 61 60 53 52 48 41 32 31 27 26 26 15 22 16 14 23 19
19 14 19 15 19 14 24 25 20 25 33 41 36 51 54 53 57 62 73 83 89 91 95 103 100 100 107 104 105 116 115 110 119 118 116 116 108 107 102 98 101 101 101 96 83 78 71 60 55 59 46 43 39 34 33 24 27 28 22 15 21 17 18 23
19 26 20 18 22 20 20 20 31 24 39 35 39 43 47 51 52 61 75 78 89 92 98 106 97 107 111 116 112 115 121 119 120 125 120 114 113 107 102 102 101 94 103 89 87 80 64 60 59 57 50 50 41 33 33 23 19 17 24 22 21 19 16 15
16 22 17 23 25 24 22 18 24 30 28 33 45 47 46 56 53 62 70 81 88 85 89 95 97 104 113 114 118 120 123 123 127 126 123 108 113 113 110 110 101 103 92 86 83 70 71 61 52 54 49 49 43 40 31 23 28 19 26 23 20 19 15 14
20 22 20 14 16 22 23 15 22 26 32 31 42 39 48 44 50 58 60 76 84 86 85 92 97 99 100 104 114 118 117 127 122 118 112 117 112 109 99 106 93 98 95 85 84 69 61 56 45 51 50 40 34 28 30 22 24 24 23 23 20 20 14 25
20 24 21 20 17 24 14 19 17 26 30 30 38 35 44 48 53 50 65 69 76 83 82 89 94 95 99 110 111 106 116 117 123 117 117 108 113 110 101 105 95 95 92 78 69 65 58 58 49 46 49 33 33 35 34 25 25 23 16 21 26 16 24 24
18 25 16 15 21 22 18 18 21 25 32 29 40 34 46 48 45 50 60 67 66 71 77 80 87 90 95 100 106 109 109 101 105 110 106 101 104 100 99 94 84 82 87 73 74 68 56 49 44 37 43 35 38 28 28 23 20 19 26 17 22 26 16 23
19 20 19 16 18 26 19 19 23 23 19 34 33 28 40 39 43 46 49 54 60 73 76 84 89 85 95 100 101 100 93 98 94 99 95 98 102 90 89 84 84 77 76 72 61 64 48 38 36 35 36 40 38 28 27 22 25 24 18 21 25 21 25 18
17 24 18 19 19 24 19 24 20 19 25 25 34 27 31 38 45 41 50 57 65 60 68 81 77 86 90 92 92 94 92 92 86 96 94 91 91 88 81 79 77 81 68 61 61 55 46 45 44 36 29 36 30 32 19 15 25 17 24 16 19 23 15 20
19 22 17 25 14 25 18 16 16 15 23 29 28 26 25 30 35 38 41 47 50 62 69 74 77 74 79 79 84 90 77 76 78 80 86 80 89 84 85 71 71 62 58 58 51 41 45 33 34 33 36 27 24 23 25 15 20 16 26 14 18 19 15 17
23 20 17 19 18 23 24 16 15 21 23 22 22 23 34 33 32 28 28 44 43 58 53 57 62 70 71 70 80 79 70 71 72 74 77 78 78 77 77 64 69 62 56 52 45 37 39 33 30 28 29 29 22 17 22 19 18 26 26 23 19 22 18 16
19 24 23 26 23 25 17 25 14 15 24 22 25 26 29 28 24 27 26 30 40 41 54 54 60 66 68 69 63 62 66 71 73 76 70 60 61 66 66 62 60 56 53 40 33 37 32 32 33 26 30 20 15 24 14 23 26 14 23 14 21 18 25 18
15 25 25 20 17 18 26 23 17 15 15 26 25 24 25 22 20 20 28 22 37 42 43 49 53 53 57 50 64 58 69 68 65 66 58 61 60 58 57 56 48 47 43 38 38 26 26 30 27 23 16 18 21 21 21 17 22 20 14 17 16 21 19 21
17 25 26 20 22 15 17 25 16 23 26 17 14 26 18 15 20 16 25 23 30 31 40 37 47 47 52 53 50 60 62 58 64 60 63 55 55 53 51 45 37 41 33 30 25 18 27 23 24 25 24 24 21 21 25 15 22 26 16 23 15 26 17 22
20 19 22 26 25 16 21 15 22 23 17 22 22 16 18 23 16 19 19 16 14 21 28 28 33 37 45 43 47 52 44 53 54 57 48 48 43 43 42 42 31 32 27 18 25 17 23 14 24 19 22 19 14 20 15 24 15 20 15 20 14 14 26 14
24 18 16 22 16 23 26 25 17 14 21 16 19 15 19 20 25 17 20 20 26 19 24 32 36 27 40 36 46 49 42 50 40 51 48 38 45 36 40 32 33 25 20 24 20 25 21 26 17 18 16 20 24 15 14 24 15 19 24 26 19 14 14 17
14 17 24 18 16 20 16 26 22 21 24 24 16 19 21 22 24 14 19 20 17 16 24 25 27 27 30 39 35 43 32 44 39 43 38 42 40 32 31 28 20 24 24 21 21 22 25 14 14 14 14 18 21 22 23 22 17 25 17 26 18 18 23 23
17 24 20 17 26 14 14 18 21 17 14 24 14 24 14 17 21 21 19 22 15 24 24 25 26 27 29 22 34 35 35 30 34 29 30 37 29 22 23 24 24 16 14 23 16 17 24 17 25 17 23 17 17 19 23 21 14 16 19 21 16 21 25 16
20 23 17 21 18 25 24 17 22 23 25 26 16 21 15 26 24 25 25 23 25 18 14 20 24 25 17 21 17 30 25 31 31 27 30 26 22 20 16 25 14 17 14 14 21 15 26 17 22 21 21 23 21 15 26 17 18 25 14 22 17 22 26 25
25 18 18 14 24 25 14 17 20 24 20 18 14 17 26 23 22 21 25 24 22 16 22 25 21 20 18 18 20 16 16 16 26 20 21 14 24 21 25 26 22 17 19 23 24 24 19 21 24 22 17 24 15 19 17 26 15 17 15 21 23 14 18 22
19 15 14 21 26 16 26 17 24 19 26 15 18 24 26 18 16 26 25 17 26 14 18 19 19 21 23 20 22 18 16 15 25 23 19 18 17 14 26 23 17 22 26 26 19 14 24 15 19 18 16 18 26 21 18 17 23 24 15 14 25 25 18 15
20 16 15 20 25 18 18 17 18 24 26 26 15 15 15 26 18 16 19 21 21 25 22 20 24 19 16 19 24 21 21 17 15 16 16 26 20 23 24 20 24 26 15 24 22 17 16 24 15 16 19 15 15 22 18 16 15 16 24 21 17 24 24 14
21 26 16 21 21 23 16 15 23 16 19 23 23 16 21 15 14 23 22 19 14 19 23 19 19 25 15 22 20 18 16 23 24 17 25 25 19 23 15 14 24 21 26 17 15 18 17 17 21 16 18 23 19 21 20 19 14 24 21 15 23 24 14 20
25 26 19 25 15 18 19 26 19 16 16 20 17 14 15 14 23 21 15 20 20 20 23 16 16 16 24 20 25 22 15 16 14 25 21 26 20 18 26 20 15 25 25 18 22 26 16 23 16 26 18 15 22 21 20 26 14 15 19 17 16 14 25 14
17 19 21 25 24 16 24 18 23 21 17 20 18 14 19 25 14 19 26 26 18 22 15 16 24 22 14 16 23 23 16 18 25 20 25 19 16 25 23 26 16 18 20 21 23 19 14 18 15 22 21 26 15 20 22 21 21 18 26 22 26 18 26 26
22 24 16 14 23 17 22 14 22 21 24 25 18 26 24 14 20 21 23 18 14 17 19 18 25 19 24 26 20 18 26 17 23 17 25 17 17 21 20 24 24 20 18 22 19 14 19 15 22 21 19 15 16 17 18 24 16 18 26 26 14 21 24 26
22 21 21 19 21 26 16 16 19 23 20 18 24 21 23 18 22 14 26 23 17 18 18 19 18 17 25 25 17 25 20 24 22 21 17 24 23 22 22 18 17 23 15 22 19 17 21 17 16 18 23 19 23 21 22 14 16 20 26 24 25 15 22 14
21 24 25 21 17 17 19 20 21 25 22 22 19 26 20 26 24 23 21 15 25 25 22 25 24 15 18 23 24 19 16 23 14 24 19 17 22 16 22 15 19 15 21 22 20 25 17 15 24 21 20 16 26 21 15 15 18 19 14 23 17 19 19 18
20 24 22 14 17 17 26 15 25 18 23 20 19 24 24 14 14 26 23 25 15 17 24 24 20 25 22 18 22 25 20 22 16 14 20 19 16 14 15 18 20 14 21 14 21 20 24 14 25 15 20 22 15 23 14 17 15 20 17 14 20 26 24 18
15 22 20 20 24 22 21 25 16 17 24 14 18 17 26 22 26 18 23 20 26 17 19 24 15 22 14 22 15 16 18 14 19 15 14 25 21 19 24 15 24 21 15 22 16 20 24 25 23 22 21 25 22 23 17 21 25 16 16 25 19 15 22 16
19 24 19 18 19 26 20 20 26 20 18 25 17 20 18 14 19 25 20 15 26 26 25 22 22 23 25 18 24 17 24 19 23 21 24 14 21 14 15 16 19 18 20 14 20 16 18 25 16 19 15 17 17 22 22 26 25 22 25 14 16 25 15 17
24 24 25 26 19 25 17 20 22 21 18 18 19 17 18 15 22 21 23 18 25 24 20 18 18 20 18 26 19 20 24 23 22 16 26 16 15 15 20 17 20 16 15 18 23 20 21 14 15 22 26 18 25 18 21 19 16 14 18 21 16 15 17 25
