P2
64 64
255
28 30 36 30 21 31 21 25 33 34 19 26 19 34 28 34 37 21 34 19 23 27 23 34 32 20 30 30 23 32 21 36 38 22 20 24 38 23 36 38 25 35 23 27 24 31 19 19 28 28 36 37 24 29 27 20 24 29 29 25 31 22 36 38
23 30 22 18 38 27 25 21 30 21 31 35 36 27 21 27 19 37 28 28 22 20 27 31 36 29 32 34 30 35 23 22 35 38 19 18 30 20 36 35 23 29 26 26 19 29 26 23 32 23 34 31 38 31 33 24 35 33 19 35 38 37 29 33
25 37 34 19 38 33 31 37 32 25 23 21 30 26 37 28 25 18 22 34 25 33 28 35 34 29 34 32 28 30 35 30 21 32 24 27 30 26 31 19 31 18 32 21 22 37 37 38 20 29 31 22 25 19 18 22 25 30 27 19 33 26 29 23
22 27 18 23 26 30 33 21 31 36 32 21 19 38 37 32 26 33 25 28 26 19 38 29 21 23 19 25 38 34 19 37 34 37 27 36 28 24 29 33 35 19 22 37 30 27 36 28 20 20 23 34 20 26 28 32 31 23 26 33 21 18 20 30
29 38 26 19 20 36 34 32 35 38 25 32 37 26 29 18 32 33 24 29 36 36 24 24 30 29 19 37 24 28 32 35 29 33 34 18 23 23 33 37 38 26 26 31 29 24 20 38 27 20 38 20 32 35 38 26 32 20 35 35 38 23 25 24
26 32 37 31 33 18 36 22 18 30 28 28 21 30 30 26 36 26 18 37 33 30 32 21 33 20 20 30 35 33 27 34 18 29 23 34 28 38 29 22 22 32 18 23 35 18 37 18 32 33 19 38 34 20 27 18 19 37 34 21 22 24 18 26
38 25 31 37 35 30 33 19 19 18 32 25 23 20 20 24 29 32 34 24 26 21 35 32 28 22 34 34 28 33 28 22 31 32 32 36 35 18 37 22 35 34 24 19 28 33 18 21 27 21 27 24 27 34 36 26 24 18 23 31 32 35 18 18
38 30 18 22 33 19 26 18 27 24 27 38 18 21 22 21 38 25 30 26 38 22 19 20 27 26 18 33 25 36 22 23 25 23 26 37 27 21 27 30 28 19 25 19 26 26 23 28 26 19 32 22 35 28 33 31 21 24 30 34 26 38 18 26
19 29 32 18 22 20 34 22 36 36 35 21 31 19 22 37 25 28 18 25 31 18 35 34 35 38 35 35 31 33 27 27 34 20 38 32 20 18 26 23 31 23 32 30 22 31 38 35 31 24 35 21 26 29 25 20 35 18 31 19 24 30 24 22
36 29 38 26 18 22 38 24 24 34 20 24 35 33 36 30 34 38 29 31 19 36 25 21 22 25 25 27 22 28 37 21 31 36 28 31 34 31 29 22 19 18 23 23 32 27 32 28 29 36 19 24 30 29 19 24 32 24 31 30 34 38 29 33
21 31 20 26 23 30 37 36 31 21 33 27 34 29 37 32 20 18 36 32 20 33 31 28 18 30 31 31 34 28 31 22 29 38 34 23 18 31 26 25 20 26 35 32 29 26 28 35 23 20 34 29 28 18 26 22 34 20 21 18 25 32 24 18
27 33 21 36 31 35 31 35 18 37 38 31 20 18 27 29 22 23 33 32 26 30 34 35 35 25 31 21 34 18 34 19 36 32 35 38 36 37 19 34 35 29 18 24 23 37 23 26 24 25 23 21 29 23 24 23 34 34 31 18 27 26 29 36
38 25 31 32 18 36 23 34 26 19 37 19 32 27 32 26 18 38 22 30 31 23 26 20 27 26 24 32 31 35 31 36 18 24 32 32 27 31 28 38 28 31 19 25 22 38 32 19 30 18 25 33 23 18 25 24 24 22 30 35 27 38 20 25
25 34 20 31 20 28 26 22 34 25 25 18 28 21 27 24 23 28 26 27 19 20 30 28 33 27 28 31 23 19 33 34 38 18 28 18 23 32 29 27 20 36 18 27 26 27 36 33 38 29 35 34 18 27 31 34 37 25 31 31 37 20 30 34
29 19 27 35 35 20 29 31 22 36 27 26 25 34 27 33 31 33 19 24 23 22 20 32 21 26 22 37 29 21 23 35 28 32 19 26 36 36 36 19 18 31 21 33 28 33 24 23 37 18 32 32 28 21 24 29 27 38 30 35 28 28 22 28
36 33 30 33 35 33 24 21 25 25 32 31 38 22 38 34 34 26 26 29 20 26 33 26 27 19 28 20 31 28 23 32 27 35 18 35 37 36 32 22 38 23 19 26 36 18 22 27 33 23 28 35 18 24 21 18 30 20 23 23 21 23 24 31
25 29 29 18 26 38 34 18 20 35 20 21 30 24 22 35 36 26 25 27 37 36 34 33 31 23 30 26 26 34 34 37 23 34 21 18 25 31 26 33 23 26 22 37 24 24 36 18 26 32 35 28 32 27 33 20 24 28 36 35 30 25 20 36
32 35 24 37 22 21 38 34 21 34 18 22 32 18 29 34 26 35 34 36 36 24 34 21 24 25 33 37 38 31 33 23 34 27 30 19 23 31 27 18 20 35 26 35 27 31 32 34 24 30 30 38 30 35 30 38 20 37 27 27 38 28 25 20
26 26 26 27 20 20 37 19 30 34 25 32 32 19 22 25 24 33 28 32 34 30 21 22 23 27 21 30 36 35 33 27 23 30 34 31 18 33 28 30 28 21 33 30 36 27 19 31 35 28 27 20 36 34 23 31 36 32 26 19 34 37 34 30
30 22 32 28 33 36 27 20 38 24 25 21 28 23 21 34 30 21 24 27 36 33 21 35 33 25 18 32 36 20 37 31 31 27 31 28 38 26 36 25 25 31 27 28 22 33 22 40 37 24 33 20 18 18 20 33 32 38 27 30 27 25 20 24
33 27 20 30 31 29 35 25 22 37 26 23 32 30 31 27 40 40 44 45 31 32 25 36 24 26 34 39 23 28 35 25 27 23 26 38 37 32 25 28 40 43 31 46 34 29 37 35 37 40 38 31 24 21 21 28 25 35 23 34 26 37 36 27
22 38 26 21 28 36 29 31 36 18 36 37 21 30 39 43 45 32 47 38 40 37 29 35 32 46 44 37 29 33 31 35 22 24 21 25 37 37 41 34 37 40 48 46 35 45 43 28 37 41 41 32 19 18 30 21 36 23 20 23 21 35 20 34
28 26 32 33 20 32 32 38 22 29 29 21 26 26 35 45 32 31 36 36 50 43 42 50 38 38 45 37 39 28 28 25 18 19 20 32 26 39 42 32 44 43 44 37 44 50 48 41 49 41 28 43 22 33 31 26 18 21 27 36 19 19 37 32
21 28 36 19 28 29 28 37 21 33 26 39 30 46 40 48 52 54 36 56 50 45 47 55 39 52 46 38 35 25 30 26 22 27 25 25 34 38 31 34 44 42 48 48 42 41 54 39 53 51 37 45 32 33 37 36 18 37 32 29 19 18 24 18
31 38 35 18 27 36 21 23 18 23 37 33 41 37 45 39 37 50 56 60 47 41 43 45 45 53 40 46 41 44 39 37 24 36 42 30 42 34 49 47 42 55 46 58 43 48 47 44 49 52 51 31 45 42 33 35 25 33 32 24 26 22 37 26
36 18 29 33 28 20 21 32 30 38 38 43 31 50 49 44 56 61 44 63 53 64 47 46 54 51 46 51 35 29 44 41 26 36 43 30 42 48 42 40 58 55 54 57 60 57 63 47 54 49 38 33 42 27 39 25 20 20 21 26 30 34 20 20
36 30 18 27 33 18 25 26 28 22 42 47 44 47 54 41 49 47 66 62 60 57 60 47 60 47 53 42 53 34 39 28 35 32 30 51 37 53 48 60 55 51 67 69 55 67 51 50 48 61 38 45 44 42 36 27 22 31 35 32 24 35 35 33
20 26 29 31 36 38 29 20 20 35 45 35 38 45 54 51 63 63 63 61 65 54 53 62 51 66 52 43 48 50 34 29 41 42 48 42 49 58 49 53 61 53 61 56 71 53 65 50 53 48 49 52 52 43 27 29 32 36 29 26 32 35 37 18
35 19 22 38 28 36 26 27 22 39 36 52 46 39 63 52 49 62 62 63 68 65 71 57 63 57 66 52 52 38 45 50 43 43 41 53 51 51 53 52 58 70 64 73 58 58 73 62 55 53 56 59 37 35 36 25 21 23 18 30 22 21 36 28
29 26 31 20 27 19 27 39 25 29 34 49 50 57 52 56 58 70 60 68 63 75 64 70 74 63 64 49 56 56 36 50 51 45 35 51 57 60 68 63 57 64 72 65 78 64 75 62 63 66 53 46 38 40 47 27 32 23 23 33 33 37 28 26
23 34 28 27 36 32 28 23 36 33 39 35 48 51 55 60 55 58 76 74 66 70 66 78 75 58 54 51 53 44 56 46 56 40 40 46 51 46 57 59 65 63 74 77 84 77 77 59 72 61 57 56 53 49 32 30 28 29 32 32 24 26 34 21
24 34 37 24 26 30 35 35 28 34 36 45 42 59 63 58 73 78 68 72 77 85 73 79 60 54 70 63 57 59 37 56 36 47 37 51 49 49 51 71 71 77 74 75 78 71 63 69 55 51 54 46 48 38 39 46 29 20 28 24 33 33 29 34
38 32 26 27 35 30 22 30 44 41 38 44 43 49 58 56 67 76 83 85 71 77 86 74 61 66 61 66 59 59 56 38 56 51 40 45 49 50 70 66 61 67 75 71 80 87 65 69 71 60 58 47 49 43 46 31 30 22 20 25 23 27 18 21
27 21 30 35 29 19 33 29 37 33 40 39 59 45 48 65 71 65 66 76 81 88 78 73 65 57 56 64 52 45 57 39 38 44 52 42 51 53 54 70 63 62 80 72 81 86 63 58 56 57 50 45 43 55 37 35 43 21 20 37 35 29 37 34
22 38 31 35 31 28 30 27 35 40 44 50 58 62 48 50 55 76 73 82 64 70 76 70 76 59 60 50 55 53 55 55 46 38 41 38 55 61 59 64 59 76 72 83 71 75 63 64 64 66 61 49 56 47 32 35 33 28 23 19 28 20 29 26
34 38 33 18 24 20 36 36 28 31 50 45 56 49 58 48 71 63 57 68 80 77 60 57 72 56 53 44 47 39 38 43 46 51 41 42 46 48 61 65 55 73 77 72 71 60 59 66 70 62 62 49 39 54 39 34 28 38 22 28 21 37 23 18
22 23 37 31 38 32 30 33 33 41 43 51 44 57 59 50 53 63 68 73 69 60 62 65 56 62 59 63 54 40 38 32 48 47 34 40 56 53 51 57 57 70 60 67 71 70 62 54 61 60 62 43 39 46 46 34 34 25 27 34 31 32 23 29
36 24 38 33 19 37 22 24 21 28 45 38 41 55 47 54 61 68 58 65 69 70 61 61 67 48 45 40 57 44 41 42 35 34 50 41 46 55 61 64 56 54 68 72 70 56 68 53 66 60 61 48 41 31 37 44 21 34 35 35 33 35 36 32
20 21 23 18 38 25 30 25 31 38 38 34 41 48 48 47 59 47 67 54 63 67 56 50 46 52 55 50 52 41 30 43 32 41 43 34 52 58 41 62 56 56 57 67 67 51 66 65 50 58 54 49 37 49 34 30 30 27 37 19 35 31 22 34
36 23 39 26 29 29 37 29 40 25 42 34 45 36 42 57 61 59 53 67 50 53 57 66 52 64 44 48 48 43 31 47 42 28 51 50 54 42 53 58 64 66 70 56 63 64 53 57 48 60 61 40 38 51 34 29 27 32 30 43 29 30 35 38
43 24 45 41 28 37 32 31 36 25 39 34 50 57 41 45 51 54 49 57 69 60 69 65 59 64 62 52 50 50 35 51 41 51 36 54 54 58 56 64 66 64 70 66 54 68 66 61 65 49 45 54 39 43 50 35 49 44 40 48 33 32 39 39
32 31 31 37 48 34 37 46 33 39 38 34 46 47 56 53 49 47 68 59 60 63 65 55 58 58 54 49 55 55 54 41 37 43 47 53 50 60 59 54 66 68 59 64 69 56 58 64 51 52 56 60 52 45 55 54 42 44 46 38 43 49 47 54
26 27 33 27 24 25 42 43 40 26 43 41 34 40 53 55 54 39 44 55 61 46 44 44 52 41 49 44 39 43 34 27 42 27 41 50 47 47 51 41 58 58 49 61 52 44 53 62 50 59 55 38 40 35 31 38 38 36 36 48 30 46 47 49
40 22 35 38 22 25 23 36 31 34 36 36 38 27 39 47 45 33 35 34 48 38 35 47 49 39 30 27 30 41 35 27 29 40 34 23 43 43 49 44 35 52 51 41 41 39 44 43 42 32 38 29 29 25 32 42 26 34 39 37 27 33 40 25
29 27 19 36 32 22 32 26 18 20 20 36 23 21 31 32 39 41 32 39 45 44 38 39 37 29 31 30 24 18 18 26 30 27 23 30 19 35 27 27 25 40 30 29 36 40 31 26 37 33 26 36 30 22 30 25 28 22 22 30 35 24 32 34
32 29 34 29 34 20 35 20 24 18 18 33 24 19 26 34 35 23 26 36 25 40 26 26 34 38 21 38 21 28 36 33 37 37 29 24 24 34 36 26 35 39 24 29 23 33 23 34 34 26 18 34 26 38 25 34 33 21 28 31 22 38 24 23
19 22 21 33 36 23 24 29 19 26 36 21 27 36 22 34 19 33 23 19 27 19 27 29 30 32 25 24 38 18 19 33 38 29 27 24 32 26 32 22 28 38 31 34 34 20 32 19 37 20 21 37 24 27 30 31 32 18 38 34 30 33 29 21
31 26 24 34 37 34 19 31 22 24 33 26 19 23 20 27 38 22 28 36 26 18 36 27 22 22 18 26 24 30 23 20 27 33 27 29 21 38 25 27 29 20 31 37 24 33 28 23 35 33 21 38 38 23 31 35 21 31 38 30 28 31 26 33
36 29 32 38 36 19 25 22 25 34 30 21 33 35 18 27 30 34 18 38 20 25 22 30 18 38 32 30 26 33 24 28 25 20 27 21 34 30 24 18 36 36 35 23 38 20 29 28 28 36 21 20 33 26 22 38 20 26 23 25 34 32 20 29
36 19 18 30 33 37 31 38 19 24 23 19 35 30 26 37 37 18 38 29 33 31 28 20 24 34 26 24 18 19 36 22 32 33 25 26 25 19 28 24 23 38 37 31 22 37 30 21 32 33 33 32 33 34 30 38 38 25 37 22 27 30 18 19
22 31 22 26 18 37 19 21 20 33 34 19 26 18 20 19 31 19 32 24 27 30 24 38 21 31 19 19 27 24 35 29 30 24 23 31 30 34 33 26 36 31 36 18 22 34 26 32 28 19 36 28 36 26 27 18 30 35 28 27 25 25 36 30
38 29 36 31 38 29 20 33 29 30 20 21 37 25 29 28 30 24 23 37 29 31 37 33 38 24 37 28 18 38 21 26 22 25 30 34 37 38 19 36 38 30 19 18 26 28 29 23 35 35 18 35 38 21 18 20 24 21 36 27 28 33 25 22
26 35 35 36 33 19 22 30 34 23 33 31 21 27 18 33 33 23 23 36 21 29 19 30 18 33 35 23 22 33 26 20 34 25 38 31 26 23 27 34 18 26 20 18 20 33 34 22 25 33 25 24 28 38 18 25 22 34 27 23 24 28 32 27
36 35 20 25 27 31 35 21 30 22 34 28 31 22 32 20 21 25 34 31 38 20 25 25 19 38 21 20 25 35 19 35 37 23 24 22 26 37 27 30 32 25 30 22 22 30 33 24 26 33 28 32 19 28 27 34 23 22 33 20 18 28 22 31
18 19 25 24 31 29 30 27 38 19 28 18 19 29 19 27 27 21 22 33 26 27 20 22 27 36 33 32 23 19 26 36 20 24 26 35 36 30 21 26 20 30 31 30 23 24 24 33 25 36 21 32 22 38 20 27 20 29 19 35 26 38 22 30
30 23 27 20 37 29 25 19 36 37 28 20 27 29 23 33 28 22 33 32 25 31 18 36 25 34 24 21 37 29 32 35 20 22 19 26 21 38 26 36 38 30 23 34 24 26 26 20 30 34 36 18 28 34 30 22 26 37 37 38 23 21 38 28
27 21 22 29 24 31 36 29 35 22 37 33 25 38 34 30 20 25 35 26 24 22 28 25 32 19 23 31 38 32 19 27 20 31 32 24 27 28 33 19 36 38 22 28 25 29 32 24 24 19 26 36 20 27 18 36 37 29 25 26 29 38 28 18
34 29 34 37 19 26 33 29 32 20 34 19 30 26 37 26 19 18 32 32 19 26 28 24 37 30 20 25 31 19 26 36 22 33 19 32 21 28 20 37 19 21 35 18 20 36 20 19 21 23 35 23 25 31 20 30 24 24 19 32 18 23 21 25
23 26 24 33 28 22 20 31 24 28 19 18 33 23 30 21 33 18 30 21 29 18 24 24 23 25 34 19 18 35 33 24 38 20 25 25 23 21 34 30 24 30 36 21 29 18 38 26 34 27 25 19 35 20 22 37 30 37 35 34 20 35 30 28
22 35 21 31 32 25 35 27 18 21 21 22 37 32 38 20 27 20 32 35 27 30 27 24 24 23 20 33 19 37 32 25 25 28 27 18 23 20 26 18 28 35 37 26 21 23 37 29 25 34 23 32 31 36 38 34 23 22 37 36 33 29 31 34
24 25 37 22 28 26 37 20 34 18 35 24 32 22 32 18 35 37 23 19 38 32 27 32 29 19 28 19 31 33 20 23 21 26 32 36 27 19 29 36 26 31 37 28 36 34 18 30 29 33 27 25 18 32 20 38 32 20 37 19 27 37 19 29
32 22 20 20 26 36 34 37 18 28 30 31 22 19 33 32 20 32 27 19 21 20 34 34 19 36 36 23 26 18 19 19 23 27 30 31 30 18 22 35 38 26 20 25 24 33 29 26 33 30 19 38 36 28 18 27 20 23 38 37 30 30 22 18
25 21 26 37 35 36 37 28 18 35 18 28 20 31 32 28 28 27 33 23 30 22 25 33 18 21 20 18 38 26 27 20 20 26 35 22 35 34 33 29 32 19 21 36 30 29 26 27 38 28 28 26 22 28 37 23 22 29 32 21 35 20 33 20
36 19 35 34 33 31 31 34 20 27 24 27 22 36 26 31 38 25 20 35 27 19 32 30 24 38 19 36 25 28 28 20 35 20 34 32 22 25 22 19 24 30 23 30 25 31 23 23 35 24 30 20 30 28 31 34 32 19 23 36 36 38 34 30
