P2
64 64
255
25 26 19 26 18 14 16 22 15 17 18 17 16 20 22 25 24 25 23 18 25 25 20 18 16 22 23 15 23 17 24 16 19 18 16 25 15 18 21 14 24 14 25 16 23 23 23 25 15 21 23 18 14 23 16 26 19 20 24 25 21 24 17 24
25 23 23 16 16 22 16 21 21 18 16 22 22 18 20 21 24 16 25 22 19 20 16 24 21 16 22 17 19 15 24 21 26 21 15 16 23 21 21 17 16 14 24 20 14 18 22 26 25 16 24 26 21 23 21 21 20 16 18 19 25 23 15 14
17 15 17 18 25 20 25 22 25 16 24 26 18 21 23 17 17 19 26 25 26 21 19 24 14 16 25 20 22 22 15 21 25 23 20 18 18 17 23 18 25 14 26 23 17 23 24 20 15 23 24 17 22 19 15 26 22 14 18 16 21 16 19 26
21 21 15 14 21 22 19 18 15 22 14 14 25 25 14 25 21 23 26 21 18 24 20 15 20 23 14 15 15 17 19 18 15 24 15 19 25 24 19 16 21 17 23 19 18 22 24 17 21 23 14 21 16 21 18 21 21 17 24 24 21 26 21 20
21 24 16 19 20 25 23 22 15 21 23 21 18 19 24 21 14 16 26 23 23 19 17 20 23 25 15 26 14 23 14 21 20 22 18 19 19 26 21 23 21 16 22 18 24 23 19 20 18 21 20 22 16 17 16 17 14 16 17 16 16 18 23 26
25 19 17 25 14 20 20 18 24 24 19 24 15 26 21 25 22 22 22 17 16 21 26 26 18 21 17 26 26 25 17 18 22 19 18 22 20 17 21 16 25 15 18 15 15 15 19 18 23 14 22 26 26 23 14 18 24 20 24 21 26 15 19 18
21 25 22 15 21 26 23 19 14 23 16 26 22 21 16 15 19 16 18 16 25 19 19 14 21 14 20 25 19 16 26 15 16 20 23 25 21 14 17 17 22 25 20 15 15 21 22 23 20 17 15 23 17 25 17 24 15 25 20 25 14 25 25 19
21 18 17 15 17 14 26 17 15 20 25 21 18 22 19 23 16 26 23 25 20 22 26 21 17 17 25 25 18 14 21 21 22 16 22 23 17 18 15 25 25 18 15 16 22 26 26 21 22 14 22 21 19 16 20 19 25 26 24 18 16 17 22 23
18 19 21 21 24 26 25 16 22 22 23 25 19 26 24 22 24 21 14 17 19 26 15 21 17 20 18 14 20 25 21 23 24 16 20 26 16 18 22 23 25 15 22 17 14 25 23 16 26 15 15 23 25 23 14 22 21 19 26 23 14 25 22 22
26 23 16 25 18 18 22 21 24 26 17 22 21 25 14 16 21 14 26 24 22 20 14 19 17 15 15 24 21 17 24 20 18 14 18 23 16 23 25 20 18 22 15 25 21 17 16 22 15 15 24 19 24 23 21 23 16 25 24 15 19 26 20 26
17 22 19 14 22 20 18 15 20 24 20 16 22 24 16 23 24 25 25 19 16 18 15 19 25 21 24 22 16 19 14 24 25 23 19 15 24 23 23 18 22 25 24 20 16 24 25 24 25 23 21 25 18 23 15 19 22 22 20 23 15 16 24 20
14 14 18 16 25 19 19 24 18 19 18 17 16 20 21 19 17 17 23 22 20 17 18 23 26 23 19 22 24 14 26 26 20 18 17 21 14 18 26 21 19 17 23 24 14 22 18 26 20 15 23 23 22 25 26 26 23 26 17 24 15 21 22 23
15 17 24 18 18 17 22 21 18 17 15 21 24 18 26 19 23 20 14 15 15 17 15 23 19 22 25 20 20 24 26 18 20 21 23 21 25 25 17 24 18 17 22 24 26 14 21 21 14 23 16 17 25 20 15 20 21 16 18 25 20 16 18 17
15 23 20 15 25 15 22 18 16 24 25 17 24 26 17 23 17 17 26 19 23 26 16 14 23 18 21 26 23 19 25 22 24 18 22 26 16 25 22 22 20 20 23 17 14 25 15 19 17 16 15 14 19 20 19 21 14 19 18 23 15 23 24 15
21 23 18 24 23 17 17 18 25 23 18 23 18 22 22 22 19 24 15 26 26 16 22 19 16 19 26 17 20 23 22 15 18 24 18 20 23 24 14 16 25 20 22 19 15 14 23 18 22 23 17 18 16 21 21 20 20 14 16 14 23 23 17 14
14 20 18 22 23 26 22 21 19 25 23 20 15 25 22 16 25 16 20 20 24 24 17 25 24 14 14 22 25 15 24 22 22 18 21 17 24 15 15 15 14 21 26 25 23 24 15 19 19 25 21 15 22 19 25 23 20 17 22 16 24 14 16 18
22 23 22 19 22 26 21 20 19 22 20 25 16 18 20 24 16 23 19 14 20 21 19 25 14 22 17 15 16 15 16 24 25 26 26 21 26 26 25 22 24 21 22 16 15 14 15 14 26 14 23 16 26 26 21 22 23 23 18 25 22 14 25 20
21 15 23 23 22 23 21 18 26 17 18 20 21 22 19 15 14 21 24 22 17 22 20 16 21 17 15 26 20 19 18 25 24 21 18 23 16 14 18 16 19 22 14 25 17 19 26 16 21 26 23 19 24 15 20 22 24 20 21 21 14 25 17 23
20 18 20 14 18 14 15 26 23 15 17 21 23 26 20 24 21 14 18 22 26 19 23 17 26 21 24 26 17 23 17 19 18 17 18 18 19 18 19 21 25 17 15 17 24 18 19 15 21 18 18 23 19 18 19 22 24 23 21 23 23 20 25 19
24 17 14 24 15 17 26 24 19 24 25 21 23 23 19 16 24 22 29 26 20 27 18 21 23 25 21 15 16 20 18 16 16 21 17 23 16 19 20 27 18 25 18 23 28 26 22 19 21 17 20 18 21 18 14 17 24 18 21 22 26 22 25 15
20 22 19 26 18 25 16 22 18 23 24 25 24 19 18 23 27 22 23 31 23 27 30 24 32 21 29 17 23 26 15 17 19 21 16 16 24 24 22 29 28 27 33 22 29 25 28 28 23 24 21 18 22 25 24 14 17 24 25 21 24 19 21 23
14 21 26 17 22 24 14 17 15 17 24 24 21 20 23 30 34 25 35 30 34 26 29 30 30 25 29 19 25 18 20 27 29 25 28 15 28 24 22 26 30 29 30 25 27 29 26 26 22 28 25 26 16 18 23 20 14 26 19 20 16 19 23 15
24 17 26 24 14 25 21 21 24 18 21 23 29 27 28 28 33 27 33 32 30 36 33 39 38 36 32 37 25 32 35 26 26 34 31 26 37 27 26 29 36 38 34 34 29 35 35 31 36 26 28 20 18 23 20 19 14 24 16 19 24 24 26 18
17 26 25 15 18 26 14 25 23 17 18 20 25 23 32 34 39 33 43 45 45 39 40 35 36 42 46 40 36 33 42 30 34 38 40 37 34 41 45 37 32 35 37 35 44 38 40 43 34 34 37 23 25 26 24 16 18 19 15 15 22 22 20 24
17 19 16 25 14 24 18 23 26 18 19 24 27 37 32 31 37 44 41 41 45 38 45 44 50 52 55 51 43 45 49 41 41 40 46 53 49 46 55 49 46 48 37 49 37 45 44 40 37 35 29 30 23 31 28 18 15 21 25 24 18 14 19 21
25 19 14 18 25 24 20 16 25 18 24 22 37 39 35 42 43 40 43 48 50 44 56 49 60 61 59 62 61 59 54 51 57 58 57 56 51 64 60 55 53 53 47 52 50 41 43 42 48 42 42 34 34 27 25 19 22 24 16 24 20 18 22 24
25 19 19 14 17 22 22 24 26 24 21 27 31 43 41 48 40 48 49 56 53 55 56 61 66 67 68 64 65 60 66 60 66 61 66 67 63 71 70 65 59 56 57 52 47 46 46 53 51 38 35 41 37 32 32 22 19 21 19 21 19 18 17 23
16 16 23 22 24 25 24 21 17 27 30 33 30 37 42 44 51 47 59 52 58 65 67 69 66 69 68 77 75 76 71 75 70 69 67 75 77 72 77 72 71 65 72 56 51 56 47 47 42 50 42 42 36 32 33 22 23 17 16 21 21 26 25 15
23 24 14 22 21 20 16 22 19 29 28 31 34 42 49 49 45 60 61 64 63 70 76 72 74 76 83 79 75 76 83 78 80 76 82 87 86 84 81 78 76 79 80 65 63 61 60 50 55 48 47 40 33 35 26 28 17 26 19 14 23 15 25 17
20 21 17 18 14 26 15 18 28 31 32 37 36 40 45 46 48 54 56 60 71 75 84 87 90 86 89 82 92 84 87 94 89 91 84 87 86 93 82 85 90 87 85 71 72 62 60 55 53 54 41 48 45 35 27 27 26 17 23 22 20 15 23 23
25 23 16 26 25 17 17 26 21 26 36 39 36 39 48 50 53 56 65 68 77 81 84 89 98 88 99 98 95 94 88 91 102 91 95 88 96 100 95 98 86 96 92 85 73 69 62 60 51 48 51 48 41 39 38 33 21 16 15 18 15 23 23 23
14 25 22 26 19 20 24 27 30 35 36 43 37 51 53 56 61 66 61 78 82 92 88 100 94 95 96 99 95 106 101 98 108 97 99 106 96 94 96 101 94 90 91 88 83 77 64 63 59 59 48 39 38 38 38 32 27 27 24 21 17 15 22 15
26 18 15 26 25 16 17 27 23 31 36 31 37 41 49 52 53 61 73 86 96 90 97 98 105 104 108 111 111 106 111 115 107 110 102 104 105 100 102 106 98 93 100 97 84 78 70 60 51 50 48 39 45 38 28 29 28 23 21 26 19 15 23 14
14 24 18 19 14 19 18 25 29 26 30 31 47 45 48 49 54 60 72 77 93 93 97 106 103 103 112 109 115 104 116 116 111 120 114 105 110 104 104 104 102 97 100 94 91 75 68 62 52 56 50 41 42 36 30 24 26 27 21 22 25 21 23 24
17 17 17 15 26 24 18 25 27 25 29 34 42 46 50 48 54 59 70 73 91 92 96 98 101 104 102 114 111 114 114 122 122 126 113 112 105 105 108 101 109 100 98 93 80 77 73 62 49 50 54 46 44 32 29 28 22 25 24 15 19 19 18 20
25 15 15 26 18 21 15 16 19 33 27 30 43 38 48 48 54 53 73 74 77 84 92 95 103 104 103 113 106 109 113 124 126 116 114 116 110 104 104 110 95 97 95 84 78 80 63 64 59 52 45 40 34 30 37 34 22 25 25 26 15 20 26 25
14 21 25 24 21 25 18 18 22 31 37 28 35 41 40 50 57 51 67 75 75 88 94 91 98 107 105 104 108 118 119 127 127 117 116 113 109 106 111 104 102 96 85 87 73 73 60 57 47 49 42 37 35 35 35 25 18 16 17 21 17 25 20 22
23 23 21 15 18 24 18 16 24 28 34 34 34 33 39 51 45 57 65 67 76 85 88 94 99 96 101 101 107 112 118 117 113 113 110 110 111 102 99 104 95 97 87 75 69 74 65 54 53 40 38 34 36 33 30 28 16 20 26 24 23 18 17 25
17 25 17 21 20 19 25 26 15 23 32 36 33 35 39 47 39 54 57 65 73 71 76 82 94 89 99 104 108 101 112 104 114 108 112 110 106 107 104 96 87 91 78 72 65 68 60 44 46 48 45 34 35 25 31 23 25 20 15 19 21 22 22 26
23 25 17 25 21 21 14 25 25 19 29 34 37 28 41 40 43 44 49 63 66 77 75 76 85 90 88 90 92 93 96 104 105 93 102 93 96 91 92 88 89 77 83 65 59 56 47 40 38 38 39 40 31 27 24 26 26 21 20 22 23 17 25 16
16 22 23 22 25 25 15 14 22 18 20 23 31 32 35 40 41 37 42 50 59 67 75 71 84 81 87 83 96 97 86 93 95 93 93 95 88 84 90 78 77 72 72 59 54 52 47 39 41 31 38 32 23 26 22 18 24 17 16 15 24 21 15 15
23 26 24 23 22 20 26 23 17 24 22 18 32 23 37 36 40 37 45 46 49 60 65 67 75 79 76 85 86 90 84 78 78 77 86 82 83 81 79 70 69 69 65 64 52 41 35 43 39 33 34 33 21 28 22 15 26 23 20 20 22 21 20 18
14 14 24 20 20 18 20 17 26 17 15 19 25 23 22 33 36 35 29 37 52 52 56 65 61 67 70 73 74 73 72 82 71 80 71 70 75 68 76 64 69 64 56 46 50 46 36 32 31 27 24 30 23 23 19 24 24 21 21 18 18 20 19 15
24 18 16 14 21 19 20 21 18 26 17 23 17 21 27 27 24 24 32 40 43 46 46 58 61 61 69 65 69 65 70 70 76 67 65 65 66 67 60 59 51 52 51 43 45 33 28 30 24 21 27 26 18 22 19 26 26 15 19 23 20 24 15 20
24 26 26 16 25 19 20 14 17 14 21 26 14 17 21 24 28 32 26 21 27 44 36 46 51 53 60 62 55 64 65 62 65 64 63 63 60 60 57 54 48 49 44 44 38 29 26 23 23 28 23 15 17 15 26 19 19 15 15 20 20 15 18 26
21 17 22 25 18 19 23 15 18 19 17 14 25 24 15 20 22 25 19 22 21 29 40 38 46 43 44 48 55 54 54 53 57 60 51 61 57 45 47 40 47 35 34 35 30 20 26 27 15 22 24 18 14 26 16 20 17 15 26 23 19 14 25 25
22 16 23 18 23 26 14 26 19 26 25 26 16 19 26 17 20 23 18 26 18 17 24 31 38 41 43 50 42 46 44 55 57 46 50 54 46 47 44 37 31 28 23 23 19 18 24 26 25 25 26 23 22 25 17 25 21 16 25 23 26 21 23 16
15 22 20 26 24 17 16 21 15 23 19 17 19 20 18 19 17 25 17 14 15 16 27 27 26 38 37 38 40 39 44 40 39 44 40 40 36 39 40 29 25 31 23 24 20 21 25 19 16 21 20 15 14 25 14 22 22 26 26 15 24 14 23 14
19 15 19 23 22 26 24 23 17 17 18 21 25 17 25 26 21 15 17 26 24 21 23 26 20 25 37 28 39 42 37 43 40 44 44 37 29 36 26 28 27 23 20 19 14 20 20 22 15 25 23 23 16 17 26 26 23 15 22 18 17 15 24 17
22 15 26 17 25 25 24 26 18 22 24 21 24 21 15 24 17 16 14 21 16 23 22 14 22 17 19 27 32 29 33 38 31 29 34 32 30 31 27 24 17 19 14 20 24 19 17 18 16 26 26 23 18 19 23 23 17 17 23 26 21 24 15 16
19 25 19 17 16 19 21 22 26 17 25 25 19 26 24 19 19 26 26 16 20 22 22 26 22 17 25 25 21 23 28 29 30 29 24 19 25 19 23 16 26 21 16 23 21 17 23 15 26 15 25 24 25 20 14 25 19 17 23 19 25 17 15 17
25 23 22 18 26 15 24 17 16 22 20 14 20 22 26 23 22 23 19 23 25 25 16 22 20 25 26 15 18 26 25 21 25 17 22 20 15 25 21 24 15 26 19 22 22 18 16 22 21 17 17 16 15 18 19 14 22 18 24 22 21 14 20 15
21 24 16 21 25 18 22 15 14 22 16 19 20 20 16 14 22 17 25 22 22 21 21 15 16 14 22 24 24 19 23 15 19 16 19 19 23 24 17 20 25 23 20 21 21 16 24 19 22 16 25 15 14 15 21 22 26 24 25 18 20 18 25 22
25 16 17 14 21 19 17 24 14 22 25 14 24 20 21 19 18 23 26 22 23 18 21 19 14 22 20 18 16 24 17 23 20 20 16 16 14 23 14 21 17 16 26 22 21 17 14 18 22 26 23 14 16 19 25 25 22 15 15 17 18 16 18 17
14 18 22 24 15 19 20 25 17 23 14 14 20 22 18 17 16 21 16 24 16 26 14 22 16 16 18 15 26 22 22 22 22 25 17 16 20 14 19 25 18 22 20 25 24 15 21 17 22 17 17 20 16 16 25 14 15 25 25 14 16 18 23 16
14 15 26 21 26 17 26 20 19 16 17 19 20 19 24 15 15 20 14 14 14 16 18 17 21 19 23 14 26 20 21 15 18 19 22 19 14 23 26 14 20 18 24 14 14 26 23 15 18 24 25 18 16 20 24 16 19 15 20 16 14 16 18 15
17 16 22 24 23 21 21 25 19 19 15 24 23 15 26 22 18 25 26 26 24 14 16 25 22 25 14 20 14 16 23 17 18 24 20 16 17 21 20 22 15 18 24 25 22 17 16 22 21 26 17 26 15 25 16 22 17 16 16 18 18 18 19 20
22 19 14 24 20 18 14 19 21 22 21 16 25 16 26 19 19 23 20 17 24 17 24 26 24 17 14 24 19 22 25 24 24 22 16 19 16 19 16 23 20 16 23 14 17 23 26 22 25 21 25 15 23 14 20 20 18 19 20 26 25 17 19 20
15 25 16 24 25 15 26 14 17 20 25 24 24 23 26 24 18 24 25 22 20 23 23 18 19 22 21 22 20 14 24 25 21 24 26 15 17 19 19 24 14 16 23 24 15 14 26 21 21 25 25 18 26 15 17 17 22 23 16 16 23 18 14 18
14 19 25 24 22 18 15 23 17 26 24 26 15 21 18 21 24 25 24 17 16 23 18 24 18 15 15 17 15 16 24 26 18 19 18 24 19 21 16 25 25 22 24 19 25 25 17 15 25 15 15 22 21 21 18 15 14 15 18 21 16 18 24 22
26 15 25 25 19 17 16 22 14 15 14 26 24 21 23 15 17 18 26 22 21 16 24 24 14 26 25 20 15 22 23 15 26 21 26 20 15 22 18 20 19 18 15 18 14 14 24 18 19 24 23 18 17 19 26 18 24 18 25 15 26 16 22 22
14 22 20 23 19 18 22 21 22 14 21 17 19 22 20 25 20 22 20 18 20 25 19 23 25 21 22 23 21 26 15 19 18 21 23 24 20 25 16 26 19 15 22 25 17 26 15 20 18 26 21 20 17 21 16 22 21 16 25 19 14 19 26 26
20 21 22 14 14 23 24 15 23 16 17 21 16 25 26 21 14 23 24 15 22 25 16 22 25 23 24 22 26 19 22 26 25 22 16 17 17 14 18 26 15 15 24 17 18 15 26 22 25 22 25 17 16 25 22 17 24 21 18 26 14 15 16 15
21 24 15 22 23 19 20 22 17 18 15 19 19 20 15 21 14 16 20 14 17 20 16 15 22 14 17 25 26 19 20 23 21 19 19 23 26 26 16 24 17 22 18 26 23 18 14 18 17 18 21 24 14 24 21 18 23 24 18 26 25 19 26 21
