P2
64 64
255
18 31 21 20 36 38 30 32 32 23 22 32 31 29 31 38 37 38 20 37 24 26 35 33 24 35 21 38 24 21 20 27 20 20 26 23 23 31 23 20 18 18 22 22 34 27 37 26 26 27 22 37 29 22 37 24 28 34 31 23 20 37 32 29
27 19 34 36 23 32 27 20 20 18 32 31 20 34 32 25 29 31 19 38 18 23 31 22 20 20 28 23 28 23 34 37 30 18 38 22 25 37 31 36 35 32 34 27 37 19 18 33 25 21 31 33 29 30 27 26 18 33 19 32 27 22 36 23
23 32 19 22 18 19 31 28 21 23 34 31 31 18 38 19 32 19 30 25 34 38 38 31 31 22 26 22 37 35 32 28 25 36 36 34 35 30 20 37 23 31 26 22 24 21 20 31 21 35 38 38 24 26 31 24 20 31 22 27 35 21 18 28
21 32 24 22 38 31 33 34 32 30 21 28 26 28 23 28 38 25 24 26 31 37 24 18 29 24 37 35 27 20 25 32 31 29 32 20 19 24 27 28 34 25 27 37 31 18 21 19 33 34 32 22 30 32 28 38 19 27 31 34 25 36 26 35
21 36 35 19 33 37 34 37 30 23 18 28 20 31 25 23 22 29 25 27 25 22 27 26 28 35 33 30 29 21 27 31 24 22 34 26 29 33 18 26 20 34 31 34 34 21 27 28 27 22 31 33 22 38 18 38 30 28 26 29 19 25 36 33
34 29 24 19 29 18 20 24 20 30 29 36 34 33 28 35 28 34 25 37 18 33 29 36 26 25 34 28 20 34 34 32 26 33 37 37 30 36 36 20 35 27 37 27 21 24 25 22 34 24 33 36 23 30 26 34 35 21 18 27 24 38 29 36
28 28 27 26 35 25 29 32 26 23 20 30 33 33 25 37 29 24 32 31 33 34 19 18 37 31 36 23 20 35 24 36 18 29 25 32 26 34 35 32 30 36 19 38 30 31 37 31 34 36 27 20 35 33 38 25 26 35 27 34 34 28 18 27
36 23 25 20 20 26 19 18 22 25 28 28 34 25 23 24 26 31 27 20 33 20 18 30 30 38 32 18 22 24 20 25 36 23 34 22 25 37 21 23 37 29 33 32 23 28 19 35 29 32 31 22 25 33 20 36 37 29 36 28 25 31 33 21
36 36 38 36 18 35 24 30 32 27 38 30 26 23 26 22 28 27 30 26 37 33 33 37 23 31 23 36 35 37 33 26 21 24 32 28 22 29 30 26 36 38 37 29 37 33 30 21 21 38 24 24 19 28 29 26 33 23 36 36 31 29 33 32
23 37 30 21 33 32 20 34 34 29 24 25 36 26 38 31 32 21 20 31 28 37 25 33 22 27 25 36 38 29 37 29 38 23 33 38 32 28 23 27 29 32 24 28 24 32 20 22 36 25 18 20 28 22 23 33 38 36 38 38 32 27 34 19
31 19 22 26 29 27 22 19 25 28 19 23 19 35 35 25 19 22 27 28 21 31 21 22 24 26 24 26 22 26 25 31 33 36 21 37 35 34 31 34 29 33 31 33 36 29 19 30 38 30 20 35 27 21 37 34 28 20 37 26 20 36 20 32
22 32 26 19 19 21 21 38 27 27 22 25 36 18 35 27 18 21 19 25 37 30 27 32 23 27 20 37 36 37 38 29 28 38 28 18 34 28 37 18 38 28 26 24 22 33 19 18 27 27 27 27 26 32 33 30 38 28 32 23 27 21 25 32
31 19 27 30 30 19 36 30 33 19 28 38 19 24 27 37 35 35 23 38 34 18 32 34 18 33 24 28 34 26 28 31 26 33 18 34 36 32 19 23 20 30 38 23 20 36 36 38 26 30 32 28 23 24 36 23 19 29 26 37 28 18 28 34
21 23 30 19 23 25 27 36 29 28 21 37 29 35 31 36 35 32 25 23 22 20 33 18 23 37 23 24 35 28 23 37 27 37 29 21 34 30 25 34 25 22 24 20 36 32 27 22 30 24 26 29 23 21 25 36 27 22 31 37 30 31 36 27
35 36 34 18 20 26 20 36 28 23 24 27 35 24 23 31 36 32 25 32 21 24 19 31 18 34 24 29 36 19 20 21 35 26 30 22 20 22 25 22 31 25 30 25 25 33 32 25 37 23 28 36 33 31 28 28 26 29 18 38 30 24 25 29
25 38 37 38 38 31 23 29 19 33 32 25 35 30 31 27 28 27 36 19 30 23 30 19 36 25 20 18 27 22 22 19 28 21 33 30 37 29 31 29 24 24 20 31 20 25 29 38 20 29 26 21 25 28 27 32 31 35 23 25 32 36 37 18
38 24 33 35 22 24 37 26 18 21 20 23 31 33 33 32 28 28 22 34 36 22 18 34 33 38 34 30 35 22 33 28 20 30 31 20 28 32 22 21 28 22 34 29 30 34 38 33 26 30 34 21 18 35 24 21 37 28 28 32 18 38 31 21
25 26 37 33 27 27 27 34 18 31 26 33 33 37 32 30 18 24 20 37 22 34 22 29 37 19 32 36 34 25 20 31 23 31 25 31 27 20 32 22 25 34 23 19 24 23 37 36 26 24 31 21 24 18 23 31 24 37 33 19 35 25 30 24
25 27 23 21 33 20 21 29 36 25 26 32 21 25 35 30 37 37 36 18 20 19 20 31 24 22 24 34 37 37 24 28 22 33 24 29 35 18 21 27 34 26 24 18 30 27 31 23 29 21 35 35 33 21 25 23 38 28 30 28 29 31 28 30
32 26 27 19 20 31 23 36 23 28 35 36 34 32 19 21 24 28 39 22 23 42 40 24 24 32 23 38 18 31 25 26 27 19 26 22 18 27 33 36 23 38 25 26 28 36 30 28 31 33 25 21 34 20 28 30 22 20 32 32 27 38 31 35
20 18 32 26 18 23 33 23 24 23 28 37 32 37 34 34 25 44 26 34 30 32 36 27 31 39 41 29 24 21 19 31 21 25 34 22 19 39 35 24 24 33 40 30 35 36 44 32 23 34 22 19 24 32 33 18 20 24 24 23 18 34 20 37
36 38 23 36 25 29 24 24 24 38 31 27 24 21 26 41 37 47 34 40 30 45 39 34 44 45 26 42 32 39 37 30 38 23 34 30 35 32 36 37 34 34 47 35 38 32 43 34 38 28 25 22 38 23 38 25 29 27 36 31 26 20 27 24
26 22 33 27 21 33 30 24 35 34 24 24 22 36 34 30 45 32 39 51 46 39 35 38 35 43 46 30 34 47 34 33 32 28 30 35 42 33 40 48 45 34 48 38 44 49 42 49 40 36 45 41 24 30 30 26 36 36 25 23 33 21 29 31
27 31 26 29 37 22 36 35 25 26 39 36 33 28 46 48 33 55 45 46 50 44 39 39 42 52 40 56 57 42 40 35 38 47 51 57 44 56 40 47 55 44 51 53 54 43 37 48 49 48 40 33 31 23 39 27 34 30 28 24 33 37 37 26
33 19 37 28 21 36 28 26 35 36 40 28 33 47 51 36 52 55 43 47 54 47 58 49 48 65 47 58 64 55 59 58 53 45 48 66 66 49 52 59 53 62 46 54 57 48 50 45 37 35 38 41 27 41 33 24 21 37 37 33 36 33 30 38
35 20 24 31 33 23 31 36 26 25 41 41 35 42 54 48 41 51 59 58 55 65 61 66 69 70 67 62 59 74 60 52 50 56 53 63 68 68 72 56 69 61 57 47 57 61 59 43 41 41 36 52 39 26 35 35 36 29 31 29 18 29 33 30
29 29 37 24 21 31 32 31 38 33 45 38 35 47 49 41 57 62 58 48 56 65 70 70 80 65 67 78 79 74 76 63 78 58 71 79 78 81 64 77 73 78 61 62 62 67 65 49 56 52 51 36 42 42 37 28 26 31 26 37 35 32 33 36
37 22 20 28 31 26 36 23 20 42 29 49 45 51 49 51 59 57 64 67 75 75 78 85 71 80 82 72 78 85 82 70 68 70 75 86 85 83 87 79 88 80 80 78 74 55 61 60 63 53 59 44 45 33 34 36 27 20 35 29 22 23 26 18
30 33 23 28 24 23 32 19 26 27 33 48 39 40 59 50 55 62 54 75 72 77 83 90 93 85 92 87 84 84 84 85 91 93 76 90 82 91 89 92 89 91 90 69 72 64 73 56 59 56 45 41 45 43 37 37 27 18 19 23 25 31 32 21
30 23 31 38 37 38 26 30 42 31 30 38 44 44 51 58 59 62 69 69 88 89 95 87 96 87 102 105 90 87 98 91 97 92 90 95 101 96 87 90 86 102 79 88 78 78 62 57 66 66 65 52 42 47 49 41 41 20 18 26 36 24 27 35
23 20 30 38 20 33 20 28 31 45 42 45 41 59 66 54 57 62 77 85 94 98 87 101 107 100 100 95 95 94 106 99 100 101 99 106 95 112 108 92 95 96 87 88 89 84 74 67 55 70 50 54 58 37 42 37 23 33 36 29 21 31 38 37
20 21 36 34 28 35 19 33 27 33 43 45 59 48 47 53 71 67 67 76 91 99 108 93 100 102 100 105 117 116 111 117 120 110 107 109 116 114 100 112 112 106 96 106 83 79 84 77 70 70 56 53 55 43 37 37 40 35 35 23 29 27 22 23
26 28 24 35 37 24 24 21 26 47 43 36 44 45 56 60 60 70 81 87 96 95 110 101 105 107 106 118 103 119 120 108 109 124 121 116 108 110 118 117 107 97 96 109 106 87 77 60 57 54 47 51 41 49 42 41 41 32 35 36 38 31 22 36
26 29 26 38 34 22 30 20 29 38 50 37 55 45 60 71 74 78 69 87 103 93 106 112 111 115 115 109 121 117 111 132 126 125 112 128 127 125 120 109 106 114 95 102 94 83 73 75 62 65 47 48 39 49 32 46 32 20 35 23 30 37 20 19
23 29 30 22 29 22 34 30 30 32 42 48 55 48 62 70 70 72 77 79 102 96 106 99 117 122 108 109 110 122 122 120 130 131 129 123 111 117 120 113 119 115 100 99 86 78 72 61 72 54 64 62 56 45 39 39 23 39 30 28 26 27 32 27
19 34 33 18 37 21 23 22 27 31 32 53 57 53 46 64 52 72 72 83 99 104 107 99 103 102 112 121 119 124 125 123 130 127 132 127 113 113 120 105 110 113 110 87 96 77 69 61 52 52 49 59 47 41 46 37 22 38 21 23 38 23 18 23
32 31 23 19 34 22 28 19 41 39 49 45 37 45 62 57 60 62 75 77 85 87 109 100 99 102 122 116 125 126 114 130 135 140 125 122 123 119 105 102 113 112 98 98 95 80 80 55 67 56 43 52 45 44 37 44 32 18 21 20 35 28 27 33
20 38 18 30 25 30 21 34 26 27 46 41 37 47 61 61 62 50 71 81 74 91 98 107 114 98 119 108 117 121 123 131 122 128 126 119 107 120 115 110 112 94 89 93 91 81 61 50 56 49 52 53 45 51 46 27 28 18 36 24 37 32 21 30
33 21 20 29 26 33 27 38 24 32 34 29 37 52 46 43 60 61 55 79 70 76 90 96 102 94 101 104 111 120 120 109 127 125 124 121 115 112 102 94 104 103 85 76 81 79 68 66 52 46 51 44 44 36 36 41 33 24 33 20 28 29 35 28
31 21 35 35 27 26 29 21 29 25 30 40 40 49 40 58 48 56 62 66 72 71 90 92 100 106 94 95 97 100 99 109 106 106 103 100 112 109 109 96 103 86 84 87 78 72 67 58 50 45 47 32 47 46 41 21 36 37 18 19 29 36 36 35
25 38 29 31 26 32 34 34 33 32 27 28 32 30 46 49 44 45 57 56 67 76 89 83 77 88 104 92 106 108 97 106 92 94 94 108 96 106 98 92 87 92 69 78 65 54 61 42 47 38 50 43 29 26 30 38 19 36 18 36 28 33 31 26
37 25 34 28 25 33 21 37 35 18 28 27 27 46 44 38 37 52 55 63 62 74 72 76 73 82 87 98 96 92 97 85 101 94 96 100 90 85 80 87 71 71 68 68 59 58 46 54 43 35 39 34 44 31 37 29 24 23 25 32 32 37 18 31
23 28 24 29 32 23 36 34 33 32 28 36 33 41 43 40 41 51 52 42 59 60 70 64 70 78 88 76 77 87 85 82 83 82 84 74 84 85 82 68 80 78 70 53 61 45 39 45 30 39 31 44 39 34 35 30 32 38 28 19 18 29 22 32
31 32 32 25 32 24 35 31 25 22 31 27 22 21 28 41 44 33 41 43 50 48 59 66 65 78 75 73 78 69 83 68 73 79 74 77 75 80 64 64 55 66 62 43 49 47 28 34 34 40 39 35 36 25 23 22 24 27 34 19 19 33 20 24
28 36 20 27 29 28 28 29 35 25 32 33 35 30 26 36 40 30 29 29 51 36 52 57 53 62 65 61 56 67 65 64 63 67 77 63 69 65 56 68 62 56 59 51 40 41 25 41 28 32 36 18 27 25 27 37 20 26 34 25 21 24 28 27
35 35 24 29 32 34 35 29 29 34 20 28 21 20 34 18 34 40 27 37 24 33 38 56 57 62 50 51 65 64 66 75 69 67 59 59 63 67 56 60 47 52 38 44 36 39 22 22 31 28 22 21 29 33 20 27 25 34 22 28 22 24 31 20
33 19 38 32 26 36 36 26 34 34 23 35 31 37 25 25 31 19 25 28 36 20 42 41 47 41 51 54 59 64 57 66 62 60 54 63 64 52 53 54 40 36 31 31 24 24 32 28 22 30 33 38 22 29 31 18 30 19 21 30 34 31 28 27
27 24 23 32 22 24 29 23 36 23 26 34 27 30 27 30 33 32 32 30 32 21 30 26 28 43 47 44 58 53 48 58 44 58 51 61 57 49 46 41 36 27 29 21 36 27 20 18 32 25 22 24 29 23 32 31 25 31 25 21 29 35 33 26
35 18 34 28 33 25 26 31 23 34 37 32 24 33 37 32 34 30 19 28 26 36 29 35 36 36 30 40 39 35 41 51 52 45 53 54 47 42 29 35 38 24 24 19 36 21 37 33 21 33 26 18 38 29 22 31 19 29 20 27 22 22 26 26
34 26 24 32 36 31 19 29 20 22 19 24 22 19 30 38 36 20 18 22 35 28 38 36 30 20 23 43 30 40 35 42 34 47 39 32 43 45 27 31 38 35 29 30 34 25 36 20 32 30 34 32 31 23 35 30 28 20 28 18 35 21 26 36
38 31 32 33 22 20 32 38 24 38 24 38 28 27 29 34 25 33 34 21 31 23 28 36 37 37 26 20 24 40 29 36 33 27 39 28 37 39 38 34 26 38 35 38 24 34 19 23 25 38 19 38 34 25 25 32 38 20 29 36 19 30 34 34
33 34 34 34 32 28 29 28 22 19 30 34 38 24 25 29 30 31 35 26 38 30 34 28 23 25 34 20 21 33 24 32 20 26 35 18 20 29 26 26 29 27 31 26 21 21 18 36 19 32 24 32 25 31 31 24 25 19 35 38 31 26 19 22
26 32 23 24 30 38 36 37 19 21 27 31 25 20 21 33 31 20 29 25 34 32 32 24 35 22 36 31 21 23 25 29 24 19 24 22 37 33 26 23 37 24 34 28 25 35 24 19 18 28 30 36 38 30 25 23 21 36 38 21 26 30 24 27
24 23 32 27 25 37 34 35 34 31 22 36 34 27 20 22 33 25 20 23 32 23 21 34 27 33 21 33 32 33 26 21 23 28 38 20 34 21 31 38 29 19 21 30 31 29 28 38 19 24 32 24 20 31 35 28 28 19 23 24 37 26 18 37
19 27 32 34 20 25 32 29 23 18 29 30 22 19 27 30 27 35 23 38 21 22 24 27 34 37 33 21 38 27 24 26 24 38 28 19 38 29 29 33 33 33 31 38 23 24 36 19 36 30 35 28 24 19 22 33 35 22 35 28 35 26 22 23
21 22 25 35 29 38 27 29 32 21 30 31 37 26 31 24 23 20 37 22 24 27 32 22 22 38 23 34 29 21 27 22 35 25 36 27 27 31 26 37 26 22 30 18 28 22 32 29 30 20 20 18 24 24 30 26 21 21 30 33 18 25 21 20
31 19 25 37 21 34 25 19 22 23 20 33 31 18 27 27 18 26 31 34 25 20 28 31 22 19 34 18 28 24 26 22 19 28 22 19 36 27 23 32 24 29 31 19 38 23 37 26 22 38 32 38 36 19 24 31 29 19 19 38 26 38 38 20
26 25 18 18 19 21 24 19 37 32 37 27 36 30 32 25 30 28 21 35 19 31 23 23 28 31 36 37 29 24 18 25 28 26 22 38 28 32 33 25 21 36 28 20 19 32 22 25 38 24 31 37 30 19 33 35 35 32 23 20 24 18 21 23
35 36 29 37 23 18 38 20 37 28 24 27 30 26 33 26 31 19 33 24 26 18 18 22 32 37 22 18 28 27 27 31 27 24 31 18 20 31 28 32 23 36 34 33 29 22 32 25 33 27 22 36 37 20 36 30 19 31 24 33 21 29 38 20
27 30 35 37 33 37 23 23 31 30 29 30 31 29 29 26 20 28 38 33 19 25 34 23 31 25 18 21 29 22 26 22 27 23 29 27 24 19 20 26 19 20 30 25 36 37 28 22 30 19 18 31 32 29 19 20 20 35 26 23 18 29 37 21
23 30 25 35 37 19 28 25 18 23 26 30 23 32 18 32 31 30 35 32 37 20 33 27 25 34 20 25 36 27 38 29 37 31 31 22 19 37 29 20 27 21 30 20 30 25 31 27 34 33 33 36 22 31 38 22 33 30 37 30 33 35 36 24
32 37 37 19 20 37 36 28 33 18 18 18 23 18 24 19 36 34 28 29 22 36 36 36 19 23 21 20 23 30 31 25 21 25 31 33 21 36 24 31 20 31 35 29 38 30 29 35 35 28 32 37 23 18 26 28 21 21 28 31 37 35 36 27
18 37 32 20 27 30 30 31 25 24 34 22 33 32 31 20 37 35 19 33 32 21 19 23 30 36 31 21 29 27 23 33 26 37 34 22 23 20 26 24 33 24 19 19 20 23 32 32 38 19 21 35 20 35 19 23 28 33 21 25 36 32 33 21
36 21 32 38 38 19 32 33 38 20 22 32 25 30 27 33 34 31 38 20 29 33 37 34 28 22 20 26 26 25 22 22 20 18 27 30 21 30 34 22 20 27 21 19 27 25 24 28 38 18 28 34 31 30 36 30 38 37 32 34 32 22 25 32
