P2
64 64
255
22 17 20 19 19 19 22 17 18 18 20 24 24 16 21 26 21 15 17 16 21 20 25 24 14 21 17 15 20 26 23 24 16 18 14 24 14 20 16 21 18 19 23 21 18 14 21 21 19 17 21 19 17 24 21 15 23 23 21 17 14 21 18 15
15 21 19 21 23 23 25 18 26 26 17 26 25 25 14 23 17 20 14 22 16 14 18 19 18 23 19 23 24 16 15 15 19 15 23 19 16 26 15 16 14 22 20 18 16 25 19 18 16 17 16 14 25 14 24 15 19 24 17 25 19 21 20 26
17 20 24 15 21 18 19 19 24 22 19 17 26 22 16 14 19 24 20 25 23 22 17 22 26 24 16 26 22 21 20 21 21 16 15 23 14 14 16 14 21 17 21 20 25 22 22 16 17 21 23 22 23 23 23 26 17 21 26 18 21 14 20 17
20 22 20 23 19 19 19 16 23 20 23 22 21 20 24 16 17 25 24 17 26 24 17 20 15 25 20 24 24 15 15 24 16 19 23 24 21 17 20 25 16 14 26 15 23 18 16 25 23 26 25 18 19 19 21 20 21 17 16 21 22 14 20 21
16 26 23 14 20 17 20 20 14 16 23 18 23 14 24 26 16 26 15 18 25 22 23 19 16 19 21 24 22 24 16 22 25 18 22 23 25 20 23 15 17 23 21 26 17 19 24 22 15 23 16 20 19 24 23 23 20 15 18 18 19 17 14 23
21 17 15 15 18 26 22 20 26 19 22 23 24 23 26 21 17 18 24 16 25 24 15 16 19 14 18 24 22 25 15 23 22 21 14 21 15 25 24 15 26 16 14 16 20 23 24 17 26 17 20 26 21 24 25 22 21 24 24 25 23 26 19 24
19 16 16 18 18 20 25 20 14 18 22 15 20 21 14 25 25 16 24 18 26 20 21 22 15 16 25 22 24 23 20 22 21 22 24 24 22 16 24 14 17 17 15 17 23 23 23 24 17 23 16 24 24 15 18 16 16 20 17 19 15 14 14 26
17 26 22 17 22 23 22 22 19 21 19 21 14 24 18 17 20 21 21 19 22 15 23 16 19 25 14 26 17 24 17 15 22 14 19 19 16 25 23 15 20 18 25 17 16 26 20 14 19 25 18 16 16 22 16 16 20 20 26 15 15 14 18 25
17 15 14 22 18 19 16 19 18 18 16 20 24 23 26 15 24 23 16 23 25 17 26 17 16 23 17 18 14 17 14 19 20 26 14 26 21 26 16 25 20 23 17 18 18 15 16 19 19 14 14 25 14 22 23 16 17 26 14 23 21 18 16 25
24 24 23 16 17 18 20 14 15 14 21 14 16 22 15 18 20 25 20 26 21 15 16 21 18 24 17 25 19 15 20 19 16 24 22 22 25 15 22 25 15 23 19 26 15 26 23 22 24 17 16 20 18 21 15 15 14 25 23 14 25 23 15 26
20 19 22 17 22 14 20 16 20 26 15 17 17 19 19 17 19 15 14 25 25 26 22 18 19 26 23 20 20 25 16 20 24 26 20 23 26 20 26 21 16 23 26 26 23 24 26 23 20 14 26 15 17 20 14 25 14 18 21 21 23 26 25 15
16 18 17 19 25 26 14 23 22 21 21 18 22 15 15 22 25 24 20 24 21 17 14 26 16 25 22 25 15 25 22 20 24 16 14 25 22 23 22 24 19 15 19 20 14 23 16 24 18 15 21 20 26 17 18 19 20 20 15 23 21 16 24 17
25 23 14 18 25 14 14 17 26 20 14 16 20 16 26 17 21 22 16 19 15 14 26 19 16 22 25 21 16 22 20 17 21 21 20 21 25 24 26 25 24 21 22 24 14 25 15 26 24 16 14 22 19 26 21 15 20 20 16 19 23 16 23 15
25 23 26 16 20 21 18 22 19 26 18 23 17 26 15 24 17 14 22 20 16 16 22 22 23 18 20 25 18 18 18 19 17 20 24 24 18 17 26 25 24 14 23 14 14 23 15 22 24 25 18 18 19 15 24 18 23 26 22 19 19 16 24 19
25 15 21 20 26 20 17 15 20 26 16 15 16 14 20 20 22 20 21 15 16 18 22 24 19 22 23 20 19 20 22 24 19 14 21 21 14 20 24 19 21 17 20 26 19 19 26 22 22 18 15 17 17 16 19 22 24 24 24 19 15 16 24 15
18 14 25 25 15 19 15 25 24 17 18 23 25 14 26 17 23 14 18 21 23 21 18 25 25 25 16 14 23 26 23 25 16 19 19 14 20 21 20 24 22 17 19 25 17 17 26 25 18 25 14 25 18 24 18 25 21 26 18 18 20 18 14 26
22 17 23 20 19 23 19 25 19 21 14 20 24 15 20 23 16 25 17 26 18 16 25 23 15 22 25 19 14 25 15 20 24 22 17 19 22 16 19 26 24 22 24 21 25 16 25 25 25 16 21 16 22 16 18 24 15 22 21 14 19 17 23 26
14 19 14 22 14 21 20 16 14 26 21 15 26 20 22 17 25 21 22 25 25 23 15 21 22 14 20 17 25 21 26 21 18 19 25 24 23 16 19 19 26 22 25 24 26 17 14 17 16 23 16 17 22 22 19 25 19 20 20 20 21 16 14 23
18 24 21 15 16 20 22 20 23 18 22 16 19 20 24 20 16 15 26 20 25 25 18 20 17 16 19 17 17 25 17 23 21 20 20 23 16 19 25 19 19 21 24 18 20 19 15 17 26 19 20 24 22 17 25 21 14 21 16 23 17 18 24 25
19 16 25 21 16 22 25 21 24 16 20 17 15 14 25 22 21 20 24 17 19 30 28 23 19 16 26 15 18 26 18 21 14 24 14 24 22 18 18 26 17 17 22 29 26 19 19 20 15 16 17 25 20 25 21 23 20 18 22 15 19 15 18 14
18 20 25 14 18 23 23 23 15 20 20 14 21 17 23 20 29 21 29 30 30 33 30 30 20 22 24 23 25 20 21 21 22 25 15 22 25 18 23 20 30 21 30 23 31 30 31 23 21 18 23 17 14 22 23 23 14 15 18 25 20 16 26 17
16 21 23 25 16 17 21 16 20 21 26 17 18 26 30 30 31 33 28 28 26 30 37 30 24 27 27 28 27 24 21 18 22 25 14 16 21 23 31 25 35 32 37 33 31 35 25 31 33 29 21 22 26 14 19 15 17 22 26 20 23 17 25 15
21 17 26 21 24 22 15 25 14 14 15 22 28 21 28 34 26 39 35 38 33 38 34 36 32 31 33 23 22 19 16 21 16 16 15 29 22 33 33 35 30 31 29 41 32 30 38 30 33 27 30 32 23 22 21 26 18 22 14 26 21 24 14 16
17 24 21 23 23 14 19 17 23 16 16 19 25 31 31 29 31 43 40 42 45 41 44 41 34 31 30 30 26 27 27 16 14 17 23 26 25 36 37 32 33 36 41 45 40 42 35 31 30 34 33 33 23 17 23 25 14 25 15 19 16 21 17 19
15 17 20 18 15 20 26 26 19 23 27 32 25 32 37 37 38 38 46 38 37 47 37 37 44 35 34 30 38 32 25 29 25 28 32 24 37 40 42 43 40 48 39 37 41 37 45 41 42 39 39 35 25 21 21 15 17 24 21 15 21 16 26 26
19 18 21 17 17 25 17 18 18 25 27 22 36 36 35 43 42 47 49 47 42 52 42 50 44 45 37 35 28 35 22 22 24 27 31 31 35 36 39 46 39 43 45 51 46 52 45 42 46 44 36 39 29 33 25 18 26 25 23 21 20 14 15 24
24 26 26 19 17 16 14 20 25 20 27 28 39 33 38 41 45 42 53 49 54 56 51 45 43 46 37 40 42 32 31 26 34 24 36 35 43 40 46 50 52 47 51 54 48 54 53 48 42 47 40 33 31 30 23 21 18 21 16 16 25 15 14 21
15 15 14 22 25 26 20 22 27 20 33 30 39 41 49 43 54 48 57 53 59 58 54 52 53 48 45 38 37 35 26 28 35 26 34 40 39 43 45 54 57 50 48 60 60 48 59 54 54 40 39 39 42 38 31 22 23 24 25 18 22 20 21 15
23 19 21 21 19 21 20 21 17 32 28 30 37 44 39 48 52 56 56 59 59 59 64 51 56 51 47 50 43 41 29 28 38 35 40 39 46 44 54 48 50 53 54 64 57 55 62 54 54 54 42 47 40 28 26 27 17 26 18 26 21 26 20 26
23 18 19 26 21 23 24 25 27 25 36 37 40 38 51 54 48 57 58 67 68 59 57 55 58 47 55 50 43 41 37 42 39 42 35 36 40 46 52 51 59 61 63 64 63 56 55 60 59 49 41 49 43 39 35 28 18 26 16 19 23 14 19 20
14 21 25 20 23 25 21 22 30 30 34 43 35 42 50 47 49 63 68 63 64 69 67 67 63 50 47 50 47 39 34 42 36 40 42 36 45 54 47 56 56 57 69 66 69 69 56 59 61 51 42 49 46 32 32 26 24 21 22 16 18 22 14 14
16 18 14 16 19 17 21 21 25 32 29 31 46 50 46 58 53 55 69 63 76 70 63 65 62 62 56 44 39 35 34 38 36 42 45 44 39 50 51 56 63 62 70 65 67 68 61 54 56 57 47 47 44 39 32 32 22 21 26 19 17 23 18 25
14 17 17 23 14 25 16 20 29 34 37 31 44 41 51 58 59 64 70 75 67 71 71 69 60 57 59 43 39 42 36 39 44 35 45 47 50 48 55 54 56 65 63 72 75 67 60 55 52 58 52 46 47 39 32 28 29 28 18 19 19 24 20 19
21 17 24 25 21 22 18 28 22 34 36 43 44 47 52 56 55 62 69 68 67 73 63 60 65 62 49 49 50 35 45 44 35 35 44 45 45 54 49 59 65 65 62 76 65 66 66 54 52 52 47 41 46 41 33 24 26 20 14 17 26 18 18 24
14 25 24 23 20 21 25 19 20 34 35 38 37 48 43 55 56 56 64 66 69 60 59 67 54 49 49 52 50 34 41 42 40 42 37 36 40 49 46 61 57 67 67 64 71 69 60 63 61 47 54 50 45 37 39 26 21 15 16 16 14 26 25 26
26 21 21 22 25 20 22 17 27 31 34 42 35 45 52 52 58 57 55 67 63 61 64 57 60 56 51 50 44 41 31 31 32 35 30 44 43 51 47 57 52 58 64 67 65 67 60 57 57 55 48 37 44 39 26 33 19 24 23 20 24 21 15 25
14 24 22 25 17 15 22 17 29 28 29 34 43 46 41 53 53 54 50 64 56 62 59 61 56 51 53 39 40 44 30 36 36 34 30 38 36 41 49 50 56 61 64 61 60 64 58 53 49 43 49 37 44 35 29 26 19 25 16 14 15 17 17 18
23 22 21 26 18 24 16 16 25 25 30 28 42 43 45 45 50 56 51 55 56 59 60 50 56 54 44 43 36 34 36 30 27 35 38 37 40 47 45 54 53 52 54 55 49 55 47 48 50 41 42 37 39 34 28 31 25 23 25 25 14 21 22 15
18 19 15 22 24 26 14 23 25 27 24 32 33 39 45 37 40 43 43 46 49 51 53 49 48 40 39 43 42 37 25 24 26 32 30 34 42 38 47 51 45 49 50 52 55 46 44 52 49 43 39 38 32 27 21 24 23 19 17 14 24 18 24 15
23 26 25 25 28 19 27 28 29 27 32 29 35 38 40 40 44 54 45 51 57 47 57 45 54 51 47 41 35 35 36 35 32 29 29 38 34 37 43 48 50 45 46 55 52 49 47 54 52 43 45 36 36 33 27 28 23 22 28 22 30 23 29 25
29 25 24 22 32 28 27 23 22 31 28 31 34 37 45 39 53 44 53 57 45 54 46 52 54 44 46 38 37 40 39 30 26 28 33 39 36 40 50 44 57 54 49 54 48 56 56 55 56 44 50 39 35 36 30 33 28 38 31 35 33 29 34 36
32 34 30 25 25 32 34 32 26 35 27 30 36 38 38 49 42 47 52 49 46 49 57 57 50 54 52 39 44 41 39 40 28 28 36 38 44 41 42 44 51 48 59 51 50 53 53 50 48 49 47 49 45 40 35 41 38 42 35 34 42 42 43 37
24 30 27 20 24 22 29 30 30 31 22 22 24 39 40 44 37 42 44 44 47 49 37 39 45 35 38 37 36 34 28 30 25 23 25 35 36 36 42 43 41 45 50 42 41 52 40 44 49 37 33 39 35 28 30 27 34 33 34 31 26 30 37 29
28 22 25 27 26 26 22 18 27 28 21 22 22 30 30 24 31 27 33 38 36 37 38 33 29 33 30 27 20 29 28 19 30 21 24 30 22 27 37 28 34 37 39 42 41 32 38 35 32 29 32 25 21 29 28 23 29 31 26 23 30 28 26 28
21 24 16 22 20 23 19 20 26 23 19 16 26 26 22 24 27 27 31 33 29 33 21 23 26 18 19 19 14 14 24 20 20 19 22 22 17 21 28 24 22 31 24 25 23 32 31 23 23 23 22 24 14 16 21 16 21 17 19 18 24 21 15 15
26 26 23 18 17 25 22 22 26 15 23 19 15 17 14 24 21 17 18 19 21 25 22 24 28 25 16 22 14 16 14 16 23 16 25 14 19 14 20 24 16 28 21 29 28 18 27 18 24 23 20 16 24 17 14 26 17 21 15 19 18 15 22 19
19 17 18 19 21 21 17 14 24 25 26 20 15 26 25 14 14 17 20 26 16 17 21 20 24 15 20 21 14 25 20 26 26 22 21 16 17 23 26 25 14 24 24 21 19 20 22 25 19 24 14 20 23 22 16 22 23 16 17 23 20 22 18 20
23 20 24 16 21 25 14 21 24 20 18 26 14 16 22 20 25 14 18 24 26 18 14 24 24 23 15 26 21 23 23 26 17 19 22 21 23 21 26 15 14 22 24 18 18 20 21 23 24 15 16 22 19 23 26 16 20 26 14 21 19 16 24 15
23 26 25 20 14 19 21 25 25 20 26 21 19 24 20 18 24 19 21 23 25 14 21 16 19 25 16 26 21 17 19 26 25 25 16 21 16 24 14 14 14 26 22 22 26 26 14 22 26 26 14 26 21 22 14 17 17 20 23 15 25 23 14 25
23 19 17 22 20 24 16 19 19 24 25 26 19 22 19 24 16 18 21 22 15 19 14 19 14 16 14 21 16 15 21 22 14 17 16 26 15 20 18 15 17 14 17 15 26 24 21 24 19 26 20 15 18 25 25 24 21 16 18 18 17 24 23 14
21 22 25 19 24 25 16 19 24 21 24 16 23 25 26 15 20 22 18 15 19 23 22 20 20 23 15 18 14 21 20 17 23 21 25 14 16 20 16 14 18 20 24 14 14 26 18 15 16 21 16 20 25 15 22 16 24 17 21 15 16 23 22 22
20 17 26 15 17 21 18 15 26 21 25 23 26 20 21 25 21 14 24 26 22 20 22 22 16 16 25 25 18 23 24 14 22 25 14 18 20 22 26 21 26 22 26 25 26 24 25 21 19 17 18 14 21 16 20 25 17 21 21 16 23 16 25 14
14 15 19 15 16 21 18 16 24 20 20 24 24 20 17 21 19 23 24 20 23 16 18 15 17 18 20 14 17 18 22 14 14 26 14 16 16 14 24 24 20 21 17 23 20 19 18 14 14 26 23 23 20 25 21 25 19 19 23 19 19 19 17 22
24 19 24 15 19 20 18 16 23 19 16 24 18 24 24 23 14 16 16 22 24 15 14 16 21 21 24 16 17 23 26 15 15 16 19 14 16 14 18 15 17 22 18 20 16 26 26 24 19 20 14 26 20 20 18 15 23 18 20 19 25 19 25 15
17 24 23 22 20 14 20 21 21 15 15 17 20 21 26 26 18 18 26 18 25 21 15 26 21 15 26 16 22 18 15 14 19 23 23 24 22 24 16 17 16 14 17 18 24 16 18 20 26 22 15 23 24 18 25 14 23 26 23 14 25 19 15 14
22 24 20 21 17 19 17 16 18 23 25 15 24 23 23 17 20 24 25 15 20 26 26 16 15 20 19 19 20 22 19 26 15 20 22 15 21 22 26 15 17 25 19 18 18 24 20 18 24 21 21 16 22 15 16 24 14 21 17 17 20 18 16 15
19 25 23 17 24 22 18 18 15 14 24 21 17 14 20 15 24 20 24 24 14 18 24 20 20 21 14 14 16 14 14 15 18 22 18 20 20 24 15 15 14 22 24 26 16 16 15 20 25 26 14 19 24 15 23 20 22 22 26 25 21 17 22 20
16 14 20 23 21 21 20 21 17 21 23 23 24 21 23 24 18 18 25 19 26 18 21 24 21 16 26 15 20 23 20 14 24 23 19 26 25 14 26 15 24 25 19 25 24 25 20 20 22 23 17 14 15 15 16 23 21 20 16 18 16 26 21 19
14 25 22 23 23 16 19 14 15 19 26 25 25 21 20 15 26 16 26 22 23 24 26 20 14 23 18 21 15 26 15 17 16 25 18 21 19 18 26 15 19 24 25 14 15 22 15 21 19 19 22 17 18 24 20 20 16 14 18 23 22 14 16 19
24 14 20 26 24 16 17 20 23 17 18 16 20 16 26 16 22 18 18 20 25 25 16 20 22 20 17 16 24 22 23 23 25 22 20 14 22 17 20 16 25 26 23 15 16 20 15 23 18 22 23 24 20 15 16 23 22 15 25 21 14 14 17 26
26 16 23 25 24 17 21 26 16 17 25 21 16 20 16 25 25 23 14 21 19 14 15 17 17 25 23 14 14 25 18 14 25 25 19 23 21 24 22 22 21 16 21 17 20 14 20 22 24 15 23 23 25 22 25 17 17 17 18 25 25 23 18 21
15 23 25 25 25 14 15 20 21 14 26 22 19 26 15 14 22 19 25 24 17 15 26 21 26 24 26 22 20 21 19 23 18 14 21 17 25 26 25 18 14 23 26 17 16 26 16 22 15 19 18 18 18 18 20 16 23 23 24 23 14 23 19 17
20 17 23 18 22 26 23 24 21 15 14 17 20 21 20 19 21 22 14 14 15 26 21 24 20 21 16 18 23 17 19 19 21 20 20 16 22 18 25 20 20 19 17 15 16 22 26 16 16 24 22 23 25 14 18 22 22 25 24 26 25 20 16 15
25 20 23 26 14 26 20 17 25 17 24 22 19 15 25 15 17 19 23 25 20 26 19 26 25 18 23 23 17 16 19 14 15 18 20 23 20 19 25 15 26 26 18 16 16 20 15 17 22 15 26 20 14 23 26 16 17 24 18 24 25 18 21 20
