P2
64 64
255
32 37 38 32 34 30 21 30 20 29 32 37 23 31 37 35 21 31 28 24 22 35 37 38 18 30 36 27 34 25 30 19 19 31 20 29 20 26 29 29 27 33 28 18 28 33 31 33 34 20 24 28 24 23 36 22 32 34 28 32 24 19 38 27
26 27 35 20 31 35 36 38 24 31 31 34 24 19 21 20 33 34 28 34 19 29 36 36 32 20 36 24 38 20 35 21 29 29 22 24 28 25 34 27 23 31 37 29 32 37 19 29 19 18 33 36 23 20 24 37 30 37 38 26 31 35 21 35
24 27 22 18 26 29 25 37 20 18 27 22 19 18 27 31 21 27 34 32 37 28 28 19 19 28 24 37 32 33 26 33 24 18 34 29 29 18 28 31 22 37 37 32 23 29 29 29 24 35 26 36 37 29 23 32 29 27 34 26 27 34 19 28
31 27 25 36 32 21 19 31 37 38 23 25 35 33 33 21 18 35 31 29 24 18 20 23 24 28 30 18 28 35 33 37 37 18 27 22 18 35 34 38 19 27 21 22 38 34 18 23 36 20 33 21 35 33 34 27 21 22 21 28 26 30 26 25
33 30 18 22 23 23 29 37 24 21 19 26 31 26 18 25 38 38 28 34 38 38 24 37 21 27 37 29 25 22 38 22 22 18 21 31 22 30 34 37 25 29 25 38 22 21 35 31 33 23 19 32 27 33 38 25 18 25 24 38 26 25 19 31
34 35 37 26 33 35 23 32 26 28 37 27 38 33 25 24 31 31 27 23 19 34 22 23 35 37 33 37 30 28 26 18 22 37 30 31 23 23 18 18 29 32 34 36 20 28 38 34 21 24 35 18 38 20 21 34 32 28 38 36 20 37 29 18
31 28 23 21 33 24 25 25 35 24 18 24 25 29 28 25 27 33 22 19 35 38 25 21 19 32 33 27 37 23 37 37 31 26 32 27 32 38 33 29 26 18 38 38 38 38 29 20 33 20 34 32 19 25 26 35 33 20 24 26 29 35 25 28
21 21 27 25 35 28 20 34 31 19 30 37 30 30 28 38 23 28 37 28 21 29 31 25 31 35 28 24 19 36 20 20 18 29 31 38 18 37 25 33 23 23 37 19 23 30 34 35 33 27 33 36 38 38 38 25 26 31 28 27 18 20 29 37
31 28 27 26 36 26 22 38 36 21 21 21 35 38 25 28 38 23 20 21 33 38 29 24 19 22 38 26 20 21 33 20 28 22 32 37 31 26 31 25 35 32 22 37 29 30 29 26 24 24 20 25 21 23 37 35 27 28 18 34 36 20 24 37
26 25 33 21 24 27 32 20 32 27 23 30 24 34 27 34 32 18 31 23 38 20 30 25 36 23 36 26 27 27 31 32 33 19 22 21 23 33 32 21 36 25 23 31 29 33 32 26 20 38 36 36 38 33 38 27 22 30 23 36 36 34 31 31
35 19 33 30 34 19 28 36 30 33 36 35 31 33 23 19 38 33 31 26 29 20 30 29 28 27 25 37 25 37 34 25 24 20 31 31 25 26 26 35 31 20 27 38 18 33 19 23 25 31 31 24 36 33 36 32 29 22 20 20 36 21 19 37
18 26 22 31 33 38 27 23 36 25 21 37 38 28 18 27 20 30 25 22 32 30 29 32 18 21 19 36 37 31 31 23 25 23 38 29 30 18 30 36 34 32 18 35 21 38 33 26 34 20 25 38 27 20 20 22 32 33 20 30 24 37 33 20
19 28 33 38 38 25 30 38 35 24 38 33 24 38 22 37 29 20 29 25 20 27 35 30 30 36 37 38 18 32 36 22 18 26 35 37 24 30 18 29 27 21 34 25 22 34 19 34 29 25 20 26 26 24 30 37 19 30 23 25 33 23 34 27
26 32 25 20 31 26 26 35 22 26 21 24 28 19 35 37 37 23 20 28 24 25 34 37 34 23 27 19 23 25 19 30 31 32 26 27 37 35 32 22 37 27 33 33 30 30 37 20 31 34 28 37 26 21 19 31 35 21 19 34 23 24 20 29
29 32 25 34 34 34 33 35 31 34 20 20 26 20 23 26 27 26 23 26 33 26 24 24 27 18 36 27 19 35 35 32 19 32 23 19 37 24 24 22 30 27 33 20 21 32 38 38 24 26 20 19 29 22 32 18 22 36 33 24 36 36 31 19
24 28 22 38 23 31 34 22 33 18 37 27 18 37 30 25 19 38 23 34 22 29 35 20 22 27 22 19 30 31 31 19 25 23 32 20 19 24 23 32 26 30 35 23 28 28 35 38 28 29 26 31 26 22 33 20 29 20 25 38 24 36 23 22
35 22 23 32 21 36 27 23 38 20 26 37 31 27 24 27 38 27 23 34 28 32 33 35 28 30 18 37 19 24 36 33 19 32 32 22 32 32 25 27 22 37 25 37 18 35 30 29 30 24 34 29 31 25 38 20 29 21 37 31 19 36 37 26
22 30 35 33 24 37 37 33 37 18 23 34 26 37 18 38 37 21 21 24 25 35 38 29 18 33 22 18 31 27 34 22 29 27 35 22 35 21 27 22 18 37 20 37 26 18 26 19 33 30 34 23 21 34 23 38 21 37 31 24 21 29 22 27
21 25 21 32 18 36 26 26 30 25 19 27 20 31 36 28 29 31 34 34 27 24 28 29 35 25 24 38 20 30 24 20 30 30 23 27 25 26 27 22 30 21 20 27 32 27 31 18 28 29 25 28 18 23 31 18 30 37 28 22 24 34 18 25
35 29 22 32 34 30 26 23 29 38 18 27 27 21 35 27 22 26 31 22 42 40 32 35 38 23 33 34 30 20 19 28 24 24 26 37 27 27 29 37 29 27 37 22 23 25 23 34 38 30 26 24 22 30 20 30 29 31 32 30 25 25 22 18
38 27 30 38 25 35 25 19 33 24 37 30 27 36 34 26 33 30 36 42 44 39 35 29 36 36 39 24 38 31 28 36 20 35 33 18 31 26 33 23 27 33 35 37 46 30 40 27 36 36 32 29 27 19 21 21 38 27 18 29 35 30 34 36
29 38 20 19 35 29 25 31 26 20 24 31 34 29 36 29 41 27 46 45 42 43 44 35 30 46 43 33 23 32 32 33 23 32 36 27 32 39 31 26 47 44 46 48 35 35 30 38 44 27 38 26 20 19 18 38 33 32 31 30 27 21 27 26
25 22 38 21 27 26 28 26 25 29 33 26 22 36 39 43 31 45 44 45 43 51 51 36 39 42 36 37 34 31 24 20 33 20 31 34 44 34 32 48 51 39 50 34 35 41 40 45 46 34 31 24 31 20 32 20 36 24 34 32 32 21 27 28
22 22 30 32 18 34 34 18 36 22 22 37 26 38 43 42 36 53 46 55 49 48 49 40 55 39 39 34 44 31 41 21 36 23 37 39 46 63 47 62 44 45 45 57 40 51 48 55 44 45 33 28 28 38 25 31 29 35 25 22 30 20 37 25
29 27 19 34 38 28 23 34 25 27 38 37 46 46 47 38 51 54 48 52 61 41 41 45 54 40 36 49 49 47 35 27 38 39 53 67 81 81 83 69 61 46 47 42 46 45 54 51 51 48 33 46 44 32 22 21 24 28 25 22 19 21 21 21
34 36 25 22 27 18 32 25 25 27 42 31 49 43 45 44 43 52 62 60 58 60 47 46 50 56 48 38 50 35 28 41 39 53 58 80 98 90 96 86 89 64 54 49 48 56 48 46 45 44 44 37 37 38 31 28 24 32 28 25 33 31 38 18
24 24 32 35 30 29 37 28 20 25 41 33 33 53 48 43 43 61 64 55 52 65 49 67 59 54 54 38 36 42 42 37 51 70 78 102 103 124 117 117 101 76 75 56 53 66 52 58 61 57 57 40 36 31 29 24 23 19 33 32 20 27 36 33
37 25 19 33 24 23 21 19 29 36 45 35 46 46 46 57 49 68 66 63 64 61 56 58 49 61 53 56 47 46 38 33 62 65 98 116 130 138 128 119 101 94 86 64 72 63 58 64 60 63 54 40 36 39 35 41 29 31 22 34 31 20 36 23
22 36 32 25 29 33 34 23 24 30 49 33 44 55 56 55 58 65 70 69 68 73 69 64 71 62 63 60 47 40 43 47 62 71 90 125 136 164 139 131 122 97 86 64 77 59 71 71 49 62 62 45 43 50 38 28 24 31 19 34 26 27 19 27
33 37 18 29 27 27 37 39 23 31 35 50 53 44 64 52 52 66 63 72 67 80 64 61 59 54 53 64 55 50 42 38 54 74 103 114 133 153 142 122 107 96 76 70 80 73 72 65 55 63 53 49 51 37 39 26 31 23 35 19 29 23 36 32
18 33 22 26 25 21 24 39 29 27 41 48 52 46 49 70 54 76 71 72 74 78 64 62 68 71 67 59 54 41 41 43 66 64 80 95 115 122 133 111 117 107 78 84 79 77 76 70 71 66 48 48 46 44 39 40 26 25 34 23 31 22 25 28
24 36 22 19 37 22 22 31 35 32 31 53 55 43 47 51 70 69 70 80 76 86 68 75 69 64 54 63 61 59 51 49 60 73 88 83 102 105 119 113 101 96 82 76 76 83 73 63 69 52 49 44 46 45 51 32 33 23 20 32 31 23 31 22
35 22 35 32 33 31 37 34 32 42 52 52 53 44 56 70 58 79 74 74 79 84 87 79 77 60 67 68 63 57 56 61 62 66 64 71 93 89 96 96 99 81 80 90 80 78 79 78 64 57 60 49 59 54 48 39 25 27 35 31 36 30 29 20
32 26 18 22 31 30 20 21 42 45 46 42 46 55 58 67 57 60 76 74 71 83 66 74 67 62 81 85 77 76 81 71 71 68 65 78 65 70 77 94 91 91 98 99 97 96 79 75 64 68 63 47 54 39 44 39 24 33 32 26 30 20 32 19
33 24 23 26 33 29 18 34 28 37 36 55 41 48 57 52 63 58 68 65 75 68 77 69 73 70 78 78 92 83 89 84 71 68 66 71 54 66 63 76 100 107 104 106 96 88 86 67 54 57 66 60 56 36 33 41 39 22 27 31 24 27 29 29
21 33 32 19 29 37 22 35 30 30 41 40 37 59 61 59 68 60 67 72 76 73 69 73 79 89 78 94 92 94 82 94 87 73 77 67 66 71 74 85 94 103 107 113 110 88 79 76 59 61 50 56 40 53 38 41 23 38 31 19 28 34 28 26
18 37 18 22 36 33 19 23 33 37 30 42 52 44 43 49 68 61 68 61 74 75 63 80 86 77 81 87 87 87 85 93 80 84 78 65 59 76 77 84 105 113 133 119 118 98 90 77 51 65 54 41 46 36 47 43 36 21 31 37 36 21 23 26
23 31 34 25 33 28 27 23 38 38 38 40 40 40 51 58 49 69 55 70 70 54 54 63 79 89 89 94 105 109 99 95 93 74 66 60 57 66 71 101 96 112 141 125 108 96 85 80 53 46 42 53 52 32 38 36 35 24 19 33 21 37 33 22
20 23 20 37 36 22 37 29 20 38 31 32 51 49 52 53 52 46 64 51 55 68 68 72 70 83 77 93 94 99 111 95 95 85 82 78 56 62 69 78 104 105 122 107 111 93 87 61 60 42 44 53 48 42 34 41 34 28 26 29 36 35 26 33
26 27 25 20 29 21 24 29 29 23 25 34 41 32 42 56 57 56 43 46 49 55 50 61 66 77 76 80 88 94 105 89 88 82 60 54 68 53 75 82 88 99 104 106 99 79 64 49 45 53 44 43 47 40 30 35 22 30 22 32 37 22 38 32
24 34 29 18 20 34 24 28 22 38 38 44 38 38 51 39 51 49 54 54 52 53 54 54 56 76 78 84 84 88 83 87 68 74 62 62 60 40 54 60 80 90 77 85 88 71 70 52 45 40 47 43 27 38 29 29 29 36 37 31 22 36 35 24
23 34 20 34 27 29 35 38 35 18 31 23 35 27 35 35 38 51 43 52 48 42 56 43 50 72 61 80 70 79 70 79 67 60 53 52 47 38 46 58 67 57 65 68 71 63 60 39 41 33 36 42 31 28 39 32 35 38 26 22 30 35 33 21
19 29 25 25 26 20 35 21 26 26 18 37 31 30 41 48 37 44 52 42 41 34 50 36 44 55 65 72 70 71 60 53 52 54 39 54 48 26 30 49 56 51 48 43 49 52 41 31 50 47 39 34 36 35 34 35 30 22 20 19 38 18 33 35
18 26 38 30 20 32 34 31 26 30 37 22 25 34 28 41 42 45 46 44 45 38 42 37 34 35 50 44 47 55 47 44 42 51 52 33 23 42 40 44 40 32 43 46 47 39 36 41 33 24 42 25 37 21 37 21 27 20 25 38 31 32 20 23
36 34 20 20 28 21 24 33 34 37 31 36 18 34 22 37 42 34 39 34 35 42 35 32 38 25 41 37 51 47 50 43 43 32 29 33 20 22 22 32 39 26 43 43 36 44 32 36 24 34 19 36 23 37 38 30 21 24 25 36 18 29 31 27
35 34 28 24 38 20 23 19 34 24 36 37 36 18 23 21 22 39 27 27 28 22 23 39 21 36 20 28 27 42 34 32 43 40 32 30 27 34 25 19 34 39 21 40 37 28 30 25 32 33 20 31 36 34 32 31 32 26 34 34 25 29 31 20
38 18 37 21 38 22 31 26 20 37 26 35 28 37 28 25 38 20 29 38 20 21 34 19 37 35 27 18 20 24 34 30 28 30 20 30 28 20 35 25 19 19 38 34 20 31 35 24 38 29 30 29 37 32 35 38 23 37 18 28 19 22 24 36
22 28 37 35 33 19 31 25 30 37 25 29 27 23 19 36 27 22 18 19 36 24 31 19 18 24 19 38 36 34 34 20 38 34 36 20 33 27 20 20 27 34 31 23 25 18 37 36 19 23 34 22 35 32 23 29 30 19 37 32 26 22 24 37
35 38 25 24 29 22 30 25 34 35 25 33 18 25 28 22 26 24 24 28 35 36 30 26 35 19 24 25 26 32 26 26 28 20 37 26 18 32 18 26 23 37 34 18 34 38 20 30 33 33 26 37 28 33 23 34 38 18 28 23 19 25 23 29
32 33 34 18 22 18 27 35 26 30 24 24 35 24 33 26 18 29 23 36 25 35 25 23 37 27 33 23 24 23 18 22 33 32 35 20 31 31 27 27 25 29 34 31 34 23 29 34 30 30 26 26 34 22 27 20 35 18 18 30 18 18 34 31
18 34 22 32 23 28 25 37 23 25 29 19 38 25 20 29 24 29 32 27 21 20 35 29 30 24 24 38 20 25 21 21 27 37 29 33 35 35 30 27 21 20 20 28 30 34 21 36 26 19 34 18 34 25 23 26 29 21 28 27 20 29 18 34
23 33 30 24 37 37 24 36 26 33 22 19 21 28 19 33 31 38 24 33 31 32 32 27 27 34 38 24 32 25 32 18 18 27 22 35 19 36 25 32 24 27 30 35 31 20 32 38 20 27 19 26 28 22 30 30 33 19 22 23 20 26 32 38
27 36 22 27 26 36 18 33 23 30 36 20 20 33 25 21 38 30 23 35 34 37 25 30 22 32 37 29 36 27 24 33 27 26 28 21 20 22 27 20 27 22 21 23 22 37 27 38 24 25 20 22 38 34 24 25 22 31 24 33 26 18 19 20
24 37 27 18 21 28 29 31 28 22 33 38 21 24 25 35 23 28 36 38 31 38 36 35 32 34 36 35 20 35 38 27 28 21 26 18 28 22 18 29 36 30 20 20 35 20 38 35 38 27 27 36 33 26 20 36 31 24 37 25 24 29 26 37
25 36 37 38 32 28 19 18 30 23 25 23 35 27 31 31 24 23 37 19 30 30 28 18 24 36 35 19 32 37 21 30 30 33 22 25 21 30 29 21 22 30 23 30 28 23 25 27 34 37 27 35 22 35 19 25 37 21 25 28 18 21 38 22
30 26 38 34 23 28 33 19 25 22 24 37 21 20 34 30 22 20 20 29 34 20 20 34 20 34 24 38 26 30 38 31 19 35 34 23 33 20 25 37 33 35 22 35 37 27 25 21 26 32 35 18 25 26 34 27 28 31 18 30 26 24 27 30
20 22 33 29 31 34 33 35 32 23 38 23 18 35 29 33 37 38 21 19 25 33 26 30 27 35 37 20 30 37 28 38 24 18 29 25 31 18 38 34 32 34 27 18 31 24 38 23 38 37 27 25 32 29 23 24 25 37 38 37 27 37 31 24
37 19 22 27 37 38 24 21 35 18 32 23 28 22 22 21 36 29 21 35 19 28 22 35 38 34 38 38 24 37 29 30 26 19 33 20 35 38 21 35 35 31 35 23 20 19 29 22 18 35 20 34 23 36 34 33 21 21 32 28 20 27 24 18
23 22 22 33 28 38 29 30 34 34 30 28 19 30 35 36 33 33 19 26 35 29 19 29 24 37 28 31 36 18 24 33 33 25 37 31 19 38 38 34 29 38 36 31 23 18 24 27 18 33 37 31 34 30 36 26 32 35 20 31 22 34 31 23
24 34 19 18 24 37 24 38 30 31 23 30 33 23 37 30 26 22 26 27 23 27 24 30 37 36 25 35 37 32 24 20 19 22 27 31 30 37 33 38 18 27 22 19 38 27 28 24 34 35 19 20 28 34 37 25 37 19 22 35 36 38 32 37
24 30 24 37 30 37 35 26 38 22 28 38 19 31 32 37 30 25 33 28 32 34 18 37 35 32 20 33 22 29 19 19 34 35 23 36 21 18 38 23 33 20 31 28 31 22 18 35 31 32 22 24 22 25 19 20 21 21 21 27 30 37 18 34
31 23 29 36 18 33 32 26 28 36 33 35 23 37 23 22 20 38 32 18 18 32 37 32 18 21 37 37 38 38 29 24 20 20 23 23 20 37 37 32 21 22 31 28 32 37 24 35 20 36 31 28 18 33 32 21 21 38 35 30 38 24 29 28
21 29 35 37 26 18 23 25 36 31 22 18 21 33 30 32 34 21 30 23 30 38 26 29 31 26 38 32 26 20 23 32 25 37 29 21 33 22 18 32 28 34 23 35 27 33 38 25 34 35 19 26 18 23 31 31 29 33 22 35 20 24 33 34
36 23 26 34 36 19 27 37 36 20 35 26 37 25 33 20 30 37 18 24 21 36 29 30 33 37 20 35 33 23 30 36 31 38 26 27 18 21 25 29 27 33 38 24 24 37 38 23 35 25 35 21 18 31 22 34 35 35 19 25 20 20 36 20
