P2
64 64
255
20 23 16 25 18 22 21 20 18 24 19 16 21 24 15 20 21 26 24 18 26 15 14 23 15 18 18 16 23 25 26 20 21 23 22 22 18 14 18 22 22 24 22 18 25 21 26 20 14 16 25 26 15 16 20 16 25 26 16 22 20 21 15 15
16 24 20 20 14 22 22 20 17 15 26 26 26 20 23 18 19 22 17 17 24 25 24 22 26 23 23 22 14 16 18 16 14 22 15 14 22 25 26 14 17 23 19 14 15 19 23 22 26 26 23 20 14 15 20 16 21 14 23 23 14 26 24 26
14 23 17 24 17 18 25 19 16 16 26 16 22 23 21 24 22 20 18 24 16 16 17 24 22 18 21 22 14 14 20 23 19 18 15 15 26 21 18 20 18 20 19 19 26 16 23 16 15 14 17 14 25 25 18 25 15 20 17 19 15 21 22 24
19 19 24 14 14 18 16 23 23 26 15 22 19 24 14 19 22 21 23 19 17 14 18 16 19 26 19 14 14 21 26 20 19 24 19 25 24 18 17 18 21 20 20 19 19 19 16 22 18 19 20 14 16 25 18 21 24 22 22 18 15 14 19 17
15 26 24 16 26 14 21 26 18 14 24 25 24 14 21 23 23 14 18 20 18 24 20 24 16 21 19 21 20 20 24 16 25 24 24 24 16 15 20 15 16 18 23 21 20 14 20 26 24 18 15 23 23 20 15 22 19 25 24 17 26 18 18 19
24 26 17 25 21 15 18 15 26 25 15 24 14 16 15 18 21 15 15 18 15 21 18 22 16 25 23 17 15 21 15 20 18 19 17 15 14 17 14 24 22 20 22 25 22 17 20 26 19 19 14 20 26 14 25 19 24 17 18 25 24 19 14 23
18 21 24 14 26 22 22 18 26 23 14 25 22 19 20 17 22 15 15 18 24 25 20 26 24 26 26 15 17 17 18 25 25 16 16 19 23 25 20 20 16 21 14 21 20 26 19 21 20 17 16 15 19 16 18 20 24 14 22 20 15 15 26 16
22 15 22 24 23 21 16 19 14 20 14 20 16 19 24 21 22 24 24 16 24 21 22 16 24 20 20 18 23 19 26 26 15 26 23 26 15 15 14 23 18 16 25 24 25 21 23 23 19 23 23 14 19 23 20 21 16 18 14 21 26 20 18 16
19 19 25 15 17 18 23 19 20 15 26 24 26 23 19 25 24 16 23 20 22 25 23 24 24 17 14 14 26 22 21 20 26 19 23 21 14 15 15 21 25 20 21 20 15 17 17 24 18 24 18 21 25 25 25 26 18 16 26 24 21 22 14 25
26 26 14 25 18 22 14 26 22 23 25 23 19 21 16 22 19 14 26 25 20 20 17 14 25 24 21 25 17 22 15 24 14 16 16 24 18 15 24 18 21 18 22 19 26 14 25 16 19 20 17 15 17 26 17 24 19 26 23 16 23 17 22 14
15 26 26 16 23 20 18 14 26 16 21 24 24 26 14 19 18 22 22 15 21 14 16 15 16 17 25 18 24 23 15 18 15 21 22 26 26 18 16 15 17 15 24 20 26 18 18 19 16 20 23 16 18 23 17 18 22 15 18 24 19 26 22 24
19 21 24 21 24 21 14 25 23 17 24 14 19 15 23 24 25 24 14 25 21 16 19 26 22 15 21 15 20 14 14 24 24 25 23 16 15 16 21 26 21 26 20 16 26 26 22 17 22 24 19 23 26 26 15 24 20 14 22 15 20 19 22 23
21 19 24 21 21 21 15 18 24 15 19 18 23 25 18 16 22 14 15 15 26 14 21 18 23 16 16 24 16 25 16 26 26 18 14 16 18 22 22 21 19 22 14 20 16 16 25 21 18 20 20 14 15 18 23 15 15 23 25 17 20 25 18 22
25 19 24 16 22 23 23 26 20 21 16 18 24 21 24 25 19 15 22 20 17 16 22 26 23 24 16 21 24 17 17 24 18 18 23 22 20 24 20 26 24 17 14 26 23 18 23 23 23 18 19 15 18 15 15 15 15 16 16 18 25 25 15 20
22 14 25 17 17 23 18 23 26 16 19 16 26 26 15 22 24 16 26 17 19 14 22 26 15 26 17 17 26 16 21 18 22 17 24 21 16 19 20 21 17 23 23 24 23 14 22 17 21 14 22 25 18 15 17 20 24 21 22 16 16 22 15 19
21 22 17 16 16 17 25 25 24 25 18 18 24 25 14 19 23 21 22 18 23 22 16 19 19 17 23 20 16 20 26 14 17 17 23 15 19 22 14 18 18 15 17 21 16 25 22 16 23 17 17 21 17 21 15 20 26 14 20 17 17 17 15 22
24 16 21 26 18 15 21 18 17 19 23 26 24 25 21 15 25 23 24 15 20 15 24 17 15 22 21 19 23 18 21 17 24 18 22 24 16 26 21 16 24 18 25 21 24 19 14 20 20 17 14 25 18 19 16 25 23 26 16 25 20 26 23 24
20 19 20 23 24 15 25 24 22 18 25 21 20 21 14 15 22 26 24 14 20 22 18 16 18 14 18 26 22 20 17 25 20 18 19 18 15 21 16 19 17 19 26 22 24 16 25 16 26 15 14 19 22 18 20 20 19 18 14 18 18 17 17 24
16 18 22 22 23 23 25 22 18 23 18 21 15 20 16 15 14 15 23 14 23 23 21 26 16 18 16 22 22 15 18 19 17 21 26 24 24 25 26 23 25 19 19 16 20 21 24 18 16 19 22 15 20 21 16 14 26 22 25 16 24 20 25 21
23 17 15 25 23 17 20 22 17 15 19 21 16 15 24 26 19 24 28 22 28 24 29 18 26 21 18 24 15 20 19 15 25 17 14 23 21 21 16 25 17 26 22 30 24 25 22 21 15 16 20 20 17 24 24 21 19 15 25 22 24 16 19 24
22 19 16 19 24 23 24 17 23 26 21 23 14 15 18 24 22 24 31 27 33 24 31 33 22 21 28 20 23 16 23 26 19 24 15 14 20 23 19 23 29 26 27 33 32 32 25 27 18 19 26 23 18 17 22 21 16 19 14 21 22 22 23 23
22 15 25 19 19 26 25 21 16 25 14 16 14 29 27 29 26 27 26 34 29 33 25 33 32 31 23 25 23 21 23 23 18 25 16 26 23 25 21 27 29 36 29 37 33 33 27 34 28 27 20 22 23 18 18 14 14 20 14 19 26 17 21 15
21 18 14 14 14 18 18 16 26 17 26 21 25 29 27 26 34 29 28 41 29 35 34 38 27 35 30 37 26 28 33 23 32 27 30 27 25 34 36 28 38 36 29 30 36 39 32 30 35 27 34 22 23 26 16 25 14 19 23 26 24 23 20 22
25 15 19 15 24 24 18 18 25 21 26 21 25 27 31 27 39 38 40 44 39 39 44 38 35 45 34 43 36 33 39 32 36 40 42 40 46 39 46 45 41 35 40 40 45 33 34 35 40 35 32 25 30 26 17 21 21 21 20 22 23 22 17 17
18 22 26 15 14 21 20 16 17 23 19 31 24 27 38 32 33 37 43 45 41 46 40 48 46 53 51 54 54 49 52 40 38 42 52 46 45 47 52 52 48 39 45 43 49 41 48 39 39 35 38 37 23 22 25 21 15 22 22 15 14 15 21 24
18 21 24 18 16 17 25 19 21 23 19 33 36 30 36 36 36 43 42 44 42 43 45 58 51 56 63 61 58 61 51 53 57 50 49 51 62 57 59 59 60 57 54 53 51 51 50 47 48 35 43 30 29 30 29 22 15 23 17 22 21 18 23 26
15 14 18 26 17 18 18 26 20 26 25 25 28 41 36 46 40 44 49 45 47 56 59 65 67 66 65 65 65 70 68 63 63 63 67 66 67 67 70 60 57 66 62 59 54 46 47 43 48 49 36 43 34 27 31 27 20 23 21 26 23 22 22 21
14 23 26 21 24 16 14 25 19 27 23 35 39 41 42 43 50 53 59 55 54 67 65 70 76 77 78 80 77 68 64 74 67 76 65 67 78 68 75 76 77 75 68 58 53 59 50 46 44 44 38 41 35 39 28 32 25 16 26 23 22 19 21 19
17 20 23 24 15 19 26 17 21 26 33 34 33 46 49 54 50 59 60 59 65 69 80 71 80 84 75 80 84 86 82 83 80 86 83 86 86 82 77 76 82 79 79 65 66 54 61 52 53 47 43 39 44 31 29 33 19 21 16 20 24 24 19 20
20 14 19 21 25 21 15 16 24 31 28 36 38 43 49 56 48 58 59 64 68 82 87 80 82 82 84 82 89 90 91 84 91 92 88 82 85 86 84 85 88 82 78 81 71 68 58 54 51 45 49 46 45 34 32 23 25 18 21 25 17 17 25 18
20 20 17 16 18 24 20 22 22 34 29 43 45 48 44 49 53 62 60 77 77 87 85 89 88 92 92 100 89 88 90 91 102 98 93 88 90 93 89 97 90 92 86 82 74 75 68 59 60 48 46 40 42 39 35 27 28 20 23 24 16 16 17 17
16 25 14 16 17 19 16 27 21 27 34 40 46 50 44 57 63 55 67 75 80 86 87 92 94 104 103 97 96 95 106 105 99 103 100 94 96 98 96 95 94 90 90 95 86 75 71 59 55 48 44 44 38 38 27 35 26 19 26 24 16 21 18 17
17 24 20 18 26 20 25 27 24 34 28 37 45 39 54 51 53 62 74 77 87 99 95 99 103 96 103 101 108 110 111 103 110 108 108 99 109 109 102 100 103 104 101 97 96 80 72 63 53 56 54 50 37 36 35 36 31 27 25 20 24 18 16 22
25 16 21 18 21 18 16 25 31 35 37 42 41 40 48 48 52 55 74 85 87 93 96 106 97 100 102 105 113 113 106 119 119 113 111 115 112 107 105 106 104 97 91 98 85 81 73 66 58 54 52 49 46 36 35 31 20 19 18 26 16 14 14 14
18 20 18 17 14 14 18 25 23 35 35 32 38 47 51 53 51 61 69 77 85 87 97 105 108 111 109 115 107 118 119 114 127 126 110 118 115 110 104 108 105 103 92 87 90 79 71 61 49 46 44 47 36 41 37 34 30 19 18 17 20 14 24 15
14 21 20 23 26 14 25 23 29 24 36 35 40 45 47 48 58 60 73 75 85 90 98 99 97 110 113 110 114 117 122 127 121 119 122 113 109 105 112 99 106 94 90 87 79 69 68 58 55 44 42 44 34 32 32 33 28 15 15 25 14 19 18 26
26 25 25 23 15 19 17 15 22 29 34 34 35 43 45 45 45 61 59 68 77 81 85 92 102 108 99 108 117 118 120 116 124 118 113 110 116 110 106 96 103 96 91 91 80 72 62 58 51 45 43 38 38 30 27 32 24 17 22 24 20 15 16 22
20 22 17 18 25 26 23 24 28 22 35 29 37 45 47 43 50 53 58 67 69 78 85 87 100 101 103 101 109 106 107 111 123 120 114 115 106 111 102 93 95 89 91 82 81 62 61 46 54 44 40 42 32 36 34 28 19 25 19 20 24 16 19 24
18 22 18 14 25 17 26 14 15 30 24 28 31 33 38 38 44 49 59 66 76 70 77 84 84 99 92 95 100 106 105 106 108 107 113 101 105 105 97 91 86 86 79 78 73 62 51 49 43 44 35 43 29 37 26 28 24 23 16 22 26 22 20 25
22 24 18 26 16 14 24 17 14 17 19 27 38 37 40 45 45 40 46 64 66 70 78 80 83 95 89 101 97 103 99 103 95 95 96 99 97 100 95 90 90 83 72 73 70 58 54 46 38 36 34 33 38 26 24 17 26 20 16 25 26 17 18 14
23 18 23 15 18 24 22 23 17 18 26 31 34 36 28 33 36 35 44 49 55 71 70 69 77 86 88 91 97 93 89 85 92 90 94 89 88 90 87 89 79 80 69 59 60 51 43 36 37 43 38 33 33 29 28 21 25 26 14 20 18 19 23 16
15 16 21 18 15 19 21 16 16 22 19 22 22 32 29 34 34 35 36 46 52 61 68 62 71 71 79 79 84 88 80 77 86 81 80 85 83 87 74 75 67 74 70 60 56 49 34 32 40 39 31 31 22 19 19 20 23 16 22 19 16 25 24 15
20 25 22 20 17 18 19 26 26 25 25 25 19 22 33 33 27 37 39 44 52 57 61 58 59 66 65 72 69 73 75 75 76 70 79 74 72 68 65 70 60 56 58 58 47 38 37 33 31 28 31 22 24 24 25 17 24 20 26 19 24 16 23 26
25 20 15 19 25 18 22 24 23 26 20 26 17 21 29 23 26 24 29 30 45 42 48 56 56 56 61 66 72 65 72 71 66 75 69 60 72 67 57 60 52 55 52 43 42 37 33 27 29 23 31 29 26 21 16 22 18 15 25 19 18 21 21 14
18 17 20 22 23 14 17 18 20 17 25 20 14 21 26 23 26 20 33 24 32 44 42 52 55 47 58 56 61 60 67 68 70 62 63 60 61 59 55 53 49 42 40 33 39 26 31 24 24 20 20 24 25 20 19 25 15 25 26 25 22 23 26 17
24 24 15 21 20 24 22 24 21 22 21 17 24 16 22 18 16 27 27 22 23 28 30 44 35 45 53 46 57 52 62 59 63 62 60 60 59 49 41 38 37 38 35 28 22 23 24 28 22 17 19 14 22 18 18 14 16 19 17 15 17 14 17 20
23 14 22 18 16 20 24 18 20 19 23 20 21 25 20 26 25 14 25 23 21 24 23 25 40 44 47 42 44 44 49 45 54 46 47 47 52 46 40 35 33 35 24 24 21 25 15 15 26 26 19 21 15 21 25 16 26 22 16 20 21 26 21 19
20 26 19 18 22 19 24 21 23 14 19 23 26 21 21 21 22 15 15 21 17 22 27 31 36 30 32 39 37 41 47 46 41 46 42 46 44 45 33 35 32 24 19 19 26 21 25 24 14 25 17 21 25 19 25 14 20 20 26 26 21 14 24 26
21 22 23 20 26 17 20 26 22 21 26 17 24 16 22 20 16 18 26 16 24 25 23 17 24 30 28 27 35 39 35 38 41 34 34 40 41 39 35 34 30 21 17 18 14 24 15 17 18 22 20 20 17 20 16 25 25 20 14 18 16 25 25 15
26 15 26 19 20 17 14 26 22 14 14 24 23 22 24 22 18 20 22 26 14 17 20 15 17 26 31 23 27 32 35 31 31 31 38 29 34 23 19 20 18 19 20 18 15 15 21 14 25 22 21 25 25 16 16 14 23 15 14 16 17 17 25 21
23 19 15 16 26 17 22 26 23 18 15 14 20 14 15 20 25 20 16 14 21 17 25 20 16 21 24 22 23 31 22 28 32 24 25 27 20 26 18 26 18 20 26 24 16 17 22 18 22 19 16 24 23 19 20 14 26 14 23 18 26 15 21 15
20 16 20 22 25 23 24 24 16 22 14 20 18 25 16 17 19 17 15 24 16 18 22 26 21 19 20 24 18 18 22 20 18 25 23 21 21 26 17 16 20 20 25 18 26 22 21 21 20 17 20 26 26 14 14 26 14 18 23 25 24 16 20 26
22 23 17 14 19 19 18 22 25 15 15 23 18 20 26 17 23 15 15 23 21 24 21 16 26 18 15 22 14 15 19 22 15 20 16 22 26 17 19 18 23 23 20 15 21 26 21 14 23 23 16 22 19 17 18 23 21 26 17 26 18 21 24 20
22 25 17 16 20 22 18 18 23 14 15 26 17 19 16 21 21 23 22 16 25 17 20 18 20 22 22 24 14 21 15 26 20 21 24 19 15 16 20 18 23 17 19 21 23 17 23 14 16 23 23 24 20 16 23 18 17 24 14 21 21 14 15 16
14 18 14 25 23 15 16 23 26 18 15 24 21 24 19 17 25 17 21 14 24 18 17 21 22 23 26 19 21 18 26 23 20 21 23 19 19 15 25 24 25 24 18 21 26 19 24 21 20 22 21 18 26 24 17 21 24 15 21 18 16 26 26 24
19 15 26 24 17 18 15 20 16 20 24 20 19 14 14 17 17 19 15 23 14 16 19 18 14 16 22 21 18 24 21 24 16 20 16 24 22 19 19 20 16 14 14 15 23 23 16 25 24 24 18 24 24 24 19 21 19 14 15 14 23 20 20 22
19 18 20 16 17 24 21 24 16 14 14 20 21 17 16 23 17 18 16 14 21 16 16 22 20 20 19 22 21 18 25 22 14 19 19 18 22 15 26 14 17 21 18 15 23 18 14 24 25 18 17 26 17 18 17 20 25 18 14 15 21 26 15 20
14 15 18 17 18 25 17 14 22 26 15 14 24 16 17 26 17 21 26 16 18 25 14 25 26 18 18 25 22 22 26 20 19 21 23 24 24 22 15 23 25 18 17 15 15 19 16 23 18 21 14 26 17 20 20 20 23 22 19 15 16 15 25 23
17 21 26 23 22 24 23 25 16 18 24 17 26 14 23 16 23 18 15 16 22 20 14 20 16 20 17 24 23 21 21 23 18 26 18 20 22 25 15 21 19 21 18 16 22 19 26 25 26 17 21 23 21 19 24 15 15 15 24 19 23 22 16 18
19 20 15 18 14 17 21 25 17 23 18 25 20 16 22 21 23 16 19 19 22 22 18 20 24 15 17 16 14 16 25 23 24 16 20 23 15 14 15 16 26 23 15 19 20 14 26 16 15 18 17 14 24 16 19 21 19 26 18 19 18 18 14 15
24 25 20 18 20 25 23 14 23 17 20 21 26 24 24 15 14 17 26 18 15 14 26 15 17 14 16 26 14 14 21 25 15 21 22 21 21 22 16 17 20 15 18 15 18 18 22 21 20 14 15 19 24 19 19 18 18 15 16 19 17 26 17 26
19 25 14 16 14 15 21 24 14 18 20 24 16 23 16 23 18 25 25 23 21 26 24 17 24 17 26 25 18 21 22 19 20 15 26 14 17 14 19 24 16 17 23 14 21 18 26 25 17 24 24 22 17 20 24 15 19 19 24 26 16 14 14 21
19 20 16 22 18 18 15 16 26 20 19 16 21 25 25 15 26 17 22 25 23 23 18 15 24 23 20 26 18 16 17 26 15 15 24 22 25 25 15 25 14 20 20 15 21 21 14 24 16 25 15 23 26 25 18 26 15 23 21 19 17 19 25 25
23 17 21 20 22 17 17 22 14 26 20 22 14 22 19 24 21 26 16 21 21 18 25 18 18 25 24 24 14 25 16 25 19 26 20 25 19 23 23 16 14 16 14 15 24 17 18 20 25 16 15 24 21 14 14 23 21 17 16 17 23 25 20 25
