P2
64 64
255
29 28 36 21 26 33 38 38 18 38 22 27 21 26 19 23 30 20 30 23 19 22 34 32 24 23 27 36 21 25 25 36 28 28 30 34 32 26 31 25 22 35 38 20 36 38 21 25 28 18 23 19 18 36 37 21 31 25 30 25 24 25 29 19
37 32 25 35 37 21 21 37 20 30 35 30 21 22 21 33 18 18 25 23 19 20 35 27 31 22 34 38 38 26 34 31 25 35 27 36 29 29 34 29 29 34 27 29 38 18 28 33 38 19 24 34 28 35 36 33 21 34 36 24 36 28 21 35
38 27 35 31 25 37 23 26 37 19 30 27 25 21 37 31 26 38 20 27 23 35 37 31 36 29 33 20 31 33 25 38 38 36 31 20 35 27 22 26 22 34 18 30 29 26 22 26 26 22 27 26 22 19 26 38 24 33 24 35 19 29 38 33
25 27 25 30 24 26 35 22 32 23 38 29 27 35 31 37 20 38 35 28 25 36 30 24 21 38 18 26 23 29 32 38 24 19 24 27 32 20 20 29 18 20 37 27 23 24 22 33 26 35 28 22 34 31 20 38 25 33 26 37 32 38 27 29
29 32 20 27 38 29 29 38 32 24 38 36 36 28 22 19 23 33 18 34 25 24 33 23 23 29 31 35 36 18 22 25 34 27 36 18 34 36 20 27 37 24 22 38 27 34 19 38 21 36 34 29 38 19 22 19 38 19 28 26 29 30 25 31
26 38 21 35 31 25 26 30 31 24 33 37 38 21 21 25 34 23 34 32 21 30 18 29 34 25 38 34 19 35 37 34 19 25 25 34 35 26 22 27 33 18 27 18 31 31 26 29 37 38 33 38 20 36 21 37 36 33 32 24 31 20 36 34
27 34 25 35 38 36 24 23 19 27 33 25 32 32 31 38 27 20 25 36 34 32 21 33 26 38 36 29 31 18 21 34 20 19 34 32 25 34 22 18 27 36 23 36 19 32 38 36 18 35 28 37 25 22 21 34 26 29 35 21 27 30 27 30
32 22 18 30 35 18 31 22 37 23 25 33 24 21 18 29 18 31 33 27 28 23 21 20 26 29 33 26 30 34 19 25 29 28 32 22 24 32 31 34 26 34 18 32 26 35 20 28 21 28 23 24 31 27 31 27 35 27 26 20 27 30 35 33
24 30 32 33 20 36 37 37 33 23 28 26 25 34 35 35 37 32 32 34 29 22 25 33 26 38 20 26 24 35 23 37 18 21 19 38 29 37 31 30 29 24 20 20 18 31 19 29 35 22 34 36 25 25 23 33 29 26 20 27 24 20 28 34
25 36 31 31 25 28 27 32 34 18 26 34 38 29 37 33 23 30 30 20 22 37 22 26 30 36 34 26 23 30 36 34 22 27 30 20 35 38 33 27 32 38 37 24 34 35 27 21 36 27 30 21 25 31 38 34 35 28 28 22 22 19 38 38
26 38 34 29 25 18 37 28 37 34 21 27 36 20 27 21 29 23 20 35 18 33 29 32 26 28 38 30 38 37 18 23 18 27 38 18 21 31 21 29 31 37 36 27 30 20 30 30 24 36 23 32 37 31 19 31 19 31 34 29 19 24 31 18
30 34 27 27 32 27 34 28 27 30 26 37 31 30 24 21 36 21 23 36 22 32 38 34 33 38 38 21 23 28 38 29 20 20 21 25 33 25 25 27 18 20 22 23 28 29 27 30 18 36 18 27 25 20 36 23 30 30 22 32 23 26 38 19
30 27 19 28 27 19 38 19 20 25 35 27 33 37 22 27 31 35 21 29 37 37 25 24 32 35 26 30 23 23 33 23 28 23 24 18 30 32 33 30 24 21 35 27 33 36 19 21 33 33 23 21 18 26 31 25 38 38 37 21 20 34 31 38
31 38 20 20 21 20 19 29 31 29 23 27 35 26 26 36 37 20 20 19 18 27 38 30 20 24 33 20 31 29 38 34 35 23 20 22 29 22 34 32 23 28 29 22 38 32 34 22 35 24 35 23 27 38 28 31 20 31 38 27 18 28 23 29
30 36 35 23 30 29 35 18 23 25 35 32 36 36 20 21 35 28 28 29 32 31 21 31 25 24 30 33 23 26 38 31 21 36 36 31 21 33 33 37 35 33 33 33 37 37 30 37 22 27 35 36 31 22 19 35 20 23 20 25 25 22 21 24
33 34 22 37 23 24 28 23 23 33 21 23 18 19 32 25 31 34 31 37 34 22 29 32 35 30 20 22 20 22 21 31 32 25 21 29 21 26 30 20 34 24 28 28 29 26 37 18 32 19 28 36 33 35 25 36 27 34 37 19 27 32 32 30
20 18 24 31 19 22 29 18 32 38 31 32 32 21 37 32 20 22 38 23 28 25 36 29 26 22 36 30 18 18 25 18 30 20 32 38 20 29 29 27 24 31 19 38 37 37 36 18 18 33 25 25 25 38 19 35 26 25 34 25 26 25 33 31
38 28 23 20 32 34 23 27 33 26 22 21 33 28 34 25 27 28 29 19 28 28 37 23 19 34 32 18 38 19 26 33 18 31 33 30 34 20 37 37 29 25 35 29 20 30 35 19 29 19 21 23 28 33 30 36 25 27 20 18 27 36 19 38
26 31 37 23 22 34 23 28 22 20 38 20 18 28 33 18 23 38 26 18 30 18 22 30 35 32 40 32 32 42 39 45 43 46 37 23 24 22 33 21 26 24 25 30 26 27 37 34 34 21 26 25 22 29 23 20 31 23 37 26 34 20 24 21
33 18 26 29 32 38 25 38 36 38 31 23 31 31 24 22 30 25 28 40 42 26 28 40 36 47 36 62 68 70 77 63 55 45 50 45 26 24 18 28 30 29 21 42 41 23 33 28 24 33 22 33 34 30 22 38 21 38 20 20 21 29 24 29
31 28 30 33 31 32 29 22 33 38 25 25 24 31 33 22 25 41 37 37 30 32 32 38 47 64 58 74 93 100 87 103 86 79 63 52 46 25 35 35 25 29 28 39 46 38 44 25 22 27 21 36 27 25 22 25 21 37 38 34 19 24 29 35
28 22 29 24 23 37 18 25 36 34 34 38 21 40 41 42 33 32 34 40 39 35 44 67 65 78 80 103 114 120 110 123 101 89 87 69 51 38 35 32 46 40 42 39 33 43 45 31 32 34 38 27 18 29 27 38 24 30 30 29 24 36 19 19
18 38 38 28 28 32 25 27 27 18 28 21 41 37 34 34 42 37 41 46 46 51 57 78 87 104 119 123 125 130 149 147 128 122 99 69 54 37 45 45 39 35 41 53 50 46 34 35 47 30 37 34 27 37 29 23 29 37 33 28 25 36 18 31
24 28 25 38 33 18 35 31 22 32 30 37 32 41 44 39 36 36 56 49 55 61 82 93 92 111 145 144 161 156 163 159 138 118 97 88 59 42 32 53 49 46 57 38 48 46 51 35 53 46 39 27 28 37 29 30 31 22 19 30 25 25 33 20
23 20 31 23 35 28 38 21 18 18 22 32 41 38 44 43 39 53 52 53 68 88 98 99 107 136 154 179 173 175 195 187 159 128 111 105 85 47 42 55 39 52 45 55 59 49 43 58 38 51 36 49 45 25 41 38 21 28 37 37 38 26 27 24
29 23 26 27 36 23 35 24 24 20 26 30 33 48 48 53 40 52 61 75 86 108 110 126 135 153 169 192 198 202 202 174 161 144 128 100 71 56 57 51 52 43 58 45 48 45 51 54 52 39 54 50 43 34 23 34 24 23 36 31 18 31 21 30
18 30 33 37 20 29 28 35 22 32 31 32 33 54 50 60 59 55 69 86 93 111 123 131 140 162 174 197 205 192 182 173 149 142 124 95 85 50 59 48 59 52 65 63 61 51 49 60 62 54 44 38 33 45 35 35 22 28 22 33 20 31 28 33
38 28 36 35 25 33 28 25 28 42 36 40 47 47 53 62 68 69 68 81 93 111 123 138 149 171 176 185 192 183 185 172 141 128 113 81 74 50 61 56 58 57 56 68 60 64 55 58 60 51 49 57 38 45 28 34 30 37 28 37 24 28 38 27
18 20 33 20 21 26 35 31 27 41 44 44 46 49 55 63 65 70 86 101 115 131 143 162 165 166 179 178 175 178 174 149 130 105 93 78 67 46 52 59 71 68 60 77 67 65 66 68 52 57 63 39 54 46 40 30 22 24 22 27 33 24 30 35
27 36 27 23 25 19 21 33 39 34 50 44 37 42 65 63 73 88 91 107 106 140 148 154 172 165 172 170 162 160 139 145 117 89 82 69 51 45 63 52 64 64 62 67 80 64 70 73 55 63 53 50 49 54 45 42 38 20 24 34 22 32 22 30
30 22 22 31 37 20 29 23 25 37 49 42 55 52 50 50 72 81 99 104 116 131 136 157 175 164 153 147 136 131 122 125 106 90 76 48 56 53 54 67 76 67 77 70 66 76 71 64 65 50 56 51 42 42 47 27 26 32 25 24 36 21 31 23
33 37 29 30 23 18 20 32 30 37 43 36 55 58 57 61 73 74 87 114 116 132 131 145 146 158 145 133 127 111 97 89 78 68 67 61 63 59 56 62 62 65 75 85 81 70 65 75 70 65 65 61 51 38 43 37 25 34 23 27 34 32 24 27
36 21 30 29 35 24 22 23 25 33 45 38 46 56 63 57 69 92 102 104 124 115 139 133 143 143 141 117 116 116 92 83 64 58 45 42 60 52 67 62 64 69 78 72 72 76 83 68 60 66 61 59 56 37 50 41 26 24 33 34 38 38 29 22
34 30 29 36 29 30 18 22 28 43 38 48 47 44 59 58 69 85 95 95 107 105 126 126 118 120 117 120 103 94 88 67 55 60 56 48 52 59 52 71 60 71 85 71 80 78 65 65 72 58 58 47 45 53 39 45 30 20 38 18 29 18 26 20
29 29 19 23 31 35 38 19 35 39 38 50 44 59 58 55 64 79 93 87 92 111 98 110 97 112 100 94 88 84 69 56 47 50 42 46 45 56 64 66 63 76 66 68 71 74 61 58 73 63 54 48 54 43 44 46 28 27 27 29 35 23 19 33
33 32 25 20 36 28 38 37 28 33 37 51 56 44 62 53 68 71 70 76 87 91 90 93 88 91 81 79 78 70 47 39 44 49 47 37 56 45 50 65 58 65 73 66 76 77 66 61 51 65 49 48 50 52 35 39 34 26 31 27 21 23 38 24
32 38 38 34 19 37 35 32 25 30 49 46 51 55 50 57 52 57 72 85 82 84 95 91 95 90 83 64 61 54 38 46 51 45 40 44 42 57 62 58 70 68 67 59 57 68 58 70 60 58 60 52 56 41 40 31 33 37 34 33 32 24 34 38
29 29 21 36 31 18 25 21 20 38 32 49 38 54 61 64 54 56 58 70 76 68 74 83 76 71 62 64 46 48 30 36 45 33 33 46 41 51 43 55 64 65 71 56 56 56 69 58 47 47 52 43 42 45 34 28 35 34 36 34 24 38 31 19
26 21 28 29 37 18 34 18 31 22 32 29 51 39 58 59 58 46 61 60 68 57 68 55 53 51 66 49 50 43 47 31 32 29 46 52 39 38 50 53 54 52 58 64 67 54 53 58 57 54 39 53 34 44 44 42 27 22 36 36 24 24 25 18
24 37 33 26 35 26 29 38 22 39 28 31 32 42 45 56 50 61 52 58 48 57 55 50 51 53 40 35 40 48 40 39 32 27 31 29 39 46 56 47 60 48 51 57 57 59 50 51 54 43 39 37 39 43 43 37 18 28 30 22 19 20 21 22
29 23 38 35 28 31 20 38 19 23 28 36 36 39 40 55 54 52 41 57 47 55 57 42 49 50 38 34 47 45 43 38 27 23 40 40 47 43 54 50 49 58 61 61 46 46 52 42 44 54 34 36 38 28 21 32 20 29 21 35 20 38 28 22
21 21 35 26 23 38 27 29 24 31 37 39 33 38 37 50 42 40 52 54 55 53 57 52 53 41 49 47 42 32 38 20 20 19 38 44 47 35 38 41 40 43 55 48 47 55 50 40 37 44 40 44 29 35 21 35 19 23 25 28 37 28 33 37
31 26 25 23 25 31 32 38 32 20 18 28 37 27 42 30 32 40 32 52 38 39 44 40 49 39 35 39 24 26 24 34 18 27 26 33 43 45 37 33 36 47 46 39 53 46 51 39 33 45 42 33 33 34 18 35 24 22 33 37 25 38 21 19
23 36 24 20 35 36 26 24 38 34 28 26 29 40 39 37 44 42 37 32 41 46 38 40 40 35 43 26 31 38 18 21 26 38 27 34 22 33 42 32 41 35 48 32 33 33 40 37 46 42 37 41 19 24 22 29 37 38 26 32 32 29 28 30
24 33 24 26 29 37 26 18 22 18 18 33 38 23 39 26 23 24 38 36 41 46 44 27 40 42 27 19 31 24 32 29 38 25 18 19 20 29 23 24 44 33 37 30 34 41 44 42 38 40 32 37 24 27 34 21 33 29 38 18 32 37 28 21
28 33 30 26 27 29 32 33 38 26 32 18 25 21 27 22 23 26 32 28 42 34 36 28 22 38 36 36 28 28 21 37 19 27 30 22 22 34 27 23 39 39 39 30 33 35 23 38 36 20 18 30 26 21 36 27 36 38 30 37 38 21 24 23
37 28 23 32 30 26 36 31 21 20 26 18 38 38 33 22 22 33 35 24 28 23 36 32 22 21 31 21 34 31 31 36 24 32 31 35 23 20 34 30 30 22 28 25 20 27 37 23 30 21 34 27 29 33 24 34 21 26 33 29 24 28 24 31
19 19 37 26 36 20 30 28 30 21 22 38 21 32 20 26 27 25 29 36 26 26 27 33 28 38 36 37 26 27 29 25 26 32 29 35 25 29 33 26 37 18 22 38 36 24 31 35 29 24 34 33 21 38 24 35 19 21 34 35 23 27 21 26
22 28 36 33 27 20 23 32 23 37 25 20 36 21 38 30 22 23 30 36 25 23 22 33 24 24 25 23 37 34 28 18 22 29 29 19 30 19 30 36 21 38 30 31 23 27 27 20 32 21 36 30 21 37 21 37 26 21 29 18 27 23 28 19
27 34 31 28 29 32 33 24 28 30 34 22 22 18 30 29 18 26 26 38 19 35 23 18 24 20 27 33 33 38 31 35 22 34 26 29 33 36 33 38 37 36 34 34 36 19 34 35 38 20 29 22 35 26 31 21 30 24 33 35 27 28 34 20
32 37 33 33 21 35 25 25 26 34 38 33 32 37 20 28 21 29 24 20 23 28 20 29 32 37 19 24 21 31 26 25 27 24 37 30 23 38 27 27 32 21 29 38 31 34 38 33 34 25 27 34 28 22 31 21 21 25 38 28 31 28 34 21
28 23 20 37 22 24 37 22 21 20 18 30 33 33 26 26 20 23 23 31 24 31 33 37 18 28 32 28 30 34 37 25 22 36 27 22 25 23 37 26 22 36 38 38 37 37 35 35 22 33 33 34 19 30 20 38 35 35 30 33 29 20 22 19
30 18 31 31 26 37 37 37 31 29 29 37 34 28 25 20 19 22 38 31 29 20 22 35 35 27 18 36 38 36 21 26 33 31 27 37 20 23 32 26 24 34 36 25 27 34 34 28 26 38 29 25 38 32 33 20 19 28 37 34 19 35 34 18
37 37 34 25 24 31 26 25 36 30 18 36 28 22 29 34 33 34 36 19 27 34 34 18 27 30 22 24 20 33 24 37 26 19 19 19 19 36 27 37 18 21 38 32 21 32 32 19 34 19 35 26 30 26 30 36 26 36 36 18 22 22 26 18
35 21 21 24 33 26 38 38 28 21 37 34 32 18 27 31 32 27 32 18 29 28 29 36 36 37 27 22 38 36 30 27 29 30 37 22 31 26 30 32 33 20 27 38 25 19 31 20 27 35 22 34 37 31 35 30 25 21 30 37 37 36 22 22
38 30 30 18 32 32 37 33 37 33 25 23 36 36 21 21 32 21 24 25 25 28 24 27 20 38 28 34 22 18 26 37 38 20 25 21 22 30 35 27 22 18 29 31 25 33 25 27 32 18 29 32 31 27 26 19 35 30 28 19 35 29 23 24
18 30 29 32 33 24 28 34 24 36 18 32 20 29 36 26 29 20 34 21 28 23 30 33 27 26 20 28 26 26 36 20 24 27 27 26 21 31 26 27 26 24 29 34 29 34 37 21 28 27 27 24 22 38 27 35 20 20 37 33 38 24 28 34
35 34 21 30 30 24 34 20 21 22 26 25 34 22 34 29 34 29 28 18 19 30 22 22 26 24 32 23 38 27 31 29 18 34 21 19 28 26 18 23 27 35 22 34 36 19 21 26 37 36 29 36 26 38 30 18 27 33 27 18 34 28 22 24
22 22 18 32 32 35 21 29 19 31 36 26 18 31 23 24 23 18 22 31 29 37 24 27 22 31 23 29 23 32 26 28 18 35 19 32 38 32 18 21 22 37 29 36 25 35 22 38 38 18 18 31 26 29 38 29 22 26 28 34 29 34 37 29
21 36 27 37 22 32 37 18 21 36 26 27 25 27 18 34 31 36 26 32 24 25 38 20 20 25 34 33 29 25 24 29 23 18 36 25 19 26 36 34 31 37 34 19 23 25 26 38 31 33 27 32 28 28 22 34 36 24 37 29 25 22 35 22
34 35 33 33 28 19 27 38 30 22 30 37 31 19 35 25 21 33 35 37 32 26 25 29 19 25 26 28 23 35 33 36 28 26 37 30 27 37 22 22 25 28 31 22 25 23 19 31 23 28 25 37 30 26 25 38 20 27 26 21 21 20 28 35
25 37 33 36 22 20 30 28 21 26 27 21 25 30 29 38 26 22 34 29 26 29 33 26 23 28 29 32 18 25 23 30 29 26 34 23 32 21 21 23 18 29 21 21 33 26 29 27 38 29 24 24 25 34 32 27 27 35 36 20 35 36 32 22
31 28 31 21 19 33 29 32 30 29 35 23 26 23 20 34 33 19 19 31 22 20 28 19 23 23 29 35 21 22 27 27 30 21 33 22 23 18 38 28 26 18 18 25 37 27 33 19 33 30 36 22 24 25 30 34 22 33 33 27 24 38 37 38
35 38 20 27 18 23 23 28 30 22 29 28 27 34 30 19 25 31 25 38 20 38 29 34 33 38 31 26 20 27 22 29 38 28 31 36 29 36 29 18 22 34 25 27 22 32 22 32 34 32 35 20 26 28 31 22 32 33 34 25 35 31 23 18
