P2
64 64
255
28 31 34 24 20 31 38 22 21 21 35 33 33 37 28 25 36 23 24 18 28 20 30 29 26 32 21 38 38 28 33 35 35 32 35 30 21 29 31 33 30 34 29 21 35 31 25 29 28 19 38 23 19 28 21 31 32 29 20 34 29 38 26 22
38 20 20 26 26 32 37 35 37 34 37 25 21 23 27 28 36 38 25 27 35 37 24 32 33 25 28 32 28 22 28 31 28 22 30 31 23 35 30 20 30 22 35 38 26 34 37 24 20 26 22 21 31 33 38 22 18 30 21 22 38 30 34 23
37 38 27 33 22 37 26 26 23 20 22 21 21 32 22 30 38 22 27 37 32 28 32 23 22 23 27 24 36 23 38 38 32 19 33 20 38 21 18 38 30 31 19 35 26 33 29 31 30 21 21 33 36 27 29 20 30 38 25 38 33 22 27 30
33 22 24 28 38 34 19 35 38 22 23 32 34 30 25 24 31 19 31 30 38 32 18 33 30 26 32 18 18 19 28 22 26 37 18 36 37 20 36 26 25 22 25 37 24 35 18 28 32 19 34 23 27 20 22 26 18 35 31 20 30 24 25 32
30 25 21 19 35 28 30 33 25 30 30 19 37 38 35 33 25 38 35 29 28 34 27 20 20 27 35 25 29 22 34 31 37 28 18 35 31 30 28 34 37 28 31 32 18 36 38 30 22 32 20 34 24 37 32 24 29 23 20 27 25 23 32 36
27 24 30 24 35 26 24 27 24 31 30 20 25 31 37 25 19 36 19 34 18 23 28 35 18 38 21 30 34 30 21 31 25 25 34 28 31 19 27 35 36 22 23 24 30 22 31 22 24 30 31 27 32 26 27 28 35 28 31 18 33 25 24 27
32 20 26 33 30 19 28 35 37 33 37 22 18 18 32 24 23 18 33 35 33 26 31 32 26 26 19 35 38 19 21 36 19 30 19 38 18 25 32 20 35 31 31 18 28 34 25 24 23 24 34 24 33 31 18 29 37 25 33 35 24 29 35 25
20 22 27 25 27 18 31 31 31 29 34 27 27 21 27 22 19 25 28 35 28 20 21 22 22 20 27 30 21 38 38 22 35 21 24 28 35 37 26 18 30 31 24 27 19 24 18 32 25 25 18 21 29 30 21 23 28 31 22 18 28 35 35 18
26 36 30 18 22 18 31 22 21 33 38 31 25 38 35 36 36 31 30 23 25 22 32 35 26 19 19 38 36 20 31 21 21 25 35 32 23 22 23 33 34 37 19 24 19 19 26 38 31 37 26 38 32 19 28 27 21 20 18 31 24 32 20 27
37 36 35 33 27 30 21 26 20 24 35 30 36 35 25 29 22 20 27 33 19 28 31 37 29 27 23 22 33 37 21 23 34 37 36 31 34 21 19 20 30 25 26 19 21 37 38 35 25 28 28 34 26 28 37 35 34 35 18 33 21 24 29 23
24 34 27 33 21 23 31 36 25 34 36 33 31 29 29 23 25 26 37 36 31 24 36 25 27 23 22 33 37 35 28 18 29 25 21 24 22 37 29 35 27 30 18 21 23 20 18 24 27 37 24 21 19 31 36 29 19 22 32 19 34 23 24 25
36 34 25 25 19 27 23 23 18 34 24 20 24 38 18 29 26 23 34 34 34 21 24 25 23 37 38 22 36 30 21 20 26 19 24 28 34 22 38 22 38 28 34 23 37 38 32 29 38 31 29 35 31 32 25 37 23 29 37 34 23 18 38 37
22 38 21 21 38 36 37 32 23 25 29 21 26 35 35 18 21 32 34 29 22 26 25 21 34 25 33 38 20 31 37 18 27 25 36 27 35 27 30 29 35 22 27 29 27 29 27 35 28 24 28 27 31 29 23 29 36 24 19 30 21 28 21 23
37 38 35 25 20 22 34 20 37 26 30 35 36 34 31 38 28 21 28 27 35 24 29 34 38 30 23 27 32 33 26 31 26 36 19 34 37 24 33 24 37 25 35 33 20 22 20 20 36 32 35 26 34 18 27 30 23 34 37 34 30 35 21 31
21 30 20 18 19 18 30 25 23 21 33 29 25 30 30 18 27 31 32 31 24 38 31 33 29 21 22 36 30 33 33 18 20 22 31 35 34 20 36 31 32 24 34 20 35 28 23 34 19 35 30 21 24 32 21 34 19 26 30 18 27 28 30 19
19 28 31 33 29 18 26 19 38 33 23 31 19 25 37 19 36 30 25 25 28 31 25 23 29 25 25 22 34 31 24 23 20 24 18 23 38 34 23 24 34 30 36 31 25 19 35 33 34 33 32 25 36 29 37 36 26 20 26 27 37 36 31 24
36 38 28 18 24 34 24 30 20 29 34 28 37 32 19 32 29 33 20 25 20 22 23 20 35 28 36 31 35 22 37 20 29 36 22 27 36 35 38 29 29 28 21 27 34 22 38 32 36 33 37 36 38 25 34 36 27 30 25 28 25 30 22 33
38 33 26 18 32 36 20 27 21 25 26 20 37 22 36 34 33 28 21 27 33 29 19 22 31 19 37 24 24 24 35 31 21 24 33 30 31 37 33 38 38 22 29 36 30 26 26 33 30 24 32 35 29 35 29 31 21 33 31 20 25 38 33 30
32 33 37 32 34 28 36 25 18 34 24 38 26 30 21 36 36 33 20 38 32 34 38 19 29 34 23 38 32 21 26 33 35 37 22 26 32 30 20 28 27 23 28 38 34 24 26 34 32 33 18 30 18 26 20 33 33 26 33 23 34 29 24 23
31 28 32 37 27 30 31 20 30 36 21 34 35 23 18 19 31 22 38 31 37 31 40 22 28 35 21 38 35 31 32 33 18 28 19 36 38 31 38 20 24 32 40 30 33 35 31 25 23 26 38 26 30 32 36 35 34 37 31 23 29 36 19 34
31 36 22 31 31 24 38 38 30 26 35 38 21 21 25 33 32 28 29 43 40 34 26 31 42 25 22 20 21 30 23 21 32 20 35 25 27 33 33 35 35 43 33 40 37 30 40 31 25 28 28 18 20 23 26 22 30 37 24 33 33 33 30 34
21 36 32 31 27 27 20 30 28 19 21 21 25 24 40 30 41 47 30 40 41 47 47 31 42 38 37 25 24 21 38 22 20 19 21 20 37 27 37 36 44 40 32 46 39 49 46 42 45 35 28 35 21 38 32 35 32 34 28 32 37 22 27 18
19 26 25 24 18 29 28 26 32 30 27 27 33 33 27 28 38 45 32 38 38 35 35 50 44 45 34 32 40 30 30 25 33 26 37 36 41 35 46 36 49 40 49 42 49 38 45 35 47 30 30 37 31 19 22 20 28 24 26 22 20 19 18 30
18 24 22 20 36 37 21 22 30 35 32 38 38 34 36 48 43 55 40 37 43 49 47 44 41 52 33 43 37 30 26 20 20 31 23 28 44 34 51 43 51 36 53 56 56 49 51 39 34 38 29 33 27 33 21 21 28 26 38 36 36 36 19 25
30 30 20 32 32 20 31 36 33 21 28 39 34 31 44 38 44 50 53 60 46 57 55 41 49 50 40 51 48 42 26 23 31 37 28 31 49 48 55 46 41 49 44 47 48 60 41 56 54 49 32 30 27 25 35 21 21 26 26 31 23 19 33 21
30 33 38 29 34 37 29 29 30 37 33 34 47 41 44 40 46 50 60 52 51 52 50 58 47 49 39 54 43 48 38 43 24 29 40 45 36 49 45 47 53 43 49 50 51 65 43 51 60 44 54 36 36 26 25 22 22 19 37 29 23 20 33 27
28 37 23 22 29 30 29 21 31 30 33 44 38 45 55 56 47 65 60 57 60 68 50 59 48 46 57 51 36 52 32 37 36 44 36 32 54 43 45 50 45 54 55 60 63 65 56 53 61 46 45 38 35 43 30 28 27 26 36 28 21 23 36 38
34 34 18 28 37 35 28 23 40 27 31 45 54 49 41 63 49 52 56 58 57 57 58 68 55 51 60 54 37 36 36 47 28 39 36 49 53 47 54 58 54 54 65 73 66 66 65 68 51 47 60 43 53 37 30 43 20 18 22 22 32 21 23 32
32 31 38 20 28 24 33 27 24 36 37 34 53 57 61 54 61 56 67 65 60 65 74 67 67 52 54 53 39 43 50 36 32 35 47 52 56 49 62 65 57 73 63 64 70 57 63 71 52 66 63 44 41 34 45 29 21 31 38 26 27 20 25 20
34 36 29 35 31 30 28 26 33 43 32 44 37 60 47 58 68 64 73 61 63 69 65 63 69 62 55 50 47 55 53 39 46 52 49 41 60 52 68 59 64 69 74 68 72 77 73 69 56 61 54 45 37 53 41 40 28 28 22 24 30 35 23 27
31 38 22 22 33 30 30 20 29 36 45 40 58 55 56 64 54 59 66 77 66 75 79 60 65 71 53 57 60 48 55 53 56 47 46 56 50 61 50 56 60 64 67 70 83 78 73 66 63 64 60 45 45 44 33 45 39 19 38 37 35 21 26 32
25 38 38 26 23 28 30 20 43 33 49 49 40 62 67 55 59 74 77 67 83 88 72 73 77 56 71 47 43 44 49 54 53 41 38 57 49 49 57 66 68 73 78 70 80 71 67 63 55 67 65 50 57 54 44 32 40 22 35 18 21 34 32 18
33 25 36 24 30 25 37 34 31 44 50 53 47 48 66 67 66 75 73 70 72 78 83 66 72 62 52 66 58 40 54 37 40 37 39 39 58 60 57 55 70 75 73 75 83 87 79 77 65 59 47 50 51 39 51 36 35 32 36 28 35 23 33 28
24 20 31 34 32 21 20 36 43 41 34 41 52 46 58 61 63 62 78 74 69 78 85 78 60 59 67 59 53 41 50 50 46 44 45 57 52 64 67 65 76 72 84 76 84 81 69 74 56 56 63 60 48 36 51 39 32 37 28 27 19 33 25 26
24 26 25 33 27 29 18 33 34 36 42 46 48 48 62 51 55 59 75 77 80 73 66 69 69 63 62 46 43 54 41 39 39 43 40 55 47 62 56 54 65 75 75 75 71 65 62 74 55 63 58 56 46 37 32 31 37 34 24 22 37 18 38 20
18 20 33 37 22 31 25 28 36 46 33 54 47 48 46 55 68 69 74 72 74 78 71 61 72 56 55 55 44 57 45 49 35 42 43 52 48 56 54 56 60 65 61 66 77 75 72 63 59 50 62 51 45 52 33 31 33 39 20 28 23 33 21 18
19 31 37 26 35 36 38 29 21 40 41 44 48 49 43 51 57 62 66 59 74 68 62 71 53 64 53 48 49 38 35 48 37 44 37 51 43 49 51 54 71 70 76 69 66 61 74 63 53 51 59 43 49 47 46 42 26 21 27 35 18 23 38 35
25 29 20 27 21 27 25 20 33 36 32 43 48 41 46 47 46 56 67 68 66 66 63 70 50 46 59 44 38 38 43 48 40 42 38 49 49 41 62 58 53 66 63 62 57 59 57 57 63 47 50 37 37 48 38 29 33 26 19 21 19 26 21 26
29 28 36 33 29 36 21 21 35 37 41 32 46 46 44 44 55 59 65 67 69 53 48 51 48 54 44 55 54 37 29 44 33 44 48 40 40 47 54 53 51 56 64 52 51 58 50 53 46 43 45 41 50 33 32 26 35 26 32 30 32 34 34 20
35 31 26 35 22 39 21 26 34 39 36 45 48 48 40 52 48 64 54 56 60 58 69 49 59 48 57 48 55 43 40 46 28 32 39 48 41 42 59 64 62 57 50 57 57 52 59 48 48 48 54 47 52 39 49 41 25 25 28 40 28 35 24 27
29 25 37 36 45 37 34 26 44 36 28 48 45 39 60 53 54 54 64 64 62 67 65 69 58 50 47 55 50 41 34 48 32 31 43 42 57 62 56 57 61 59 67 57 67 62 70 56 60 65 58 58 46 44 35 30 44 31 44 42 42 34 31 43
43 31 35 47 42 29 33 35 29 38 40 47 49 51 51 49 59 54 58 69 57 66 64 65 66 56 53 58 59 42 35 33 51 42 51 54 42 63 63 55 58 69 71 72 54 58 58 68 65 68 51 48 41 44 56 53 50 40 40 39 51 54 39 37
37 38 44 41 31 38 29 34 37 32 39 32 47 32 36 37 46 41 43 47 47 51 42 42 57 48 44 51 48 36 39 39 38 28 39 47 38 46 42 46 44 60 46 52 63 45 45 62 54 57 51 50 52 47 46 40 49 49 42 33 39 39 44 37
40 32 40 34 28 38 23 38 23 26 36 24 35 42 35 45 39 51 36 51 34 35 36 40 47 32 43 34 41 36 27 35 33 24 33 26 39 36 30 36 38 40 41 39 36 48 46 52 33 35 37 34 38 41 31 39 43 32 43 30 37 36 34 44
36 31 30 28 26 31 22 22 30 19 19 37 21 21 24 38 39 43 38 33 43 30 44 41 35 23 38 23 21 34 20 37 33 38 37 36 19 28 36 27 24 35 43 43 31 45 43 33 41 33 36 20 22 33 22 18 21 24 27 20 29 19 24 18
32 38 34 20 35 28 33 23 27 36 25 24 33 37 25 29 21 26 26 37 26 33 38 40 21 31 31 29 35 34 23 33 32 33 26 21 20 19 23 33 24 38 29 30 35 32 24 37 36 29 19 36 29 19 23 32 34 34 19 37 31 36 30 18
34 25 38 18 18 30 36 32 36 25 27 34 27 23 23 37 38 31 28 38 19 23 37 26 28 30 26 31 29 38 33 21 37 27 29 20 22 18 20 35 24 26 26 25 22 34 29 19 38 30 25 24 34 19 20 26 28 28 25 25 28 26 37 33
35 28 34 26 38 37 24 36 37 20 22 24 38 36 33 22 36 38 28 25 33 29 22 22 24 18 35 18 23 35 20 18 29 30 27 20 32 21 30 34 18 30 23 38 20 35 33 24 38 29 19 31 21 33 28 19 31 33 29 22 31 31 20 33
22 25 31 21 20 24 19 37 38 19 21 35 34 18 18 34 23 29 38 22 21 26 32 26 35 20 27 28 23 18 21 23 37 32 35 19 21 34 22 30 34 22 35 22 24 31 33 24 21 31 26 37 33 28 27 37 30 32 38 18 22 29 22 32
20 37 24 27 18 26 29 31 20 37 29 31 23 35 23 24 32 22 28 23 25 36 27 23 32 29 19 32 35 33 26 23 28 19 31 30 29 38 19 34 36 31 36 33 37 19 35 32 25 29 23 20 23 35 22 31 26 36 19 18 35 34 35 23
25 29 38 22 18 28 37 20 37 34 19 30 23 23 36 21 27 36 22 21 30 35 30 29 29 18 29 38 21 28 23 36 32 35 19 20 38 18 36 26 21 32 37 31 29 24 27 25 20 27 21 32 18 32 23 37 20 34 34 35 24 30 21 18
36 27 21 32 28 37 35 28 37 25 24 38 25 22 24 22 27 25 24 35 25 24 25 28 34 28 19 30 18 29 21 30 20 19 21 18 34 22 37 29 33 23 35 31 36 29 38 31 22 24 23 20 28 27 35 29 34 23 21 31 31 38 21 26
23 31 31 33 22 22 29 34 25 38 21 34 20 31 38 37 29 35 21 33 37 26 32 27 27 32 32 29 19 27 26 30 19 29 30 29 26 22 27 33 19 33 23 26 37 26 34 26 27 19 32 21 18 28 32 26 21 31 22 33 19 33 26 24
25 20 36 30 37 25 26 36 34 27 19 33 38 20 37 33 24 28 24 19 24 23 24 24 30 36 22 22 18 29 24 28 25 22 23 36 18 28 27 27 36 26 29 37 21 35 28 31 31 22 30 20 33 33 35 35 27 28 36 38 27 29 33 27
35 23 36 34 37 19 34 24 38 36 30 34 33 19 22 38 28 36 19 32 37 29 26 28 36 20 38 30 23 32 32 32 35 25 30 28 29 33 38 26 35 25 28 26 23 20 23 29 33 21 26 28 38 35 20 30 28 29 25 34 26 23 33 37
18 19 25 32 35 22 36 20 20 33 28 19 22 23 22 36 18 38 34 25 18 38 38 36 26 38 28 31 25 22 20 31 28 27 38 24 31 37 35 24 27 25 36 20 36 38 23 38 38 36 35 31 30 28 30 21 27 33 36 25 18 33 21 31
18 27 27 36 19 34 34 18 37 32 27 31 31 35 33 27 33 24 32 26 22 33 24 27 33 22 23 27 25 30 27 21 19 37 23 22 30 30 36 28 33 26 31 22 26 18 27 38 32 33 31 31 27 28 26 30 23 26 38 23 35 38 36 35
19 19 32 31 35 35 25 31 28 38 24 28 30 34 32 24 21 26 33 37 18 34 29 25 22 35 29 26 37 30 31 38 23 28 32 18 22 27 28 31 30 32 19 18 25 26 25 24 22 26 19 18 26 30 29 28 20 36 18 36 23 28 36 20
21 25 30 38 22 31 18 19 33 37 18 26 28 36 19 18 30 32 22 20 21 29 24 22 38 25 35 21 21 37 37 37 25 19 35 38 29 34 34 20 30 36 23 33 20 19 34 31 34 23 36 35 20 22 36 18 28 33 23 27 21 28 31 26
23 27 37 20 36 32 22 29 36 38 34 30 21 31 26 38 27 22 30 37 21 36 18 37 26 21 27 28 29 34 23 19 38 28 35 30 28 18 35 32 18 22 29 37 30 20 37 21 23 18 38 36 27 33 18 25 34 33 38 18 18 23 19 35
27 26 25 34 28 29 29 19 20 23 20 31 33 28 18 28 34 19 23 30 33 18 36 27 31 37 38 28 24 36 30 28 31 36 29 22 32 35 34 37 36 18 34 28 38 33 32 33 25 19 21 35 21 32 27 19 21 24 26 29 23 28 29 34
19 38 21 31 29 22 30 32 18 35 32 31 26 33 37 30 35 22 24 30 34 25 28 27 20 30 32 26 35 29 20 20 26 34 25 31 28 33 32 34 22 30 20 26 21 31 27 32 23 38 38 29 31 36 21 20 28 37 26 35 22 31 37 29
36 19 32 28 34 31 28 21 37 26 26 28 18 28 31 23 36 33 37 21 29 28 38 30 23 34 29 37 24 20 35 30 34 29 25 19 38 37 25 19 18 22 29 28 37 21 29 24 29 38 20 27 28 19 23 23 23 32 30 31 30 21 25 27
27 23 30 28 21 19 22 22 28 38 34 28 23 18 26 37 27 24 30 19 22 18 21 34 32 21 32 26 35 33 29 27 28 23 20 29 34 18 37 35 27 31 36 18 26 26 25 38 35 29 29 37 18 36 26 37 25 18 36 34 19 32 18 34
