P2
64 64
255
16 18 21 22 16 15 23 26 23 19 19 20 15 17 18 19 23 23 21 22 24 17 23 23 19 22 15 19 15 20 22 14 24 25 14 21 24 20 15 21 20 16 26 17 17 19 23 20 19 19 25 20 21 23 17 25 21 14 24 15 18 23 26 18
21 14 20 14 18 23 23 20 17 24 24 15 17 19 17 23 17 24 21 21 20 25 16 19 20 16 14 19 17 22 16 23 17 22 16 15 15 19 22 20 19 22 15 14 24 26 24 19 23 20 15 23 26 26 20 22 16 20 21 23 20 25 17 19
20 19 15 14 26 26 23 23 14 20 18 18 17 22 21 21 17 25 18 16 22 16 24 17 18 18 19 26 25 25 15 17 14 23 20 18 21 24 20 23 21 26 16 20 17 18 16 23 25 17 25 22 25 21 16 20 14 15 15 25 18 17 16 19
19 24 22 16 24 21 19 16 19 19 15 18 20 18 26 25 14 18 15 21 22 17 21 26 17 14 26 19 16 16 20 22 17 17 16 18 15 20 18 25 21 17 17 20 23 22 23 14 15 14 25 14 18 16 17 16 26 19 14 19 21 20 24 19
15 24 18 14 22 14 26 21 14 23 20 14 17 16 20 25 20 20 17 25 22 16 15 18 19 16 17 20 17 16 18 25 16 24 17 21 26 16 19 20 14 19 19 25 19 19 16 18 14 16 19 21 19 24 23 22 24 15 25 24 24 24 21 26
15 24 25 15 14 20 14 22 16 21 21 24 21 24 23 15 23 18 19 23 26 19 24 21 22 24 20 14 20 18 14 17 19 21 14 21 21 26 19 21 17 18 15 19 18 22 20 17 25 15 17 22 18 23 16 20 15 24 14 24 16 14 19 19
26 14 17 17 19 23 22 15 23 16 19 18 23 23 16 24 15 18 16 22 23 26 24 18 14 17 14 18 22 26 23 16 19 23 18 18 15 17 19 18 25 26 25 25 23 16 14 24 25 14 14 26 22 15 20 24 18 14 23 17 15 21 25 23
17 15 19 23 23 20 23 23 23 21 19 18 21 22 19 25 21 14 18 25 16 19 23 22 20 15 23 16 26 20 26 22 17 26 18 22 14 14 25 16 16 23 23 17 20 25 24 16 24 24 16 24 25 23 20 19 23 18 19 23 16 17 25 15
15 16 26 17 20 25 14 23 22 18 19 17 16 24 25 22 20 19 24 14 20 20 23 20 24 22 20 25 22 20 14 16 16 17 23 17 14 14 18 24 16 16 25 24 26 20 15 19 17 17 20 23 25 14 20 21 20 15 23 17 19 21 20 16
17 26 14 26 19 20 24 18 21 17 20 16 21 14 21 21 23 22 16 14 25 26 15 26 15 23 26 20 14 26 22 19 20 21 24 24 23 14 20 17 18 21 22 24 19 26 20 22 26 22 17 20 16 26 17 18 22 14 25 17 26 26 19 15
18 24 18 14 20 24 17 18 15 15 22 20 22 25 15 26 26 23 24 22 17 26 25 16 18 18 25 15 22 16 26 20 17 21 19 24 18 22 19 14 23 16 20 16 19 17 18 26 23 24 20 23 15 23 14 23 21 14 15 15 14 23 14 23
23 18 21 20 24 18 19 20 19 18 16 16 20 16 19 14 23 18 26 25 20 19 26 19 21 16 16 16 21 20 15 20 14 14 21 21 26 19 21 25 23 14 22 18 18 25 21 21 18 18 26 16 16 26 23 23 19 21 15 22 17 18 17 14
14 14 23 19 17 22 19 24 15 24 16 18 24 21 23 18 22 22 24 25 26 14 17 16 22 17 24 20 16 16 17 14 24 17 19 15 17 14 21 26 26 18 16 14 24 15 22 16 15 26 24 26 20 19 21 22 20 19 14 16 16 14 26 23
19 26 15 14 21 16 23 26 21 26 23 21 21 23 21 19 24 25 25 22 15 15 15 15 15 16 20 25 25 23 19 15 25 22 22 22 26 22 20 21 16 20 18 17 23 23 20 14 20 21 15 24 16 26 14 24 19 19 24 19 15 23 21 19
19 20 19 15 21 23 23 22 18 26 23 19 19 18 14 15 19 19 19 14 23 18 16 14 20 26 23 25 26 17 20 25 14 15 22 20 15 20 25 26 22 24 18 14 18 21 15 19 22 16 16 16 15 24 14 14 20 21 24 19 22 18 16 16
24 20 20 25 23 24 22 24 20 14 22 16 21 20 18 14 16 19 26 21 23 16 16 22 24 16 15 15 19 17 14 25 23 15 24 22 15 20 23 19 26 20 16 15 16 17 26 23 21 25 15 18 18 23 14 19 16 20 17 14 26 16 16 19
21 24 19 16 21 17 21 19 25 17 21 19 17 16 16 23 16 25 17 20 17 17 14 18 21 24 15 18 24 20 25 17 17 14 15 16 14 23 21 22 15 22 15 25 18 17 16 22 16 21 14 18 26 15 16 17 24 23 16 22 26 23 19 16
24 15 22 14 19 15 21 25 18 19 15 18 24 16 21 15 20 15 15 22 14 25 26 19 23 24 15 17 26 21 21 25 20 21 22 19 20 23 25 22 15 23 20 18 24 22 20 24 19 20 22 17 18 17 18 15 25 18 20 17 25 21 24 25
20 26 16 26 15 19 16 21 21 19 17 21 24 17 17 20 21 22 22 17 26 18 24 22 26 19 16 23 23 22 15 21 25 16 21 15 24 15 17 18 26 25 21 14 24 15 26 26 18 24 17 21 23 21 14 21 15 23 16 17 17 25 25 21
24 26 25 22 22 15 24 26 18 21 25 26 25 25 21 23 26 21 18 17 21 28 17 23 24 18 15 23 14 23 18 18 17 21 18 23 26 14 14 25 24 27 21 20 26 21 27 18 21 20 24 25 20 24 15 25 14 20 22 15 23 18 16 16
15 26 19 15 14 15 14 20 17 24 15 16 25 17 20 18 23 30 31 22 29 27 31 30 21 22 22 18 20 15 17 24 22 16 14 17 24 16 22 19 27 32 23 34 27 23 23 24 18 20 17 21 17 25 22 20 22 22 18 18 25 16 25 23
21 23 23 20 17 22 16 21 23 24 26 25 19 18 29 23 32 34 30 30 29 29 27 26 27 29 26 26 24 21 26 20 21 16 23 20 20 26 22 29 30 30 27 25 35 26 29 30 22 29 25 19 14 22 20 24 24 16 14 25 17 20 14 25
25 15 17 16 22 19 22 26 21 22 25 22 23 29 22 27 37 30 31 39 39 31 39 37 33 29 36 24 20 21 16 24 20 23 18 21 31 32 28 35 29 38 37 39 37 31 37 36 29 28 29 22 27 16 21 19 14 22 15 24 24 18 26 14
20 22 16 23 26 20 18 23 22 24 18 28 24 26 37 33 39 31 34 44 34 39 44 32 38 36 35 29 34 23 28 14 16 16 26 24 35 27 36 40 36 36 36 33 35 45 37 32 31 32 32 32 30 25 18 25 25 19 14 21 26 24 26 17
23 17 23 18 26 22 24 16 16 16 21 27 25 37 37 34 33 43 45 41 47 37 47 42 39 42 41 29 38 34 29 17 15 18 24 35 31 39 43 35 44 44 37 48 48 46 36 45 38 34 36 32 26 20 19 18 23 17 16 23 15 24 21 18
15 16 24 21 25 14 24 21 14 21 25 32 38 35 35 44 48 50 48 44 53 50 51 48 50 36 38 38 38 33 34 28 19 22 29 30 37 43 41 36 39 41 43 46 42 51 50 40 47 46 38 37 35 23 22 26 17 26 19 17 25 24 24 14
20 16 26 18 14 20 20 14 25 25 21 37 33 40 45 39 51 52 53 44 52 46 46 54 42 49 42 40 34 32 32 28 30 29 35 40 43 39 42 41 46 46 45 46 47 54 49 45 51 42 43 39 28 33 26 25 22 15 23 20 22 22 25 20
26 20 17 25 18 22 17 22 22 28 28 38 33 45 42 43 43 57 48 56 54 59 49 58 45 47 45 46 44 42 33 26 31 27 33 33 45 47 42 47 47 54 57 60 59 49 49 52 42 41 38 41 31 28 29 23 18 16 21 15 20 25 24 22
14 22 21 14 16 16 18 24 29 33 29 28 41 43 47 45 47 57 52 55 61 60 55 50 49 54 43 49 47 43 29 28 33 39 38 44 44 40 52 56 57 51 61 62 55 55 61 54 52 52 45 36 34 31 27 31 24 24 21 14 14 21 15 22
25 24 18 22 23 26 26 21 24 31 36 39 39 45 50 51 57 59 59 65 57 67 63 59 54 50 51 40 45 42 35 33 32 34 42 35 41 45 46 49 50 54 67 63 64 59 53 62 52 52 52 42 34 33 28 27 21 16 14 14 14 20 23 23
14 16 14 24 22 21 22 25 30 27 30 39 36 40 52 53 54 58 62 69 60 62 71 57 65 50 54 52 39 38 32 38 39 35 42 43 40 49 47 61 63 57 64 70 71 65 66 57 61 53 46 46 35 32 39 23 22 23 15 22 18 23 21 19
26 18 19 17 15 24 20 21 25 35 39 42 36 44 51 52 59 61 68 66 73 74 66 69 62 61 56 53 41 45 45 38 38 36 39 37 39 53 55 61 59 61 73 71 72 66 69 66 57 47 45 41 41 41 38 32 20 17 22 14 16 23 25 17
20 25 16 25 14 23 21 26 28 36 35 36 39 49 43 54 62 59 59 66 73 74 69 70 59 60 47 43 45 35 34 37 34 36 34 39 51 53 50 59 61 61 63 75 77 71 61 61 52 55 48 46 35 39 38 24 29 20 24 19 19 24 14 25
21 17 24 20 21 17 23 26 28 25 31 35 46 41 51 53 59 59 66 71 66 71 65 69 66 55 58 47 50 43 33 38 42 44 33 47 44 55 57 50 57 66 67 65 74 65 67 56 57 56 55 41 42 40 28 28 21 19 20 26 21 22 16 24
15 16 26 24 18 14 22 21 26 34 31 37 42 38 42 49 56 54 56 60 71 67 59 68 60 60 49 44 47 39 35 32 43 40 43 41 40 49 47 52 63 63 65 60 71 64 57 54 58 48 50 50 44 35 37 34 23 15 21 16 25 21 18 26
21 25 20 20 17 24 20 16 28 26 27 35 35 43 53 52 53 56 57 64 64 61 61 54 54 53 44 51 40 39 42 39 31 36 33 44 47 46 47 59 61 57 64 68 65 66 56 55 51 45 52 45 41 30 36 25 24 23 16 24 18 21 21 19
17 23 16 23 18 22 24 25 29 24 35 38 41 42 41 51 49 49 56 62 56 56 55 57 48 57 53 41 37 33 39 40 31 33 38 35 35 46 46 55 55 62 60 62 65 52 51 51 47 45 47 35 33 33 37 32 19 19 23 14 23 17 25 17
23 19 15 18 15 19 15 18 21 28 29 39 35 37 49 48 48 55 47 51 58 52 59 53 46 54 43 43 38 33 31 36 29 27 37 35 36 39 50 50 53 56 51 54 55 58 51 57 47 52 37 43 38 36 30 25 16 16 19 22 18 25 23 20
22 24 15 17 23 24 16 22 23 23 29 37 30 35 46 42 51 51 43 50 47 49 51 53 50 46 42 35 33 29 25 28 27 21 27 32 38 42 39 41 43 49 51 52 51 53 46 52 49 48 41 41 29 26 31 27 14 25 17 24 25 18 15 19
24 21 23 17 17 22 23 19 21 19 25 32 42 43 40 40 42 53 51 52 46 47 47 46 50 40 42 43 40 41 35 25 24 24 37 34 40 47 47 46 51 50 54 48 51 55 49 55 48 40 47 36 44 39 30 25 26 28 27 30 24 27 21 24
25 30 31 25 24 26 22 24 28 28 24 29 38 36 38 43 44 54 45 46 46 47 50 47 46 48 50 48 36 41 31 38 30 31 40 36 46 49 48 45 55 51 53 52 56 49 56 50 45 54 46 46 38 42 34 35 33 35 28 38 27 39 33 35
33 36 29 28 29 25 27 36 36 29 37 36 36 36 41 43 48 51 50 48 52 54 53 45 52 46 44 46 49 36 39 40 28 40 34 47 43 48 49 55 55 54 52 61 51 57 48 50 52 44 53 50 46 36 43 37 36 39 42 40 33 38 33 33
29 30 31 31 25 24 32 21 22 21 27 23 34 29 35 41 45 42 40 47 40 49 41 45 40 40 33 33 30 27 27 33 31 25 35 39 38 36 40 48 38 41 50 44 46 50 46 44 42 39 42 37 34 32 29 30 36 34 29 27 38 29 36 33
18 18 22 23 26 23 23 25 24 19 24 25 19 24 22 34 34 29 33 39 34 32 32 33 33 36 26 33 22 22 30 27 27 29 25 28 30 25 33 36 40 37 37 32 41 40 30 38 27 33 30 23 20 25 31 22 30 24 29 27 29 23 30 29
21 14 19 19 22 16 26 19 16 17 14 15 16 20 27 21 27 30 29 31 29 22 23 21 27 26 24 18 22 22 21 14 15 16 22 25 24 15 29 30 21 28 33 30 25 21 23 23 27 27 15 24 20 17 21 21 16 25 16 19 24 15 20 19
22 25 23 22 25 24 19 23 15 17 18 26 19 20 19 18 25 16 26 19 21 25 18 28 24 26 26 25 24 24 25 18 17 15 17 17 24 18 22 22 20 18 22 28 30 27 20 22 24 23 24 20 21 19 26 23 17 26 22 23 17 14 25 26
22 22 25 21 14 15 23 26 24 25 18 26 21 19 22 22 26 25 17 18 14 18 17 25 22 16 18 18 14 22 18 25 19 15 19 14 14 14 15 22 24 17 19 20 25 24 20 26 22 17 26 17 14 17 18 15 20 26 18 14 16 17 18 16
18 21 21 14 18 19 25 16 14 14 14 25 26 17 15 20 25 25 22 16 21 19 24 18 18 23 22 17 21 21 24 15 17 26 24 21 18 20 20 16 19 23 25 16 19 23 21 16 25 14 24 15 26 19 26 19 18 25 19 23 23 26 24 19
19 25 14 26 23 21 19 24 17 20 22 17 14 21 19 14 23 18 20 21 16 16 20 26 22 18 26 18 14 15 19 25 19 26 17 23 21 19 16 24 14 25 26 17 25 20 16 15 18 19 20 18 16 21 20 16 22 23 16 15 14 18 23 26
23 14 20 26 25 17 20 20 26 15 23 18 19 24 20 14 17 21 18 14 21 26 19 14 14 23 14 14 24 17 17 22 15 24 23 21 15 26 26 19 21 15 25 26 16 24 16 22 22 14 18 20 16 16 18 20 14 16 16 14 24 25 20 14
17 15 19 23 22 21 26 17 24 23 15 25 14 22 25 14 25 14 22 15 17 16 23 23 22 17 16 24 25 18 18 20 20 17 20 22 23 21 15 23 22 16 26 19 18 20 25 25 25 22 23 18 18 15 16 25 17 19 20 21 15 22 15 14
25 23 16 15 18 26 20 23 16 22 21 22 15 16 19 21 24 25 15 15 15 25 21 16 24 16 20 22 26 15 20 20 23 17 16 21 15 24 22 22 20 22 24 24 21 21 21 18 21 14 20 26 20 25 15 16 24 17 14 22 25 16 19 15
16 18 25 15 15 20 14 18 16 25 24 26 15 18 21 19 14 21 18 17 17 24 18 18 20 18 24 24 15 20 21 17 25 20 23 19 21 22 25 24 22 26 25 22 21 14 19 15 20 14 24 24 17 24 17 15 23 21 25 16 19 20 19 21
14 15 25 14 25 20 24 25 26 22 26 14 18 18 19 18 24 23 18 20 15 14 18 23 15 14 22 17 17 22 23 19 19 23 26 24 14 16 20 17 20 23 21 19 14 17 24 25 14 22 18 19 20 24 19 22 23 14 18 25 14 24 18 23
19 21 25 19 14 20 20 16 26 17 23 19 20 15 20 18 14 16 26 15 14 23 20 17 24 14 21 15 24 24 23 22 25 25 23 23 16 19 18 16 19 25 26 26 17 19 25 22 16 18 18 14 18 16 24 22 22 14 19 17 26 25 25 24
16 18 18 25 21 23 23 24 20 16 14 16 26 20 19 21 20 18 22 17 25 24 15 21 14 22 18 15 19 17 24 18 21 23 16 18 16 20 25 25 21 19 18 18 25 19 25 22 23 25 14 26 24 18 26 19 18 25 17 21 21 23 20 21
17 24 15 14 22 22 21 19 22 24 19 14 26 19 20 26 24 19 16 25 21 26 16 20 17 15 21 18 19 23 25 21 24 21 20 18 16 22 25 19 15 25 19 18 26 18 14 19 17 15 25 18 25 22 21 20 18 17 18 15 20 16 18 15
21 23 26 19 23 24 14 25 26 14 21 19 17 20 19 19 25 25 21 19 15 20 24 18 21 23 22 16 25 21 14 21 20 16 19 19 20 22 19 17 14 25 15 26 22 20 26 19 15 16 16 15 19 25 17 19 17 25 18 16 16 14 24 15
20 24 20 17 23 21 24 16 17 16 26 22 25 19 16 18 24 25 23 21 22 19 22 23 21 25 15 15 22 15 20 20 24 14 19 21 19 25 22 15 14 17 17 17 17 18 17 23 21 14 25 15 17 15 22 20 20 25 24 26 14 18 14 20
18 14 21 26 20 23 14 23 25 20 18 23 19 25 20 20 23 15 17 17 18 25 26 18 17 24 18 17 18 24 26 21 19 22 19 19 21 23 23 24 20 14 17 20 18 15 23 22 17 20 21 15 18 21 15 19 14 14 17 15 25 22 23 16
17 22 20 19 23 23 18 26 15 14 16 21 26 23 16 22 25 15 17 16 24 15 17 19 23 17 24 16 22 26 24 15 24 21 26 16 18 24 14 25 24 15 24 17 16 18 21 25 24 20 16 18 21 18 16 26 14 25 25 17 18 14 26 22
24 15 15 26 26 26 21 16 14 17 24 17 19 25 14 14 22 20 25 19 14 25 20 19 24 25 25 16 17 20 25 21 19 20 18 23 15 24 17 15 25 16 22 19 14 15 16 24 24 23 18 18 19 20 20 17 18 15 19 16 22 21 14 15
25 15 18 25 18 21 15 19 21 25 21 19 16 17 20 20 20 17 15 24 18 23 14 25 17 19 18 14 22 21 16 15 14 18 20 18 18 22 19 22 18 24 23 16 22 26 21 15 18 18 19 26 20 16 21 20 19 21 21 19 24 24 19 17
20 25 18 24 17 16 18 14 26 14 17 25 20 23 14 23 19 15 24 23 25 19 16 26 22 26 16 26 17 20 14 25 24 26 24 24 24 15 17 14 17 15 19 24 22 23 15 23 23 20 23 15 15 19 17 18 16 16 19 19 23 17 16 23
