P2
64 64
255
22 21 20 21 22 22 23 14 17 26 23 20 20 17 23 21 16 20 23 24 14 23 25 21 23 21 24 21 21 18 21 23 23 19 26 19 16 22 19 22 23 23 20 25 17 22 19 24 15 20 25 23 26 21 24 18 26 16 25 26 17 15 18 19
15 24 25 14 18 22 25 21 24 14 24 23 17 18 18 21 18 19 19 16 25 25 17 18 20 25 15 22 25 24 25 24 24 26 24 14 26 26 19 26 21 26 18 22 23 14 15 20 26 19 25 15 25 20 16 25 26 17 18 19 23 18 21 14
16 14 14 21 14 14 15 20 17 26 14 21 20 19 16 21 17 24 20 20 25 19 24 16 16 19 25 14 19 18 16 20 26 24 17 14 16 16 15 17 20 21 21 23 24 19 25 21 25 22 14 15 25 19 25 24 21 18 19 15 23 24 26 15
21 23 18 21 22 17 19 14 25 17 17 22 16 25 16 20 15 23 25 23 23 18 19 26 25 25 17 25 22 15 25 19 22 17 22 22 24 19 25 25 19 19 21 22 18 16 14 15 14 15 19 20 18 17 19 26 24 18 19 20 14 15 20 17
15 26 17 21 20 24 18 22 24 23 16 18 16 14 22 26 18 20 21 14 23 21 26 15 21 19 21 20 16 17 16 25 19 16 21 21 15 20 24 26 14 22 18 17 24 18 25 15 14 22 15 20 25 25 20 18 17 23 22 25 14 23 18 25
24 19 25 14 20 19 24 14 14 26 20 25 25 21 14 26 23 15 17 23 25 23 15 21 17 26 23 16 23 14 21 20 18 20 21 17 24 19 19 14 20 19 20 25 22 17 20 21 24 19 15 18 18 20 20 15 15 24 22 18 24 17 16 14
17 26 26 26 25 25 19 15 25 26 26 14 23 22 21 19 23 25 16 23 21 26 21 16 23 19 16 18 21 25 26 19 25 19 25 23 23 17 17 14 18 18 25 18 15 14 20 26 16 24 26 22 21 21 19 19 26 14 25 26 26 21 24 24
21 19 26 26 17 23 20 21 26 24 16 26 21 22 25 17 14 14 18 24 25 16 22 18 24 19 20 26 14 14 14 26 20 16 21 24 25 17 15 18 23 16 14 24 14 18 17 15 25 16 25 20 21 19 25 26 20 19 21 24 21 15 15 19
17 14 23 16 21 26 14 21 22 17 20 14 19 21 15 21 17 21 24 25 15 19 18 14 21 26 26 18 21 21 21 15 24 21 24 16 26 23 22 18 22 20 25 19 22 24 20 21 14 24 15 15 14 23 18 20 24 25 23 14 25 23 18 16
23 26 20 18 15 18 19 15 21 24 22 22 17 26 19 16 18 16 21 24 16 20 19 19 14 24 15 25 17 20 26 20 24 18 21 23 25 25 22 26 23 25 14 19 17 18 21 26 14 20 14 19 26 17 23 22 25 23 20 23 15 23 17 23
16 17 16 23 17 24 19 16 25 22 26 25 17 22 15 22 17 26 14 22 26 21 23 17 20 25 22 19 15 22 14 26 14 17 21 18 14 14 17 26 21 26 24 22 18 25 24 23 22 19 14 26 20 24 22 19 20 21 24 15 18 26 23 24
17 19 16 19 14 17 14 18 19 24 24 17 22 23 23 23 16 26 14 19 20 15 23 21 20 21 26 22 24 20 26 15 17 24 21 17 14 17 15 21 20 25 16 21 25 21 24 18 14 26 18 16 18 21 26 18 16 14 23 19 15 20 17 15
26 17 18 23 14 25 18 21 24 17 14 15 17 24 21 15 21 19 19 18 24 19 19 26 23 25 26 18 18 19 24 18 23 17 23 19 23 14 22 25 26 24 26 19 17 14 24 17 14 14 25 19 26 21 14 24 17 26 25 17 18 24 17 16
19 19 15 26 24 23 15 19 17 25 22 22 19 17 15 14 18 22 19 22 14 16 23 25 18 23 17 14 18 20 22 23 19 18 17 25 18 14 20 19 23 17 17 15 20 14 16 25 25 14 17 24 26 22 15 20 23 26 23 22 15 20 15 16
18 15 16 16 16 22 18 14 23 24 25 22 20 21 25 24 26 26 20 26 26 19 18 26 17 18 25 19 15 22 26 24 20 24 14 24 14 14 18 15 22 15 15 24 17 24 21 18 21 14 22 23 26 24 26 24 23 20 22 25 21 22 22 22
15 14 25 16 25 26 14 17 17 26 26 18 15 25 26 26 14 15 16 20 22 24 21 22 23 14 14 24 24 23 26 15 23 14 19 21 20 21 18 18 22 21 14 25 17 16 23 22 23 16 15 24 20 16 15 16 19 26 15 20 15 21 25 18
22 16 19 26 24 16 22 19 26 15 15 17 20 17 26 24 21 14 14 26 17 17 19 25 24 16 26 16 20 20 15 17 16 26 25 14 23 15 23 24 24 19 17 15 19 24 16 15 23 22 21 22 23 26 16 23 22 18 21 16 18 26 21 19
20 16 20 22 25 25 26 20 25 22 19 23 25 25 25 19 22 22 14 20 17 20 22 23 26 18 23 19 22 22 18 23 26 20 15 25 16 20 23 18 21 19 15 15 15 23 15 17 16 21 22 16 20 21 24 18 21 21 17 19 23 24 14 26
15 22 24 26 18 20 17 18 19 18 20 25 25 21 22 16 22 17 14 21 23 26 17 25 17 26 16 14 24 17 20 23 24 20 22 19 26 24 18 22 14 23 18 23 14 25 19 23 16 21 19 16 17 23 18 17 26 16 21 15 14 22 24 15
21 14 15 22 19 17 15 18 15 14 22 21 25 22 14 19 21 19 17 26 23 25 22 22 26 18 25 21 15 23 21 26 22 16 21 24 17 19 21 22 24 19 28 30 21 26 29 25 26 25 25 17 24 21 26 24 23 19 16 17 24 16 26 19
23 21 21 18 17 18 19 23 22 21 17 26 25 22 19 22 22 27 25 28 34 30 29 22 31 22 17 20 15 26 24 14 17 23 26 19 19 20 29 21 27 26 31 27 32 23 21 29 18 19 17 16 26 23 24 18 14 18 24 17 23 14 16 24
20 19 19 19 15 16 23 25 25 15 20 20 15 18 19 28 23 25 36 37 31 29 31 27 29 24 28 22 20 23 14 20 15 17 18 14 22 26 28 30 32 33 26 28 36 27 24 35 30 29 27 17 21 16 25 23 21 23 25 22 25 19 22 16
14 23 19 23 18 18 17 22 20 20 18 20 19 31 27 33 30 35 34 39 40 35 38 30 29 29 34 33 25 24 17 23 26 19 16 26 30 25 29 29 37 37 35 41 40 33 29 35 28 31 24 21 27 24 21 16 24 19 17 16 20 14 17 26
16 26 19 22 21 25 26 25 22 18 22 20 20 26 28 32 32 41 40 33 34 39 45 35 31 29 39 28 35 30 24 18 23 19 29 32 24 35 39 37 38 44 34 37 43 38 35 41 40 37 25 35 31 22 20 22 24 17 15 14 15 22 25 18
19 19 21 15 22 21 22 18 15 16 23 28 25 31 30 34 35 42 38 45 48 42 42 37 37 35 33 35 27 33 29 23 15 22 27 35 27 39 36 44 41 36 37 47 49 43 44 46 43 40 36 31 27 23 22 16 26 17 18 26 17 25 26 23
18 14 14 16 18 21 16 20 16 18 19 34 34 40 35 37 39 42 39 51 42 52 53 45 39 41 43 41 32 29 23 24 22 28 34 33 34 43 46 44 45 47 44 49 50 46 40 41 45 36 42 31 27 25 30 24 20 17 24 18 23 22 18 24
15 19 14 14 18 21 25 21 15 28 22 31 34 34 42 41 45 50 51 49 45 46 48 43 45 43 46 36 36 40 31 30 28 27 26 35 34 36 47 45 42 44 55 52 46 55 48 49 47 48 44 40 35 34 31 19 23 18 26 26 23 17 16 22
18 14 22 17 18 14 18 19 26 24 34 31 36 38 46 41 48 46 58 55 52 61 51 47 56 51 39 41 34 38 29 25 28 29 29 34 39 40 39 52 55 48 58 57 60 58 50 57 51 43 45 34 33 39 23 25 16 21 16 23 19 21 25 21
14 17 18 17 18 17 26 19 17 22 28 33 32 37 50 51 50 53 53 52 63 59 62 56 59 53 45 48 36 37 35 32 33 28 38 35 40 51 53 50 49 55 53 58 59 60 56 48 51 52 51 35 42 36 29 21 27 23 23 15 17 23 18 21
22 15 19 14 15 16 14 20 30 24 29 42 40 39 46 46 57 51 55 61 60 69 56 61 52 55 52 52 40 36 40 39 40 32 40 35 38 40 55 52 59 62 59 61 68 62 59 57 58 49 53 39 42 39 38 25 25 27 15 21 26 17 22 16
26 25 17 16 18 23 18 21 28 33 30 35 41 47 49 57 55 53 63 59 71 68 59 64 59 51 58 51 45 42 34 36 36 34 41 40 49 54 50 57 62 64 66 62 64 71 67 58 49 54 45 42 39 34 36 32 19 17 15 16 18 24 15 16
20 21 17 24 16 17 25 26 31 34 39 31 43 43 48 54 58 66 65 73 76 69 67 70 66 61 50 52 40 42 43 33 38 36 43 44 51 49 48 56 61 61 64 68 75 71 62 63 55 49 50 41 44 35 37 35 22 24 19 22 17 19 22 24
17 23 21 15 25 14 16 25 25 29 39 39 43 50 51 59 51 55 64 74 72 71 66 62 62 52 51 54 45 35 33 37 43 37 42 41 51 46 57 61 55 59 73 69 68 63 60 62 54 49 50 41 35 41 30 34 32 17 15 25 24 21 20 14
19 20 16 24 21 18 20 27 31 25 38 35 46 43 52 56 58 61 70 74 72 67 68 61 65 52 57 46 47 41 43 35 38 41 36 45 45 44 50 58 54 64 72 64 76 65 68 60 57 54 51 40 45 43 32 35 29 21 19 17 20 25 22 26
16 16 15 20 14 23 20 21 28 29 35 42 39 43 48 51 60 56 62 62 62 66 64 68 56 60 50 44 46 39 43 32 36 38 32 40 40 53 54 61 53 61 65 62 70 62 56 62 51 58 43 50 45 38 30 28 29 18 25 18 19 14 22 22
16 21 25 17 15 24 22 22 23 28 33 41 39 37 47 52 56 51 54 64 64 64 62 58 50 47 53 46 44 43 38 34 41 32 42 41 40 43 47 50 52 58 62 69 62 60 61 59 58 51 47 37 33 33 34 29 30 26 20 21 18 26 20 21
14 16 17 19 16 24 19 21 23 28 35 36 36 47 48 53 45 57 56 63 64 63 63 56 56 47 43 49 46 37 29 40 40 31 31 43 35 44 50 55 57 62 59 57 57 64 50 54 50 49 45 35 32 34 36 21 26 22 21 16 25 15 21 24
15 18 17 18 17 15 24 24 20 29 34 33 34 37 46 43 52 54 51 56 50 60 53 58 57 54 46 44 41 40 35 33 32 35 30 40 39 46 41 45 51 47 53 58 50 53 57 50 49 49 41 42 36 39 31 22 17 14 26 24 24 24 24 26
26 15 25 26 19 14 21 23 18 18 24 25 28 34 40 47 42 45 50 50 51 56 48 52 41 50 39 35 33 34 34 25 27 33 26 37 42 45 43 42 47 55 47 53 51 54 45 42 39 45 39 38 32 31 23 26 19 15 14 16 20 17 25 24
20 17 20 25 28 17 22 27 21 19 31 34 39 33 45 44 45 47 45 48 47 46 56 53 53 51 48 41 37 37 39 36 26 33 33 30 37 45 47 46 54 45 57 52 51 57 47 46 45 43 49 39 41 32 26 23 22 28 30 22 21 32 20 30
20 23 23 22 26 31 31 33 31 30 31 31 41 37 48 51 46 53 46 46 52 49 50 49 50 47 47 39 47 34 39 31 32 27 33 33 41 39 42 43 55 54 50 57 58 52 50 47 54 54 48 41 37 41 41 35 38 33 33 27 37 33 27 27
31 25 25 31 28 27 28 26 34 37 30 38 32 43 39 44 51 50 47 52 56 50 57 51 47 50 49 42 37 42 41 33 40 29 32 40 45 49 42 56 51 60 58 56 60 53 54 50 56 47 50 52 46 38 33 41 36 32 37 36 40 41 45 40
24 29 25 23 27 24 21 27 25 30 26 26 33 38 39 36 36 44 36 40 49 44 46 43 41 41 36 33 37 37 31 26 27 27 31 27 36 36 45 43 37 44 50 44 43 45 44 40 45 36 39 42 29 32 33 35 37 30 33 26 30 34 38 36
20 20 27 23 27 29 20 17 25 21 20 25 24 22 27 28 36 38 38 30 38 37 39 36 35 35 26 25 27 21 23 29 24 29 27 28 22 29 27 33 29 34 30 42 35 34 33 37 37 35 35 27 20 21 23 29 20 21 27 26 27 24 21 22
17 23 23 26 14 21 22 19 15 26 15 19 21 20 20 21 18 29 28 26 29 30 24 22 20 26 18 27 23 16 22 22 22 19 16 20 14 20 28 20 26 30 33 28 22 31 27 27 27 17 19 26 20 24 19 15 24 23 14 16 21 16 16 22
18 22 22 14 17 15 22 14 15 20 25 19 20 18 24 23 18 21 17 19 29 30 21 25 20 20 16 14 25 21 20 18 16 16 14 21 18 25 19 24 28 26 21 18 23 28 18 24 19 22 25 19 21 15 18 15 23 18 22 23 22 23 25 24
20 17 20 26 18 14 21 21 15 15 15 21 21 18 14 23 23 25 16 15 16 23 26 17 18 20 16 20 23 16 25 16 25 15 16 19 20 17 25 22 21 24 16 24 26 14 21 14 25 24 25 14 14 24 23 17 20 19 23 14 19 24 23 14
23 15 26 26 25 21 21 14 24 23 15 25 25 14 24 22 24 19 14 20 21 17 14 15 19 26 17 26 22 25 17 20 19 26 22 21 16 20 26 19 25 18 25 19 22 18 26 19 25 21 15 14 22 21 14 18 20 19 19 17 18 23 24 26
22 26 26 21 17 17 24 24 16 25 23 23 22 16 14 17 26 23 25 23 25 15 26 21 19 26 17 16 26 16 15 20 15 24 23 24 23 18 22 24 22 23 19 15 20 17 25 14 20 18 25 17 14 22 15 17 18 19 23 21 26 22 18 21
14 16 14 25 20 16 16 20 24 20 14 25 18 15 14 18 18 17 23 22 18 23 18 19 20 24 14 20 25 17 16 14 16 26 24 17 22 24 25 22 25 23 19 14 19 16 19 17 19 25 25 15 19 21 24 21 25 22 21 15 23 16 22 17
26 16 23 19 15 18 15 25 24 19 21 26 15 14 26 19 22 23 24 20 23 15 16 24 19 18 22 24 20 22 19 14 22 19 14 16 21 21 20 25 15 22 18 26 22 19 21 24 14 26 19 25 19 20 21 17 15 22 20 25 17 23 24 24
21 24 14 17 22 22 21 26 21 26 18 23 23 14 20 17 26 15 18 19 19 26 19 14 20 21 14 26 26 16 26 15 17 19 16 23 18 24 21 17 22 19 22 17 16 21 18 24 16 14 15 21 25 26 16 23 22 21 24 19 18 17 25 26
23 22 15 14 23 25 25 21 25 14 19 26 15 21 25 23 22 24 19 26 22 20 19 20 25 22 15 20 25 24 16 15 22 21 17 21 14 23 14 25 14 18 26 25 14 15 20 14 15 15 18 22 18 25 24 17 17 16 19 19 25 18 19 19
24 25 15 16 18 25 21 15 22 23 16 24 16 24 25 25 14 17 25 22 26 14 17 20 19 24 14 17 25 20 20 18 15 16 15 16 21 20 26 19 15 24 21 15 25 18 23 17 18 20 14 26 17 19 26 20 17 15 25 25 15 26 24 23
23 24 19 20 14 16 25 22 23 17 21 19 15 15 21 17 25 26 26 21 16 14 16 21 21 18 26 15 26 26 20 22 26 21 26 16 26 17 25 16 25 23 26 26 21 17 24 22 26 14 22 24 15 26 20 14 21 17 15 20 14 20 20 26
25 24 20 26 16 20 16 26 24 20 17 14 20 23 17 16 19 15 19 20 26 22 19 23 23 18 22 22 22 14 16 19 24 21 18 25 23 17 16 17 19 18 15 26 26 25 20 24 16 19 25 24 24 14 22 23 14 26 18 16 24 17 17 20
17 19 17 16 14 26 19 24 17 18 20 18 22 23 23 16 18 16 14 26 22 25 24 18 24 15 23 15 16 18 25 18 19 17 19 23 19 16 23 24 15 17 26 14 23 21 16 14 26 17 21 20 23 24 17 25 26 22 17 14 15 14 18 25
25 25 15 15 15 16 17 20 23 20 17 22 22 20 18 23 23 19 22 15 23 20 26 24 16 15 21 26 17 19 24 22 14 15 14 16 21 25 18 25 26 14 18 16 17 19 22 23 22 16 21 22 15 24 15 22 26 14 25 18 17 17 14 24
16 16 18 23 21 26 25 15 16 18 22 18 19 21 20 20 15 17 18 22 20 16 24 15 14 15 20 21 25 21 17 25 26 23 26 17 26 22 20 26 18 19 23 24 14 15 24 24 19 15 17 22 18 21 15 21 23 24 21 24 18 24 26 16
16 26 21 20 23 23 17 22 18 14 18 20 23 19 14 19 20 16 17 14 15 19 24 19 25 21 22 23 21 22 25 14 19 23 25 19 21 17 20 18 21 26 20 26 24 20 17 21 15 23 25 25 21 23 26 18 15 16 15 17 15 19 19 18
20 25 20 26 17 18 26 24 14 21 21 20 23 24 16 19 26 21 25 24 19 20 24 25 23 20 23 22 23 21 17 24 24 20 16 20 24 18 23 25 21 20 18 22 25 24 20 26 15 14 18 14 26 26 14 19 15 22 24 17 26 20 24 20
20 19 24 18 15 24 18 18 25 22 26 24 24 22 24 18 16 19 22 16 18 18 14 19 22 14 20 20 22 26 15 14 25 19 14 21 25 22 25 15 16 18 19 25 15 20 18 19 16 17 19 19 26 17 25 17 16 20 24 26 16 22 19 21
25 20 23 19 26 15 24 18 25 16 18 25 14 19 21 24 14 23 22 15 15 20 19 16 22 19 24 24 21 22 21 26 26 18 19 24 22 24 26 17 17 18 22 26 20 14 17 25 22 18 15 22 15 20 21 24 22 21 18 16 15 20 18 15
24 17 24 17 23 22 18 15 18 15 14 21 23 24 16 17 26 23 25 18 25 17 25 20 23 23 14 22 19 16 15 14 17 19 17 14 18 18 24 25 26 25 14 14 22 17 19 15 18 22 26 24 20 21 22 21 14 25 15 26 15 23 26 22
