P2
64 64
255
25 36 36 30 24 23 18 33 25 37 34 30 18 19 24 23 26 37 32 30 27 20 18 34 33 28 38 31 35 38 27 34 21 30 25 26 33 38 31 26 20 38 35 37 24 32 35 25 22 21 27 24 35 20 26 36 29 30 29 25 25 18 34 23
37 38 28 22 36 19 22 31 36 30 31 30 27 37 18 18 35 38 28 36 36 22 20 20 23 34 31 35 18 25 37 20 29 31 21 22 33 38 33 35 30 26 29 34 22 32 21 29 21 31 32 20 28 20 24 19 29 21 30 30 32 34 28 28
34 37 35 35 23 18 30 18 25 28 24 36 23 31 26 36 25 21 18 26 30 35 37 21 20 25 37 31 19 23 33 27 31 28 37 22 19 38 36 37 32 22 20 20 38 31 21 24 34 34 32 24 18 30 28 36 34 28 34 32 26 37 21 24
35 23 35 28 33 23 37 35 33 31 24 20 31 27 38 22 38 20 30 26 37 38 35 21 36 27 38 23 21 30 30 28 23 33 24 32 23 20 36 18 25 35 32 22 34 36 21 32 34 32 26 19 31 30 23 29 37 29 31 33 31 32 33 35
23 31 32 31 34 26 21 28 32 31 35 22 33 31 20 24 32 38 31 31 26 37 31 38 18 21 20 25 29 25 28 25 32 34 19 26 20 38 38 31 32 23 31 19 23 37 27 31 36 23 20 25 21 25 38 19 24 27 20 28 28 30 23 22
31 25 31 29 27 28 33 32 25 25 26 22 23 27 22 21 22 35 21 23 22 26 34 28 21 36 32 21 37 31 18 27 36 34 22 22 32 35 21 21 22 23 29 37 37 36 35 19 34 22 32 32 36 35 25 35 22 35 38 19 30 38 21 30
38 20 21 18 28 18 27 22 34 33 24 20 32 36 37 18 22 27 20 20 20 32 25 33 28 23 24 29 35 23 30 27 22 29 26 19 21 32 38 19 31 38 22 34 34 24 36 27 37 31 31 20 36 36 35 20 21 18 23 27 33 22 19 35
23 38 30 33 19 37 26 35 31 20 20 18 28 38 27 36 35 26 36 30 37 19 22 37 21 32 22 37 25 22 34 34 37 36 19 22 23 29 37 31 23 23 24 35 22 32 28 23 21 22 20 23 21 33 29 35 34 37 18 23 35 30 26 19
25 30 32 25 38 27 36 27 26 20 28 27 28 18 21 33 38 38 31 18 20 19 20 21 30 20 32 22 37 25 22 30 32 24 36 26 35 18 36 27 29 24 19 28 21 31 18 34 33 26 34 24 37 21 30 18 20 34 21 22 33 30 38 24
35 33 35 36 23 35 31 34 30 19 24 24 33 26 37 25 32 19 20 32 37 24 33 31 20 26 19 30 34 21 22 22 36 33 27 37 36 24 30 35 28 33 21 34 31 38 20 34 22 27 38 30 21 19 29 22 29 28 30 18 30 27 25 20
25 21 30 34 26 33 27 35 36 25 19 28 34 23 27 28 24 26 18 36 28 19 28 31 18 36 38 20 29 27 27 32 29 20 21 20 34 33 32 18 28 33 20 27 36 36 20 36 33 24 18 19 33 30 22 18 30 32 34 33 28 21 34 37
32 26 23 34 20 23 37 32 18 28 27 35 33 23 24 37 38 29 20 20 25 38 33 29 19 33 23 38 18 21 36 24 37 23 25 31 38 21 27 37 32 23 22 28 37 20 22 18 28 25 32 38 35 26 34 33 20 29 28 29 26 22 23 21
32 37 33 37 36 18 31 26 24 25 27 18 34 24 38 33 24 20 24 19 22 25 21 26 28 34 26 19 26 24 27 18 27 21 30 23 22 28 25 21 35 31 31 36 21 28 33 33 33 29 36 38 22 20 31 21 32 18 29 36 29 31 38 38
36 35 32 20 32 37 31 18 25 37 29 30 18 35 26 23 34 23 22 23 36 30 28 37 22 22 35 37 34 29 38 25 33 35 30 38 36 34 31 20 23 19 27 33 33 37 29 20 19 29 24 28 30 29 33 38 37 25 38 25 27 27 26 25
22 31 38 28 37 27 18 26 28 26 31 22 18 28 36 38 34 30 20 23 34 25 25 25 22 24 27 28 37 34 19 25 18 19 36 29 36 18 31 19 26 21 21 23 23 29 28 26 38 23 24 36 30 25 30 33 34 31 23 38 38 19 28 24
36 34 32 30 27 30 38 26 37 35 34 22 20 31 32 30 22 30 33 27 18 38 24 37 25 34 34 18 33 35 20 31 27 35 29 33 27 32 24 37 18 23 34 20 20 37 23 36 25 21 23 32 24 21 28 37 20 32 25 30 36 30 25 23
29 19 25 26 31 27 20 30 38 38 28 31 18 27 25 37 18 21 33 23 27 21 24 37 33 35 36 34 23 22 24 32 31 32 21 31 23 22 31 31 29 37 24 18 25 19 19 32 29 22 30 29 19 26 23 35 30 37 28 34 19 38 27 20
31 25 22 22 32 23 33 23 20 19 30 21 34 33 21 29 34 37 31 21 36 20 19 38 18 33 27 36 31 32 31 38 23 25 38 24 18 19 22 30 34 33 26 26 24 28 23 22 36 27 35 21 24 34 19 24 34 21 29 32 38 38 29 37
19 35 32 37 18 28 18 20 38 19 19 36 19 37 37 31 38 19 22 38 32 30 36 22 28 23 25 36 38 20 25 30 35 26 26 29 32 21 22 36 27 25 36 24 20 32 35 23 24 35 21 18 29 34 36 26 38 31 30 21 31 33 36 27
27 34 24 37 31 20 36 33 27 26 27 33 36 29 29 37 38 40 37 35 30 36 38 36 23 37 38 21 26 24 23 31 28 37 18 26 36 37 30 33 29 27 39 28 25 26 37 39 21 38 38 22 35 19 30 34 23 25 38 27 29 19 30 23
20 19 31 30 36 25 37 28 33 19 28 25 27 23 38 41 28 32 31 33 29 46 35 35 40 28 30 28 35 30 27 25 21 32 30 27 35 33 25 37 24 41 33 37 44 25 27 42 29 29 21 22 29 18 22 33 23 20 18 32 20 34 26 25
31 33 37 37 34 20 28 32 25 38 35 26 26 40 26 34 27 45 38 44 48 46 38 48 46 43 35 32 32 25 38 23 34 40 34 25 31 42 30 40 29 35 44 30 47 33 46 27 33 30 34 30 37 22 26 29 36 34 29 38 18 34 34 27
27 29 20 30 20 20 30 18 29 27 21 22 22 38 29 42 36 47 45 41 53 48 51 43 42 45 45 47 40 36 35 44 44 36 45 35 45 33 35 48 42 49 37 39 52 48 33 43 32 30 36 37 41 30 26 25 26 27 36 37 36 27 33 26
29 29 28 18 35 19 26 38 19 35 19 25 38 28 44 43 33 44 36 47 49 38 46 52 49 40 46 48 41 56 42 47 48 53 42 41 47 41 57 41 38 54 56 50 37 45 44 35 38 33 46 36 40 26 30 31 38 21 22 24 22 20 18 23
33 18 35 37 20 29 38 25 30 33 38 29 32 31 46 38 54 50 50 61 45 41 46 50 55 65 60 60 66 66 59 48 53 57 64 53 52 66 64 48 60 57 58 43 59 48 48 54 56 46 35 31 47 37 24 36 36 36 22 21 22 32 20 34
21 31 36 22 29 30 26 33 34 40 40 35 33 40 36 45 60 62 52 50 59 48 58 60 73 66 72 60 70 62 52 70 58 59 67 59 69 66 69 55 65 58 53 56 55 58 60 42 58 41 54 47 38 33 41 28 20 35 38 23 33 21 22 25
29 19 25 21 26 32 31 36 25 30 39 29 48 41 39 41 49 65 64 59 59 54 68 69 73 81 77 72 68 75 67 72 70 77 72 74 83 79 71 81 73 61 75 60 64 66 58 61 62 51 54 46 35 34 29 36 31 21 30 36 26 35 31 34
22 38 32 22 24 37 26 25 23 40 31 38 46 54 49 51 56 68 55 63 72 60 84 85 76 88 82 75 89 89 74 81 79 81 88 73 75 91 86 80 88 87 78 78 57 62 59 67 60 52 54 39 49 33 40 37 23 31 25 22 31 33 26 37
21 30 27 37 19 38 35 26 38 40 37 46 39 58 53 55 50 65 74 66 75 72 75 85 82 87 80 92 88 94 94 92 86 88 80 93 89 97 98 78 97 95 91 69 66 63 70 55 51 61 44 54 46 39 48 42 23 37 24 35 19 36 29 30
20 25 22 20 30 27 22 35 33 30 48 36 38 44 45 59 57 75 75 77 73 89 85 98 101 101 97 99 97 93 103 95 104 97 88 87 97 99 91 101 98 102 82 95 86 81 67 74 58 57 60 49 40 50 36 43 31 35 29 31 23 20 27 29
18 27 37 25 32 33 30 28 26 45 49 43 39 61 64 64 54 62 78 82 96 97 91 92 95 105 104 97 94 97 94 113 112 109 108 98 98 103 109 97 93 97 102 81 94 80 70 68 62 58 66 42 47 54 47 33 35 36 24 34 19 28 36 25
30 24 18 19 26 27 29 21 44 43 42 47 43 59 50 51 70 72 75 79 86 104 109 104 114 100 101 106 105 114 111 113 119 100 119 102 112 102 100 96 98 99 110 95 82 78 75 68 59 51 55 62 58 53 46 32 30 35 32 28 37 22 23 38
38 20 20 27 28 24 22 27 39 28 41 35 43 44 56 55 60 64 80 91 97 107 114 115 106 113 108 105 123 105 107 122 119 126 119 109 106 108 110 116 99 97 98 112 97 97 84 70 71 51 47 58 40 47 51 37 31 23 25 24 28 20 28 27
26 19 34 21 34 32 36 21 35 28 47 41 55 58 58 70 75 71 72 91 94 103 98 118 114 103 115 114 109 108 128 116 120 124 112 121 116 126 117 102 107 115 109 94 91 92 68 78 61 51 61 45 58 48 46 28 29 39 18 20 24 22 22 30
35 27 23 20 32 32 33 23 27 45 48 54 40 45 48 54 55 65 72 84 96 91 113 106 111 123 113 118 124 118 124 129 131 125 129 121 128 123 120 121 102 114 95 93 96 93 74 66 72 50 50 60 58 51 36 46 23 30 19 21 23 26 22 26
33 28 35 24 18 22 28 21 29 40 46 36 39 54 48 50 66 72 71 91 85 89 108 97 110 102 113 122 126 125 127 139 126 138 123 123 122 108 105 112 116 109 111 88 95 80 82 67 65 63 45 45 40 53 41 46 32 38 18 20 23 22 19 20
26 30 34 36 20 33 33 18 32 44 31 45 56 54 44 53 67 54 68 80 96 97 100 94 111 109 116 112 120 129 125 127 133 128 131 126 117 115 120 105 105 108 99 102 78 79 68 57 49 56 50 42 51 40 33 33 40 36 34 35 27 35 19 20
18 27 18 25 20 19 19 24 22 29 34 43 47 45 55 50 60 51 77 80 79 97 88 91 108 100 115 112 110 110 119 130 132 131 122 124 111 105 117 113 112 91 101 92 82 85 65 50 59 59 54 38 35 50 28 29 40 20 36 31 27 18 27 36
24 34 32 24 26 29 31 19 23 23 33 45 41 40 58 42 63 49 64 76 82 89 97 99 93 94 101 115 104 110 124 109 115 110 113 122 108 103 114 105 96 103 83 77 85 61 63 55 51 61 51 38 45 42 42 36 36 35 37 21 19 22 37 33
34 38 38 18 20 31 38 21 24 30 24 36 32 32 39 50 45 60 53 59 69 75 81 93 96 92 102 112 101 116 111 115 107 113 114 108 104 110 102 107 100 96 87 78 82 73 54 43 53 55 45 45 47 35 38 32 28 22 37 30 34 30 36 32
34 36 19 36 20 32 23 36 35 31 38 38 41 43 34 45 47 53 63 55 68 75 73 76 96 97 101 104 100 104 98 99 103 100 100 95 96 101 95 98 80 87 81 68 60 67 51 38 49 39 34 38 39 32 28 24 29 37 22 36 20 38 20 37
31 27 22 37 33 25 28 25 23 33 39 38 38 40 40 37 34 40 48 46 54 76 67 84 86 81 95 85 100 84 94 87 89 86 94 83 90 94 94 77 85 81 75 59 52 61 58 53 39 48 45 38 38 25 19 33 25 37 27 34 38 36 18 20
34 20 26 36 32 19 20 26 30 28 35 34 24 41 46 48 50 35 42 55 52 51 58 79 74 73 88 90 78 79 81 94 89 77 76 75 86 83 87 74 67 75 74 56 50 58 40 45 47 31 39 40 34 31 18 21 37 22 29 38 36 24 23 24
27 28 21 37 36 36 33 19 32 25 25 19 27 37 36 34 43 35 33 36 43 62 66 63 74 66 68 71 73 79 81 87 78 84 82 81 84 66 71 66 69 55 56 53 40 43 40 38 33 42 26 38 37 38 27 28 21 28 34 18 27 26 29 29
25 31 35 27 22 21 21 19 35 32 27 20 33 25 22 34 42 26 35 41 51 46 58 53 53 53 69 72 65 67 66 78 69 63 71 79 64 62 73 64 58 61 60 46 50 28 28 32 35 34 33 26 35 21 29 37 20 22 24 20 37 33 28 27
22 35 21 35 20 33 37 23 23 20 32 24 24 22 38 35 26 26 28 37 40 35 40 40 57 45 63 62 58 57 60 63 70 74 66 56 69 62 59 42 55 51 37 38 25 33 21 32 23 36 22 27 31 23 35 21 20 24 24 38 27 19 29 26
37 33 37 24 36 28 38 35 38 22 34 21 20 23 37 34 37 28 32 18 38 40 34 43 41 45 46 46 58 63 48 56 63 52 51 47 53 45 53 56 51 29 24 24 33 18 29 25 37 31 30 18 22 34 26 34 20 28 22 18 38 22 35 22
23 31 19 28 29 27 33 34 35 19 33 26 18 21 26 28 20 35 23 37 25 22 35 26 46 40 40 51 53 48 58 45 62 50 56 56 53 44 49 48 46 40 37 34 36 37 29 37 37 32 19 38 32 34 20 21 25 28 22 29 30 36 31 30
22 20 30 31 36 30 31 27 23 21 27 19 22 20 18 37 25 30 28 36 29 26 24 37 40 36 35 32 52 39 37 46 42 42 46 44 45 49 36 41 22 21 27 21 36 38 28 31 18 37 38 20 24 23 27 25 23 28 25 18 18 38 32 28
34 18 25 27 22 35 24 28 36 34 21 29 28 22 34 28 19 32 32 26 20 33 23 34 33 32 42 34 35 46 47 36 45 40 39 32 43 31 39 23 29 27 35 37 36 34 36 34 22 25 36 38 37 20 30 30 23 27 30 31 21 28 37 30
34 38 25 19 29 22 32 20 33 23 26 21 23 19 32 35 31 24 31 23 31 36 18 30 35 20 29 28 40 35 38 41 30 31 28 26 24 31 24 29 35 28 31 21 35 27 23 18 18 36 23 23 35 28 36 18 18 28 22 22 21 27 19 38
20 34 19 24 26 37 18 28 30 33 20 25 31 37 22 37 23 22 37 24 33 31 36 22 22 21 27 34 28 37 32 30 26 22 24 32 35 18 31 31 24 32 37 27 27 24 28 31 24 35 32 34 19 38 29 38 25 38 19 24 38 20 28 28
33 22 31 36 28 36 33 29 19 32 32 23 31 21 20 36 36 33 27 32 29 19 30 19 27 24 31 36 33 31 37 36 31 18 29 33 26 24 37 28 20 37 21 30 21 31 23 24 32 25 35 20 27 38 35 36 33 38 33 22 30 21 27 31
20 29 28 38 30 27 31 33 37 25 38 26 21 37 19 28 24 28 38 38 37 35 29 25 37 38 25 18 30 33 23 30 31 30 26 21 25 18 31 23 38 34 34 27 30 20 20 28 22 37 25 25 31 22 27 30 33 32 26 35 18 29 36 27
21 35 37 34 20 23 24 37 30 35 35 26 38 32 32 23 30 18 27 33 21 26 35 28 30 26 28 19 33 23 29 26 36 33 27 37 31 34 27 37 34 30 36 24 32 19 33 19 22 18 19 25 28 22 26 34 20 24 27 34 28 21 21 23
23 22 33 28 20 37 22 22 38 35 29 25 25 38 35 24 37 34 29 34 18 21 33 24 31 30 33 27 25 21 35 38 25 35 19 28 37 29 38 36 36 30 26 23 27 25 32 20 29 33 21 35 35 24 19 36 32 32 29 24 36 28 22 28
38 20 21 33 35 37 18 20 38 27 23 34 19 37 24 32 20 30 22 22 28 20 18 21 26 24 33 33 20 26 32 31 36 25 27 37 35 19 36 38 27 21 22 20 19 18 37 38 33 28 18 33 31 38 20 31 18 18 28 30 33 38 30 33
23 26 29 32 30 29 21 21 27 18 23 18 19 24 26 31 35 32 36 21 38 24 31 31 33 38 34 37 20 23 20 35 36 27 38 36 33 30 20 27 33 35 37 19 35 37 38 27 31 28 26 28 37 24 23 21 32 27 19 33 36 28 21 27
22 28 19 28 36 38 20 28 23 25 35 20 33 29 19 35 35 29 36 21 27 29 20 33 27 29 23 37 23 23 38 21 24 28 21 31 34 27 37 36 37 22 24 21 34 26 26 34 31 38 31 35 36 26 37 26 33 36 21 35 18 29 26 38
23 28 25 23 19 24 21 28 37 26 31 23 34 24 21 19 22 20 21 27 28 38 37 22 24 19 36 29 18 26 33 34 26 35 29 33 20 30 25 32 24 26 22 20 21 25 26 38 30 26 29 19 30 34 20 25 22 30 20 37 24 25 33 29
28 33 38 37 26 32 19 32 32 23 32 21 37 32 23 24 20 26 33 22 38 28 27 37 22 25 36 24 25 34 30 25 38 22 38 32 25 29 31 33 24 28 26 25 38 23 27 35 19 23 19 23 32 26 32 24 32 38 27 29 20 26 30 23
38 20 35 36 24 24 26 27 38 22 20 38 22 20 33 19 18 24 28 20 28 29 26 31 24 23 30 38 30 27 19 24 31 31 38 22 25 19 32 28 18 19 20 37 38 29 31 24 27 35 26 30 24 38 25 27 27 38 35 37 26 35 38 20
25 37 38 32 21 32 22 24 24 28 24 22 36 21 24 28 28 31 33 21 28 29 28 19 27 19 35 21 34 28 23 25 26 37 34 29 29 25 38 22 21 28 21 25 32 35 18 37 33 23 30 20 36 19 28 35 33 34 35 28 28 30 26 19
32 18 20 38 33 35 38 20 21 29 23 38 27 37 32 32 29 37 29 33 22 31 23 28 38 20 38 38 34 19 37 29 24 35 28 35 18 23 28 31 23 19 24 31 25 24 29 18 28 36 19 26 25 19 29 20 33 38 37 26 33 35 34 35
