P2
64 64
255
32 22 30 28 22 28 23 33 35 25 23 20 26 20 24 25 33 25 32 24 36 35 19 28 34 24 36 30 37 19 37 21 30 18 18 20 27 36 31 34 34 27 28 33 36 35 24 30 26 19 22 26 20 21 21 26 27 33 33 33 34 22 19 24
34 22 31 29 36 35 32 34 36 22 29 36 33 28 32 27 24 21 23 38 35 25 34 18 22 24 24 26 35 21 31 21 24 36 38 19 34 18 29 28 35 27 26 18 36 25 28 29 22 30 32 29 31 29 19 23 26 23 28 23 29 23 28 31
18 24 29 33 35 23 20 20 27 29 23 34 31 19 28 34 21 18 29 19 21 22 33 22 27 25 36 29 37 19 36 36 38 22 29 28 33 27 35 36 34 26 20 18 28 35 26 24 31 35 28 21 31 36 27 27 18 37 31 25 20 18 26 24
22 21 35 32 37 25 20 27 37 18 25 20 22 25 33 37 30 29 36 31 26 21 23 35 29 33 31 38 22 32 21 32 30 25 25 36 26 25 28 26 29 19 37 22 26 18 19 35 37 29 35 33 26 33 29 20 20 34 25 28 30 34 21 26
38 30 33 20 22 20 27 38 26 34 19 18 29 32 37 23 33 32 28 28 26 37 28 23 27 30 26 35 30 37 27 29 34 28 37 30 30 33 23 36 18 32 27 34 22 25 22 34 28 32 18 21 33 28 38 24 19 22 25 38 35 31 32 37
21 35 31 37 33 30 21 21 38 25 27 27 20 36 19 22 21 34 20 32 38 23 38 27 22 19 35 27 31 23 31 25 18 33 34 28 27 33 24 27 32 30 35 30 32 20 27 21 18 34 22 36 28 20 26 20 25 28 20 21 38 27 23 18
27 30 25 23 35 38 27 21 26 26 20 37 29 20 30 23 27 30 20 21 32 36 26 25 22 23 18 28 35 25 31 38 20 35 26 31 32 29 37 20 27 35 36 25 28 18 32 36 25 36 27 35 31 28 20 38 37 36 18 38 37 20 35 20
21 20 32 37 28 22 22 32 25 30 20 31 34 36 22 18 34 28 23 30 19 34 31 34 32 18 38 37 35 37 30 32 20 24 19 19 37 32 21 31 27 24 35 33 27 24 24 28 36 21 25 36 33 29 20 31 34 33 24 36 35 18 37 23
26 34 37 35 18 32 20 27 27 25 35 25 28 23 20 20 20 19 26 28 22 32 33 28 36 28 37 34 31 19 32 26 28 28 28 29 37 30 21 18 32 33 32 27 27 36 29 23 22 20 33 23 25 37 26 35 38 31 28 24 26 23 33 35
19 23 30 35 34 31 20 21 27 28 35 33 29 23 30 22 34 18 25 24 24 29 33 22 33 32 22 30 19 18 23 28 25 31 22 25 20 31 28 21 27 29 18 21 27 18 35 22 19 22 22 19 27 27 26 23 21 29 18 38 26 31 22 26
33 38 33 20 36 18 22 23 34 38 36 21 26 24 32 36 37 24 25 21 37 20 31 26 26 27 38 38 22 20 18 23 35 23 30 32 28 30 19 33 28 22 26 24 32 33 36 33 28 27 27 30 37 23 28 32 24 18 32 32 30 38 28 25
24 34 20 25 30 27 19 19 31 28 28 19 29 32 24 18 21 38 34 21 30 23 18 22 34 31 21 33 22 35 18 30 35 37 24 19 38 31 24 36 18 22 21 34 19 33 33 29 26 30 29 26 38 37 37 20 29 22 24 30 36 35 22 22
31 19 25 25 35 23 37 30 26 28 30 18 20 18 24 20 24 32 30 20 25 37 32 23 33 24 22 28 22 24 21 38 35 32 36 31 25 34 29 36 26 20 38 37 32 19 23 29 20 34 19 21 33 22 24 18 38 27 31 38 21 30 28 36
32 27 20 28 22 31 34 21 35 22 21 31 18 18 20 23 29 37 19 30 26 26 34 20 22 33 23 19 33 29 34 28 26 33 32 21 26 32 27 28 38 20 19 21 21 36 27 34 33 24 34 30 21 21 20 27 36 20 35 34 28 35 22 25
32 37 29 30 23 28 33 35 33 38 38 30 31 30 31 23 37 27 26 20 33 29 38 34 20 26 31 35 21 35 33 23 29 26 34 28 31 26 30 36 32 24 33 19 29 29 35 34 30 22 18 21 31 33 29 20 29 31 38 27 19 25 37 20
25 27 36 32 21 37 22 23 37 30 38 22 24 22 36 18 32 22 27 33 35 31 23 23 27 37 34 28 31 34 27 23 31 32 26 36 19 31 37 38 22 33 35 26 34 29 30 19 32 22 22 36 26 30 25 24 28 30 21 25 19 28 27 37
34 26 30 26 28 22 18 30 20 25 23 18 21 29 24 28 22 31 34 25 18 33 26 21 27 28 38 21 34 25 30 24 36 20 24 24 34 32 26 38 23 33 32 21 22 28 28 26 35 32 23 18 37 35 28 31 37 28 22 38 19 25 24 27
22 35 34 37 22 24 37 28 30 29 28 30 23 21 19 30 24 21 21 32 25 38 27 31 37 31 24 30 19 37 33 20 30 26 37 33 21 18 34 35 20 35 35 37 27 32 29 21 19 33 20 31 28 29 33 36 18 32 28 23 21 31 28 23
23 35 30 28 36 22 35 36 22 30 22 29 31 36 18 20 27 20 29 35 31 31 20 24 35 24 35 29 32 30 32 19 26 36 21 32 38 35 23 25 33 18 30 18 25 37 20 38 19 19 19 22 28 20 20 29 34 18 23 28 34 25 18 26
19 28 27 27 27 20 18 31 31 23 20 35 28 28 37 24 37 32 32 27 26 37 36 35 30 26 27 34 33 21 36 33 35 36 35 38 25 34 31 24 27 35 29 25 22 35 23 30 34 29 29 25 30 28 21 18 24 21 36 33 19 34 32 27
34 30 36 38 28 27 25 23 23 30 33 30 25 18 23 33 32 37 31 42 36 27 35 33 36 29 33 20 38 35 22 20 37 20 33 20 35 39 32 38 44 41 29 40 40 44 41 32 37 36 32 38 30 21 36 32 21 33 38 37 21 34 28 29
26 38 34 20 19 33 34 19 21 38 38 26 18 35 33 31 45 45 30 41 29 29 37 46 44 32 37 28 40 27 31 39 26 41 31 30 36 29 37 43 36 31 41 46 44 43 47 29 36 44 23 35 28 35 38 20 31 35 29 18 35 30 26 19
31 21 30 22 22 38 32 28 20 24 34 39 23 35 29 45 38 38 51 42 39 40 35 46 32 34 30 39 42 41 35 30 43 41 35 38 43 30 34 38 47 47 42 39 40 40 52 36 43 37 37 33 21 30 26 25 22 32 22 18 21 19 18 21
35 30 34 21 23 22 34 23 26 22 32 26 36 37 29 51 43 38 52 41 52 57 49 39 42 38 38 51 58 50 46 42 40 42 55 46 56 44 56 41 41 41 57 41 54 42 44 40 35 50 29 45 40 25 19 28 35 31 27 37 30 29 23 32
32 24 21 21 18 22 18 35 33 34 25 44 37 36 41 50 38 39 46 57 48 46 46 53 48 57 53 56 60 56 59 60 56 55 53 64 56 51 66 55 64 50 57 55 58 42 40 53 37 52 33 32 28 38 24 32 27 31 25 38 29 19 26 36
19 26 30 34 32 29 28 33 18 23 35 37 32 50 47 55 49 53 61 60 65 57 64 68 72 73 58 76 60 61 68 51 68 50 70 56 65 71 68 55 71 61 60 59 63 53 62 60 51 54 43 48 36 35 38 26 34 36 23 32 28 28 32 22
38 19 26 25 35 29 28 19 35 25 26 32 49 52 38 42 51 56 48 66 62 56 63 66 78 72 70 69 77 65 74 63 64 76 77 79 80 79 82 72 75 65 75 62 68 52 59 61 53 58 38 55 32 48 38 36 34 36 23 34 36 20 32 20
27 24 31 29 31 38 32 38 36 29 36 44 34 46 61 56 49 61 69 57 67 74 72 75 83 86 84 86 75 80 77 74 81 87 74 74 77 87 81 91 84 83 72 79 70 72 52 49 54 57 42 53 38 37 39 26 20 18 27 18 34 25 20 35
27 23 27 26 19 19 25 31 35 26 36 50 45 41 44 64 56 68 73 57 79 69 87 92 84 83 96 90 95 99 83 79 98 93 88 86 92 85 92 90 84 88 76 85 75 69 69 66 53 49 59 53 49 35 47 35 33 21 19 23 33 28 30 34
25 37 23 26 35 25 18 32 38 42 49 40 56 56 56 53 64 69 70 65 88 85 82 93 87 88 100 100 97 90 84 86 86 86 92 94 105 89 94 96 85 96 83 88 78 65 65 64 58 57 53 53 48 40 39 35 36 26 23 21 19 19 27 23
30 23 27 34 33 29 32 27 32 47 36 37 41 46 52 62 62 57 65 69 86 95 87 94 97 93 106 106 107 93 102 107 106 110 96 96 99 94 108 99 97 98 94 92 77 69 65 77 68 55 53 50 44 54 32 37 25 26 35 34 19 38 31 18
20 20 36 29 34 19 22 29 36 45 31 55 57 58 55 68 61 66 83 85 83 98 101 108 101 113 99 110 118 101 102 106 108 114 116 114 115 105 112 115 96 112 109 99 95 93 85 72 61 65 58 51 47 44 34 46 39 20 23 28 35 26 32 26
19 23 19 26 28 20 33 37 37 37 44 48 53 45 66 64 58 75 88 93 93 102 107 111 104 106 106 117 103 113 111 114 129 125 105 103 123 113 120 112 104 106 106 106 105 90 82 70 66 69 65 47 41 41 32 45 36 31 28 35 27 37 20 26
31 23 31 34 19 36 37 29 34 30 49 49 53 49 66 69 69 78 77 90 93 95 108 99 115 120 111 106 124 111 114 119 126 124 110 124 115 116 121 110 103 99 97 101 102 93 68 63 72 64 52 61 41 49 34 39 29 29 25 20 29 18 21 32
33 23 26 26 30 30 21 22 29 29 36 43 57 62 60 61 61 72 70 90 93 96 110 106 110 120 116 109 126 123 117 120 132 134 134 130 115 127 113 123 103 111 104 104 90 81 69 72 70 53 64 42 40 42 32 46 28 27 36 23 19 28 35 25
30 24 29 36 25 34 35 21 27 41 42 35 49 55 65 66 61 74 82 74 88 92 109 115 108 116 120 119 127 113 135 125 143 124 135 116 117 111 110 120 119 97 101 95 90 80 73 69 63 56 53 51 54 54 36 43 31 39 26 25 18 29 24 31
36 24 18 19 22 18 22 20 23 43 40 35 39 48 44 60 67 69 63 82 85 101 103 106 108 112 106 125 120 129 124 139 134 135 134 123 117 109 119 105 103 94 106 91 92 88 69 61 57 51 53 57 42 43 36 33 38 27 30 25 29 32 22 29
32 21 34 20 38 31 34 33 40 28 41 48 42 45 44 44 57 50 66 82 91 80 93 97 101 101 102 121 124 114 113 124 129 130 113 125 107 110 110 104 95 106 100 89 88 83 65 58 51 63 44 41 43 46 30 28 29 30 22 37 26 37 24 28
18 29 25 31 34 24 29 28 19 23 42 49 42 36 58 49 59 52 57 62 80 92 92 103 98 101 115 109 112 124 106 124 120 109 113 114 113 99 113 95 90 104 85 85 70 73 70 50 53 54 58 47 33 30 28 31 29 30 32 38 38 36 21 34
22 36 22 20 34 21 18 33 20 27 34 38 34 37 51 49 58 51 57 61 74 85 76 93 92 95 104 95 103 105 116 109 100 110 100 100 104 101 97 88 89 88 82 84 75 62 64 48 59 38 49 43 34 26 25 26 33 25 23 38 33 19 36 26
34 33 26 25 25 26 22 30 24 38 21 44 39 44 37 50 53 50 57 51 77 80 80 73 77 81 85 104 90 100 95 107 93 91 108 105 102 106 101 87 89 84 69 77 63 67 61 38 43 43 38 45 41 24 41 23 28 21 27 31 21 31 21 33
32 23 38 23 22 38 26 36 22 25 20 39 33 33 33 34 52 55 38 45 61 57 79 86 71 76 79 94 86 102 91 86 99 83 96 102 82 91 95 94 90 80 74 74 52 61 53 38 50 40 34 38 36 21 24 28 37 28 33 29 31 29 37 29
28 35 37 27 19 22 19 19 35 19 22 24 28 32 27 32 42 50 43 43 57 68 74 73 78 75 69 81 82 80 92 75 76 79 75 89 88 88 78 78 65 74 74 50 57 58 49 48 35 34 36 31 41 28 27 34 37 29 24 27 18 29 23 19
23 33 32 29 34 20 21 31 18 36 22 31 21 33 35 44 34 43 29 51 48 43 60 67 58 73 78 71 82 65 79 79 82 70 78 81 76 81 71 76 65 51 48 44 50 52 48 27 40 39 41 38 37 38 24 27 38 26 26 32 30 34 32 34
29 21 27 24 25 33 36 35 37 21 32 31 23 30 38 24 40 24 34 40 48 52 48 61 51 66 55 58 73 61 72 64 71 71 65 59 68 63 62 55 62 45 49 54 51 31 33 43 22 23 39 22 21 29 31 29 20 21 21 20 28 20 20 26
20 36 34 35 22 18 22 18 36 36 36 20 23 26 38 33 23 26 30 32 34 44 47 56 50 43 62 58 61 60 62 65 69 61 61 62 52 54 55 44 43 39 33 30 23 31 21 28 39 31 37 27 27 32 28 30 36 18 28 22 26 26 29 38
24 22 24 37 37 38 38 28 31 22 31 32 20 30 26 34 32 24 35 37 25 34 29 29 50 42 47 62 47 61 60 61 70 69 60 59 63 52 46 42 45 35 25 38 36 37 38 33 20 32 32 18 23 30 21 32 35 30 19 23 19 25 23 36
38 21 34 21 20 22 31 35 22 18 26 18 24 25 38 18 28 21 25 38 28 25 20 31 35 43 38 51 40 43 50 51 45 50 61 45 39 52 39 44 45 39 20 24 33 19 26 33 37 34 21 18 27 38 21 18 38 21 23 18 18 36 24 31
26 26 33 27 32 35 38 22 24 28 23 38 30 21 30 26 35 29 36 18 23 23 38 21 41 35 29 44 42 38 53 46 42 40 36 53 34 48 47 43 42 38 21 36 20 36 30 31 21 18 31 38 25 28 23 29 32 24 32 28 30 21 33 28
31 19 31 33 38 21 21 23 38 29 32 37 34 29 21 36 18 37 28 27 31 23 24 38 32 27 35 30 41 34 47 35 33 33 50 45 30 28 29 35 20 22 28 37 22 37 23 19 32 34 32 32 37 33 25 21 18 29 35 25 37 37 26 18
38 31 32 31 25 18 36 22 21 27 21 32 24 35 20 19 25 29 28 29 21 26 23 23 38 30 38 26 21 33 31 44 25 38 29 43 40 26 29 36 36 19 32 30 20 31 28 32 21 35 29 33 18 30 18 26 24 27 37 31 25 37 36 34
35 31 23 31 27 19 19 35 33 30 23 30 23 20 27 22 19 29 34 38 35 26 30 19 36 32 19 33 34 33 19 36 35 21 32 34 23 25 23 23 26 20 18 33 23 28 25 19 27 29 18 33 38 20 25 32 35 18 29 19 32 30 25 23
35 19 18 26 31 27 26 30 32 35 33 35 30 25 28 31 37 18 33 23 20 30 25 37 19 36 22 32 23 28 24 30 33 18 35 32 35 21 19 29 24 25 22 21 21 33 33 38 29 24 38 27 30 24 34 22 21 25 36 21 26 35 31 24
35 30 31 24 31 38 19 38 31 33 20 18 20 30 38 18 34 22 29 26 36 29 24 30 38 33 26 29 35 25 18 29 21 36 30 20 23 36 38 20 31 28 32 26 35 18 38 38 36 29 23 28 26 20 31 24 26 19 20 27 27 36 37 24
24 34 18 22 36 25 19 36 22 34 36 18 25 25 21 26 18 18 22 20 26 18 27 36 35 22 19 37 24 36 30 32 23 25 33 20 19 31 35 29 27 36 36 18 35 29 27 27 18 29 26 30 35 29 26 22 35 22 22 38 36 36 33 25
34 20 18 23 23 25 28 22 35 38 25 19 36 32 34 37 33 36 30 30 27 30 26 24 32 26 38 26 31 32 22 34 35 28 21 27 21 26 31 28 24 33 30 26 38 28 38 21 23 28 30 35 26 20 25 20 26 21 19 31 32 33 21 19
28 18 37 24 27 23 34 38 35 34 34 24 26 31 33 27 31 27 30 18 37 31 19 28 19 34 25 33 33 18 19 32 36 36 31 35 33 19 19 33 37 25 20 31 34 22 20 32 37 38 19 34 22 27 35 20 29 22 19 24 34 37 27 30
34 37 27 29 18 38 31 19 38 33 37 34 33 36 23 37 20 23 28 33 18 37 29 19 37 36 26 36 30 31 25 33 24 25 31 19 38 19 31 24 33 35 34 28 27 36 34 37 35 38 31 26 29 36 24 29 27 25 27 21 38 24 28 24
31 19 26 28 35 31 20 30 38 27 19 36 23 27 24 21 26 30 25 18 28 31 29 23 33 33 19 22 29 20 31 32 24 36 22 34 27 28 20 28 23 20 37 34 32 29 34 29 27 23 31 18 38 28 36 20 32 33 30 36 27 18 26 37
23 19 21 28 32 22 35 27 28 23 33 18 31 28 25 20 32 30 27 38 20 38 35 38 19 33 20 21 18 21 18 25 34 34 33 38 24 19 30 33 28 34 19 34 37 26 34 22 35 27 25 33 22 32 38 25 23 29 29 24 25 31 25 33
32 23 27 23 20 34 36 18 31 38 32 21 38 28 25 20 24 33 18 34 36 34 29 22 38 28 31 28 32 25 21 25 32 22 18 25 19 20 30 29 24 38 25 32 23 27 30 21 28 19 36 19 34 32 19 19 18 28 37 30 20 37 38 26
37 25 21 23 23 23 33 36 22 34 31 35 36 21 18 28 23 38 33 35 27 28 24 37 20 28 24 31 30 30 28 33 37 24 21 24 31 27 30 32 19 24 26 31 33 32 26 35 29 30 21 23 28 32 35 36 24 23 18 33 27 22 37 34
24 35 27 34 29 35 24 24 26 28 28 25 23 20 27 32 31 18 19 28 28 19 28 19 38 27 34 37 18 23 29 20 36 19 26 19 20 31 29 20 27 37 32 30 34 32 18 21 37 36 34 29 25 30 38 30 22 27 24 28 32 27 19 30
21 25 19 27 19 30 37 25 31 24 29 33 32 32 38 22 31 32 30 33 21 24 36 19 25 36 35 18 33 34 36 37 38 32 26 27 29 33 19 26 29 23 18 35 18 37 18 20 33 33 38 29 29 30 27 24 27 25 27 24 19 31 33 33
