P2
64 64
255
21 17 24 20 26 16 22 14 17 15 22 23 14 16 14 20 19 18 20 14 19 24 20 15 20 18 15 18 24 23 16 14 26 14 18 15 19 17 23 14 19 14 18 22 21 15 24 23 14 22 14 17 23 18 14 15 25 23 23 17 17 23 14 17
14 18 26 24 23 26 20 16 26 17 25 24 23 17 21 21 14 18 22 18 15 15 24 21 20 21 24 20 15 25 25 21 20 21 14 22 14 26 17 21 17 19 19 25 19 19 21 14 26 16 14 14 19 15 18 15 24 26 21 16 15 23 20 16
18 21 24 20 17 20 19 26 14 16 21 14 24 14 23 20 24 19 22 17 23 25 23 19 19 21 24 25 25 22 24 19 23 19 16 14 22 15 26 25 20 25 25 26 19 15 14 14 16 26 15 25 24 19 21 14 17 24 23 15 15 26 20 26
24 15 25 19 18 24 22 26 15 16 15 23 17 25 25 14 23 22 21 17 25 15 25 23 19 17 23 16 17 19 22 25 18 19 16 19 16 16 26 20 23 25 19 15 22 14 23 14 14 14 21 20 26 25 17 21 15 24 16 26 16 22 17 17
25 21 18 20 25 20 22 17 19 21 24 21 17 22 19 14 23 15 19 26 19 15 17 20 14 24 24 20 19 15 23 24 19 21 17 25 24 20 15 24 14 18 17 22 23 21 20 24 25 15 23 17 22 15 17 24 15 26 23 15 26 14 23 18
20 18 18 21 19 23 18 18 25 21 20 16 17 24 14 18 20 18 20 15 24 25 23 14 18 25 23 23 15 22 15 25 18 21 19 25 19 16 14 22 14 22 26 24 15 15 16 20 23 21 22 22 21 23 14 23 15 26 17 15 16 20 21 21
18 14 21 25 21 25 24 20 19 22 25 19 21 17 15 19 18 19 17 18 25 20 18 21 20 25 14 16 26 24 21 21 25 25 25 14 15 19 24 24 25 16 19 23 26 24 19 25 18 20 25 15 14 17 22 15 23 22 23 25 20 19 16 25
23 22 24 22 19 19 21 21 15 19 26 19 22 23 20 17 20 15 24 26 16 25 25 18 19 22 18 26 16 19 21 25 14 18 18 16 25 20 21 15 24 19 20 21 19 14 20 18 14 26 26 19 17 17 15 17 24 21 19 19 15 17 23 19
20 19 14 17 16 24 20 16 15 15 15 14 23 14 26 16 17 14 23 14 20 20 25 25 22 17 15 22 17 23 20 17 19 26 23 24 22 15 18 20 24 18 15 17 20 21 21 15 18 21 25 17 21 18 17 22 18 22 16 14 16 22 18 21
19 26 21 26 18 14 23 23 19 18 19 26 15 15 25 17 20 14 19 20 22 25 21 14 20 17 16 23 20 21 17 22 15 19 21 23 22 14 17 22 22 24 23 22 22 20 20 23 22 18 26 15 24 21 19 15 19 21 18 26 25 25 17 17
23 20 23 17 14 20 18 24 25 18 21 19 14 26 14 14 20 25 19 15 17 21 26 19 20 23 20 24 15 24 14 21 22 25 25 17 14 23 15 24 19 17 25 20 26 15 18 18 21 25 24 26 24 25 23 24 24 20 25 14 20 18 14 18
23 14 22 16 14 15 19 25 22 22 14 20 19 25 14 22 17 17 22 15 18 22 25 24 18 23 18 16 14 15 20 17 16 25 16 17 15 22 16 18 23 19 22 19 14 23 16 17 23 19 25 14 18 14 14 14 15 19 14 17 16 25 22 15
20 21 16 16 26 20 22 23 26 23 17 14 14 15 15 24 17 25 24 23 14 15 21 17 19 24 23 21 14 21 23 16 20 19 14 26 20 25 23 26 19 14 22 15 24 24 17 26 17 25 23 15 26 24 26 26 25 24 17 26 21 24 24 22
19 20 22 18 21 15 16 15 18 25 21 19 24 17 26 14 19 15 19 25 18 18 22 16 18 14 15 26 17 22 18 14 19 26 15 21 26 21 16 15 19 18 20 17 19 15 26 22 17 22 24 14 19 23 16 23 14 24 19 17 20 21 25 14
22 23 25 24 17 23 17 15 22 25 15 19 22 26 19 19 19 19 23 26 18 21 14 16 20 16 22 15 24 19 17 18 18 16 21 18 25 16 14 16 24 24 18 20 22 24 23 20 14 18 19 14 21 25 22 23 15 20 18 21 14 19 26 21
15 19 18 19 18 15 19 26 22 16 19 14 21 26 17 26 18 22 23 18 25 14 19 20 22 18 19 16 15 20 16 21 15 26 15 25 16 16 19 16 23 23 25 21 15 24 19 21 20 25 16 16 26 25 15 16 26 26 16 25 17 18 20 20
22 14 23 21 17 26 26 19 22 19 24 17 15 20 19 17 18 19 26 24 19 16 17 26 22 23 14 23 16 15 26 24 24 24 22 26 20 19 16 20 26 24 23 24 26 25 17 17 16 21 24 20 15 26 18 25 17 24 15 15 24 26 15 20
24 23 17 16 25 14 20 21 20 18 26 17 19 21 22 16 19 18 24 18 16 20 26 15 14 18 26 16 23 22 23 25 24 22 23 24 19 23 19 17 21 20 23 25 16 22 16 18 14 24 15 26 14 24 23 16 18 15 21 19 15 24 19 16
26 17 15 17 19 25 17 20 19 25 18 23 15 20 14 26 22 16 25 16 20 16 23 16 16 26 23 24 21 24 14 20 21 19 14 22 15 25 23 16 25 14 23 26 24 22 17 23 25 14 14 15 15 23 19 25 25 20 25 23 25 24 19 19
21 15 25 22 23 21 24 16 17 19 18 21 25 19 21 17 27 24 25 25 28 25 25 23 22 17 24 18 25 16 24 16 22 26 24 24 24 24 15 26 16 29 23 25 21 26 27 28 15 16 14 23 15 15 18 26 23 26 21 16 14 26 19 23
19 21 26 14 26 15 16 18 15 20 21 18 20 22 27 24 27 27 31 25 28 26 31 21 29 23 18 15 14 24 18 20 18 18 22 16 26 19 22 29 26 28 26 29 28 27 32 24 23 27 26 25 23 21 18 24 18 18 20 17 14 14 19 23
24 15 22 19 19 16 21 15 22 19 14 20 14 24 30 25 32 35 31 31 25 32 37 30 33 23 31 19 23 17 21 20 27 25 26 16 18 19 28 28 25 30 27 31 29 36 29 34 26 28 25 28 18 15 22 15 14 22 15 19 22 14 25 24
14 25 14 25 21 18 24 26 26 22 20 22 24 26 27 29 32 33 34 29 31 40 33 34 33 29 30 28 35 36 24 23 29 35 28 31 28 36 32 33 32 40 35 32 29 39 36 36 29 24 26 27 17 25 20 20 24 20 20 19 22 18 16 17
24 26 22 16 25 22 16 22 25 14 24 17 26 29 27 31 37 35 42 37 36 38 35 34 42 44 37 45 43 45 33 34 39 31 36 37 45 44 41 40 37 32 35 43 44 34 37 41 31 29 36 27 22 17 24 25 15 14 17 16 25 16 24 19
26 14 15 20 23 24 17 26 25 23 27 23 24 34 34 42 34 41 44 49 39 38 48 50 52 45 48 43 55 46 45 45 44 50 46 42 51 53 45 53 52 50 39 46 46 43 38 41 35 36 34 33 35 32 17 22 17 21 26 24 17 25 24 21
22 20 19 25 17 15 15 15 24 16 25 31 37 32 34 42 39 46 50 42 49 43 48 54 51 58 52 62 57 59 48 51 54 53 50 61 56 60 55 53 56 55 46 43 46 42 40 38 42 37 32 37 30 30 31 21 19 26 26 21 19 21 16 14
25 25 23 24 16 18 17 24 26 20 26 28 38 36 41 42 44 47 50 44 51 52 55 59 57 70 62 71 64 65 59 66 60 64 66 68 63 72 66 64 65 64 60 55 46 56 49 51 43 42 34 40 36 37 23 20 15 21 17 18 14 14 26 20
15 23 26 21 21 22 14 23 27 20 26 30 36 36 49 49 51 53 57 59 57 65 72 65 66 77 68 80 69 74 74 65 75 66 73 72 73 76 78 76 69 65 71 63 59 60 54 57 45 40 49 38 33 32 34 22 27 22 24 24 25 21 15 24
16 26 21 16 18 24 15 16 27 30 28 29 39 43 46 44 56 51 54 62 71 72 72 80 74 85 86 85 82 75 75 79 79 83 84 76 75 76 75 78 75 80 74 76 63 56 51 54 52 52 39 43 37 33 31 29 26 17 14 19 23 18 17 14
18 26 20 24 23 24 17 21 21 24 27 41 43 39 48 55 50 62 61 71 78 77 78 87 81 83 85 93 89 83 80 88 86 84 91 87 83 93 93 87 90 90 84 74 77 59 58 60 51 51 41 43 44 31 37 32 28 27 23 22 23 16 25 23
19 19 24 17 18 23 20 20 23 27 28 35 36 41 50 48 50 60 62 70 74 88 85 95 87 95 97 95 94 94 99 95 94 94 92 92 98 95 97 88 93 93 83 77 77 66 58 58 55 51 46 50 36 40 30 29 25 18 18 25 18 21 20 26
16 19 14 16 26 26 23 27 32 29 38 33 46 44 53 50 63 58 70 73 80 93 92 91 97 101 95 94 107 94 106 107 102 97 103 96 100 101 102 95 94 93 93 88 83 80 73 60 58 52 48 42 42 32 28 30 28 26 24 22 21 14 17 20
14 18 15 19 15 20 14 24 32 30 35 42 41 49 54 54 54 60 74 83 91 93 98 104 102 102 103 100 111 105 104 107 107 107 109 101 105 102 99 97 98 97 103 96 88 81 64 59 52 55 47 49 42 38 39 26 30 27 15 25 26 23 20 19
14 22 17 17 26 17 23 16 30 23 39 31 46 39 47 56 57 62 64 78 89 91 92 106 106 109 105 112 112 108 112 113 118 116 117 112 109 102 112 109 102 98 93 94 88 74 76 64 59 59 43 39 45 43 39 33 28 21 25 23 22 18 21 26
20 15 26 20 24 26 20 15 31 23 34 40 45 42 53 58 56 60 64 79 90 88 100 102 107 108 110 104 112 112 119 124 119 122 115 111 113 113 104 105 105 104 97 93 89 73 68 65 61 51 54 40 39 33 31 35 28 25 14 23 24 18 17 23
14 19 15 14 16 26 17 18 22 30 37 39 39 37 47 49 52 53 66 75 84 87 95 101 103 100 101 112 118 113 118 120 123 122 112 119 108 103 111 108 97 98 87 84 79 75 61 62 54 48 44 49 45 42 36 32 22 24 24 18 14 22 21 22
22 16 21 22 23 26 15 15 29 22 36 30 43 37 51 52 51 56 64 74 83 91 85 94 97 97 103 103 111 110 119 125 133 119 113 109 110 104 111 103 102 100 92 87 75 71 68 62 45 45 50 41 34 35 32 26 22 25 14 16 21 24 25 25
22 17 17 24 16 18 17 23 16 29 25 35 40 34 39 40 51 52 58 69 77 80 92 90 93 94 100 105 114 114 111 113 113 119 110 111 106 101 103 100 100 90 89 77 74 68 55 50 42 46 42 34 32 28 25 24 27 18 20 25 20 16 23 16
16 18 16 23 20 21 15 21 25 19 33 33 34 35 46 40 43 46 56 57 71 70 83 88 84 91 99 95 97 108 105 109 107 111 107 101 97 96 94 100 85 81 84 73 76 58 53 49 46 48 43 40 34 26 28 20 23 15 15 18 16 25 14 26
18 16 26 14 19 18 18 18 16 25 21 27 37 40 37 34 48 49 47 55 66 72 80 85 90 88 99 96 92 98 103 93 93 105 97 95 100 95 93 94 87 77 75 76 66 56 47 47 40 37 32 29 31 29 23 27 25 25 24 19 14 20 15 21
26 23 19 21 14 26 19 18 17 21 18 25 33 35 32 31 36 42 46 56 64 59 72 72 84 85 85 87 88 87 93 93 91 90 92 98 89 85 90 87 78 74 75 59 53 59 46 36 41 43 40 27 33 24 19 25 21 23 16 26 19 26 24 23
22 21 25 24 26 19 23 26 15 18 21 22 30 34 27 29 31 39 36 48 53 64 61 74 69 73 80 77 77 88 87 80 82 87 81 78 89 84 74 77 79 66 59 62 52 46 40 32 31 37 31 30 29 29 15 14 19 20 18 16 14 19 20 14
25 17 15 19 26 17 22 16 26 23 20 21 27 30 23 34 36 30 28 38 46 47 54 65 61 64 74 71 70 79 77 73 78 82 75 80 69 77 67 74 67 64 62 57 51 37 35 37 29 30 25 32 20 25 21 17 20 17 14 22 22 17 15 23
16 17 15 25 19 16 25 23 17 25 25 23 16 29 27 29 30 25 33 28 40 42 53 58 63 57 62 67 69 67 71 73 76 64 65 61 67 63 58 61 54 51 54 38 34 37 34 25 26 32 28 27 17 17 19 25 16 20 24 17 18 15 19 24
25 22 19 25 16 15 25 21 16 24 21 22 22 19 22 27 28 27 21 27 30 34 46 44 52 47 49 55 55 66 57 64 65 59 69 65 59 53 54 48 47 49 41 37 29 25 25 31 25 22 20 26 14 19 21 21 25 20 21 16 25 24 17 23
15 17 20 24 14 14 26 20 14 17 21 19 19 23 26 16 21 24 17 25 20 36 35 39 39 46 45 50 47 49 63 60 60 59 61 53 52 44 45 45 43 41 32 30 21 21 28 17 27 24 14 26 18 24 15 21 19 20 17 25 20 22 22 14
23 19 16 20 18 24 14 15 22 22 14 26 25 19 19 24 21 21 19 19 20 21 31 33 34 33 43 49 48 46 50 46 49 46 50 55 47 50 47 33 33 35 24 25 15 24 22 15 20 15 20 20 15 23 18 25 24 18 21 18 20 16 21 22
21 26 16 21 21 20 24 18 20 15 16 17 21 18 19 21 16 21 18 16 17 14 17 24 34 34 39 43 41 41 46 47 51 44 43 43 35 43 42 34 34 27 24 22 19 16 15 15 23 23 25 25 20 14 20 22 22 19 24 23 25 17 17 16
26 19 18 25 20 15 16 26 21 14 18 18 24 23 24 15 24 19 25 21 24 23 26 22 21 33 26 32 30 42 41 43 45 35 37 37 37 35 27 30 28 20 20 14 26 23 18 16 25 21 22 25 25 23 22 21 14 24 20 14 14 20 16 25
23 17 17 16 24 26 21 15 19 26 19 26 16 25 14 26 16 19 18 14 20 21 25 18 23 21 23 24 29 31 31 31 30 28 37 26 25 33 30 22 21 23 23 19 21 14 24 21 17 15 20 15 26 21 24 25 24 15 15 20 18 21 15 19
22 15 26 15 22 18 19 19 15 17 23 18 19 19 14 18 24 23 15 26 25 20 15 16 17 20 23 23 23 30 32 25 23 22 31 24 28 20 19 22 24 20 17 21 22 20 20 26 26 15 22 14 14 18 26 18 18 20 20 26 16 25 20 25
19 20 24 26 21 15 14 17 26 21 20 16 15 20 16 15 26 22 15 14 21 26 17 20 26 25 18 20 22 24 20 25 19 18 24 19 18 16 21 26 19 24 19 24 24 20 26 23 20 15 24 22 22 22 20 16 19 26 20 15 24 25 15 17
23 25 19 15 17 17 26 24 25 21 18 23 16 25 14 15 20 25 17 15 24 22 18 24 14 17 21 21 21 20 24 16 17 23 21 22 21 25 15 20 19 26 20 14 16 21 23 15 17 19 22 17 18 21 22 24 26 21 24 24 24 19 21 22
15 26 26 21 16 16 17 17 16 14 18 18 23 20 20 14 14 26 21 20 18 25 21 14 17 18 19 20 18 16 19 24 24 26 15 16 14 26 22 15 18 14 15 21 16 26 22 26 19 20 17 18 26 18 16 21 18 22 25 20 21 18 21 16
14 25 19 20 18 15 26 17 15 21 18 21 24 21 19 21 17 15 21 20 25 17 20 18 17 17 16 22 20 14 25 17 25 22 24 23 17 19 14 19 21 22 26 16 16 25 22 15 24 23 25 21 25 23 24 17 26 18 16 26 21 26 24 21
16 23 16 20 25 17 24 20 24 16 14 22 19 18 25 23 24 14 22 21 17 18 23 18 22 22 22 16 24 24 21 23 26 26 18 21 20 17 22 22 23 17 17 18 23 14 26 22 20 22 14 25 20 18 22 25 25 20 19 23 21 23 26 14
23 17 26 26 21 23 20 26 24 21 14 15 23 14 23 15 25 21 18 21 23 20 16 20 19 22 24 18 22 17 26 23 23 26 26 26 20 20 24 25 14 23 21 18 18 25 20 19 14 25 17 19 16 21 21 25 14 14 20 14 22 23 18 16
23 25 23 22 26 26 14 20 21 18 22 16 24 20 21 17 16 23 15 15 23 23 23 14 26 18 25 26 22 15 16 26 18 26 18 21 17 15 20 20 22 18 14 14 19 15 22 22 15 15 21 23 15 26 26 23 21 23 20 24 21 21 25 18
23 24 24 15 14 24 24 25 24 17 22 24 19 23 18 23 14 24 25 15 25 24 18 23 18 21 25 15 25 20 20 26 24 22 26 14 25 18 24 24 14 21 24 16 19 25 19 17 16 18 20 17 22 21 24 18 24 25 16 16 23 21 17 22
24 17 20 20 15 22 22 18 22 22 24 18 21 14 15 17 14 22 17 23 17 18 17 24 25 17 20 16 26 18 26 26 24 14 25 15 17 16 22 16 24 19 25 23 26 18 25 25 26 15 16 25 24 26 18 17 24 15 16 15 19 16 21 17
15 26 15 26 22 14 14 19 20 16 17 21 18 19 17 23 23 19 15 22 14 18 21 19 18 25 25 24 20 15 19 19 19 20 22 18 23 14 21 25 15 22 23 21 14 19 25 15 22 25 24 24 26 17 15 14 24 18 23 23 15 25 16 17
23 21 22 20 24 14 16 15 20 25 25 20 22 18 14 17 18 25 17 16 23 15 23 22 25 24 24 19 14 15 24 15 17 14 17 21 19 23 21 21 14 23 20 17 14 15 21 22 20 17 23 20 22 20 26 20 26 24 22 22 20 16 21 26
15 21 16 17 25 21 18 18 16 24 19 23 22 19 22 25 15 22 16 17 17 17 25 21 20 24 22 14 23 19 16 14 19 26 26 16 25 18 21 14 19 15 24 23 14 14 14 17 20 16 19 20 14 24 24 18 21 23 23 23 21 24 17 23
26 25 15 22 26 20 19 21 21 19 14 22 22 24 20 24 20 16 16 16 21 19 21 23 26 16 19 24 26 23 23 17 26 24 18 22 15 19 21 16 20 20 16 25 20 25 24 14 25 18 15 19 20 22 15 22 22 17 15 16 20 14 20 15
