P2
64 64
255
22 35 18 21 26 25 26 20 21 19 32 28 21 22 34 36 18 20 27 31 27 36 23 29 19 23 20 18 28 25 22 29 29 21 35 33 36 24 26 18 34 21 19 33 30 36 29 27 18 38 26 35 27 23 22 25 30 37 25 33 38 32 27 38
20 25 19 31 36 18 38 27 19 31 20 35 30 20 24 18 19 35 27 24 33 27 29 37 20 30 32 18 38 28 20 24 32 33 21 25 29 18 28 30 27 21 27 28 28 27 22 36 27 18 37 36 26 25 30 24 36 35 31 22 29 36 29 37
19 32 19 21 34 34 30 35 34 29 35 24 22 29 27 34 38 28 29 28 20 35 24 28 28 18 36 24 25 38 19 36 22 23 29 35 38 38 33 25 33 36 26 34 23 30 34 36 22 22 33 23 27 32 25 31 19 25 36 36 35 30 19 36
18 22 29 31 34 26 21 22 26 27 33 26 27 21 31 34 22 23 31 18 21 29 33 22 32 31 20 18 18 20 23 36 28 23 19 26 22 21 22 38 18 28 34 29 19 29 35 21 26 37 25 30 32 30 24 25 34 31 21 38 32 28 37 38
26 25 36 26 35 28 37 36 36 19 29 31 23 22 27 25 26 27 37 21 19 27 18 33 30 29 23 38 20 31 21 32 23 33 23 21 28 36 37 34 18 26 33 21 23 23 18 25 34 27 32 21 33 33 21 28 36 28 26 28 35 19 24 26
23 22 22 36 18 27 30 36 21 19 35 19 33 19 29 21 30 25 34 24 20 24 23 38 22 21 28 36 18 37 19 36 38 26 22 28 20 25 35 31 29 27 26 27 20 34 30 18 38 30 33 21 18 29 36 35 32 32 35 34 36 22 33 25
36 27 24 21 20 20 37 37 38 35 32 36 26 35 35 37 38 30 27 32 35 34 18 31 36 32 32 23 23 35 21 38 36 25 33 21 38 33 37 20 37 25 31 34 35 32 36 33 31 25 31 32 36 23 26 25 36 37 29 38 33 24 22 38
34 21 23 29 22 23 25 36 36 21 18 23 28 33 38 19 31 33 36 25 28 18 28 18 28 35 21 30 35 28 32 37 22 31 38 23 37 26 23 28 18 24 26 25 22 28 24 27 27 19 28 38 21 23 20 36 34 28 18 36 26 36 19 30
27 27 19 25 20 27 22 18 29 35 28 37 34 19 23 24 20 33 25 23 31 29 27 30 27 30 26 32 34 21 26 33 26 36 31 37 37 22 28 20 29 20 19 23 20 32 22 38 23 25 28 36 37 22 37 20 24 18 34 38 36 32 20 30
18 26 29 34 32 30 38 34 36 32 35 37 35 19 35 34 19 23 18 33 27 32 34 25 32 24 25 33 31 34 23 30 30 20 21 36 34 30 32 32 37 27 38 20 19 24 24 25 20 34 27 19 20 21 32 28 22 33 18 30 31 21 38 28
20 37 19 30 24 29 28 37 37 36 21 31 19 24 31 28 34 37 35 21 33 21 30 36 32 33 24 36 22 31 29 26 25 35 31 36 37 35 35 33 26 22 20 21 30 38 35 24 33 31 37 18 24 18 32 23 36 25 36 27 28 31 29 25
21 34 25 28 22 18 27 36 25 18 21 34 25 21 18 21 18 32 36 19 36 31 38 18 34 19 23 23 23 22 25 20 35 29 25 30 22 28 20 20 36 27 32 19 36 18 36 36 29 30 23 18 36 34 22 29 18 31 32 21 33 25 22 27
18 37 38 27 23 32 30 24 37 34 28 31 35 20 28 29 29 27 35 20 29 35 23 19 26 32 37 23 29 29 37 26 33 34 37 25 25 18 19 18 20 33 25 27 24 21 19 38 38 26 25 31 23 22 18 27 19 32 28 29 35 29 24 38
18 28 23 28 38 19 18 36 31 27 36 20 27 35 35 26 35 28 21 27 26 21 19 38 38 38 22 19 32 18 29 31 36 21 29 26 31 27 29 18 29 18 21 34 23 20 36 32 29 38 18 35 30 31 34 24 23 19 19 38 29 38 20 21
23 35 27 27 32 27 21 35 32 24 30 25 20 28 18 21 27 24 28 19 31 20 21 28 19 18 34 35 29 25 25 23 25 24 27 29 36 22 29 37 35 23 25 37 27 35 34 34 27 29 19 30 18 23 19 19 20 32 34 37 24 19 31 34
31 38 35 34 33 38 20 25 24 24 35 26 29 23 37 30 19 32 35 32 18 34 26 23 28 33 32 27 22 32 36 20 27 19 29 28 29 23 27 23 22 22 37 18 19 33 24 21 21 23 35 20 37 20 32 22 18 36 30 30 23 28 30 21
23 29 19 34 28 25 26 36 27 33 29 35 32 38 35 25 18 20 35 30 33 23 38 34 36 25 20 29 26 27 33 34 25 38 29 34 30 21 31 22 23 25 24 26 38 27 34 36 33 23 29 29 38 29 34 29 24 34 27 28 31 21 22 22
33 28 20 34 37 31 21 18 38 31 37 20 35 27 18 27 30 35 31 34 22 33 30 37 25 34 36 26 33 32 34 21 29 35 31 34 30 33 23 31 23 38 34 34 36 31 22 18 26 28 30 33 31 20 34 34 34 21 30 30 37 33 38 27
27 18 20 20 35 19 33 38 21 35 31 35 31 21 22 23 20 24 34 25 35 36 24 18 30 38 23 38 33 36 18 22 23 38 18 21 26 25 20 22 34 24 31 19 30 26 18 21 23 30 24 18 21 37 32 36 18 30 38 19 37 31 37 38
37 34 37 34 33 36 32 19 20 29 21 21 30 24 27 24 23 30 29 25 27 28 23 22 22 34 30 35 25 32 18 31 22 30 29 18 22 21 30 21 33 41 25 31 25 25 24 21 24 36 30 23 31 21 22 37 34 23 37 32 19 23 18 25
34 26 38 20 35 28 27 27 30 21 31 23 33 36 21 24 23 25 30 39 36 31 42 31 44 34 28 36 37 33 30 33 35 28 38 38 19 22 29 33 42 29 26 32 31 25 33 24 29 29 33 20 21 29 32 30 26 33 35 34 38 20 37 20
30 18 20 32 30 23 25 20 33 37 36 24 33 32 31 27 41 38 43 34 39 34 48 37 46 26 31 42 22 24 37 35 28 28 33 34 25 29 33 46 42 46 35 42 36 34 45 29 26 28 24 21 33 31 36 30 22 31 19 21 37 33 27 29
32 30 28 35 19 30 31 18 25 20 23 36 32 29 41 34 30 40 35 47 34 42 52 44 45 39 49 41 36 31 40 41 33 35 47 48 33 32 48 30 32 43 43 39 49 41 32 34 36 28 37 41 22 30 36 20 33 32 27 35 20 34 31 35
36 22 21 30 37 24 30 31 19 36 36 40 30 44 35 35 48 38 51 53 39 51 43 50 53 45 48 41 55 39 35 35 38 33 41 46 49 53 55 53 54 42 50 52 39 50 37 35 44 48 41 33 34 34 29 20 31 34 27 38 28 21 23 30
37 29 20 31 28 33 32 29 26 31 41 40 36 39 52 50 39 57 47 43 45 47 47 51 49 61 65 50 54 48 63 48 40 53 51 65 56 57 65 55 47 49 50 44 57 46 50 49 56 44 48 32 29 33 23 31 20 31 29 22 27 18 25 33
20 20 35 20 21 21 20 33 18 37 39 26 46 40 53 49 47 60 56 57 52 50 68 55 55 74 58 62 55 56 55 65 63 69 58 74 69 59 76 63 63 70 54 63 62 55 63 51 52 41 52 45 47 36 25 39 26 22 38 37 30 20 30 31
37 23 27 35 30 29 25 33 25 29 37 37 40 47 53 41 50 59 50 50 62 52 65 67 65 69 74 77 74 69 80 58 68 66 62 65 67 73 81 80 61 59 66 60 55 64 55 52 58 53 51 40 33 43 29 23 25 33 35 32 32 22 28 38
36 34 33 29 19 35 25 35 23 36 47 33 54 40 41 50 48 66 69 70 57 73 80 83 80 72 72 82 85 74 84 75 82 70 87 86 89 89 74 76 89 79 77 63 68 72 56 63 59 54 60 50 54 32 27 30 25 18 19 27 30 26 24 31
33 25 21 30 37 35 23 28 28 41 31 40 44 40 53 63 58 70 59 76 80 77 88 87 89 81 95 100 82 98 82 81 98 89 96 99 81 94 99 91 91 90 79 87 81 57 56 64 57 54 44 58 42 37 30 31 27 35 21 25 37 26 27 32
25 36 23 37 34 34 30 38 38 45 36 52 50 57 47 51 60 63 64 83 89 77 82 96 103 93 91 98 92 91 97 90 97 101 99 102 89 106 103 100 98 85 98 91 87 77 75 58 54 49 57 51 54 36 48 41 38 20 32 32 22 24 37 19
32 34 37 37 36 28 30 29 41 37 51 51 56 45 48 66 67 74 66 74 91 84 95 88 97 105 111 109 97 95 99 106 106 103 101 111 104 109 109 107 104 98 96 88 88 72 68 69 54 67 59 44 42 50 48 40 27 35 20 31 34 32 36 36
31 37 27 27 31 24 18 40 37 41 40 50 40 62 60 56 68 59 69 82 100 108 104 99 105 116 108 103 118 101 101 105 109 108 102 113 102 107 100 110 103 105 105 106 95 85 84 61 74 52 50 45 44 49 32 33 38 23 38 28 36 29 25 30
24 21 18 33 19 23 30 23 43 40 44 48 48 49 60 66 55 63 69 84 106 95 104 97 107 111 117 120 118 106 105 107 118 127 113 121 118 115 103 106 110 97 113 112 92 86 75 77 58 55 57 45 43 55 42 34 40 25 22 21 33 34 37 38
34 26 18 34 38 26 21 22 29 42 33 42 54 62 66 58 68 62 74 88 87 101 106 108 114 108 117 117 113 120 127 114 126 130 116 126 122 109 120 104 101 108 110 93 102 86 71 65 58 65 56 49 43 36 38 29 29 23 38 33 28 25 19 29
22 28 31 29 24 20 26 37 41 34 48 37 41 50 61 69 66 69 71 96 98 96 111 106 118 113 123 127 117 119 119 119 124 125 119 123 127 116 111 108 108 104 95 93 95 83 77 58 71 63 66 59 44 47 49 38 40 27 37 30 20 36 37 36
24 24 31 18 21 31 21 39 33 40 32 46 46 60 54 51 56 77 68 79 88 93 108 104 117 114 112 119 114 124 131 127 124 138 125 118 126 121 124 104 114 110 107 93 92 80 71 66 66 68 47 56 41 36 33 35 31 35 24 18 29 19 26 21
35 21 37 30 28 32 30 35 28 40 35 37 48 51 51 58 49 54 65 73 84 92 109 93 110 120 114 120 125 128 128 128 129 140 115 125 116 115 111 114 107 103 93 98 93 79 73 56 56 55 49 43 40 45 49 33 29 37 22 32 31 20 27 24
25 20 34 37 25 21 28 35 21 39 38 36 35 47 50 48 57 65 64 71 79 95 89 102 94 108 102 120 122 122 126 130 121 116 115 124 120 108 119 112 105 96 104 86 83 86 79 66 48 47 45 47 48 41 34 32 36 21 34 21 24 35 32 19
31 23 23 30 36 31 35 30 25 29 27 39 43 44 48 47 61 55 68 65 84 84 99 91 104 97 107 105 111 114 121 112 111 120 116 111 113 116 97 110 95 87 90 81 81 67 67 62 49 56 41 45 45 41 33 29 18 30 31 22 38 19 25 35
23 27 32 31 30 22 32 30 31 28 41 37 43 33 50 40 56 62 51 62 74 74 88 99 87 92 104 107 102 98 108 117 103 100 113 110 109 95 98 87 102 89 87 86 69 64 59 46 43 55 40 36 36 44 30 32 28 27 38 32 37 32 26 34
34 35 33 24 36 20 23 25 18 31 24 25 47 48 47 51 52 46 58 65 58 82 86 86 77 98 98 102 89 99 95 106 105 97 100 103 102 90 85 96 97 89 86 66 69 64 60 54 46 55 44 32 28 35 30 37 30 20 23 25 32 28 36 32
29 33 36 35 27 34 18 26 21 24 38 29 31 39 41 37 33 47 49 47 66 75 82 82 83 94 77 82 91 100 98 91 88 88 81 82 81 99 78 94 77 79 73 56 58 57 54 48 50 51 40 30 25 35 37 24 34 31 34 26 28 35 31 38
31 21 35 35 27 24 25 37 31 29 35 27 41 31 36 48 47 39 33 41 58 50 57 71 70 84 81 83 92 82 78 74 82 76 90 83 93 75 82 86 78 71 66 64 61 52 33 31 33 42 41 28 22 27 24 28 29 24 19 19 37 19 24 22
27 33 27 23 22 36 38 18 26 27 24 27 31 23 28 37 43 42 35 36 57 43 54 65 55 65 69 79 70 75 69 78 73 83 68 84 64 72 69 78 75 71 50 44 39 43 46 42 28 27 29 38 24 37 30 27 19 36 26 21 38 35 37 19
37 37 20 35 18 33 31 33 32 22 34 27 24 30 38 37 40 31 32 32 48 41 51 44 52 59 58 73 75 69 63 62 64 73 80 64 58 63 54 53 61 44 54 42 48 26 33 30 36 40 34 23 34 23 35 24 27 25 37 30 37 34 34 20
31 35 38 29 29 26 20 37 37 30 34 35 22 38 32 38 32 40 23 22 38 40 35 47 52 43 53 51 54 57 62 70 57 59 75 68 61 60 50 44 43 54 40 34 24 39 27 21 23 35 27 26 35 38 37 31 23 18 33 28 28 27 22 35
21 24 19 31 30 19 36 28 32 33 38 38 22 32 23 30 18 22 36 24 26 30 27 49 42 55 44 58 50 50 56 68 61 52 66 59 64 55 55 49 51 31 36 35 18 34 31 24 21 31 19 26 37 33 21 37 20 38 25 33 24 27 38 24
36 29 33 28 20 30 24 31 31 25 31 34 36 26 35 28 23 37 19 37 34 32 34 44 36 45 53 37 42 43 53 63 53 53 52 50 51 37 40 34 47 25 39 24 30 37 34 37 26 36 19 35 28 38 30 25 18 33 27 31 37 28 35 27
33 29 27 37 34 20 24 34 26 32 31 29 28 27 19 20 34 27 35 23 18 24 34 25 28 38 40 41 52 37 36 37 51 51 52 55 43 38 35 29 27 22 25 31 33 37 21 26 35 20 38 25 19 20 26 28 20 31 27 20 33 26 29 29
29 25 28 37 22 21 33 35 20 30 30 22 26 25 35 26 18 22 24 21 35 26 38 37 25 32 36 39 45 41 36 36 48 43 47 34 32 45 23 28 35 38 19 34 25 26 36 19 31 36 20 34 38 22 36 18 34 36 35 26 23 28 25 36
31 19 33 28 35 22 34 23 27 34 38 30 36 34 29 38 27 36 33 23 24 24 34 18 26 30 20 39 38 26 25 27 38 28 40 38 24 35 32 28 28 25 20 30 28 22 28 26 28 38 29 38 36 29 22 26 37 29 25 23 29 26 18 25
19 37 20 21 19 32 21 31 38 36 21 19 20 18 26 20 23 32 33 26 19 30 22 18 30 37 29 22 35 30 18 21 23 32 21 24 30 22 29 38 23 30 28 22 33 37 18 35 36 29 24 37 38 38 25 26 34 35 19 30 28 21 24 19
20 34 38 28 27 18 22 38 33 34 34 32 33 30 35 31 29 32 18 32 18 28 37 34 24 30 34 20 21 18 32 31 33 22 23 23 23 18 24 19 30 31 35 32 36 25 18 23 33 31 33 28 35 21 38 36 28 18 35 38 38 33 33 18
29 19 18 24 19 34 26 21 20 37 38 24 37 37 18 37 22 19 24 23 27 29 18 34 21 22 31 37 37 37 28 26 27 34 37 33 22 35 35 23 20 28 29 18 31 31 20 28 37 34 30 29 25 35 29 20 26 37 36 19 18 22 27 20
37 30 24 21 34 31 34 34 29 18 30 19 26 28 37 19 26 33 31 32 28 29 37 30 18 31 19 36 32 24 18 29 21 38 32 29 19 35 28 28 31 19 20 28 32 23 21 21 26 23 34 33 21 25 30 28 34 20 36 18 21 18 26 28
23 37 27 28 23 24 24 33 32 22 24 32 37 18 27 36 28 28 30 19 19 31 22 25 38 20 22 24 20 37 21 21 32 22 36 26 26 36 21 27 34 25 38 33 21 35 27 20 28 24 34 22 19 25 23 30 22 18 24 22 20 35 29 27
20 20 24 23 26 25 36 21 28 24 34 38 27 21 36 38 22 34 37 34 35 22 37 18 37 24 18 33 36 33 19 24 20 32 34 25 24 24 31 18 30 37 22 22 23 22 20 30 27 36 23 27 25 22 20 26 19 21 38 31 28 21 35 28
24 34 31 34 33 24 21 36 22 36 24 24 24 37 38 30 27 23 23 25 38 23 28 32 19 32 28 28 35 37 21 18 31 25 20 18 30 22 24 21 21 35 18 24 25 21 31 31 22 29 38 22 37 26 26 36 38 18 33 19 20 20 24 34
32 19 27 20 33 31 22 19 34 21 27 33 28 26 21 23 20 20 34 36 36 36 37 32 18 35 37 21 26 36 29 33 21 33 37 27 25 36 38 34 35 19 27 21 24 26 35 24 30 32 36 30 28 26 22 33 25 24 35 21 36 22 26 23
26 27 25 37 27 22 35 21 32 27 25 28 34 25 32 27 26 33 22 31 27 26 33 23 27 28 29 23 30 19 26 21 28 20 36 24 25 35 23 31 32 30 38 28 33 27 34 23 37 35 36 22 33 34 37 35 35 29 23 32 35 33 32 30
25 34 21 33 31 29 21 35 22 35 19 38 33 34 28 34 25 30 25 37 37 28 31 23 19 23 38 33 31 25 20 31 20 20 22 24 28 18 36 24 37 22 21 23 38 30 26 32 32 23 33 22 21 20 24 36 28 24 30 24 28 22 20 33
23 21 26 36 25 37 25 27 23 28 26 34 23 27 38 22 38 22 33 37 34 21 24 31 24 27 24 26 29 28 19 19 21 34 30 25 19 25 27 37 34 36 35 21 30 31 28 23 24 18 33 19 26 19 38 35 30 18 29 19 21 28 28 36
33 32 25 21 19 20 23 18 24 31 34 18 27 21 19 20 32 20 36 18 25 20 22 24 31 26 27 33 23 20 33 20 29 35 36 38 31 30 34 20 37 27 23 37 33 31 36 36 24 20 21 28 32 25 19 21 21 18 22 27 23 32 38 27
22 36 33 18 28 24 36 37 32 37 18 38 33 18 21 27 37 19 32 38 25 33 38 35 25 29 30 25 19 32 26 31 23 37 33 31 31 30 23 27 32 38 29 27 38 24 18 20 38 23 33 28 25 30 36 24 35 31 20 33 28 23 25 37
