P2
64 64
255
16 15 23 24 17 21 17 22 25 15 25 25 19 21 20 22 17 23 18 19 24 15 18 25 23 23 20 26 18 18 23 26 24 26 18 18 23 25 25 18 16 14 15 15 18 17 21 16 18 20 23 18 22 19 22 14 16 23 14 14 23 24 26 25
23 18 25 22 26 16 25 20 18 26 18 26 17 23 22 24 17 23 14 20 19 16 18 23 22 23 16 25 19 26 22 20 22 14 23 22 23 26 22 22 26 17 26 17 14 20 23 17 15 17 18 24 24 19 22 23 18 23 19 26 22 20 20 20
15 20 21 19 22 21 24 16 20 21 16 14 15 20 19 16 23 25 14 21 15 26 24 24 18 19 25 16 16 21 22 23 25 19 21 16 15 18 18 20 19 23 18 15 14 26 22 18 24 20 18 24 16 26 19 21 23 15 16 23 19 25 24 21
26 20 22 24 21 15 15 26 25 16 16 22 16 20 17 21 16 23 24 26 24 23 24 14 26 26 18 18 16 18 15 19 15 24 14 20 20 14 23 16 14 17 17 26 17 14 18 17 23 25 22 14 14 16 22 16 19 22 14 15 19 24 22 22
23 25 25 14 26 22 19 26 19 26 19 19 19 18 16 21 14 17 14 17 21 18 23 23 26 17 16 18 22 25 15 16 18 20 21 21 23 14 19 23 19 23 22 17 25 19 25 16 16 14 14 22 21 23 17 14 22 18 16 14 21 26 24 26
17 14 19 23 14 23 22 14 17 14 17 20 21 24 18 15 24 26 19 21 23 26 26 26 21 26 21 21 19 17 17 22 22 23 23 21 20 14 25 24 19 16 16 21 15 25 20 17 19 25 26 18 23 22 16 19 18 17 16 21 21 24 25 15
22 23 17 25 14 16 26 26 22 14 26 17 16 26 25 17 24 19 15 23 22 16 22 26 23 22 26 18 18 15 23 21 14 16 18 16 15 22 23 22 14 18 17 16 21 20 16 25 19 24 22 23 23 24 24 14 14 17 17 24 17 24 22 19
20 26 19 24 21 17 23 16 16 17 15 17 24 23 18 16 21 24 25 25 22 26 17 22 20 20 20 18 15 22 26 25 25 15 26 17 25 18 25 16 22 18 18 16 17 17 24 14 22 16 14 26 21 19 14 16 16 26 24 20 22 20 20 19
16 19 18 22 16 16 16 21 20 22 21 25 25 16 24 14 20 16 22 22 26 19 24 20 14 23 21 16 23 21 21 23 15 16 23 17 16 21 18 18 14 14 17 15 14 26 14 19 24 24 16 21 15 25 24 23 19 26 16 24 21 15 16 22
15 20 20 25 24 25 21 25 16 19 22 22 20 23 15 17 18 18 14 14 16 21 25 26 23 23 17 26 26 21 18 26 26 22 22 20 20 23 16 15 21 17 24 15 16 18 24 18 22 17 17 20 23 25 23 18 18 17 17 26 16 25 26 17
16 18 20 26 14 26 22 17 26 24 16 18 23 18 17 15 17 14 21 23 23 24 14 14 19 26 21 14 23 16 17 18 23 20 22 22 25 16 20 14 23 18 18 14 26 24 26 20 25 20 22 18 17 25 23 17 24 15 15 14 18 14 15 26
25 25 14 25 15 14 25 24 26 15 15 23 24 21 15 21 23 19 26 21 25 16 15 23 15 14 19 20 20 24 22 21 26 17 18 20 25 26 23 22 16 16 15 23 24 16 18 20 22 19 19 21 20 18 18 25 17 24 18 14 21 26 19 16
21 25 19 14 22 17 26 16 25 21 19 18 25 16 24 17 26 20 26 26 23 20 19 15 23 23 23 17 20 17 24 23 23 14 22 24 14 17 25 21 22 17 18 25 25 17 26 16 25 19 26 24 17 22 21 19 15 17 15 17 24 23 22 15
20 16 24 24 17 23 20 26 26 16 19 16 18 24 16 14 14 20 15 24 18 22 17 26 26 18 24 19 16 15 20 22 24 15 19 16 20 18 16 14 17 16 17 21 20 19 22 20 20 15 18 19 23 24 18 24 15 14 14 17 21 26 22 17
22 24 21 15 14 18 21 14 25 18 23 14 19 21 22 14 15 16 20 19 22 21 23 25 25 15 25 19 23 26 17 20 18 19 22 26 19 22 25 20 19 14 17 16 26 21 14 15 26 20 16 15 21 21 20 20 24 20 17 19 15 20 25 16
19 26 19 18 14 26 14 17 22 26 26 14 20 26 26 14 25 14 25 15 23 21 22 18 22 16 21 23 17 17 25 19 18 25 18 24 21 17 25 21 23 18 22 26 19 25 15 25 22 16 15 16 21 26 21 16 24 26 22 18 23 22 22 17
26 16 24 24 15 17 18 25 17 19 21 24 22 26 19 16 24 21 16 20 24 20 18 21 17 24 15 20 18 19 25 25 18 24 22 24 14 17 23 25 17 25 17 14 22 19 23 19 19 16 18 23 14 16 15 16 16 19 18 25 14 22 25 22
23 14 20 15 21 20 15 26 26 26 16 19 15 18 14 22 18 14 23 23 23 22 18 16 21 18 20 14 14 21 21 23 20 22 22 14 20 18 18 22 18 21 24 22 22 23 21 25 20 14 16 24 25 21 15 24 21 20 20 22 26 14 16 26
21 15 16 26 22 23 22 20 26 22 22 17 14 15 23 20 23 23 24 24 16 15 24 26 25 24 26 23 15 25 26 18 23 21 26 24 22 23 18 16 14 20 24 21 21 16 17 22 20 26 23 20 25 18 23 25 24 19 17 17 23 21 23 26
24 16 15 18 25 21 25 17 20 18 18 16 20 26 20 20 17 24 27 18 27 28 29 22 23 18 20 19 23 20 17 25 21 22 18 20 15 16 25 22 26 19 29 28 22 18 24 27 21 18 14 18 26 23 16 23 18 17 16 15 14 16 14 23
21 15 16 26 18 21 26 15 22 20 18 18 25 16 27 17 26 28 33 27 31 24 32 24 30 19 28 18 23 17 17 25 22 23 15 15 23 20 22 25 20 30 28 28 26 21 33 30 24 24 25 21 17 19 20 24 22 21 25 26 18 14 16 19
20 18 19 24 18 21 15 23 14 14 22 26 17 29 21 31 23 35 35 27 32 30 28 28 27 24 20 23 25 17 20 19 23 14 26 21 18 25 28 26 30 33 27 36 31 32 36 35 30 26 26 29 14 18 15 16 15 17 20 26 18 22 17 25
25 19 22 20 14 22 16 14 23 14 17 22 20 22 33 28 37 33 36 30 37 36 34 32 31 37 29 25 23 20 17 16 17 15 20 28 28 22 24 28 28 30 38 35 38 39 34 32 30 31 27 23 24 16 21 20 23 23 23 17 14 25 16 22
15 19 23 16 20 24 19 19 26 26 26 22 25 29 26 32 35 33 37 36 34 34 45 44 43 35 32 33 31 28 27 20 15 22 21 29 30 35 33 38 31 34 42 41 38 37 37 38 35 35 26 30 28 22 23 21 14 20 14 19 15 24 21 23
26 22 21 21 20 25 26 17 22 21 27 26 35 28 32 40 36 43 39 45 45 38 40 48 40 38 35 33 33 29 24 18 26 18 31 27 32 32 38 36 46 37 45 45 44 38 41 43 45 35 33 32 25 26 28 20 14 20 26 16 19 21 15 21
17 26 23 22 16 21 26 26 16 23 24 23 28 38 35 37 48 46 39 41 53 44 44 44 39 36 44 37 35 27 31 21 26 28 34 37 30 35 41 41 43 46 53 52 46 44 47 50 38 34 37 29 33 30 31 22 24 20 17 15 24 14 19 17
18 18 24 25 26 14 20 26 22 21 24 25 39 33 43 40 43 52 50 53 45 57 56 50 42 41 47 44 35 38 27 31 31 21 34 40 41 42 45 44 47 53 49 45 47 44 50 46 39 45 37 41 28 36 27 18 19 24 24 19 22 20 16 19
14 22 18 16 18 15 20 24 16 27 24 39 41 36 40 48 48 46 57 49 61 61 60 53 47 45 47 41 33 39 32 36 26 27 27 34 37 38 40 50 53 54 53 61 60 52 59 57 54 51 39 37 38 37 30 32 24 18 22 14 20 18 16 16
18 19 24 23 15 14 14 14 26 22 35 29 43 40 42 42 50 52 60 63 55 63 59 60 58 55 51 48 38 44 29 34 36 31 28 39 45 48 42 57 55 60 55 56 55 57 52 49 47 45 45 38 36 36 32 32 19 15 25 22 23 26 16 14
18 17 19 22 14 22 17 27 20 34 34 42 35 48 45 47 47 57 53 60 59 69 61 57 55 51 55 50 45 45 36 42 41 33 33 44 46 48 47 57 60 59 62 64 61 63 58 60 48 53 41 45 37 30 27 25 29 16 20 15 25 18 20 15
18 20 24 24 15 14 19 16 31 30 27 42 37 46 48 49 49 54 65 59 62 68 71 57 57 61 46 47 48 43 39 32 42 34 35 39 41 52 54 59 63 56 64 71 67 67 68 60 58 56 48 39 45 41 37 28 24 17 17 20 24 17 19 17
20 15 26 22 14 14 15 27 31 25 33 38 36 49 54 52 63 64 62 65 70 65 65 64 62 53 57 52 45 47 41 37 34 44 38 36 39 53 51 57 66 63 73 76 65 64 69 56 58 53 43 46 35 43 36 31 26 22 18 20 15 16 16 20
19 23 18 20 23 24 16 25 31 35 40 37 43 45 51 50 54 58 70 74 68 66 71 64 62 58 54 48 39 45 45 43 38 44 34 42 45 54 50 59 59 63 73 68 74 73 61 65 52 51 50 40 39 38 39 30 20 27 20 23 15 23 24 24
26 23 15 25 26 18 17 26 27 23 29 37 36 39 54 47 62 64 62 62 76 67 70 70 64 59 48 55 39 36 45 38 33 32 40 43 39 51 49 57 66 60 67 68 71 71 62 63 55 48 55 50 40 41 39 31 23 22 21 14 20 16 25 22
19 23 16 26 17 24 25 16 25 24 30 43 44 40 54 50 55 58 61 62 60 67 60 63 57 50 48 51 40 43 33 36 34 36 42 46 38 52 56 60 56 60 59 65 60 67 58 56 60 58 43 49 35 33 27 27 27 19 20 14 24 19 17 17
21 14 25 18 18 16 24 26 27 33 29 37 35 45 47 46 48 60 53 60 68 64 67 58 54 56 47 51 46 35 40 38 39 35 41 34 40 50 50 53 52 59 61 60 61 55 60 58 52 51 44 44 40 34 26 26 28 17 26 14 20 24 19 19
16 23 22 25 23 23 22 20 29 27 35 40 37 36 43 44 45 60 61 54 58 53 61 54 51 50 45 50 41 43 39 34 40 37 33 44 43 47 46 55 58 60 59 63 64 53 61 57 49 54 47 36 39 28 27 24 22 26 20 17 15 20 23 20
21 20 17 25 20 23 17 14 23 21 34 35 42 41 49 44 50 46 57 49 59 55 54 50 45 50 49 37 35 42 36 25 29 36 29 40 41 45 46 51 52 54 53 50 49 52 48 54 47 52 45 44 33 27 34 22 23 23 15 16 19 17 19 17
24 26 15 19 21 22 22 21 23 26 22 35 35 31 44 49 48 46 54 47 46 52 45 52 43 44 45 37 35 31 33 29 29 23 37 37 36 34 38 45 43 52 47 54 48 53 54 50 50 46 35 43 38 36 28 27 17 21 17 23 19 19 23 19
28 25 22 20 20 20 23 17 19 28 34 29 42 39 47 40 52 48 55 53 52 54 51 50 50 42 46 41 43 30 36 26 28 35 37 39 44 37 42 52 43 47 58 58 55 46 47 45 49 48 38 38 32 36 27 33 24 26 26 28 25 24 31 32
26 26 30 25 32 27 22 33 26 31 36 36 39 39 40 43 44 46 54 56 54 49 58 57 43 47 48 42 45 37 29 34 27 31 36 40 37 41 44 48 57 50 48 57 60 55 57 57 55 49 47 38 39 40 41 30 33 28 30 27 28 28 29 34
27 26 30 25 31 26 33 26 27 25 31 38 41 35 44 46 48 55 55 45 46 58 58 46 46 44 42 48 43 38 35 40 39 36 41 35 47 45 43 46 51 48 50 55 61 61 52 60 47 48 50 48 49 45 33 39 32 38 43 35 40 42 45 40
27 30 25 31 23 23 27 32 29 30 29 23 30 32 33 33 41 44 47 38 41 41 43 48 46 39 43 32 36 35 35 24 31 33 36 36 33 33 45 41 48 38 41 45 48 50 50 47 38 37 38 41 30 31 26 29 31 34 33 29 33 26 31 35
29 28 28 27 20 19 27 24 25 20 17 26 29 27 31 34 37 39 38 38 29 35 40 33 31 31 33 33 20 28 18 30 29 20 22 25 27 30 30 32 31 37 36 36 34 39 37 29 28 28 30 28 30 23 20 31 20 29 25 23 26 29 24 30
15 16 26 18 23 23 25 14 20 24 15 17 18 26 18 24 23 25 28 25 34 28 29 24 26 28 17 27 23 19 18 14 15 23 19 23 26 22 24 25 31 30 21 24 29 25 23 29 25 24 17 16 18 23 24 16 26 22 25 14 22 17 26 16
21 20 26 23 18 22 20 26 16 17 18 22 20 17 24 15 19 20 25 26 19 28 26 28 24 19 26 20 21 22 21 14 16 22 21 19 21 21 20 22 17 24 26 30 24 28 29 21 26 21 25 23 21 24 19 21 19 15 23 18 23 18 26 17
25 17 14 18 23 26 16 24 14 24 19 14 25 15 16 24 26 17 26 21 19 15 18 23 26 15 24 21 17 15 25 26 20 20 18 26 20 21 20 15 26 19 17 15 14 23 26 20 23 17 17 24 14 21 23 20 25 19 25 23 18 26 19 25
26 25 16 23 19 17 18 18 15 16 15 26 23 20 21 17 26 18 15 25 21 16 20 26 19 17 22 23 23 24 16 18 15 23 19 18 16 22 19 26 19 22 23 24 15 17 23 23 19 23 23 20 15 23 19 22 20 17 21 18 16 20 19 15
20 16 26 24 23 15 26 26 25 25 26 18 19 24 26 17 15 19 17 25 17 15 25 16 21 25 23 23 16 14 14 16 18 17 26 15 15 22 16 22 20 19 25 18 24 21 15 20 20 16 26 26 23 21 20 16 23 21 14 15 14 21 17 17
23 14 23 22 15 19 26 14 20 19 19 23 24 23 16 17 26 24 26 23 19 18 20 19 17 17 24 20 17 14 25 17 18 17 16 15 18 21 17 19 23 14 21 17 18 15 16 24 19 21 19 20 23 23 15 21 16 25 18 21 25 19 15 22
20 16 22 19 23 24 21 15 14 25 23 18 26 26 24 23 17 21 18 20 16 19 17 23 21 14 25 24 22 25 23 26 19 23 18 23 19 26 14 15 19 19 21 22 19 26 23 19 17 21 26 14 15 22 25 21 14 14 16 23 24 14 14 19
23 19 20 21 20 25 24 25 21 26 22 16 22 14 20 19 16 17 25 22 18 24 21 24 26 16 19 23 18 26 14 26 23 26 25 16 19 22 20 18 25 23 14 18 20 26 24 26 14 22 23 20 18 18 23 14 18 21 20 16 25 19 23 23
22 21 22 16 24 16 14 23 23 17 19 24 18 17 25 16 21 21 24 16 25 18 20 15 25 21 22 20 22 24 17 14 24 26 14 16 20 16 26 26 26 18 19 26 22 24 21 18 23 20 15 16 21 21 25 25 17 25 26 26 21 26 25 21
16 23 24 18 24 23 25 20 19 21 22 21 15 18 14 15 19 26 15 19 23 22 18 15 26 19 17 19 23 18 20 23 21 17 26 22 21 18 16 24 24 22 16 16 17 26 23 16 16 23 14 17 26 20 24 14 25 21 21 24 23 21 19 15
20 24 16 19 26 23 22 14 21 26 18 20 26 24 16 25 25 17 24 19 24 23 24 20 23 25 14 25 25 23 24 21 21 26 16 15 19 24 15 22 26 23 21 22 23 23 21 26 22 22 21 14 19 16 25 18 24 19 23 25 15 21 23 26
26 25 19 16 20 16 21 23 23 23 16 26 18 23 16 25 25 18 14 26 25 25 24 15 15 20 23 26 22 18 24 19 20 17 19 24 22 18 16 14 22 18 17 18 24 23 19 22 25 14 24 26 22 20 19 19 16 24 24 24 26 23 23 14
14 14 15 19 16 25 18 16 23 22 15 26 17 19 21 15 18 24 17 20 16 23 26 26 22 19 24 23 21 16 23 24 21 16 24 14 16 24 25 15 20 25 26 21 15 26 21 25 20 26 25 22 18 21 25 14 20 16 24 14 17 25 22 14
18 14 15 17 26 18 20 14 21 17 21 14 20 25 18 23 24 26 14 19 26 24 24 15 20 23 15 18 25 23 18 26 23 22 18 17 18 19 14 21 17 16 24 22 23 17 19 20 20 22 19 20 16 23 14 21 24 26 18 22 18 18 16 17
21 16 24 21 16 26 25 23 21 24 23 19 26 23 16 17 15 25 18 23 24 21 21 19 21 26 24 22 25 16 26 22 26 15 17 15 22 24 19 17 16 15 17 24 21 15 18 23 21 14 17 19 24 21 24 21 23 19 25 17 19 16 16 21
17 25 21 19 20 22 15 23 18 25 16 18 19 23 14 26 17 23 18 17 19 24 24 19 22 24 24 16 14 24 14 20 14 17 17 23 21 18 19 26 20 21 24 16 24 23 15 24 20 26 20 23 20 19 26 23 25 26 25 22 17 18 16 15
22 21 16 15 17 21 17 20 14 25 23 26 16 17 14 21 15 15 26 22 17 26 25 15 24 19 20 25 21 14 18 19 14 14 17 17 15 17 24 16 26 26 14 21 17 26 18 14 14 25 25 24 17 18 17 19 17 19 15 23 16 14 24 18
25 22 15 24 19 17 14 16 18 22 18 26 23 14 23 26 17 26 15 24 15 21 14 17 14 20 26 21 15 21 23 18 16 24 26 17 16 22 22 24 21 24 16 22 15 20 14 26 17 16 24 16 14 23 18 19 25 17 22 23 18 26 23 14
16 19 19 15 18 19 25 18 15 14 15 15 22 22 18 26 25 17 18 19 26 25 18 24 19 23 15 19 19 20 26 18 24 20 17 26 23 18 24 23 19 26 14 26 24 25 22 24 14 19 23 14 25 25 23 18 18 15 14 24 14 17 16 16
17 22 22 26 18 19 23 14 23 24 22 23 26 22 25 17 16 19 21 18 14 24 15 18 21 14 20 15 19 19 19 24 24 24 26 14 14 23 26 16 16 15 16 16 23 20 21 25 26 17 16 23 15 18 17 22 16 24 21 20 21 20 18 19
