P2
64 64
255
22 30 32 36 29 35 35 18 36 29 35 29 28 23 18 20 19 33 33 27 27 24 28 29 33 19 25 21 23 23 26 38 25 20 28 30 19 21 29 38 22 38 25 25 18 33 27 23 27 32 35 29 33 18 23 21 27 34 19 37 32 25 29 38
25 28 24 31 19 30 20 22 28 18 36 23 18 28 37 37 21 36 24 24 32 21 21 31 21 24 29 25 29 30 24 29 34 37 18 19 37 33 36 26 24 18 32 20 18 38 25 28 25 23 36 27 37 18 30 30 27 32 21 36 19 37 30 26
32 21 37 26 21 23 24 34 34 19 34 34 29 37 28 21 33 28 38 24 23 21 21 32 25 26 26 34 21 24 35 34 27 19 35 37 30 26 35 20 37 33 21 18 37 27 25 24 19 38 19 20 24 29 29 27 38 38 36 29 20 19 24 29
24 28 21 30 28 23 36 33 21 26 34 28 20 25 18 23 29 20 37 35 28 29 32 24 20 18 33 32 22 33 24 29 19 26 31 25 36 28 29 29 36 24 20 21 37 26 29 34 32 22 28 29 22 19 27 31 27 32 19 20 18 34 21 37
33 30 24 18 21 26 19 33 31 23 31 26 25 35 28 36 27 36 29 36 26 36 29 26 31 19 23 22 18 29 38 25 28 33 34 22 30 35 26 33 18 19 31 21 29 20 33 32 30 34 34 26 31 26 20 22 25 24 38 22 20 32 26 38
35 29 34 18 22 30 30 28 18 26 19 22 29 38 25 36 30 22 23 26 29 18 38 33 27 18 33 36 37 23 31 27 37 29 29 21 34 37 36 18 22 34 28 29 21 28 29 31 20 33 31 30 28 38 20 34 18 22 32 34 38 24 37 36
19 34 24 22 20 28 30 18 29 28 25 28 28 34 34 29 27 22 30 20 34 20 32 25 29 34 21 26 24 26 35 20 28 31 20 19 21 35 31 34 32 23 19 26 24 30 32 30 28 32 18 26 28 19 36 20 22 32 18 20 33 34 33 21
33 37 26 22 29 20 34 27 21 32 33 25 34 28 24 33 24 30 23 30 25 19 18 25 36 22 20 38 37 24 25 32 31 19 19 19 19 28 35 38 25 26 35 31 19 25 37 23 33 25 30 33 35 38 21 23 23 29 33 25 36 24 29 30
26 20 22 23 27 29 29 21 28 28 28 20 26 31 30 35 21 19 36 21 26 31 23 21 30 30 20 19 26 26 29 21 23 23 34 30 21 37 25 37 26 21 38 23 27 25 27 24 23 32 26 37 20 24 20 20 25 20 26 36 25 31 23 23
38 23 38 26 34 32 29 27 19 20 33 34 38 18 37 38 36 19 19 38 32 25 31 20 35 23 26 23 35 34 33 18 23 28 26 35 20 31 32 38 27 37 27 26 19 37 27 24 22 37 24 32 23 30 25 32 29 18 25 34 37 22 29 23
34 33 25 32 38 23 32 37 24 30 31 31 23 19 20 18 29 24 38 37 33 35 19 33 29 24 21 20 25 31 34 31 22 21 21 36 32 28 18 27 33 24 35 35 22 26 19 37 37 27 35 33 32 21 30 31 36 34 23 20 18 37 32 37
22 34 38 32 38 35 28 24 36 20 19 34 28 32 37 31 37 27 34 31 27 22 23 32 21 26 36 18 36 36 26 22 35 33 21 28 18 26 33 18 25 31 18 33 20 27 37 20 29 26 32 28 30 26 32 35 37 30 37 28 24 37 31 25
38 30 33 19 31 31 27 26 27 34 32 35 33 25 23 35 38 24 22 30 38 24 21 19 35 31 35 31 26 28 33 35 35 20 33 20 22 23 30 30 34 34 37 22 38 25 30 18 25 30 30 20 25 38 27 22 36 36 24 37 24 27 24 34
24 38 18 28 19 23 23 19 21 38 20 20 20 19 24 31 31 34 31 24 21 28 23 19 38 25 27 31 29 33 23 28 27 28 33 28 20 26 18 28 28 31 34 28 34 25 26 35 37 23 32 20 24 35 35 25 26 23 18 33 21 23 28 32
33 20 34 37 25 26 20 36 37 33 31 23 19 23 23 37 38 18 34 23 31 21 25 30 25 19 24 22 30 23 35 25 38 38 23 26 38 33 23 28 26 29 22 26 20 33 34 23 23 18 27 21 33 18 28 28 31 31 25 25 19 38 29 21
31 29 32 38 26 27 21 35 28 24 31 22 24 29 19 28 34 24 33 19 25 37 37 30 27 24 23 35 34 22 21 26 31 35 27 19 37 32 20 27 38 20 24 25 28 25 27 37 34 20 20 21 29 37 38 19 18 35 29 30 37 28 23 19
33 38 37 22 35 25 34 38 37 30 31 20 21 18 20 26 23 31 31 32 34 21 38 34 35 26 37 37 34 27 24 28 21 32 36 31 23 28 34 21 30 33 23 36 24 22 26 33 32 32 20 27 29 32 35 36 19 34 33 30 32 20 30 25
28 23 19 26 30 19 27 36 37 24 37 19 31 23 23 32 32 24 27 30 30 31 33 30 26 35 21 23 37 21 30 28 28 27 18 18 36 26 21 34 32 35 22 21 38 21 31 23 25 35 28 23 27 25 34 28 20 30 24 36 31 27 20 30
23 31 38 28 27 27 26 35 23 23 23 28 20 37 33 27 21 34 22 27 28 25 37 22 31 27 28 30 23 36 22 36 33 22 37 27 24 18 21 18 38 38 31 38 22 28 33 35 26 37 24 18 31 36 38 25 30 23 21 22 37 25 19 33
26 18 30 28 35 34 28 37 20 27 37 35 30 36 19 33 35 30 38 41 34 28 36 24 36 37 29 24 33 23 35 30 34 38 37 34 20 23 30 36 34 27 31 37 42 34 27 27 32 33 23 20 20 26 22 31 21 32 25 19 32 33 37 21
20 29 29 23 18 20 35 26 19 26 38 27 21 22 22 34 23 38 41 43 32 40 28 43 36 29 38 19 36 28 24 27 27 18 35 18 34 24 37 37 37 40 26 32 34 35 44 26 40 22 23 38 37 21 38 37 20 32 19 23 27 36 31 18
20 29 37 23 18 23 30 19 30 31 35 21 18 41 35 44 40 41 32 31 39 49 49 39 37 27 33 35 28 28 35 108 19 38 30 32 29 33 43 43 41 31 45 40 42 32 38 36 28 34 23 30 21 21 38 24 31 32 35 34 35 36 19 22
33 23 26 23 37 22 20 33 29 19 31 34 29 41 42 35 44 45 32 39 36 48 40 52 31 42 31 27 30 32 28 24 117 28 24 30 30 42 32 34 47 51 51 52 46 46 34 48 42 43 37 40 26 38 33 22 29 28 33 33 20 22 25 36
36 24 32 34 20 24 31 28 31 37 33 28 42 43 34 50 43 44 42 48 55 45 46 47 40 40 49 43 44 26 31 30 123 114 23 27 44 45 45 38 54 44 37 48 41 43 52 46 36 44 37 44 42 33 21 37 33 24 35 22 20 22 20 22
31 24 18 22 23 21 29 31 18 23 26 31 38 35 41 35 57 41 43 61 43 45 49 43 48 44 37 43 37 37 43 115 28 28 115 34 33 42 41 49 49 57 54 60 55 49 51 39 39 37 52 37 41 28 27 36 37 34 31 29 30 29 37 23
31 31 37 33 37 20 21 29 20 21 34 30 40 50 44 42 50 60 60 52 59 56 54 46 51 44 43 45 34 43 120 34 126 111 44 43 43 39 55 54 49 48 61 45 63 52 54 43 53 58 35 42 43 40 25 31 22 27 34 18 22 25 34 21
25 22 32 27 35 32 30 26 35 38 39 34 46 47 56 57 47 64 57 58 60 64 55 55 57 52 41 53 41 44 30 208 35 126 42 51 45 57 47 53 53 65 55 59 67 64 50 50 55 56 57 36 50 37 27 41 35 34 36 36 19 29 31 32
23 38 29 29 30 37 33 35 27 29 29 38 44 52 52 57 54 66 68 66 73 67 72 58 65 58 59 44 54 42 30 126 218 30 41 132 41 54 46 47 59 53 67 54 60 59 64 65 57 50 60 43 46 37 38 37 27 37 24 36 25 35 35 23
31 38 35 29 28 22 26 33 41 29 40 37 38 39 56 63 50 52 69 60 60 69 61 67 54 63 49 47 48 50 43 253 43 45 38 41 124 49 58 64 54 62 76 63 61 61 63 64 57 54 50 54 37 52 34 33 41 26 33 22 22 18 35 29
34 35 35 32 23 22 22 29 35 38 37 53 45 47 58 66 64 68 62 78 70 66 79 71 70 52 62 52 42 56 123 47 218 52 52 142 145 44 59 52 57 75 69 74 64 64 60 70 53 52 48 59 43 40 36 38 26 35 32 34 29 38 36 32
24 34 22 34 36 36 36 34 35 46 42 40 38 58 56 63 62 76 69 81 80 83 64 78 69 70 51 65 45 131 49 127 53 141 50 226 46 63 55 69 57 73 68 68 80 69 65 63 69 56 50 54 47 51 40 33 40 33 30 34 31 26 19 38
29 21 36 26 34 35 34 22 29 39 35 42 53 56 66 65 61 66 63 74 85 72 72 81 66 66 66 53 51 53 139 127 123 46 224 57 61 49 58 63 62 80 70 73 76 75 68 67 55 52 67 62 53 49 42 29 43 34 36 36 28 38 28 27
34 28 37 35 25 35 28 39 27 32 41 37 53 59 65 70 57 60 76 75 90 82 80 81 62 56 52 52 46 44 122 138 124 44 122 144 47 48 70 58 73 74 86 89 81 78 67 60 56 58 60 58 58 44 38 39 24 22 22 26 27 33 32 25
18 37 33 30 24 35 35 33 32 38 37 41 42 51 60 53 69 64 78 74 70 74 80 71 72 68 58 53 63 44 123 41 123 133 45 127 142 61 61 56 63 78 83 86 74 85 71 78 71 55 53 55 41 37 48 47 37 20 21 36 25 18 36 35
22 37 43 36 27 34 31 29 28 39 48 59 47 48 63 75 77 74 71 70 71 88 85 78 64 59 58 68 54 45 62 128 131 52 136 135 147 69 62 70 85 71 75 80 76 82 70 72 61 66 56 53 62 52 49 36 45 42 31 44 33 44 40 27
31 42 42 39 45 44 45 46 47 55 55 49 62 53 75 77 82 83 76 80 85 82 92 76 77 82 62 65 64 72 67 231 55 63 64 236 160 80 74 81 73 80 84 86 78 78 81 89 73 82 79 69 56 73 69 51 43 42 54 44 40 38 48 40
39 52 49 35 50 52 49 48 57 55 51 53 59 78 78 65 85 72 78 78 96 84 85 76 89 86 81 85 70 61 55 148 150 69 156 150 162 81 91 90 94 90 102 94 96 91 94 92 87 75 89 74 82 77 62 66 70 60 49 56 59 68 54 52
53 40 58 51 57 59 42 45 46 65 70 76 75 77 86 73 78 88 95 99 84 98 99 92 79 95 77 91 77 65 81 161 153 82 167 170 170 88 85 81 92 87 100 90 93 96 105 87 101 99 95 92 82 85 86 83 79 72 79 78 71 65 64 78
50 37 38 42 56 54 43 45 42 54 54 62 71 60 70 72 83 69 82 89 88 77 91 70 74 87 77 72 74 74 57 150 146 66 142 162 156 83 78 91 79 77 88 91 94 83 95 77 89 77 85 76 65 65 62 56 50 67 65 69 53 65 61 54
43 32 36 44 49 41 32 39 40 45 44 42 56 57 55 54 65 77 77 61 80 72 61 70 76 67 66 67 52 46 130 41 50 224 45 64 138 150 60 68 76 70 68 83 76 78 82 81 80 69 76 57 54 63 61 56 45 42 50 40 52 59 48 51
35 31 31 26 43 39 24 35 45 44 34 40 39 39 47 47 44 59 50 66 63 55 67 60 61 53 60 41 57 49 51 123 46 120 131 121 59 143 52 52 66 57 63 55 61 61 70 49 63 51 54 53 43 46 35 30 46 31 50 32 33 34 30 42
30 19 20 26 24 38 38 21 21 27 30 32 36 30 48 43 33 48 43 55 52 38 55 42 41 40 47 44 41 40 35 33 113 22 255 40 45 30 130 43 36 53 39 49 41 40 38 56 51 41 36 33 38 41 33 22 29 34 25 35 31 30 21 31
38 37 26 21 37 32 34 25 26 33 29 21 40 28 43 48 43 48 47 36 41 51 45 50 47 37 28 42 44 39 34 117 21 24 255 27 37 40 128 34 39 47 35 49 42 33 37 50 34 43 31 31 26 35 21 38 33 35 31 35 22 31 21 38
32 36 28 30 37 34 32 37 36 23 28 24 31 35 40 38 43 43 28 33 35 47 43 33 33 31 34 31 38 33 103 27 35 206 119 34 23 26 125 26 43 40 29 29 38 44 35 44 32 34 42 36 36 36 19 33 35 23 18 21 25 37 26 35
19 30 35 32 36 34 27 19 33 23 22 21 34 31 23 28 38 36 34 45 43 33 31 44 29 22 38 27 23 107 32 27 31 33 255 21 36 104 30 29 43 34 29 37 38 45 29 36 32 28 20 29 36 37 37 28 38 36 37 38 32 19 35 18
19 18 22 25 37 30 22 21 29 36 24 28 18 19 19 21 25 38 27 22 38 33 26 38 35 31 28 36 112 31 32 37 34 104 112 116 36 23 119 21 37 40 35 25 37 40 26 22 20 22 34 27 21 35 26 35 38 37 35 37 24 25 36 34
31 32 24 20 37 33 31 27 25 20 33 22 28 24 21 18 31 27 35 38 35 23 25 31 26 38 25 26 113 26 38 29 30 111 109 116 35 109 28 35 27 23 37 34 36 22 21 38 37 37 32 21 20 33 31 26 19 35 30 21 26 31 27 33
38 34 32 35 31 31 37 23 38 30 28 27 24 25 37 32 32 38 30 19 21 20 27 29 32 22 23 37 29 118 25 21 120 114 29 18 105 112 37 19 23 22 36 31 37 24 18 34 29 34 36 36 21 34 29 18 30 28 31 23 26 19 23 20
37 28 29 36 27 24 22 24 29 26 29 32 24 27 19 22 33 34 38 21 27 32 35 22 35 32 26 34 104 18 28 23 32 108 123 22 38 118 112 35 31 30 25 26 34 34 32 25 36 26 25 33 24 25 27 33 32 20 20 18 18 23 26 29
21 34 38 29 29 31 24 29 35 28 34 26 37 26 38 31 26 30 33 34 20 35 38 35 34 27 32 33 111 32 18 24 25 194 24 22 30 19 193 33 18 22 33 26 35 25 35 26 23 29 24 25 38 31 27 26 24 37 35 25 33 30 28 30
32 28 23 33 38 25 37 21 30 35 31 38 26 33 38 36 18 37 27 27 28 20 36 18 19 33 28 37 103 30 21 33 114 25 116 22 34 113 114 25 27 30 21 37 26 38 30 36 27 30 35 30 28 24 29 20 34 27 37 35 37 26 22 30
24 23 23 21 25 20 32 36 32 21 35 35 24 26 31 32 27 32 35 38 37 34 26 18 31 25 23 26 26 119 30 24 20 117 26 103 21 18 110 109 30 32 37 27 21 37 38 23 24 29 20 24 36 29 20 25 33 24 38 32 33 32 20 26
21 20 28 34 21 31 26 19 26 29 22 31 20 24 23 23 32 21 33 29 20 19 36 37 34 30 30 31 123 29 18 27 117 25 25 37 106 26 116 23 106 20 35 20 27 36 35 28 23 20 33 29 25 18 25 25 20 33 23 35 34 21 21 26
28 31 23 32 26 30 35 27 30 23 32 25 36 25 30 33 20 22 25 22 33 30 37 32 27 36 27 106 18 38 21 114 19 37 27 32 28 108 118 35 32 22 24 20 19 24 29 29 20 19 18 26 31 37 34 30 29 28 27 24 36 30 18 21
35 22 35 18 34 18 23 33 33 20 22 26 32 23 30 28 33 18 38 37 25 30 32 18 38 18 31 109 30 34 31 36 106 36 35 26 18 38 200 38 34 32 36 31 19 30 23 19 35 38 29 25 30 26 27 38 28 37 22 27 34 24 27 20
35 22 38 37 24 34 18 31 25 35 27 28 35 22 23 18 22 19 27 20 21 28 31 24 24 19 30 29 29 37 18 37 35 120 23 22 27 25 30 205 23 21 34 19 34 19 32 19 21 19 24 34 19 20 23 18 30 38 24 21 32 22 26 38
27 26 28 22 18 30 23 21 37 25 34 34 21 36 30 33 26 31 35 19 33 29 22 30 37 35 34 18 33 34 31 18 29 113 30 28 34 31 19 117 120 24 32 28 35 26 33 22 36 29 25 29 32 30 22 22 38 27 33 34 23 22 29 29
34 35 32 36 30 25 19 37 20 25 31 25 27 29 30 24 26 18 19 19 33 27 18 35 34 18 30 20 32 24 32 26 111 28 36 18 26 33 109 23 31 23 27 37 26 22 30 18 33 33 35 27 33 28 33 36 19 31 21 30 32 21 32 33
31 26 26 27 18 22 35 27 20 26 36 30 36 26 24 29 29 35 29 28 24 27 25 32 18 30 37 22 25 26 27 121 31 33 30 27 29 18 30 106 36 19 22 33 25 24 30 30 19 20 21 27 30 28 22 20 35 26 18 38 28 29 37 33
30 31 20 23 26 24 36 24 31 25 31 19 34 37 35 29 20 22 35 23 36 22 28 21 21 24 23 26 26 36 38 23 37 20 29 34 19 26 25 18 109 31 31 32 36 25 36 23 21 24 27 34 25 29 30 29 25 26 38 29 31 34 22 21
20 26 32 18 36 26 29 18 31 25 19 37 38 30 28 31 29 31 30 24 31 23 22 24 34 18 26 19 37 22 22 38 26 37 28 25 29 27 37 21 18 105 20 33 20 33 36 31 23 29 36 23 33 23 26 32 20 24 22 24 29 20 24 25
29 33 33 25 38 28 27 23 18 30 29 37 18 32 19 22 34 36 29 38 36 24 19 38 26 28 20 19 22 20 33 32 35 20 20 25 35 18 23 26 23 33 23 36 33 38 33 21 38 37 38 20 25 29 31 33 36 33 31 33 36 28 25 33
24 27 29 21 27 25 35 26 26 23 22 18 22 33 37 35 32 29 32 18 31 18 20 20 33 27 29 26 18 31 36 38 34 26 29 23 18 38 23 25 22 20 31 31 35 28 22 33 26 36 21 27 38 32 28 21 28 35 20 38 24 33 18 31
38 24 37 28 21 26 19 35 34 28 27 24 28 26 33 36 18 30 21 29 33 21 27 32 31 27 23 36 28 19 26 21 25 36 33 37 20 32 25 24 35 21 30 34 18 23 27 19 21 20 24 25 23 18 22 28 32 25 20 33 28 36 34 32
