P2
64 64
255
21 14 21 17 21 14 15 26 15 21 17 15 24 26 20 26 19 19 19 21 19 20 25 25 25 25 20 17 26 17 22 20 20 17 23 18 15 23 25 19 19 14 26 25 24 19 20 21 14 19 16 15 20 23 21 14 14 22 23 19 21 18 16 18
25 15 23 19 24 16 26 22 20 26 14 20 21 25 17 20 14 26 25 14 16 14 14 25 18 19 16 21 22 26 24 23 18 19 19 16 20 14 26 23 19 15 14 16 19 18 21 20 25 14 25 21 24 18 16 24 25 21 19 19 17 24 24 24
24 18 24 22 20 23 14 16 14 15 24 15 25 22 23 16 25 21 20 24 16 14 17 25 19 15 15 17 16 21 26 25 16 15 21 14 15 24 16 18 16 22 17 26 21 20 23 26 17 14 21 18 22 19 17 19 22 16 22 25 26 19 18 22
16 21 16 25 20 25 14 25 19 16 16 21 21 19 26 19 22 18 26 20 24 26 16 20 18 21 25 15 24 17 19 22 15 15 20 22 20 23 25 19 17 21 17 19 25 23 16 19 22 24 14 14 15 16 23 18 20 25 21 19 21 20 22 21
16 22 25 23 19 16 19 24 26 24 18 24 15 19 24 15 24 20 23 17 17 23 25 20 18 22 17 21 21 16 20 26 25 17 26 26 25 19 19 15 26 21 21 25 21 25 18 16 25 23 26 16 15 24 16 20 25 19 19 26 17 20 20 21
25 17 20 23 22 20 17 24 22 14 20 19 15 26 15 16 18 20 14 16 17 26 17 22 15 26 19 22 26 23 24 14 20 20 18 14 22 17 19 19 14 14 14 17 16 14 18 19 24 24 17 16 21 26 21 18 19 18 25 26 16 25 17 22
25 23 18 26 16 25 23 23 26 16 15 14 18 24 21 15 24 14 26 19 22 25 20 20 23 23 21 16 19 22 17 14 24 26 22 14 19 19 23 16 17 17 25 15 26 26 21 15 17 23 26 25 25 19 21 26 23 23 17 18 16 18 22 24
20 19 21 26 23 15 15 15 15 24 20 16 15 15 22 19 16 14 23 25 15 19 16 25 21 19 23 19 19 16 19 26 21 15 21 14 23 17 20 17 14 25 18 14 15 14 22 18 16 21 24 17 16 17 14 24 18 23 14 20 21 18 26 26
23 16 24 19 22 17 25 14 26 26 21 22 15 22 15 22 16 19 23 15 22 21 23 21 21 25 18 17 22 25 20 25 20 19 22 24 14 15 21 16 26 14 24 15 20 22 20 25 23 24 26 20 23 18 25 26 21 24 16 24 15 25 17 17
18 17 17 25 20 16 16 24 18 15 17 15 22 19 16 24 24 21 21 16 15 14 26 20 25 15 20 21 24 17 18 21 15 18 18 16 23 16 19 24 14 21 19 14 26 23 18 26 22 25 14 26 15 16 23 20 22 15 16 25 17 14 24 18
23 16 21 25 17 15 21 21 23 18 19 20 16 15 22 26 18 14 25 22 15 20 18 22 16 17 24 18 23 24 23 18 22 19 20 21 17 20 20 16 25 19 19 15 18 18 18 15 22 21 24 25 21 26 23 20 17 19 23 14 18 15 19 22
24 18 24 17 16 16 15 14 23 23 25 25 24 15 16 22 17 25 21 22 18 21 22 16 25 24 22 26 26 20 26 16 19 17 24 26 23 23 22 17 18 19 25 20 16 19 17 23 23 14 19 20 22 14 17 17 22 25 19 25 17 22 25 14
20 14 18 25 16 20 14 18 14 18 17 15 14 25 25 19 16 24 25 21 15 25 20 17 18 24 18 25 21 15 23 17 16 26 18 18 20 23 14 25 22 20 26 14 19 26 25 14 20 15 25 23 26 15 23 21 26 23 17 17 25 17 26 24
25 24 16 25 16 26 21 24 23 20 16 25 22 21 18 20 25 19 26 26 19 16 24 26 15 14 19 17 15 23 23 20 18 23 25 16 25 19 17 17 18 15 18 24 15 17 17 19 21 18 14 16 15 22 25 22 24 22 24 22 25 16 23 22
22 25 24 26 21 20 25 16 21 25 24 16 21 26 23 16 22 21 22 25 16 25 16 19 22 14 20 16 20 23 18 20 24 17 17 15 16 26 22 21 21 23 16 15 16 19 23 26 14 17 21 23 20 25 16 22 19 19 18 24 19 22 20 15
20 19 19 22 20 26 15 26 19 25 19 16 24 17 24 21 26 24 15 21 19 24 15 20 18 22 19 24 16 23 16 14 19 18 17 19 22 20 24 23 25 25 25 21 16 20 22 26 21 23 14 24 20 17 22 21 20 21 24 20 24 20 26 19
16 20 26 15 20 16 18 19 26 24 26 17 24 15 26 18 20 19 18 23 22 16 15 25 18 21 21 21 21 25 19 19 23 25 15 26 15 22 18 16 20 20 21 19 19 23 20 25 22 22 21 23 14 24 26 21 22 19 23 19 25 20 26 22
25 24 23 16 21 26 22 19 17 18 24 19 20 19 23 14 14 23 20 25 22 18 18 15 26 25 24 20 20 19 15 26 23 21 21 19 20 24 26 22 21 26 20 25 19 16 16 24 15 19 19 23 22 20 19 23 21 19 18 22 23 15 26 26
15 25 22 19 21 19 26 26 14 17 25 18 19 21 21 22 24 21 24 25 19 24 25 25 23 21 15 24 20 21 14 14 23 20 17 15 17 18 21 14 22 23 18 25 16 20 17 20 14 18 19 22 24 18 22 17 19 22 16 14 26 22 17 16
17 25 16 22 20 25 20 14 17 18 17 21 26 14 14 22 17 18 24 25 27 21 27 23 16 22 20 15 20 17 24 21 17 26 16 21 21 20 17 16 22 28 25 26 29 19 19 26 17 17 15 19 21 15 19 21 26 19 15 26 14 19 24 23
26 25 24 25 20 17 18 14 26 25 17 14 14 19 15 27 20 30 23 25 22 26 29 27 21 18 28 25 25 17 26 19 20 19 25 16 14 20 26 21 32 31 25 34 31 33 29 32 24 23 26 20 26 20 22 14 14 23 21 16 21 20 21 23
18 21 16 22 18 18 24 15 16 24 24 24 17 19 25 31 29 29 32 28 32 31 27 30 28 33 24 22 25 20 17 17 24 23 19 15 19 27 27 22 35 32 26 33 28 29 35 23 33 28 19 27 22 18 15 17 18 17 21 18 24 14 25 26
14 16 20 14 25 23 21 17 26 16 16 17 18 31 32 27 29 32 28 37 41 38 36 30 36 28 25 25 25 28 35 33 31 31 35 24 33 37 27 26 30 35 38 37 32 29 34 39 37 29 24 28 24 24 19 16 15 20 26 26 16 23 17 23
15 23 25 16 26 18 18 17 20 18 22 29 21 28 35 29 35 38 41 40 44 44 34 41 41 33 41 45 41 42 41 32 35 36 31 36 42 36 42 41 39 38 44 43 37 37 38 42 31 29 30 32 25 29 26 15 25 18 14 23 17 18 20 26
22 20 22 19 17 22 19 15 21 21 29 26 23 26 31 41 36 35 45 47 48 39 46 42 44 45 50 54 55 51 46 39 46 38 49 47 50 51 43 52 45 47 47 44 43 48 37 41 41 35 37 38 23 23 18 18 21 15 24 21 21 20 18 17
16 26 22 18 16 23 22 18 24 27 19 28 33 33 36 46 44 38 40 43 50 47 52 50 50 58 54 54 56 51 48 50 45 50 59 51 57 58 53 59 51 58 47 47 49 51 51 46 46 42 36 32 33 30 21 28 23 20 17 19 24 25 24 24
22 15 14 17 20 22 14 21 18 30 27 32 37 41 43 45 48 47 43 50 55 50 54 57 65 65 60 68 70 60 67 55 58 66 57 66 72 68 72 59 69 65 59 58 50 49 49 52 46 38 44 42 38 27 23 30 16 23 25 22 23 22 14 20
21 26 14 17 26 24 16 24 20 32 33 28 38 37 46 41 50 53 48 53 58 63 69 74 70 69 72 72 69 78 69 76 67 66 76 75 78 75 77 76 68 70 66 60 59 58 56 56 43 40 43 39 41 31 31 32 17 22 20 19 17 25 26 26
18 14 19 23 22 17 22 14 19 22 29 36 42 37 51 46 46 57 52 55 62 68 68 76 75 79 78 81 78 75 75 74 75 79 79 82 85 82 76 74 75 72 80 66 59 61 58 49 53 53 39 45 41 35 33 23 19 21 23 16 16 18 25 20
16 24 20 24 20 22 23 19 26 26 38 34 45 47 52 46 51 54 60 69 69 72 79 78 88 92 88 94 85 91 82 82 91 84 84 92 83 91 91 88 89 85 77 78 74 71 56 51 57 54 43 45 40 40 26 30 22 18 15 18 18 21 21 14
17 23 16 18 17 18 18 26 23 33 38 42 34 49 48 55 60 61 59 75 72 88 84 85 96 87 92 95 90 94 94 101 98 101 90 99 98 94 95 89 86 96 93 89 74 69 59 63 51 49 53 40 42 39 37 23 22 19 21 26 26 26 17 22
20 23 23 24 18 16 14 24 31 27 36 36 37 48 43 59 57 57 63 72 86 88 92 89 93 99 99 100 101 95 100 100 104 98 100 101 95 99 102 97 100 99 97 87 82 79 66 58 58 49 47 40 41 34 34 24 20 18 14 24 26 25 24 26
20 24 14 14 23 16 21 20 31 30 40 37 42 43 47 56 63 56 73 82 88 96 101 99 99 106 97 106 99 107 111 106 115 105 111 103 110 107 109 100 96 103 98 96 85 78 65 65 51 52 47 45 37 31 28 32 30 16 19 18 26 20 24 19
25 22 18 14 19 23 15 20 26 24 28 39 41 43 46 48 60 59 65 81 90 93 101 96 107 105 102 112 112 109 118 114 113 111 107 116 109 104 112 107 97 96 95 92 82 78 75 57 51 47 47 44 43 33 35 24 23 25 15 25 17 18 17 14
26 22 20 15 22 15 23 25 23 35 34 36 42 47 51 55 53 64 65 81 89 93 94 96 106 99 112 105 116 115 119 125 122 122 112 116 111 107 110 99 107 96 98 96 79 80 64 60 59 57 45 40 42 32 32 32 20 20 21 24 21 26 19 18
16 18 20 24 16 14 24 24 19 31 35 34 39 41 47 45 56 57 73 74 83 90 98 99 97 107 108 106 113 118 117 127 128 125 120 109 107 114 113 104 95 94 96 86 80 73 69 54 59 51 48 45 34 36 31 26 23 15 23 25 14 26 14 23
16 22 26 18 14 22 26 20 25 29 29 32 44 47 50 51 48 52 61 78 74 81 92 90 103 100 103 109 105 108 122 116 132 120 113 115 111 112 110 100 104 94 88 88 74 72 62 54 46 53 46 41 42 39 36 32 23 18 16 24 20 26 16 24
24 18 14 14 25 22 18 15 21 31 25 38 33 39 39 50 50 58 66 73 72 84 81 91 94 100 103 100 114 105 117 113 116 117 117 117 112 109 106 100 97 94 88 83 81 71 66 49 45 47 41 44 31 32 26 28 18 21 26 15 17 21 18 22
19 16 16 16 21 18 15 15 14 21 26 37 33 33 39 45 48 45 62 60 70 74 86 90 89 91 103 103 106 103 113 108 112 105 109 106 109 95 100 92 96 82 77 71 68 62 52 51 44 46 37 36 31 25 23 18 23 17 25 23 16 16 22 24
26 16 15 26 23 24 24 16 19 19 29 33 31 36 34 39 41 48 53 64 64 66 82 86 80 95 96 92 99 103 101 95 97 100 100 95 102 89 88 89 85 76 72 69 63 65 46 45 48 35 39 38 32 24 20 18 23 15 18 14 17 14 22 20
21 19 20 17 19 23 21 15 23 24 17 25 29 35 28 38 35 43 49 55 60 68 72 71 83 78 88 89 86 90 89 97 89 91 90 88 90 90 91 80 84 79 71 70 59 51 47 44 35 31 38 33 34 22 29 18 20 20 25 15 23 24 22 25
22 24 14 24 20 20 20 15 21 18 21 20 29 34 35 37 29 40 45 46 53 53 69 67 72 70 78 78 83 85 81 79 81 84 84 84 82 78 73 77 68 72 62 54 50 42 38 32 38 31 31 33 24 26 19 23 24 21 19 22 23 15 16 25
16 16 24 26 22 17 24 25 18 21 17 22 23 27 31 32 37 27 38 47 45 54 59 56 67 69 74 70 75 72 79 72 80 82 78 71 71 78 69 75 60 55 53 56 41 43 40 29 26 28 25 26 21 17 26 15 21 22 26 25 15 15 23 23
16 15 21 18 23 23 23 17 19 24 16 25 23 23 26 21 31 30 25 34 39 49 49 59 53 60 58 65 60 72 72 72 65 72 66 64 65 63 58 56 59 57 44 44 38 29 36 31 34 20 31 21 21 15 14 21 14 26 26 16 15 18 18 22
23 14 18 15 19 22 17 17 23 23 18 26 18 24 24 24 29 27 22 25 31 33 40 48 50 54 61 58 55 65 64 59 62 59 65 58 57 57 57 46 44 46 40 41 35 27 33 26 20 20 23 17 20 22 16 22 20 16 26 18 18 15 18 24
16 22 18 22 26 18 23 14 21 18 24 25 23 19 22 24 24 20 18 24 30 36 35 34 43 42 48 56 57 59 59 56 63 54 61 61 50 49 45 49 35 40 31 33 24 27 22 23 16 16 19 24 15 18 23 22 24 26 15 22 21 15 17 24
16 19 21 17 26 23 24 22 23 15 16 18 22 16 26 20 25 26 17 21 20 20 30 31 40 37 43 38 53 55 52 48 47 46 56 46 41 39 40 33 35 32 28 19 19 20 17 17 25 22 23 22 20 19 23 22 17 19 21 20 22 26 14 21
14 20 25 24 16 15 19 18 17 19 14 21 17 23 20 14 15 24 24 17 24 17 21 28 32 35 33 38 37 37 45 50 51 51 46 44 38 33 40 33 30 22 16 25 18 18 22 21 23 25 23 20 17 15 22 23 16 17 21 23 15 20 24 14
25 22 25 17 17 21 26 18 19 18 16 21 23 18 26 18 22 26 15 20 18 26 26 17 21 30 37 35 31 32 44 34 41 42 32 33 30 30 26 24 30 17 25 16 22 16 23 23 17 25 20 26 22 23 21 14 22 15 21 21 22 21 18 17
16 17 26 22 24 24 16 17 17 22 25 15 22 15 15 22 19 17 20 22 15 17 16 15 23 20 19 27 35 32 32 28 35 35 31 32 33 24 26 21 16 18 14 16 26 25 18 16 14 16 15 20 25 19 22 19 18 18 19 16 18 26 22 22
26 17 25 22 25 19 23 18 18 19 14 25 24 18 17 16 14 23 23 25 16 23 16 15 15 20 20 19 28 20 25 33 32 30 24 23 27 22 18 18 26 17 16 16 24 20 25 20 25 20 26 25 15 24 26 16 19 14 23 21 26 24 21 22
19 19 26 15 17 22 19 22 24 25 21 23 15 21 15 21 16 26 17 14 14 14 25 15 14 16 24 14 26 19 20 16 16 26 23 15 14 26 24 17 21 15 19 19 24 24 25 23 26 18 17 19 23 16 16 17 24 26 21 25 16 18 14 25
26 20 15 24 16 15 19 25 15 25 18 14 16 22 17 19 25 26 24 22 15 15 19 26 19 20 18 19 23 19 16 15 25 16 24 17 19 18 14 24 17 19 21 17 21 14 14 24 21 15 20 20 23 20 18 26 21 20 19 19 18 18 25 16
21 26 15 14 14 26 24 18 14 19 23 16 21 26 17 23 21 17 26 20 14 25 22 22 17 15 21 24 19 22 21 24 25 15 19 26 23 24 18 17 21 21 24 23 26 15 26 15 26 26 23 26 26 16 26 26 17 18 23 19 18 17 20 24
20 26 20 26 21 20 21 16 20 26 23 19 18 23 23 21 24 20 16 15 26 21 23 18 15 17 17 19 16 23 24 21 19 26 21 26 16 21 25 17 14 15 24 23 14 17 21 18 16 16 22 14 21 22 20 23 21 26 16 18 26 21 14 21
24 17 20 25 19 17 24 16 23 21 19 25 15 20 15 14 17 15 22 16 14 24 20 15 22 25 26 25 16 20 21 14 17 17 18 22 15 26 16 16 15 18 15 16 16 23 14 25 17 18 17 23 24 26 17 21 21 25 22 17 16 20 16 19
17 16 24 22 14 18 19 24 16 20 16 25 23 21 25 16 26 16 24 15 26 14 22 22 23 26 18 16 15 15 24 14 25 16 23 25 18 16 18 22 16 20 23 25 24 26 21 14 15 18 22 14 20 21 16 26 18 21 15 18 17 24 24 17
17 26 25 25 20 26 24 14 14 21 26 16 25 23 20 22 21 16 26 14 19 23 17 19 21 14 14 20 15 18 14 22 22 15 19 23 22 18 23 24 24 14 15 17 22 15 19 17 22 20 15 23 25 17 17 22 26 14 15 19 22 26 25 15
26 14 21 24 21 19 22 15 25 14 24 23 18 24 14 15 21 22 22 18 23 15 26 23 26 18 26 16 22 20 25 22 24 17 26 18 14 17 14 21 22 22 16 24 17 18 15 14 17 17 19 19 24 21 20 20 14 19 19 15 15 25 16 14
14 22 16 20 21 14 19 24 26 14 23 22 25 14 19 15 18 21 16 20 19 15 24 15 19 21 19 26 18 16 25 19 25 14 22 26 22 19 17 16 25 17 23 17 14 19 14 20 24 17 15 14 22 25 20 20 24 25 23 14 25 20 14 22
19 17 19 18 26 14 22 15 24 17 19 17 17 19 20 23 20 22 18 21 16 21 14 14 25 17 15 16 14 20 15 23 26 20 19 25 24 26 24 17 18 24 15 15 17 26 22 20 25 25 24 21 18 25 14 26 19 16 18 26 22 26 16 21
21 15 21 24 19 20 23 21 23 25 26 26 18 14 26 17 26 24 14 24 22 17 24 17 25 21 18 25 15 23 19 17 25 24 16 23 24 21 25 21 16 26 26 24 26 16 26 26 19 15 20 24 17 18 21 17 23 18 17 18 26 15 22 25
20 24 26 17 25 22 15 24 24 20 24 25 15 20 22 15 24 24 14 20 17 18 17 23 25 19 22 19 21 15 14 16 18 17 22 22 19 23 22 19 20 26 25 19 19 17 23 25 25 14 24 14 20 19 15 21 19 25 15 21 26 18 20 24
23 18 24 18 14 26 23 24 24 19 25 18 22 15 16 21 17 20 14 21 17 23 17 22 14 15 22 25 20 18 14 22 23 25 17 23 24 14 26 19 23 20 25 17 19 16 17 26 17 14 24 14 22 21 26 19 23 17 20 21 18 19 23 24
