P2
64 64
255
23 25 37 28 26 21 31 37 35 34 38 25 21 23 20 21 24 21 24 32 27 29 36 20 19 22 35 18 29 22 36 31 29 32 34 20 32 22 18 29 28 31 26 18 31 29 18 31 34 23 37 30 35 20 36 27 24 30 27 27 36 36 36 29
34 25 31 38 30 26 37 25 19 20 19 28 34 23 32 30 18 28 28 28 26 18 32 36 23 30 21 31 36 28 22 31 29 29 29 32 22 38 37 19 32 36 20 34 30 29 22 25 21 37 24 26 34 38 19 35 36 35 35 36 32 35 19 18
24 28 31 33 35 37 19 21 30 27 20 26 21 28 19 22 34 19 32 33 37 24 20 22 29 33 21 33 26 18 24 18 27 21 23 30 30 38 30 23 26 37 28 31 26 24 26 21 31 22 30 33 25 25 27 27 28 20 24 31 22 25 32 33
34 38 33 24 19 33 19 27 27 35 23 22 37 37 32 29 25 34 20 26 26 32 18 18 34 28 32 18 29 18 26 20 36 29 29 25 24 23 35 25 36 26 20 35 26 38 18 37 30 19 22 22 34 27 21 33 33 22 36 33 38 22 35 19
35 31 32 28 25 25 23 38 31 20 35 21 28 23 26 21 36 30 34 23 18 24 38 31 37 26 32 18 30 19 31 27 21 38 31 25 34 28 34 38 35 38 27 37 37 22 27 20 26 25 24 26 27 34 21 19 18 28 31 22 19 31 30 37
38 32 30 28 32 36 20 25 21 35 30 34 29 23 31 18 29 33 24 26 30 31 29 22 33 31 19 23 22 23 22 37 27 33 29 37 30 20 38 36 18 36 29 34 26 34 19 30 23 21 30 25 19 34 23 21 21 38 25 37 33 21 19 35
25 34 36 37 18 21 31 30 38 23 29 20 18 35 18 24 26 34 18 29 30 18 27 37 38 30 32 29 23 24 36 25 19 19 33 27 19 22 21 34 33 36 27 21 30 29 37 25 23 37 24 38 34 28 27 32 30 33 26 28 22 37 34 30
20 25 18 34 23 33 26 31 31 27 24 30 27 36 37 38 36 33 26 18 22 38 32 33 35 33 22 29 21 18 26 26 25 30 32 37 31 35 25 26 38 32 30 28 35 21 18 35 28 23 38 20 18 32 27 22 34 26 27 31 31 28 21 19
24 30 32 35 20 20 19 18 24 23 22 36 21 32 30 34 33 24 35 37 37 22 37 33 36 21 29 22 33 27 32 28 33 23 32 31 34 30 23 28 38 22 33 37 28 26 35 23 19 18 20 28 21 36 32 34 36 20 35 35 26 25 25 34
26 26 30 31 24 22 30 35 33 33 22 35 28 37 22 24 37 25 20 26 28 22 36 32 38 23 36 24 18 35 18 36 37 34 36 37 20 32 34 22 24 24 25 26 38 24 25 19 24 20 29 27 32 18 27 34 31 18 23 32 30 34 33 26
28 20 24 36 26 19 25 33 38 29 30 24 29 21 19 29 19 31 22 35 30 38 35 31 25 21 37 23 27 25 38 25 36 38 32 20 25 32 30 24 32 37 31 25 21 19 30 25 36 26 19 33 26 19 20 29 24 19 34 38 29 32 36 19
21 35 33 30 36 27 19 23 35 33 26 36 25 34 35 38 24 20 23 25 30 28 34 30 33 31 36 28 19 22 22 20 36 36 34 26 19 19 22 26 27 31 30 19 19 18 36 23 29 21 33 32 37 26 18 33 35 32 18 32 27 30 30 27
27 32 21 33 33 37 36 25 23 28 37 31 35 19 37 35 25 30 25 30 21 25 20 27 32 37 21 21 19 19 34 19 38 23 31 26 29 28 27 24 25 30 20 19 31 33 36 33 19 23 21 24 18 21 33 19 22 35 36 34 35 19 36 28
37 32 25 26 38 34 34 24 21 27 18 29 28 24 32 36 37 32 35 29 37 38 26 36 22 26 38 22 32 37 36 26 29 27 38 19 21 33 29 37 28 26 35 29 26 29 29 31 32 37 24 23 37 31 37 33 36 18 32 20 38 30 19 35
35 28 35 30 18 37 28 29 30 33 25 29 26 20 19 26 30 19 20 18 35 20 28 26 20 22 28 31 31 28 26 32 27 28 30 25 33 27 24 38 22 36 28 19 28 23 24 21 38 23 22 36 26 27 26 24 25 26 19 22 38 24 32 35
24 28 33 33 33 26 26 28 37 32 28 27 29 32 25 22 22 23 38 23 25 28 32 21 24 18 25 35 29 19 28 33 24 22 37 27 26 36 24 18 28 30 38 26 23 29 21 26 20 23 28 24 22 35 18 21 24 37 24 30 27 33 25 21
21 18 27 24 18 33 32 29 21 33 28 30 37 28 26 22 23 21 31 22 23 30 37 23 29 20 28 29 27 30 24 33 22 31 26 28 38 27 19 19 18 27 30 22 30 36 23 34 33 31 37 24 33 27 32 38 30 35 34 24 33 22 32 22
27 18 25 24 23 23 22 18 36 19 27 26 22 34 32 34 20 29 31 18 22 34 22 28 38 21 38 27 20 23 38 18 31 38 20 28 25 21 34 35 28 33 32 31 33 23 27 37 32 30 24 34 18 31 35 20 36 27 34 31 20 20 30 38
22 34 38 18 21 33 22 22 37 28 34 20 26 29 21 23 19 36 26 18 32 31 34 37 34 38 27 24 35 28 25 22 27 22 37 28 28 25 34 33 23 38 23 23 33 37 29 20 19 30 28 23 35 31 24 25 18 29 18 38 26 23 27 36
35 30 26 33 22 34 36 21 37 36 26 34 21 19 27 18 33 20 36 27 40 38 23 29 24 39 34 30 18 20 20 31 36 25 35 22 28 28 29 20 27 39 21 24 40 30 31 40 25 18 18 27 21 33 25 21 19 29 19 25 20 23 21 21
22 19 18 25 24 31 37 32 22 36 28 36 26 25 22 36 31 37 37 41 28 43 34 35 28 27 28 33 32 22 32 38 18 21 23 30 20 20 39 27 38 27 25 40 45 28 31 28 24 21 29 20 19 22 20 25 24 18 27 33 26 23 31 27
22 27 22 32 35 19 35 26 24 20 25 34 27 41 37 33 28 47 45 36 47 35 36 36 42 39 34 34 40 18 28 38 18 36 29 23 39 25 29 36 32 28 43 48 36 44 36 36 37 42 34 35 23 25 20 27 38 32 18 38 27 19 18 31
37 33 24 37 34 26 34 34 25 33 34 34 30 39 31 34 41 44 39 52 45 52 33 36 41 41 37 44 42 28 27 31 25 18 37 28 28 32 37 39 35 40 45 50 49 51 39 40 37 39 31 41 26 20 25 21 33 27 38 37 38 20 38 28
21 27 32 22 32 27 25 22 28 32 19 26 33 43 49 44 52 45 51 46 50 44 47 47 45 50 42 46 44 39 23 24 34 34 21 25 30 37 51 43 37 52 47 50 53 56 51 51 44 37 36 32 27 23 39 37 33 33 20 30 31 23 22 32
25 33 35 26 19 37 29 20 31 21 25 29 33 39 38 39 50 56 51 50 55 45 50 47 50 53 42 43 41 31 38 22 34 23 40 38 41 44 47 43 46 48 55 48 43 53 41 53 52 37 44 45 45 37 26 34 28 32 30 34 23 38 20 37
38 30 28 25 38 31 19 29 38 28 37 43 50 35 50 45 50 42 45 50 46 58 64 56 59 45 57 44 51 44 35 24 22 37 38 44 38 44 50 58 54 59 49 62 62 65 48 42 57 40 39 36 35 33 36 21 32 24 26 21 18 27 23 31
19 23 34 21 33 21 34 20 22 39 25 35 50 52 55 57 45 59 59 57 55 60 55 47 54 57 59 46 44 41 29 27 42 37 36 38 37 47 53 50 60 59 50 50 65 62 50 56 46 61 48 35 32 43 42 33 31 35 22 24 35 36 27 20
37 29 28 18 23 23 33 18 26 41 35 35 46 38 46 49 54 54 62 52 72 71 54 58 66 50 55 41 46 42 31 45 32 49 31 46 44 53 54 55 55 62 60 62 61 61 59 67 46 48 54 46 43 40 30 28 20 32 33 27 18 23 28 26
36 22 32 37 36 31 21 24 26 30 49 34 53 41 55 61 52 54 71 71 64 71 74 74 71 53 61 43 49 42 40 45 38 36 49 39 53 53 57 66 62 70 58 63 77 62 74 68 54 49 56 55 41 45 34 36 36 33 31 20 26 18 20 22
21 23 21 37 20 30 27 33 23 33 42 44 41 43 52 55 65 55 62 59 74 63 77 73 54 51 66 44 42 52 42 34 34 40 35 44 42 51 65 66 66 57 76 65 73 74 66 71 58 48 61 47 37 42 32 38 40 35 38 30 23 34 30 22
28 37 34 35 37 35 28 29 32 42 44 45 53 45 47 56 56 63 69 66 82 78 69 69 74 57 50 60 62 48 43 38 39 41 44 39 43 50 53 67 70 62 73 80 65 74 70 59 64 67 65 59 47 36 35 40 43 35 35 37 36 30 28 30
35 19 24 21 33 19 35 40 42 27 34 45 42 43 55 59 69 65 77 73 82 73 66 73 77 63 67 54 46 48 43 50 50 45 41 47 61 53 65 56 71 65 66 76 68 79 80 74 56 54 62 51 40 51 44 47 28 38 35 27 33 19 22 29
34 19 37 33 22 29 23 26 34 37 40 41 52 47 57 51 55 67 82 87 81 85 71 83 65 64 60 56 45 44 56 57 38 57 49 44 47 65 62 70 69 74 74 89 76 74 69 71 69 70 52 44 40 52 46 35 43 39 26 26 29 19 25 28
23 36 37 23 30 36 32 24 32 37 51 55 46 47 49 66 71 73 69 67 72 77 75 72 64 54 67 54 60 47 50 55 56 51 55 47 55 65 63 68 74 80 71 71 76 75 67 75 60 55 63 45 46 48 45 47 38 35 38 21 25 27 22 24
33 30 30 20 23 27 36 35 24 40 44 41 50 62 53 68 58 77 79 64 77 73 74 63 69 63 67 52 52 52 53 51 41 37 45 41 60 62 60 63 62 66 69 80 72 80 73 61 59 62 54 46 38 38 43 29 28 34 30 38 38 35 28 22
25 35 32 24 19 33 23 32 31 46 41 45 48 52 46 62 59 75 58 76 74 76 64 57 67 63 57 64 55 40 45 47 51 51 35 53 46 49 64 69 64 63 69 63 68 67 67 69 64 59 59 42 49 41 33 45 23 35 26 38 31 23 32 26
38 37 25 37 30 23 31 28 32 40 44 51 37 52 44 56 58 62 60 73 73 68 67 58 66 66 63 46 43 55 48 45 38 48 32 55 51 58 47 61 60 64 62 64 62 62 62 58 67 61 56 46 45 46 38 25 40 32 33 30 36 24 34 23
20 34 32 22 23 33 38 22 23 40 47 44 52 46 46 44 59 63 61 64 53 66 67 65 57 46 55 55 53 42 47 31 44 44 45 35 47 41 56 63 66 63 70 64 60 68 52 65 48 59 49 45 53 49 27 27 38 25 37 21 30 34 31 37
29 19 18 36 35 24 33 29 36 26 28 39 50 45 40 41 43 64 59 65 59 57 49 64 49 63 61 52 40 37 42 37 35 38 41 45 53 40 47 54 54 50 48 56 66 52 57 53 63 46 45 42 46 47 37 32 36 26 35 19 29 29 29 31
30 23 25 39 25 21 33 31 29 29 42 37 39 50 51 58 44 49 54 66 49 49 52 49 47 55 53 56 36 50 40 30 34 38 33 40 56 45 56 64 48 51 70 57 67 58 62 64 51 45 44 54 36 48 41 34 26 35 34 25 33 36 29 29
27 44 34 32 44 35 42 37 43 44 45 38 48 56 45 43 62 53 57 50 59 60 65 59 67 65 62 51 58 45 39 44 44 47 51 50 60 46 51 62 60 62 68 71 55 68 69 58 58 67 54 54 40 48 36 42 49 46 38 51 50 42 49 32
38 32 45 48 40 46 37 46 36 42 32 43 47 42 52 46 58 66 53 60 58 64 63 50 61 57 47 46 45 44 46 35 52 49 45 48 55 52 53 51 69 69 69 54 61 64 56 71 57 54 57 50 41 42 57 47 40 37 56 45 51 48 45 56
33 41 41 28 36 36 28 41 28 38 40 45 47 43 38 50 54 54 42 50 51 42 53 53 42 46 38 49 35 44 29 32 31 32 45 31 53 40 54 58 56 43 63 43 60 44 43 52 50 52 55 53 49 34 40 33 32 45 34 43 43 41 31 41
25 34 36 24 27 24 26 29 37 24 30 29 35 38 32 45 34 43 33 35 50 37 42 33 45 44 32 28 44 27 37 25 40 26 38 28 26 29 38 45 40 50 38 54 38 40 46 41 45 43 40 36 41 26 23 43 44 24 41 33 40 33 42 25
34 26 25 34 22 34 37 31 27 31 32 33 29 37 37 34 41 31 33 44 28 33 28 37 42 28 24 34 22 25 29 25 38 32 38 30 27 33 36 28 29 41 45 44 32 34 31 32 39 37 35 23 21 19 28 24 31 19 20 19 25 35 22 18
18 29 26 32 33 18 21 22 21 24 18 27 28 36 19 33 19 29 35 29 33 36 35 36 28 36 38 33 19 36 26 28 28 33 38 35 33 23 26 39 22 28 37 32 38 28 37 33 23 34 24 35 31 37 31 37 19 32 24 33 38 34 28 31
30 18 20 23 24 25 22 21 20 36 38 27 36 22 18 32 28 24 27 22 34 34 18 23 36 26 27 33 38 29 35 32 35 36 19 21 35 37 24 22 37 36 23 27 22 23 22 18 20 28 18 18 18 22 19 29 24 24 35 28 29 18 37 27
25 34 22 38 37 21 38 26 31 25 32 36 30 20 35 30 34 23 38 30 35 33 36 21 37 33 29 37 37 37 26 18 24 26 31 37 27 36 38 35 19 24 33 22 35 37 35 38 24 26 35 31 38 25 32 33 28 27 38 29 22 22 21 33
28 37 37 20 34 37 36 19 31 20 23 35 29 38 31 37 25 28 38 35 23 27 20 35 36 30 27 36 34 29 18 21 22 34 21 20 34 23 31 38 18 33 36 38 20 29 32 20 25 23 24 19 26 24 31 22 30 31 22 36 35 37 32 37
30 26 24 21 23 19 19 21 22 25 32 29 22 18 28 30 33 25 32 20 27 22 33 19 31 30 34 30 20 25 25 20 37 33 37 22 32 36 21 24 36 20 18 19 30 27 32 38 28 27 20 36 34 36 34 21 33 26 24 24 28 20 33 26
28 29 20 28 20 31 18 22 28 33 28 18 31 34 24 25 23 31 29 23 31 28 24 26 35 34 29 28 24 37 19 18 38 22 21 37 24 31 30 21 27 28 19 32 32 36 30 27 34 19 20 19 19 24 37 32 31 37 27 35 30 22 28 29
38 18 31 22 25 28 21 30 30 20 18 38 30 38 28 25 35 29 21 18 27 20 24 37 32 36 26 38 34 32 29 35 23 27 33 35 26 26 36 20 31 28 27 31 22 25 25 27 38 33 30 29 19 34 37 29 36 33 22 38 26 22 38 37
25 37 34 37 27 20 34 23 22 36 27 27 30 25 28 31 29 22 37 31 23 30 33 34 34 35 38 37 23 30 25 27 31 22 34 34 23 25 24 37 25 29 30 23 25 23 33 31 36 32 30 34 23 30 38 19 20 34 21 28 25 21 34 38
33 29 30 32 34 33 26 22 36 38 23 29 19 28 19 24 33 34 28 37 34 25 38 37 35 25 23 31 23 32 32 34 18 23 23 34 23 30 25 35 38 21 35 36 32 25 24 25 29 24 20 21 21 21 18 20 30 38 25 29 21 34 38 30
37 32 36 36 25 24 25 28 33 18 37 33 32 18 30 18 29 24 28 38 22 22 37 35 25 32 23 37 33 37 37 27 36 38 29 19 19 31 33 37 37 30 21 23 33 24 38 38 34 23 24 18 29 25 36 37 23 18 29 38 25 29 31 31
20 20 32 34 36 28 30 28 38 22 23 30 35 33 21 22 24 24 32 28 18 34 27 33 24 23 30 37 22 35 29 27 23 31 38 27 24 18 37 38 33 19 19 29 23 30 19 18 35 28 23 23 23 23 32 27 33 34 28 21 35 26 29 22
24 21 18 25 36 36 19 23 26 18 26 21 19 29 37 18 38 25 28 19 24 34 26 36 29 24 36 19 35 18 23 28 38 32 27 26 33 29 27 24 25 37 24 26 38 18 22 36 18 35 23 35 34 31 20 36 22 22 24 31 24 34 23 25
22 33 33 33 20 36 18 31 27 29 22 25 27 18 29 29 27 28 23 27 28 20 35 30 34 32 32 36 23 24 29 30 21 32 37 25 27 36 20 25 20 38 27 22 34 32 19 21 27 37 25 37 22 25 23 27 35 37 22 28 32 23 27 23
25 25 30 33 22 19 28 30 30 26 31 25 21 37 29 30 35 22 29 21 23 23 36 32 22 33 23 34 19 31 30 28 21 26 30 38 32 26 28 30 36 27 37 29 27 19 27 33 28 19 34 20 37 20 22 33 32 33 27 37 18 25 21 38
34 38 30 35 26 26 18 28 20 20 34 28 36 32 19 34 23 20 35 23 28 35 30 27 18 26 27 21 19 24 21 28 30 28 23 23 36 23 20 35 22 31 32 30 37 33 22 20 19 25 18 34 24 24 36 19 30 20 32 29 34 31 25 20
19 33 21 19 24 38 27 37 37 28 30 21 33 37 24 25 36 31 28 25 37 21 27 32 27 35 20 29 28 30 38 22 20 25 38 18 22 21 28 30 35 38 18 18 21 26 36 29 34 22 29 20 25 23 38 30 29 38 19 27 20 34 23 38
33 38 24 26 35 32 21 32 20 31 32 31 30 35 34 29 38 36 36 27 37 34 30 35 26 32 35 18 36 34 25 35 37 20 27 24 38 24 26 19 23 34 20 29 19 24 21 32 21 30 32 19 31 21 29 20 28 28 37 23 20 22 35 27
23 18 19 23 27 38 31 37 21 38 32 38 31 34 29 21 20 25 37 35 34 18 28 38 30 24 26 29 19 29 31 22 38 32 18 34 19 21 23 38 26 28 35 29 22 18 36 20 33 33 19 21 37 20 22 29 20 28 32 22 19 18 37 20
30 20 28 37 25 26 30 37 23 29 36 29 25 38 25 21 29 35 21 29 27 25 25 20 18 25 26 37 33 29 30 20 30 21 21 26 30 27 32 18 20 23 32 26 24 29 33 28 29 32 31 23 30 30 30 28 29 19 36 31 18 22 23 38
