P2
64 64
255
34 20 32 38 36 30 30 26 18 20 36 35 25 18 33 31 34 35 22 30 21 29 30 27 28 21 24 27 37 35 30 35 27 26 22 34 30 31 33 27 34 21 32 31 31 31 18 30 29 21 28 22 21 20 38 37 31 35 21 25 23 35 27 25
28 33 20 28 34 27 25 37 31 31 27 38 35 27 24 27 23 26 36 22 37 32 34 28 35 34 31 27 19 37 22 37 22 19 27 21 24 18 33 20 34 30 37 29 28 32 33 33 28 26 34 37 38 21 29 18 19 22 24 20 34 30 20 33
26 30 19 23 34 24 36 37 29 18 30 22 38 36 28 20 26 29 31 18 23 34 23 34 32 32 33 37 33 22 35 30 34 32 18 38 38 29 36 35 23 28 27 31 24 30 34 37 35 23 34 22 20 30 21 25 26 27 31 22 18 36 27 37
33 23 35 29 18 37 33 31 33 34 38 30 34 26 34 31 34 23 37 19 28 22 19 29 36 33 28 18 35 28 35 38 26 24 24 37 32 24 22 38 33 25 24 18 34 37 35 36 31 37 24 28 38 20 29 31 35 19 37 24 26 30 28 26
25 31 30 27 20 34 20 36 34 37 31 35 29 18 24 25 28 23 20 34 36 36 21 23 28 37 38 20 30 26 20 28 28 25 21 36 24 26 34 23 23 22 26 22 35 33 21 37 20 32 30 26 20 38 27 20 37 33 38 25 20 25 31 24
30 36 33 21 35 26 20 33 25 32 38 20 34 20 33 27 24 25 28 37 18 23 27 22 29 20 36 18 38 18 24 33 33 28 34 37 30 27 22 22 38 19 28 21 25 36 32 25 22 37 35 26 32 36 20 26 19 32 35 26 28 36 33 20
30 18 23 31 32 24 32 37 38 30 25 36 31 33 28 26 18 31 27 20 30 21 29 18 33 22 31 30 37 37 27 28 33 24 22 27 25 25 38 22 24 18 21 37 37 21 29 21 27 25 18 22 22 19 37 22 30 21 20 21 31 28 30 21
36 32 28 33 26 20 29 35 24 34 24 28 31 24 27 19 23 30 18 36 28 25 38 20 35 34 19 23 26 37 31 29 32 28 28 28 18 36 37 34 32 35 33 32 22 38 21 32 29 34 23 24 21 24 31 19 37 37 19 38 25 23 31 23
27 25 36 22 21 35 22 37 38 22 34 20 27 29 21 20 20 32 28 37 22 36 23 38 31 28 30 33 29 37 36 21 27 30 18 29 25 33 38 20 38 26 20 28 23 29 26 31 18 21 37 24 30 25 18 36 33 24 30 31 18 24 18 18
33 26 35 36 32 34 27 22 18 24 32 31 29 38 33 26 34 34 23 20 34 23 26 29 27 29 28 29 29 37 27 26 29 29 28 33 21 19 22 33 28 30 25 33 24 22 28 25 32 20 27 26 29 22 37 32 21 33 36 38 28 19 31 26
33 28 34 36 24 25 35 34 34 21 26 21 19 27 28 36 24 21 36 18 32 24 22 23 36 23 26 24 32 29 28 21 20 32 33 19 37 33 36 29 27 34 24 35 23 19 35 33 18 37 20 35 32 34 30 34 28 18 32 18 19 34 32 18
37 27 18 27 31 26 25 32 37 20 19 20 33 24 20 22 31 22 23 25 20 29 33 19 22 23 22 24 28 22 31 26 19 36 32 26 31 34 19 23 36 36 24 25 30 32 24 36 24 27 21 24 34 27 25 38 24 28 32 26 35 37 33 32
34 25 25 22 38 34 21 26 21 26 31 25 35 38 35 33 36 33 29 22 26 35 26 28 32 22 38 30 36 22 33 21 37 28 38 28 31 33 27 26 37 21 21 20 24 37 18 22 27 20 28 30 32 38 33 26 30 35 23 26 23 26 28 35
26 21 33 21 32 30 21 34 31 26 36 29 34 23 24 27 31 27 33 19 34 22 28 26 22 28 30 24 22 35 21 31 30 21 34 31 18 34 30 36 34 30 18 18 25 26 30 35 31 24 18 30 29 36 19 30 28 20 36 27 22 25 29 20
32 18 19 34 32 38 28 37 36 36 35 23 18 34 27 30 28 37 20 27 24 29 27 18 33 28 37 27 23 18 19 21 19 35 34 20 33 21 21 27 28 37 35 30 37 35 20 20 36 38 33 24 23 33 24 28 29 35 33 25 25 30 31 29
30 37 24 20 24 20 24 26 32 19 35 37 18 37 19 26 26 20 34 25 21 28 22 25 24 35 34 37 37 24 19 31 32 24 20 31 31 21 31 30 30 33 19 29 22 34 32 25 29 20 19 34 22 24 21 24 28 29 35 33 23 29 31 21
23 33 28 19 29 23 34 27 36 20 31 28 22 21 30 36 38 37 25 29 24 38 34 32 23 30 28 29 19 36 25 24 34 29 19 21 38 21 36 24 32 38 28 28 36 36 19 20 23 34 33 36 29 35 30 32 20 18 24 26 18 20 23 35
36 23 31 28 27 18 32 23 31 32 27 36 33 30 36 25 31 18 38 27 18 23 34 21 29 30 33 34 20 18 23 26 24 36 28 30 38 27 38 36 29 36 33 28 18 35 38 28 22 23 29 37 27 28 23 22 30 38 30 34 32 20 30 20
27 30 21 24 32 26 21 31 36 27 21 21 24 22 26 35 32 19 25 30 36 23 27 24 18 26 29 36 21 19 34 26 26 31 27 26 27 26 18 28 34 20 37 37 38 27 20 32 22 28 21 30 34 20 21 28 25 33 18 35 25 24 34 34
29 25 28 20 35 25 25 25 32 26 34 33 32 23 24 18 29 34 31 41 39 38 39 29 28 38 29 33 20 20 27 37 38 29 30 35 21 38 21 32 40 41 23 33 27 26 39 29 24 32 32 22 30 27 34 27 24 29 23 29 33 19 37 20
30 19 26 20 27 27 28 35 27 29 23 25 24 31 23 40 32 30 35 35 26 46 27 44 25 22 27 37 34 36 20 26 27 22 30 20 38 32 35 34 44 33 39 43 40 36 35 38 23 31 25 20 31 24 38 24 24 19 34 19 35 21 36 30
20 34 24 21 37 36 33 35 19 29 31 37 30 25 26 33 30 38 34 41 49 45 43 34 34 46 34 31 40 33 25 104 31 27 33 24 37 40 42 41 34 46 48 40 34 47 28 41 41 37 33 41 20 30 31 27 25 34 26 21 28 29 34 20
21 21 24 27 26 34 23 24 28 33 29 33 33 31 33 43 33 49 43 35 46 34 40 32 33 35 47 46 32 35 113 22 28 21 24 29 33 42 42 43 45 40 52 48 49 36 50 46 43 44 45 29 24 28 28 27 18 20 37 27 37 26 23 38
20 35 35 29 26 32 27 37 27 36 20 33 37 45 38 47 38 48 44 44 38 45 53 52 47 52 40 32 43 27 39 119 24 21 115 38 36 45 36 40 43 49 38 41 47 42 37 53 47 37 37 41 39 40 24 31 18 19 27 29 22 21 33 25
33 18 34 38 23 34 29 25 19 22 21 39 43 41 34 40 48 40 40 47 56 41 61 45 46 47 52 51 32 33 33 32 119 108 30 40 33 43 36 53 55 47 53 58 52 44 45 48 44 49 51 49 27 25 30 34 20 33 27 21 20 32 36 18
31 32 37 25 36 28 33 38 33 37 43 31 49 34 55 52 52 44 44 60 49 50 58 60 60 49 41 35 39 34 31 42 118 197 32 48 34 52 47 60 56 51 52 63 59 54 47 42 40 49 49 50 35 45 36 38 24 29 35 26 20 24 24 25
32 38 31 38 28 21 32 31 35 30 32 32 47 44 40 56 51 57 65 58 58 69 52 48 49 47 60 47 35 38 34 127 46 203 40 51 41 48 50 57 52 64 52 51 56 55 67 58 48 49 55 35 44 41 42 26 20 35 20 28 21 27 34 21
26 19 28 37 22 36 23 28 21 42 32 32 45 45 46 52 62 66 60 69 67 68 70 59 67 65 48 49 50 42 125 122 30 133 128 45 54 54 63 48 52 67 55 64 72 58 71 53 50 64 59 55 52 44 32 24 25 38 20 30 21 22 22 37
35 22 20 29 37 19 36 29 39 45 49 39 52 44 60 57 53 72 54 60 67 76 63 55 54 61 51 63 41 53 132 135 44 119 132 45 56 62 60 54 63 68 60 76 76 61 56 58 55 47 55 52 49 47 38 35 37 24 28 20 37 18 30 30
19 24 30 33 37 21 25 31 37 45 42 35 38 60 50 52 70 64 72 59 69 75 65 67 70 69 50 55 51 55 47 135 134 120 134 129 57 61 58 67 71 74 71 73 73 78 77 72 64 68 63 50 56 42 30 34 24 39 18 30 27 38 32 38
36 33 18 38 38 29 22 29 29 42 45 47 42 58 63 59 59 57 67 64 84 72 68 64 62 55 61 58 46 52 42 129 45 139 220 46 135 60 51 55 58 79 71 80 83 79 66 58 69 61 64 51 53 35 51 47 39 22 34 37 21 33 29 34
36 18 18 28 32 24 26 40 44 46 32 36 47 49 56 68 69 71 69 86 85 74 83 69 70 54 62 48 53 58 135 43 137 124 129 52 56 140 62 56 68 76 71 84 77 80 76 74 59 55 65 61 45 55 46 43 39 22 25 30 33 28 28 18
31 36 33 33 22 30 27 23 41 48 38 46 57 56 54 56 65 70 67 81 84 81 82 77 60 75 52 55 49 137 39 38 126 128 141 50 141 58 54 61 63 68 84 88 72 75 75 74 75 70 56 48 51 50 42 38 35 32 27 35 20 20 34 36
25 24 18 21 31 34 20 27 24 33 33 52 56 61 48 65 63 74 71 70 80 72 68 75 66 60 52 61 136 42 55 38 209 46 133 134 48 62 70 74 71 67 76 87 77 81 70 61 57 57 56 52 51 47 41 36 36 37 26 28 19 37 24 38
32 40 36 35 30 43 27 27 43 38 41 43 43 48 65 58 78 76 78 70 84 73 79 73 83 64 65 58 60 134 55 137 136 43 45 224 57 69 69 78 77 85 78 86 72 76 88 75 77 67 61 67 65 55 47 46 33 47 40 41 39 33 40 28
32 37 36 40 40 46 36 49 48 50 52 63 59 66 71 67 77 77 90 72 93 87 83 80 70 66 69 76 151 52 56 229 58 65 148 143 66 66 77 83 73 74 92 80 87 79 78 73 81 68 76 78 72 67 49 61 41 50 48 41 44 41 39 51
38 40 45 49 38 55 55 40 49 59 57 65 68 72 80 69 71 78 74 96 89 86 95 81 93 86 69 71 75 147 141 72 143 141 142 66 64 74 86 86 82 89 93 102 96 92 89 90 96 79 86 83 83 81 59 58 64 55 61 57 58 68 62 56
52 47 47 41 49 49 49 53 45 52 65 62 65 81 67 86 73 76 82 97 90 81 91 98 92 91 86 79 161 79 153 148 165 69 63 167 75 75 89 86 94 89 104 90 96 89 97 87 85 94 79 80 93 76 78 65 71 78 70 72 78 63 66 79
55 46 37 40 47 42 48 56 53 49 61 68 72 57 67 80 70 79 85 80 78 92 86 80 79 80 69 79 60 154 58 223 152 54 62 145 64 79 74 72 90 81 78 85 92 83 77 86 91 77 85 84 83 81 68 54 60 68 60 54 58 52 65 66
40 32 34 37 33 36 38 39 46 33 42 56 59 58 56 54 54 61 75 75 76 74 65 67 67 72 74 51 52 132 45 140 214 54 60 149 54 58 60 63 62 79 82 81 75 85 78 63 76 65 59 72 56 67 59 43 40 54 49 52 57 61 45 51
30 37 24 29 30 24 41 43 38 25 48 43 45 45 54 56 45 53 62 63 57 54 51 61 53 55 56 48 47 41 126 127 214 32 129 40 56 61 53 59 56 65 68 58 70 64 68 56 57 59 54 59 39 36 39 44 46 45 48 42 40 43 32 33
24 38 28 25 18 31 33 24 28 29 22 36 28 32 39 46 43 51 42 51 56 45 57 50 47 49 41 40 47 28 112 36 254 25 41 120 32 39 33 46 42 40 39 51 43 56 39 52 52 38 42 40 35 30 27 38 36 21 29 28 31 23 19 25
20 37 18 30 18 28 35 34 34 22 27 30 23 44 36 34 43 39 51 49 40 35 48 36 33 31 37 29 24 32 109 204 113 27 35 116 25 29 46 36 34 32 53 33 38 42 40 36 46 38 38 33 21 31 20 37 31 24 38 33 27 28 18 20
26 27 26 34 33 28 20 26 18 23 34 22 19 26 39 41 26 29 39 44 34 31 35 40 39 46 24 41 38 20 27 255 103 19 30 35 107 38 32 34 27 42 48 31 44 31 33 36 31 34 41 33 27 26 30 37 26 30 27 37 28 29 34 36
21 26 22 22 34 28 18 19 36 37 19 35 29 18 20 25 38 31 42 37 45 30 26 44 40 32 26 24 31 18 18 255 34 38 24 20 114 22 25 35 28 45 26 27 30 44 27 31 30 26 32 22 21 34 25 20 26 24 32 31 38 30 30 38
18 24 18 33 31 32 28 27 32 34 28 38 29 18 30 29 24 36 33 32 22 25 23 25 23 27 22 23 20 37 110 255 34 31 33 25 117 18 31 39 26 36 36 25 22 41 31 31 35 19 30 38 21 28 34 23 22 34 37 25 35 38 22 26
21 25 32 19 23 29 29 34 38 36 24 38 32 27 35 35 23 25 28 24 22 32 37 27 32 30 28 18 30 35 110 200 113 19 38 19 34 122 29 19 21 32 37 25 34 23 29 29 36 21 27 26 19 25 20 25 19 20 25 25 31 22 24 26
29 29 23 38 26 35 25 37 37 30 26 28 19 24 38 26 34 23 35 31 36 25 29 28 24 35 25 29 37 106 195 115 28 26 20 38 37 34 103 33 33 25 30 24 18 36 21 27 31 30 36 27 32 33 37 33 36 23 34 20 22 22 27 23
37 20 35 24 26 19 28 23 29 18 28 26 38 36 20 22 37 29 32 25 29 35 20 23 24 35 19 22 105 104 205 28 23 34 27 32 31 36 30 114 23 27 38 34 22 32 30 29 23 18 38 26 30 18 27 29 29 28 25 30 35 21 19 32
26 27 23 38 38 18 34 24 23 18 31 20 32 21 24 38 19 20 25 29 23 18 37 28 31 33 36 28 107 18 194 108 22 21 24 38 24 34 22 117 36 18 26 24 28 25 19 25 18 26 32 26 35 26 32 28 31 32 31 25 21 24 37 18
24 35 24 18 22 30 21 19 31 19 20 23 34 20 18 29 30 29 31 23 26 22 26 28 22 25 35 111 30 111 115 118 19 34 24 29 35 19 29 27 111 23 36 33 28 24 27 23 32 34 30 23 38 37 22 36 20 27 31 33 30 21 21 33
21 23 26 34 24 23 23 35 32 35 30 38 23 19 27 28 34 28 18 34 32 22 38 31 27 25 36 105 28 38 190 31 114 33 38 32 25 32 25 22 121 33 21 32 31 26 24 38 21 21 25 20 18 29 31 35 24 31 18 22 20 20 38 26
19 29 25 29 31 38 26 29 34 30 26 27 18 20 33 22 31 30 24 38 31 36 24 30 34 26 22 32 104 30 113 119 24 113 34 19 28 31 21 114 22 18 34 35 24 29 35 32 21 27 37 27 26 23 21 28 37 20 35 18 24 21 18 26
31 22 35 34 29 20 36 34 34 38 26 32 38 30 27 38 32 35 22 36 38 36 18 18 29 20 22 34 21 121 201 35 123 37 32 35 25 26 34 36 19 26 38 37 29 36 24 28 24 21 26 34 24 22 28 32 23 31 37 20 19 22 35 26
30 21 22 37 37 36 20 29 35 35 35 34 29 27 28 24 22 20 35 21 34 25 31 22 24 36 36 29 114 117 105 25 29 116 33 24 23 30 35 29 35 24 35 23 32 22 23 29 34 30 19 20 37 27 19 31 30 36 24 35 36 37 19 24
32 36 22 21 34 34 20 37 36 25 34 20 33 35 22 24 38 23 35 18 29 34 18 22 27 19 26 32 120 38 106 26 23 28 118 35 36 24 22 37 36 19 36 21 22 25 26 32 25 18 18 27 24 36 38 32 25 18 24 21 26 30 38 20
31 33 38 27 22 32 24 18 35 19 28 35 35 27 22 38 24 37 34 28 20 27 27 28 22 30 33 111 35 111 29 29 19 29 117 34 18 37 25 27 29 18 19 36 25 24 22 28 35 20 22 36 21 29 19 38 25 28 18 27 20 36 18 19
35 24 26 22 29 18 38 32 22 26 31 30 27 20 36 20 25 23 34 21 25 25 35 29 19 21 24 29 122 31 23 27 28 120 36 20 23 34 35 28 38 36 20 36 23 25 24 24 33 20 30 35 18 27 24 28 34 20 30 27 20 22 28 18
32 21 25 29 20 38 26 36 27 38 33 24 26 37 26 29 21 36 21 22 33 25 34 24 30 23 29 37 122 34 24 37 22 18 114 36 22 19 30 26 22 34 30 28 24 23 30 24 20 31 38 18 29 19 37 37 24 34 21 25 29 18 35 37
25 19 34 22 36 23 27 30 21 21 24 24 30 29 33 20 21 30 21 36 36 27 35 36 30 32 23 38 106 31 36 25 29 28 22 28 25 25 24 38 34 20 38 29 35 25 31 37 20 38 21 27 36 24 38 22 26 33 28 21 19 19 34 30
30 31 20 22 21 34 28 29 18 18 38 35 31 28 38 24 18 38 29 29 30 27 18 37 29 38 18 106 20 26 29 19 22 18 32 27 27 27 35 32 18 21 38 21 23 32 20 18 18 32 35 37 29 36 22 26 24 38 35 29 33 38 28 36
26 36 22 28 32 27 18 34 34 29 38 34 26 37 19 20 37 20 23 26 19 20 26 28 30 25 29 33 25 36 37 32 26 38 21 26 22 35 19 34 34 19 33 31 23 26 31 34 30 34 33 34 26 38 20 24 22 29 18 25 38 38 26 34
33 31 23 23 24 26 20 31 31 24 33 29 33 28 19 35 26 32 21 21 29 38 37 38 19 24 35 31 29 26 22 24 31 36 38 33 34 23 34 28 33 35 24 24 23 24 34 27 35 20 36 36 32 25 38 33 31 25 38 19 29 38 18 25
36 34 32 34 22 29 35 25 35 25 26 18 25 27 27 31 31 23 18 22 19 21 37 33 35 19 23 32 26 32 24 32 19 35 36 23 25 31 30 26 30 27 21 30 18 19 25 23 35 26 34 21 26 35 28 23 38 26 28 37 27 21 26 27
