P2
64 64
255
21 38 36 27 31 22 22 25 34 36 19 31 26 19 31 38 31 26 34 24 30 18 37 25 37 19 34 32 30 19 18 32 20 23 37 35 27 27 32 18 34 26 37 29 38 27 27 26 33 32 31 34 21 25 33 26 33 18 33 37 24 28 26 34
36 36 31 37 31 31 27 19 32 37 33 24 31 33 31 18 22 33 37 30 21 35 23 33 28 36 34 26 32 18 19 22 29 32 21 23 37 18 38 29 19 20 19 38 27 34 38 25 21 23 19 27 37 36 27 32 29 31 32 19 38 34 27 37
33 19 22 24 26 21 29 28 34 37 38 33 30 29 30 20 18 37 34 38 24 34 35 26 23 18 32 26 21 35 32 18 23 21 37 23 23 30 18 32 26 21 32 33 23 27 26 22 23 24 33 20 18 33 18 31 29 22 26 35 28 25 19 34
23 34 37 23 30 23 35 35 36 24 20 19 19 32 29 31 20 38 22 31 36 33 28 19 21 23 27 34 30 33 21 38 21 35 18 25 32 21 23 18 33 20 19 35 24 18 36 27 26 31 34 30 25 18 18 38 25 38 29 21 30 36 25 37
32 38 23 23 20 25 37 38 24 31 30 33 25 18 27 25 24 34 30 28 38 35 25 21 31 27 23 26 31 22 18 21 29 31 24 25 28 21 28 18 24 35 27 29 24 29 28 26 28 33 28 34 26 22 38 36 31 29 36 35 28 21 33 22
35 37 27 28 28 31 30 27 29 20 32 23 19 26 22 30 18 33 20 37 34 32 28 23 35 30 22 18 32 23 34 30 20 27 21 26 27 36 36 38 23 27 29 37 20 33 25 30 29 21 22 23 35 23 18 28 24 33 23 36 22 31 27 19
30 23 29 21 18 37 24 35 26 38 36 29 21 18 24 30 27 29 33 27 35 37 34 21 29 35 25 25 36 23 23 18 30 34 32 31 31 38 26 27 21 22 18 33 33 30 38 25 19 36 37 35 38 29 34 37 31 36 30 27 38 24 24 18
20 30 21 32 19 35 28 24 28 33 28 19 22 19 24 31 22 23 24 26 31 35 18 38 25 32 35 25 37 28 34 26 19 35 24 28 18 34 19 19 18 24 35 20 23 29 31 29 27 37 30 23 19 29 20 38 19 19 35 20 18 23 33 29
24 31 27 26 20 33 34 19 37 25 38 24 22 30 23 25 19 28 18 28 27 38 23 31 19 23 34 34 25 31 28 29 23 24 21 34 19 22 35 34 21 36 19 37 36 29 22 27 37 20 18 34 25 22 20 20 22 36 32 18 30 37 28 27
26 37 27 30 19 23 23 35 24 38 34 28 25 37 36 24 25 32 26 32 28 37 29 21 34 22 31 21 26 19 34 38 25 35 33 22 20 20 27 22 35 29 27 30 29 26 36 28 23 25 28 29 19 21 18 20 20 32 18 30 32 21 35 31
31 33 33 24 26 18 37 19 18 26 33 23 28 38 25 34 24 26 31 20 35 19 28 26 37 25 21 23 27 26 24 27 34 23 22 21 18 20 38 26 33 26 29 23 30 26 25 18 19 23 23 24 19 32 28 28 29 30 23 23 31 22 18 32
19 21 27 21 38 32 26 18 23 35 34 37 33 31 25 38 31 33 31 38 20 26 19 38 37 26 36 34 33 26 18 20 29 23 26 30 24 25 32 30 25 28 24 27 38 34 32 19 27 18 38 27 36 38 24 33 28 38 20 22 27 32 33 38
23 34 25 27 36 35 24 23 33 30 24 36 24 23 36 31 22 19 29 25 33 23 31 36 32 25 24 27 32 29 32 33 19 36 25 36 24 25 37 28 29 18 34 18 24 31 36 23 27 22 36 18 34 19 28 30 23 22 30 30 31 29 27 37
22 25 32 31 30 25 23 25 36 19 26 36 18 30 20 35 32 30 20 24 38 26 22 37 38 23 24 27 25 38 29 27 21 27 37 32 28 31 31 37 19 33 30 37 38 26 28 27 33 34 33 32 28 18 29 38 32 18 23 37 22 38 18 26
20 31 28 33 37 36 26 28 27 26 28 28 33 21 29 23 22 33 25 31 30 38 31 23 27 29 32 33 21 31 21 26 19 29 37 24 37 29 23 37 20 24 31 20 27 25 21 30 24 36 37 23 24 33 35 31 34 23 30 28 25 28 18 38
27 30 26 21 25 19 23 36 26 25 32 31 29 19 22 22 26 24 19 26 31 21 23 36 29 26 18 19 35 28 32 28 34 28 34 21 34 20 19 29 25 26 26 25 27 35 25 22 27 29 29 36 20 34 20 33 32 38 37 18 35 30 25 21
35 38 31 23 31 28 27 27 38 21 31 32 31 30 24 38 27 38 38 20 38 24 26 19 34 22 33 23 35 28 30 28 31 25 18 29 34 29 32 36 20 30 22 25 32 37 24 30 23 38 26 22 38 21 31 36 26 30 28 37 38 31 38 18
33 27 31 28 28 29 28 18 18 38 37 35 30 31 21 24 22 36 29 26 20 31 27 18 30 22 19 38 30 29 18 29 19 21 23 19 19 18 30 21 20 32 22 26 20 18 37 23 30 29 27 26 35 18 32 28 32 23 19 34 21 36 33 34
22 30 32 20 35 36 22 38 36 35 19 31 23 18 22 22 26 18 32 37 21 18 38 27 21 25 21 37 32 25 33 25 35 20 18 33 35 27 37 38 26 31 28 30 23 23 32 29 30 18 34 34 38 32 22 32 32 18 37 23 20 30 31 38
36 21 33 29 36 22 26 18 24 36 32 31 31 32 34 27 19 30 38 31 26 24 28 23 26 29 22 30 36 25 38 34 31 31 24 35 26 18 29 19 40 23 37 38 38 30 35 24 30 36 35 22 30 26 29 24 25 26 36 25 20 32 32 22
19 38 35 22 35 19 25 23 28 29 19 27 26 37 20 24 33 30 26 38 38 43 29 32 32 26 31 39 22 22 30 34 21 20 19 22 28 22 40 29 37 36 31 34 28 26 29 34 32 29 25 37 24 37 18 19 37 33 35 21 33 30 26 32
27 27 35 18 30 38 24 31 20 23 18 20 24 25 32 28 30 43 29 44 30 35 36 34 44 33 44 36 43 28 25 34 24 27 21 21 36 30 33 33 35 31 42 48 37 29 43 37 27 35 33 35 35 25 20 27 38 34 29 23 33 18 19 26
35 27 27 21 27 19 26 28 29 30 26 23 37 31 46 46 31 51 42 49 37 46 52 54 57 59 58 38 36 42 39 33 29 30 42 27 40 26 30 36 50 34 34 50 48 33 32 34 42 44 34 31 24 32 25 30 22 34 24 24 38 27 38 22
23 19 30 35 26 18 20 22 27 37 23 24 30 29 40 37 37 53 52 42 54 67 65 70 85 84 76 75 67 53 53 53 55 52 44 33 50 31 35 45 49 52 38 49 52 51 40 53 33 31 39 30 44 30 38 24 28 31 36 37 37 26 32 25
22 25 28 27 36 29 36 23 22 30 27 44 42 40 41 45 37 46 42 47 66 89 99 110 108 106 107 99 90 71 52 52 51 53 57 54 48 57 55 56 46 49 60 59 41 61 59 55 39 46 39 43 43 36 25 33 33 34 31 33 26 22 37 29
19 36 29 37 29 23 38 20 32 36 35 37 36 41 35 41 50 53 43 63 89 86 120 121 122 130 134 106 107 74 72 70 53 56 59 48 54 44 41 54 61 59 59 61 49 53 46 50 58 57 43 45 37 45 31 22 37 19 33 31 27 19 18 19
22 19 29 37 34 38 36 23 36 39 35 43 37 50 43 56 51 51 48 80 86 104 129 153 156 147 145 128 117 88 84 84 80 71 64 62 54 70 48 53 63 60 57 68 62 66 48 65 49 60 51 41 36 38 45 39 18 37 34 21 26 37 29 30
34 37 38 25 32 35 31 35 27 25 43 39 41 48 41 62 63 62 57 84 92 124 136 152 174 167 149 144 126 113 96 77 88 80 79 78 77 71 61 67 52 65 71 71 67 71 60 57 52 54 61 45 52 45 27 38 20 19 37 32 28 33 33 19
34 31 31 21 36 32 20 18 33 43 37 43 44 57 45 55 61 68 63 83 95 114 134 151 161 172 146 140 119 104 92 89 99 74 73 75 64 66 58 66 57 70 64 64 63 56 74 71 65 52 57 43 46 39 39 25 41 18 36 23 28 33 35 27
19 22 38 28 33 20 30 34 34 36 50 39 48 52 47 55 57 61 68 81 86 124 137 158 155 147 155 128 137 108 111 91 89 84 73 83 72 65 71 63 61 66 75 66 71 65 67 60 52 58 59 55 57 39 39 37 41 36 18 29 21 24 20 21
24 29 30 26 21 28 35 24 30 31 36 40 40 43 53 56 65 74 80 67 84 106 116 146 133 153 133 122 129 117 104 102 97 100 78 90 78 67 66 75 59 72 72 78 76 82 66 69 61 55 53 44 46 38 35 39 36 22 32 27 20 35 33 38
32 37 34 31 23 37 31 21 32 37 40 55 51 63 62 66 72 72 76 78 89 100 114 124 132 133 135 123 102 113 104 104 97 81 84 87 83 74 71 63 69 73 68 83 87 69 75 64 63 66 47 63 59 55 49 34 35 27 33 35 27 22 33 38
21 32 28 34 31 33 25 37 40 40 43 51 57 61 51 65 60 62 79 72 87 92 98 110 118 105 103 109 96 94 91 90 101 80 84 86 72 72 80 63 61 75 85 70 78 68 78 76 71 62 50 44 44 54 49 47 40 27 37 20 33 28 26 24
31 28 26 32 31 21 27 34 40 37 41 45 49 57 50 55 68 69 79 82 87 83 79 85 93 88 106 94 108 110 94 107 91 80 84 84 68 77 78 71 73 74 85 88 75 82 73 69 67 69 59 45 42 43 49 37 33 26 18 37 31 24 34 22
24 31 25 25 33 22 21 21 43 41 45 41 51 59 59 68 69 74 70 78 66 68 89 77 90 103 105 104 99 113 103 94 84 82 76 76 70 61 61 54 71 61 68 83 66 66 70 59 56 63 48 53 49 43 37 34 32 32 24 32 38 24 22 27
21 31 36 35 38 30 25 27 42 26 40 40 50 53 58 65 51 70 72 69 69 79 64 83 76 86 99 95 100 96 99 98 94 86 80 72 55 72 71 70 57 60 60 62 79 68 70 75 61 56 65 57 50 53 32 44 37 34 36 19 25 38 20 37
34 20 20 21 33 22 28 24 23 35 32 36 46 57 58 63 61 57 57 67 76 74 64 77 85 96 106 115 102 103 94 103 100 86 68 74 69 61 55 50 70 68 57 58 58 58 62 71 64 66 55 40 56 52 46 35 25 24 21 27 27 21 20 19
19 37 32 21 26 32 22 19 28 41 30 44 40 46 60 57 62 68 55 72 53 66 56 77 92 98 90 108 104 109 111 97 84 87 80 59 55 42 53 63 53 59 55 73 71 57 59 63 66 53 54 47 51 31 31 29 30 31 36 21 34 36 20 28
22 24 26 35 37 19 23 22 19 26 45 48 34 39 43 45 51 61 62 49 68 65 63 77 80 85 94 104 99 110 92 85 75 74 71 61 45 45 58 58 62 52 49 55 60 48 65 50 63 41 52 54 51 41 44 38 35 35 28 28 35 27 23 31
28 37 19 36 38 35 18 26 31 39 31 36 48 39 51 40 48 55 53 51 56 53 69 63 77 88 80 91 98 109 94 87 82 64 54 65 40 35 58 44 62 44 52 63 55 52 61 48 58 58 55 34 47 36 40 40 31 30 20 21 34 21 38 33
38 28 33 34 28 25 29 37 28 28 39 38 40 37 49 52 52 49 58 58 57 42 57 72 75 85 84 97 105 103 104 86 75 69 54 48 40 42 54 47 57 54 45 41 56 47 43 40 53 49 41 45 45 37 36 33 32 32 31 31 25 31 24 36
24 32 23 22 37 26 37 23 18 18 33 38 36 33 43 31 36 52 38 56 54 44 65 67 77 75 86 91 94 89 96 70 79 65 56 55 47 47 33 39 55 46 46 37 42 38 38 38 52 37 29 30 41 29 28 25 24 36 25 21 23 31 38 30
28 30 23 31 18 19 28 34 18 31 27 39 22 34 34 42 32 35 38 43 38 51 45 57 71 66 75 76 79 86 87 70 64 51 61 45 50 27 33 36 43 52 51 34 51 47 38 35 33 44 30 43 39 19 30 32 35 37 31 31 30 32 19 37
32 19 18 25 24 22 18 34 34 18 20 38 30 35 32 39 28 29 37 33 33 41 44 43 60 67 69 73 75 74 61 56 66 49 48 31 25 25 42 39 27 36 48 34 41 38 33 34 46 39 40 38 31 35 18 26 20 28 23 24 37 37 27 37
21 34 38 38 32 37 28 33 37 36 25 18 37 22 36 31 31 30 39 40 36 44 30 32 37 43 53 63 70 69 53 66 59 45 50 29 34 29 28 28 42 29 41 43 28 31 35 41 31 34 22 26 28 28 22 22 31 37 23 35 27 33 22 18
20 34 19 38 29 25 36 23 19 34 32 25 29 19 23 24 26 32 21 35 34 23 30 40 30 45 55 41 53 49 54 40 45 48 27 28 20 35 30 25 34 29 29 23 28 31 41 24 19 35 31 33 25 38 24 29 21 24 30 37 37 28 18 23
33 27 21 21 19 33 35 35 31 30 28 20 38 18 25 31 20 28 21 31 18 29 29 36 25 42 35 50 36 42 39 49 29 37 34 19 23 28 31 28 38 24 27 21 36 36 33 32 19 30 19 21 22 33 33 34 25 38 25 29 26 35 28 29
21 23 35 36 33 24 19 26 28 27 22 34 36 33 20 20 26 32 24 31 21 33 25 23 35 18 26 29 27 46 45 24 40 29 26 25 35 20 31 26 20 34 36 25 18 20 26 20 29 27 29 36 24 25 35 20 25 24 37 29 25 33 23 26
37 18 37 23 32 23 38 18 27 36 31 26 24 32 37 35 23 18 18 24 32 36 36 20 18 25 28 34 29 20 34 31 26 35 32 22 29 34 20 21 34 27 22 37 19 36 23 19 33 21 36 33 36 19 22 28 38 25 25 34 26 38 38 27
32 21 31 30 25 23 26 24 31 30 29 35 25 36 30 23 18 29 24 31 30 18 27 31 20 24 25 30 21 19 25 30 22 31 24 27 35 26 29 36 33 27 33 25 21 38 27 24 27 24 19 21 33 21 28 26 26 24 26 24 23 36 34 29
36 36 21 28 18 37 27 27 38 38 33 30 36 34 36 38 34 37 25 23 18 35 19 28 34 20 38 19 31 34 28 31 22 37 18 38 35 19 31 38 37 37 37 29 19 37 28 38 38 24 28 35 32 32 26 25 24 19 28 23 32 33 20 24
34 22 33 26 31 30 21 27 19 25 23 33 33 18 23 24 20 27 27 24 29 22 18 26 33 29 21 33 32 25 37 24 25 19 23 32 22 19 28 32 37 36 36 38 31 23 37 22 18 23 25 35 27 18 32 19 28 35 18 23 27 24 29 27
25 23 31 18 27 38 21 22 28 29 28 19 38 30 38 26 30 33 26 36 33 30 25 32 19 35 26 19 21 34 38 37 21 24 35 33 22 19 35 37 28 22 35 20 21 30 30 34 35 33 29 27 25 38 36 36 20 35 35 22 30 26 19 20
28 21 30 29 24 26 33 38 33 18 19 30 31 36 38 18 35 31 38 31 27 25 18 36 36 31 32 23 36 24 31 22 36 22 32 23 19 38 26 19 28 29 21 29 37 34 37 22 27 30 18 25 25 26 23 26 19 26 36 35 20 35 34 29
30 38 33 27 24 19 37 18 24 31 33 32 34 33 33 18 25 25 34 27 26 21 24 22 18 20 29 31 31 33 27 35 19 21 26 28 26 35 27 20 27 25 34 21 25 35 26 32 24 36 34 31 30 31 38 37 33 29 29 25 21 18 31 19
31 24 37 29 38 23 28 36 28 35 24 22 22 29 37 31 37 32 32 36 25 31 23 25 33 33 37 26 23 25 38 32 31 23 36 21 35 23 28 33 35 24 30 34 36 30 18 30 18 26 35 19 34 29 19 27 21 19 30 27 37 22 19 32
37 19 30 31 25 21 33 28 24 28 19 38 21 30 26 32 38 32 37 25 38 19 26 25 37 33 25 34 21 29 37 20 32 35 38 26 28 29 35 28 19 33 28 38 28 26 34 37 29 20 29 38 33 31 27 25 26 25 38 27 25 31 23 38
22 20 38 38 37 33 29 29 34 27 22 33 19 18 21 24 25 23 37 34 26 20 37 20 29 34 32 36 35 21 33 29 27 33 27 22 27 27 28 23 36 24 18 23 30 22 21 33 19 34 27 33 20 24 26 30 18 21 37 23 32 29 21 37
27 23 29 31 24 23 36 29 26 22 30 27 23 31 31 28 38 28 29 34 20 28 33 35 33 23 33 26 25 22 26 21 24 28 21 24 25 22 35 32 21 26 32 28 38 33 32 20 22 20 29 29 31 30 27 30 35 20 29 37 27 35 22 37
21 22 21 29 22 20 27 24 26 24 31 26 29 29 30 20 19 38 28 35 21 20 29 19 19 31 22 28 21 30 38 33 33 29 24 33 38 26 23 33 34 20 33 30 37 23 30 27 27 27 31 21 37 26 33 24 31 19 25 33 25 23 33 26
32 33 26 27 19 22 35 38 37 34 30 30 18 26 38 28 30 27 38 32 36 35 29 25 29 22 35 36 29 30 18 20 21 38 30 35 29 29 19 32 33 27 28 27 25 19 24 27 35 24 21 30 22 37 22 25 35 26 21 24 33 35 27 19
31 38 28 24 35 30 37 23 21 31 20 35 37 24 23 25 34 25 25 30 29 26 22 36 34 23 19 31 19 20 32 38 24 33 35 31 29 20 30 26 32 20 23 25 24 21 28 19 20 35 35 20 20 19 36 33 19 34 27 19 22 33 24 32
33 33 37 32 27 35 24 34 31 26 18 37 34 26 22 29 18 23 30 28 32 38 33 30 29 24 25 32 18 30 30 20 24 27 38 29 23 26 37 28 31 19 32 34 27 35 28 27 23 32 21 19 31 32 20 32 28 21 24 36 18 37 33 31
20 34 22 21 25 38 19 26 31 25 20 33 35 30 30 37 33 19 21 31 23 30 31 22 21 36 22 37 23 30 20 34 25 18 35 34 20 38 27 23 23 21 21 18 26 34 32 20 19 28 32 20 24 32 34 38 27 19 37 23 22 29 26 29
