P2
64 64
255
19 24 23 31 18 34 37 20 35 29 37 36 18 34 32 37 32 23 38 29 18 29 19 32 36 34 26 27 38 19 33 37 32 26 29 31 26 36 37 26 36 33 33 23 26 20 25 24 30 26 38 18 36 29 33 31 27 38 33 27 19 23 28 30
38 19 38 38 19 34 35 36 23 20 34 18 38 26 36 36 37 26 29 36 35 33 31 30 31 21 21 19 25 35 22 26 19 35 34 23 31 36 34 37 30 21 31 34 29 24 32 33 36 24 33 21 34 36 31 20 21 19 23 38 35 25 29 29
34 36 26 22 30 31 25 36 23 27 21 35 36 33 28 25 24 18 23 31 22 33 35 25 25 38 24 29 22 29 33 24 27 23 34 34 36 35 18 36 33 35 33 36 24 34 33 36 31 25 36 19 22 37 25 34 31 32 29 37 22 21 21 18
18 30 37 34 21 24 28 29 34 20 19 19 28 27 22 36 28 21 37 21 27 33 24 26 29 18 19 29 20 38 33 22 20 27 34 27 36 24 33 37 36 36 21 19 22 38 35 18 28 32 37 22 19 22 36 18 21 33 28 33 26 36 18 19
36 21 20 22 36 26 38 30 28 22 18 19 34 33 36 28 35 32 27 19 30 20 32 19 21 24 20 33 19 22 37 27 28 26 30 28 26 29 32 23 38 25 23 36 19 26 34 26 35 18 29 27 33 19 30 21 19 29 28 20 36 30 30 19
36 34 24 33 36 20 22 30 18 32 33 31 35 19 27 35 18 24 18 34 22 18 31 37 32 37 18 34 21 21 37 22 21 23 21 22 23 18 36 19 37 30 18 32 33 21 28 34 33 33 32 24 29 27 21 20 27 30 38 26 34 20 22 28
27 24 29 19 35 23 32 34 28 33 34 29 20 26 38 38 34 22 22 18 34 21 33 22 29 19 31 24 21 27 27 22 27 28 22 35 27 29 18 21 28 33 22 38 31 31 19 18 35 29 22 29 27 27 20 28 36 18 25 31 28 30 21 18
18 19 21 25 34 21 37 34 35 24 34 26 28 25 35 38 33 34 35 30 33 34 29 36 37 36 33 21 37 23 37 37 27 33 24 24 22 38 28 34 31 31 18 25 32 18 24 31 22 18 29 30 24 26 31 33 29 28 21 33 19 34 31 37
36 33 20 26 28 26 25 25 35 35 22 22 18 28 26 21 23 20 20 34 38 22 32 18 37 33 31 19 28 21 30 33 18 30 20 29 30 35 32 29 19 32 35 18 22 35 27 23 37 35 27 25 33 37 30 33 32 28 37 19 25 35 21 35
24 18 22 24 20 31 34 28 29 26 31 18 28 37 29 23 28 28 35 31 38 38 28 27 36 18 25 38 20 30 33 29 31 36 20 20 29 38 21 36 35 24 35 37 32 34 34 23 30 25 24 33 32 30 21 37 38 21 18 24 23 33 28 23
35 23 27 23 35 31 38 37 31 24 36 32 25 23 32 37 32 38 27 18 37 38 35 27 22 23 30 34 20 22 23 26 23 28 22 22 26 30 25 34 22 21 23 26 32 33 31 28 20 21 30 22 34 37 22 27 21 25 36 31 31 27 27 33
20 19 32 32 37 18 38 22 36 23 33 26 36 32 38 27 28 27 23 22 36 19 33 27 36 29 32 22 24 34 23 22 33 26 26 18 18 34 23 20 25 19 26 23 22 34 21 23 31 19 22 29 27 38 26 33 37 31 28 37 18 32 38 30
28 24 27 19 23 26 20 30 34 28 34 23 36 22 33 35 24 34 25 20 21 23 23 35 25 23 36 22 37 18 38 24 37 18 22 25 18 22 20 31 25 23 38 23 19 32 30 19 32 20 32 21 35 23 31 33 22 29 21 35 37 27 24 27
25 30 22 22 30 27 24 28 22 34 22 36 27 27 28 25 36 22 26 20 20 20 33 26 23 25 36 28 24 30 24 21 35 22 21 32 28 37 37 22 34 23 23 30 22 18 22 38 30 21 35 18 34 20 28 23 28 37 29 18 22 20 22 24
30 35 28 38 19 33 35 30 18 19 21 34 23 36 22 25 30 19 25 38 28 30 29 28 25 36 24 29 26 27 21 38 22 19 31 30 30 37 37 33 25 38 28 35 20 24 20 32 34 20 28 33 33 32 23 28 36 29 25 31 18 21 38 33
34 24 37 28 38 34 36 21 18 31 34 23 29 21 28 33 37 33 28 23 37 37 33 37 23 18 32 38 33 22 31 37 34 25 28 38 35 37 22 34 28 19 29 31 19 20 32 30 38 24 18 38 37 28 20 22 26 31 31 27 20 34 32 28
32 30 37 34 18 31 28 34 34 36 30 21 27 27 25 37 25 36 30 33 31 18 33 23 23 33 23 36 22 35 35 32 28 37 36 24 28 23 34 29 27 31 24 27 26 27 33 19 19 37 24 27 30 27 18 26 38 28 19 25 31 36 32 20
37 23 32 18 19 22 24 27 29 29 28 32 32 33 18 25 36 21 38 21 38 37 29 37 29 23 27 18 19 27 23 18 23 32 26 28 34 27 25 28 24 31 21 18 25 38 29 22 19 36 32 35 34 24 34 27 30 29 27 22 27 30 27 29
38 25 30 21 31 32 35 37 37 22 31 34 19 37 31 21 20 35 27 38 28 23 20 23 31 23 36 37 35 29 37 33 38 26 20 33 32 24 37 29 30 28 21 37 29 38 24 33 31 35 18 28 38 21 31 25 18 34 25 38 18 19 28 23
27 25 37 28 18 23 34 19 29 31 30 19 29 20 19 19 21 27 34 22 26 23 32 30 31 26 20 23 29 30 36 28 33 35 25 36 31 33 32 25 38 24 27 25 36 33 32 34 29 19 18 36 38 29 30 28 25 30 21 26 29 18 18 24
24 21 36 25 22 32 31 24 36 24 34 25 24 29 26 28 26 25 25 42 27 35 32 29 40 23 38 28 22 18 25 34 31 37 31 20 24 25 35 42 43 41 35 30 30 36 39 25 29 26 22 21 28 19 22 34 22 19 32 30 26 25 20 32
38 34 27 36 25 27 30 36 32 24 28 22 21 38 34 30 35 35 42 47 46 40 48 45 41 34 38 29 25 36 18 37 110 34 28 27 39 30 33 35 33 43 48 42 38 40 36 40 41 25 35 40 29 31 34 36 30 34 36 27 21 21 32 21
37 26 19 19 34 35 26 33 25 38 30 23 30 31 34 45 37 40 35 47 45 36 42 47 39 44 30 37 29 27 29 18 18 120 22 23 40 36 44 30 32 45 48 43 52 52 34 34 33 44 43 27 39 31 30 35 21 28 38 23 32 34 38 20
20 34 31 37 31 19 34 32 34 24 37 34 36 27 40 34 50 36 48 38 49 53 37 49 49 37 38 31 40 123 36 34 35 121 38 34 35 37 32 44 39 41 40 46 37 47 50 37 43 40 38 33 37 38 28 27 38 38 18 19 28 25 28 38
27 32 21 38 26 38 26 32 19 24 25 29 27 32 32 43 48 47 52 43 59 49 59 51 47 37 43 51 40 113 39 37 22 121 44 29 35 49 40 56 46 42 61 54 48 52 55 56 53 44 37 35 29 30 25 30 25 30 29 32 36 36 18 20
34 38 28 28 27 28 36 33 38 38 31 46 36 42 39 52 44 48 61 46 48 64 55 51 43 46 51 43 120 29 38 27 192 34 26 38 46 41 50 46 45 63 60 59 47 50 50 47 54 44 54 36 46 33 37 31 31 27 33 19 24 35 38 22
21 31 20 33 22 31 19 21 20 39 34 49 36 43 55 56 43 60 63 54 57 58 54 50 61 46 43 139 53 41 43 26 111 111 43 34 40 57 58 52 51 60 58 64 51 59 64 54 48 53 38 42 38 48 37 23 19 34 24 32 34 22 25 29
34 37 29 35 35 38 28 29 22 31 29 39 54 56 43 59 64 53 60 62 70 69 60 70 63 54 134 46 45 51 42 134 125 48 41 125 53 43 51 52 56 67 57 55 58 59 63 56 60 64 49 42 52 48 42 37 22 33 35 27 37 20 28 19
31 24 19 30 19 25 24 22 40 44 44 50 39 52 54 55 50 52 64 57 67 65 69 56 53 68 52 142 51 48 49 134 136 42 125 36 40 50 66 58 53 56 65 72 71 56 67 67 63 62 60 54 54 48 36 42 32 24 28 34 36 33 19 22
18 21 34 19 20 20 37 29 26 41 47 52 50 48 46 48 52 65 66 59 80 65 61 76 56 59 66 137 47 47 34 212 122 128 36 52 55 55 59 65 67 59 77 63 65 79 74 59 71 54 53 59 55 37 47 42 32 33 38 19 33 35 33 18
35 24 19 25 23 27 34 19 43 37 42 53 58 47 56 59 71 62 71 74 75 72 64 64 58 63 62 63 145 50 52 47 207 136 132 46 48 59 56 53 70 79 63 73 72 63 79 59 55 58 61 48 45 55 36 37 33 37 25 18 35 33 30 34
24 33 20 27 31 32 19 25 24 30 51 47 40 45 67 59 67 69 79 80 88 72 81 73 72 60 66 67 146 40 50 56 214 214 48 53 54 65 64 73 74 78 81 70 88 82 80 58 65 60 55 50 53 53 37 45 31 36 25 26 19 19 31 23
20 38 37 28 23 24 33 24 44 29 32 37 57 60 52 56 74 62 65 84 85 72 79 76 78 59 68 53 60 134 42 38 129 124 224 41 54 50 69 58 72 70 79 71 74 83 63 70 56 69 54 52 44 43 40 35 40 36 36 29 24 26 27 25
20 36 36 19 38 37 22 20 40 43 48 46 47 48 52 53 62 74 76 73 80 82 69 67 66 63 58 67 51 124 37 36 210 39 49 212 63 48 59 58 64 68 69 75 71 77 63 77 74 63 52 54 52 40 37 34 33 34 25 22 21 23 35 38
22 28 28 32 41 37 27 41 44 45 56 41 62 60 66 60 79 69 72 70 70 90 74 67 71 69 67 59 134 49 48 220 51 44 47 51 231 70 64 65 73 71 80 86 81 77 87 80 81 64 57 57 54 53 45 39 39 29 32 39 33 31 28 45
35 33 43 34 43 29 46 37 42 39 54 56 52 66 73 74 77 81 78 87 88 90 82 75 71 65 76 77 155 72 146 138 58 63 70 65 156 150 81 76 85 78 95 80 88 83 91 84 80 86 73 62 63 56 64 50 49 51 47 38 54 46 53 42
39 49 52 48 37 51 44 47 50 58 48 63 70 63 81 79 79 87 84 82 83 92 84 96 77 77 76 75 65 164 65 236 57 57 61 79 78 241 91 91 83 81 96 84 90 100 83 99 87 76 76 75 82 69 75 62 57 57 52 64 53 60 67 51
50 42 57 55 55 44 47 43 51 58 57 72 72 63 68 70 89 87 89 96 85 90 94 89 95 77 86 75 84 71 241 150 61 79 66 74 83 77 255 91 103 91 98 94 109 97 99 95 94 85 94 93 86 81 85 76 73 61 67 66 68 61 79 68
43 37 52 43 51 55 55 50 50 59 65 57 52 67 73 82 67 87 87 85 73 83 91 72 81 70 85 70 64 58 67 234 143 66 65 77 75 66 163 170 77 91 88 88 89 85 78 79 89 91 81 77 74 73 61 56 60 66 61 60 71 61 55 72
38 43 42 42 49 36 39 45 46 35 54 49 60 66 57 59 55 72 66 64 61 77 67 66 66 67 67 70 58 64 60 130 127 130 51 51 68 145 64 67 162 65 68 82 69 81 80 62 80 76 71 53 69 49 45 42 48 47 49 51 41 41 59 49
38 40 32 42 34 40 28 37 28 30 38 49 37 45 41 58 49 46 59 53 62 67 67 53 47 61 45 57 55 53 48 116 207 46 40 38 39 134 57 150 50 69 52 64 58 66 62 61 67 54 48 50 45 37 52 44 40 37 48 35 38 42 31 36
34 30 25 34 22 31 22 37 29 23 19 30 28 28 30 36 47 41 45 39 39 47 56 49 53 46 46 34 45 33 107 21 107 118 36 33 41 50 212 44 40 45 55 39 39 40 48 56 37 49 50 42 26 25 25 26 23 25 20 26 23 36 21 25
21 29 21 30 19 28 33 38 32 27 26 37 34 39 39 48 33 36 49 50 51 52 52 46 43 44 33 29 29 126 33 107 113 21 30 32 34 128 113 43 31 32 50 45 50 44 42 35 40 44 41 30 23 27 29 38 28 29 23 36 35 36 25 26
20 18 34 29 23 38 32 30 28 23 35 22 27 38 34 44 32 27 46 43 46 46 44 38 35 40 26 34 21 20 118 114 111 35 32 22 107 28 126 33 47 28 37 46 35 41 41 31 35 36 40 33 18 25 18 38 23 38 23 36 20 32 19 35
23 27 29 33 30 23 22 32 26 21 25 20 32 26 33 36 28 24 44 44 40 36 37 32 43 32 24 37 25 109 25 19 201 28 21 27 23 113 114 38 27 45 45 31 43 41 36 34 28 29 35 25 27 20 38 28 20 24 35 24 36 36 36 31
19 33 22 23 30 32 18 37 27 25 36 24 28 20 38 26 22 34 24 22 34 32 36 25 21 24 24 29 28 30 104 35 106 113 19 22 35 104 113 34 38 21 39 35 36 39 32 35 31 38 26 36 21 37 30 36 19 34 38 21 34 34 29 31
24 34 30 32 33 23 24 21 31 35 18 19 18 28 29 28 18 35 30 30 18 25 22 18 20 24 33 37 38 33 30 203 118 23 30 33 104 33 122 38 26 26 37 36 20 24 22 37 38 27 25 21 23 20 25 18 31 36 34 32 37 23 31 29
19 24 33 30 27 34 19 23 25 26 27 35 30 37 19 21 30 28 21 37 23 18 36 19 23 22 18 30 19 25 114 112 26 107 32 25 111 110 26 38 25 37 33 38 27 34 18 20 31 34 20 38 34 26 38 28 22 33 34 22 22 23 18 19
26 30 22 35 19 31 37 34 26 22 30 29 21 18 30 27 38 25 24 20 34 37 28 25 33 34 18 38 38 123 123 33 104 23 29 35 105 122 37 36 34 21 35 33 30 38 18 23 27 18 29 32 38 29 29 28 19 29 26 24 32 37 31 34
29 37 20 38 23 30 35 29 22 19 18 24 23 25 32 35 20 19 34 19 24 33 33 26 25 20 20 25 31 103 107 30 25 121 33 105 109 38 30 34 29 34 18 25 23 38 38 29 34 37 27 34 37 31 32 19 28 18 18 22 25 31 19 18
30 29 20 21 34 34 35 37 30 35 24 23 35 20 28 34 38 24 27 27 25 22 28 27 24 34 21 29 122 118 24 18 31 19 122 31 206 33 29 21 31 32 33 32 26 29 19 26 23 18 33 30 20 29 25 32 35 30 38 36 22 35 34 32
23 26 36 29 22 30 21 19 25 19 31 27 27 23 22 24 23 18 34 33 32 29 30 22 18 26 21 118 19 18 106 26 24 24 20 198 34 111 18 31 33 21 37 28 31 28 26 18 22 37 22 32 21 30 25 26 38 30 38 26 34 21 24 35
36 32 27 29 28 23 37 19 19 26 26 24 31 18 34 23 27 25 21 37 20 28 20 26 25 22 115 20 31 107 30 23 22 27 24 205 19 38 115 18 32 31 35 20 35 18 32 32 26 19 26 37 36 32 23 22 18 20 27 28 23 18 23 37
24 32 36 34 21 30 21 34 19 24 26 21 34 22 21 29 22 20 29 22 23 34 23 27 21 29 115 38 109 33 28 32 19 24 25 121 28 37 38 113 28 35 38 24 29 33 24 21 33 19 29 27 24 25 36 23 18 24 20 31 23 21 19 24
30 38 31 38 38 33 29 31 34 18 21 29 34 36 22 36 19 37 30 20 25 34 26 28 38 21 105 37 105 38 26 28 23 36 33 36 108 19 28 36 110 29 30 35 35 38 32 19 27 36 35 34 25 21 36 30 33 19 33 35 31 33 38 26
31 26 38 19 22 24 25 38 36 37 31 28 22 18 37 19 25 23 25 35 23 35 21 32 36 112 27 36 30 31 22 29 35 33 26 25 19 105 29 32 112 21 27 20 31 28 35 38 26 33 18 33 29 29 38 21 26 19 35 34 37 27 31 36
36 31 18 37 29 30 36 26 33 23 20 19 23 24 25 21 26 23 18 31 32 23 24 32 37 27 120 22 21 28 36 25 27 20 37 30 117 27 29 110 19 25 33 24 27 29 33 26 21 27 20 25 22 20 31 29 28 23 30 25 37 18 27 28
29 23 32 33 35 26 23 23 28 38 22 30 23 37 36 31 18 31 31 36 35 34 36 35 18 23 28 33 24 36 27 26 20 35 27 107 37 20 35 22 103 36 19 20 18 21 24 29 23 33 30 28 24 31 36 27 37 21 34 19 28 23 31 18
22 21 26 34 32 38 23 38 24 20 20 32 33 34 22 27 18 27 21 19 18 23 29 32 22 28 36 27 18 18 19 27 23 37 33 25 103 28 38 23 36 116 23 34 31 24 25 18 27 31 33 34 18 27 35 24 18 33 30 32 21 21 30 18
19 29 29 24 21 38 25 21 33 27 18 34 24 18 29 27 21 18 21 23 23 36 23 20 23 34 26 19 18 38 21 25 29 36 36 35 18 28 33 34 32 34 115 35 36 22 19 30 23 33 18 37 35 32 30 23 22 20 24 30 23 29 23 24
20 26 25 25 35 35 38 23 30 23 20 32 24 28 24 20 35 31 28 37 18 21 24 32 19 31 19 31 31 32 21 20 31 32 22 30 26 32 29 33 32 27 110 38 25 32 26 18 29 27 31 28 38 25 31 23 33 23 38 22 29 28 19 23
32 24 36 31 25 38 30 26 28 23 23 21 29 22 29 27 36 21 29 36 37 21 32 18 28 24 23 31 36 36 32 28 36 36 25 34 30 33 34 18 19 22 22 31 29 34 26 38 23 21 36 29 20 19 27 28 28 32 34 28 20 22 30 20
28 18 30 28 31 33 38 32 33 35 34 33 29 23 20 31 21 18 32 20 20 18 31 18 29 23 23 20 29 34 33 38 31 29 35 30 38 21 38 18 20 37 35 30 25 25 38 35 33 30 19 26 30 36 35 33 31 26 25 37 33 21 32 35
28 26 27 32 28 28 18 22 21 32 19 30 22 24 30 38 31 29 24 22 29 38 31 26 22 37 33 31 25 27 27 27 36 20 37 27 28 31 33 24 36 28 18 28 26 31 29 31 29 19 34 20 20 18 27 26 30 36 34 20 33 19 18 20
