P2
64 64
255
26 14 26 22 16 25 19 16 26 15 18 20 20 19 14 23 18 22 16 26 22 15 25 26 17 17 16 14 23 17 23 19 19 22 19 25 20 25 20 18 21 17 15 25 18 24 16 24 22 23 21 15 23 16 21 21 24 19 19 18 24 16 25 15
20 22 24 23 16 24 14 18 17 20 22 22 21 15 22 17 18 17 17 14 24 20 23 18 14 21 23 19 22 16 25 25 22 14 26 19 25 26 19 26 19 26 23 22 21 15 14 15 23 24 24 25 19 18 17 23 19 21 14 25 25 16 17 18
22 26 26 17 17 24 20 21 22 16 15 17 25 23 19 18 16 20 14 26 25 21 15 22 14 24 20 26 22 24 26 26 23 22 20 24 17 19 22 26 17 24 19 16 25 16 18 16 19 26 24 14 25 19 25 15 20 15 20 21 14 24 18 17
14 23 15 18 17 21 16 23 14 26 24 20 21 20 18 20 21 26 14 19 22 26 20 26 15 18 23 20 16 20 26 26 22 14 17 19 22 14 26 22 26 22 24 15 15 17 17 20 15 19 23 15 17 18 26 17 25 18 22 26 23 17 17 15
15 14 20 20 22 26 14 26 19 22 14 24 16 22 19 17 23 25 14 24 22 20 25 15 19 22 22 20 14 16 23 19 24 21 20 18 24 19 16 26 23 23 14 24 24 15 25 22 14 22 14 16 22 14 26 15 26 18 26 15 25 23 25 20
22 23 17 19 14 17 18 15 24 23 18 26 14 17 20 15 18 16 26 16 21 24 24 23 17 20 23 18 14 23 24 21 22 24 21 16 22 15 20 23 14 17 20 17 25 14 15 25 14 14 25 19 20 18 22 16 18 22 20 14 18 14 20 23
26 22 23 18 14 19 25 20 25 26 15 22 24 25 15 14 14 18 19 19 16 18 18 21 19 16 24 18 21 16 19 20 22 21 14 21 17 19 23 25 26 22 18 19 17 21 26 19 15 22 15 25 18 24 16 17 19 21 14 26 16 21 14 14
26 14 16 18 19 21 16 25 18 16 15 26 19 26 24 24 14 17 25 19 20 14 24 21 21 26 22 18 23 17 16 19 18 16 21 22 21 22 18 22 25 14 16 23 16 15 26 18 22 22 16 17 22 16 21 19 25 19 22 17 14 25 16 21
19 16 25 19 14 16 17 18 14 26 25 20 23 24 18 15 21 19 15 14 19 23 25 26 22 23 23 26 14 17 18 24 15 14 17 22 23 25 25 26 26 21 17 17 20 23 17 18 16 17 20 17 21 16 17 20 23 14 24 15 21 23 19 20
25 26 18 25 16 26 24 20 22 15 22 26 15 21 23 14 24 20 25 25 21 25 20 16 16 23 14 18 25 21 16 16 19 16 23 19 19 20 23 25 18 22 21 14 16 25 15 26 15 16 17 16 14 15 17 17 24 22 20 21 16 19 24 24
23 25 17 16 18 15 24 16 16 22 23 19 14 15 21 16 26 18 23 20 17 18 24 26 16 19 24 22 20 14 20 25 21 21 25 15 22 23 15 18 21 19 22 22 19 18 18 20 26 22 25 16 20 20 25 23 23 18 14 19 16 26 23 18
18 18 15 17 16 20 22 21 21 24 17 15 17 14 17 20 18 14 26 26 19 16 20 20 24 19 21 21 18 23 15 17 23 21 14 25 15 23 20 21 21 16 16 24 19 26 20 24 16 20 25 26 24 16 24 22 21 19 23 19 14 26 14 15
22 17 22 24 17 22 24 14 26 23 19 23 24 20 24 18 26 23 14 20 14 19 25 26 20 17 20 14 15 21 17 19 24 22 15 24 19 23 24 14 19 14 15 18 15 21 25 23 19 24 24 23 20 18 14 18 23 22 14 26 19 24 24 17
21 19 25 24 24 17 25 15 15 16 16 20 19 15 20 18 14 14 25 14 26 23 16 26 16 24 20 14 23 18 25 16 19 14 20 25 14 14 26 21 17 26 25 20 15 22 25 14 15 16 25 23 20 17 20 19 22 25 20 14 20 26 14 26
24 19 20 15 17 23 26 17 14 20 22 23 24 20 17 23 22 21 16 17 15 19 14 19 26 20 14 14 17 14 24 26 24 14 22 20 21 20 24 14 21 18 26 14 18 22 24 19 23 18 19 18 16 18 23 22 15 22 22 22 16 25 19 25
26 25 24 14 25 21 16 15 17 16 23 22 14 25 21 18 24 15 21 26 20 26 15 21 21 25 22 26 17 23 20 23 23 20 20 20 22 23 18 19 20 21 24 20 20 23 15 15 18 19 22 17 17 21 21 18 14 23 24 25 20 21 14 22
21 21 19 15 21 16 16 20 15 16 14 25 20 26 23 14 26 23 16 20 22 15 20 24 16 19 21 21 15 19 24 19 25 21 19 17 18 26 26 23 14 23 14 16 24 24 20 26 26 24 21 16 22 16 24 21 19 23 21 25 23 14 15 24
22 19 18 21 18 20 23 16 21 22 19 21 24 22 25 19 23 14 16 17 22 22 18 17 20 16 24 18 14 25 23 20 23 16 16 17 14 14 20 23 16 14 25 22 16 26 14 25 26 20 26 26 20 20 18 17 23 14 26 18 18 23 14 26
19 14 18 20 25 17 21 22 26 25 20 25 21 16 22 17 23 21 15 19 20 19 18 24 14 19 26 19 17 21 14 24 19 22 16 20 17 22 26 20 16 21 23 20 22 21 21 21 24 23 17 25 26 15 22 21 24 25 15 22 20 26 18 18
22 23 17 22 24 17 23 21 22 21 25 22 17 14 21 15 26 26 22 28 30 22 21 23 24 16 16 19 14 18 26 20 18 16 16 22 19 25 19 17 26 21 24 30 30 26 24 26 25 19 24 15 19 26 24 24 26 14 15 18 15 18 21 17
25 21 25 20 21 24 17 21 26 20 19 17 20 18 21 27 25 30 32 21 24 28 30 26 31 18 29 21 21 19 15 20 18 14 19 16 18 15 18 19 26 32 33 32 23 32 32 27 23 23 20 22 19 23 23 16 15 16 15 16 24 26 24 18
20 21 20 26 25 21 15 23 16 23 20 16 21 24 28 26 24 23 35 32 25 33 25 31 23 34 27 25 25 21 26 23 26 24 25 25 23 31 28 33 35 30 29 35 37 28 34 33 28 29 31 26 26 21 14 18 25 23 20 24 23 15 19 14
25 15 21 14 24 26 15 19 14 22 25 15 29 21 26 28 34 32 36 34 41 36 40 40 35 28 36 29 36 27 32 35 29 26 29 31 25 37 26 37 28 31 35 36 35 38 36 39 33 31 31 29 19 18 20 22 16 18 16 24 20 23 18 20
20 18 15 18 22 24 23 21 25 18 24 26 30 33 33 32 30 33 37 35 44 41 41 40 42 44 44 42 43 39 32 31 34 35 38 41 40 46 37 33 36 32 36 45 39 42 33 35 31 35 29 25 20 26 20 25 15 21 20 21 17 23 16 19
24 21 16 15 26 17 26 21 24 15 23 27 26 26 38 31 39 41 42 43 49 48 43 40 48 54 47 55 52 46 42 40 40 49 51 52 47 51 44 49 42 44 38 48 44 43 41 44 44 34 35 31 34 25 20 21 16 26 21 17 22 18 25 26
14 26 16 20 16 19 21 25 15 17 26 31 34 37 32 43 40 38 43 47 44 51 56 49 57 57 52 56 62 61 55 49 48 57 59 53 61 63 62 53 53 51 53 43 50 47 48 39 38 44 34 36 38 27 20 16 25 17 16 19 19 26 14 24
26 19 17 24 15 23 26 25 15 29 26 30 33 35 34 46 44 50 50 50 45 51 63 63 57 67 63 62 71 65 59 61 68 61 62 62 68 60 68 67 67 58 55 48 48 47 50 42 44 47 43 40 37 26 22 29 22 18 17 16 18 15 25 14
17 19 14 18 25 25 23 22 23 29 24 34 30 45 47 52 51 50 56 53 60 67 68 68 73 69 67 73 70 78 70 64 75 75 64 70 75 73 73 71 66 67 71 65 57 60 48 57 42 45 37 42 36 39 29 24 19 20 20 14 26 14 16 19
24 26 26 14 23 19 20 15 26 31 26 36 37 45 51 49 50 53 51 54 60 65 68 82 75 84 79 80 82 78 81 84 78 76 77 81 83 83 79 81 75 76 77 65 64 63 55 56 46 52 49 45 34 34 35 30 18 26 24 19 15 25 18 22
14 22 17 25 16 14 14 25 21 33 34 30 34 43 50 47 57 51 64 63 74 78 79 87 86 87 85 88 94 83 91 82 88 93 90 92 92 82 87 83 89 82 75 82 72 70 63 60 50 48 53 45 43 31 36 31 26 21 19 26 25 21 15 16
16 20 15 25 19 14 21 23 23 35 36 40 42 41 54 58 54 58 62 71 76 88 89 91 86 95 96 98 98 93 95 92 101 101 94 96 95 94 99 97 86 89 94 89 81 66 68 65 54 56 47 38 35 32 28 25 30 15 26 25 14 17 20 23
15 17 25 19 25 26 26 16 26 34 33 42 37 43 53 47 55 59 63 73 90 89 98 92 95 92 94 102 106 99 105 101 108 105 98 95 100 98 104 96 99 101 89 90 86 72 70 55 56 50 43 42 43 32 32 25 27 24 21 21 20 18 20 14
17 20 18 22 24 24 14 23 32 32 36 40 39 51 44 48 55 59 66 79 94 91 95 99 106 108 97 105 109 105 111 114 112 115 105 108 109 102 108 101 95 93 103 91 84 75 75 63 53 50 48 47 43 32 32 34 25 25 17 16 22 22 19 20
14 22 16 14 14 26 20 28 24 26 34 42 38 50 45 49 63 60 71 76 94 94 98 104 105 110 112 113 112 105 118 119 114 116 115 113 108 106 107 104 108 104 102 91 93 77 71 59 56 48 45 47 42 32 39 27 24 17 23 24 15 20 23 24
26 26 17 16 23 18 22 15 21 28 36 33 39 38 51 57 60 61 65 75 86 96 102 96 97 109 105 110 105 117 115 118 115 124 116 113 112 106 104 105 109 106 103 97 87 79 73 66 51 57 54 49 40 41 37 35 31 22 17 15 22 25 16 20
19 20 22 26 20 17 24 25 25 22 26 34 34 38 48 49 56 59 62 77 89 89 95 93 100 104 111 109 107 112 119 120 125 123 116 116 114 113 111 100 96 102 89 95 87 69 69 56 53 44 52 43 33 41 32 26 27 26 14 25 15 16 17 20
23 22 23 24 17 25 25 17 26 26 34 34 36 38 46 54 53 62 63 69 73 91 96 99 94 96 106 104 109 112 115 124 133 120 111 110 112 109 100 100 99 93 85 84 78 77 70 57 46 49 43 47 40 34 37 25 19 18 23 18 19 24 19 18
25 16 24 15 20 16 20 15 19 31 31 37 34 42 40 44 51 48 64 73 76 87 82 93 97 102 106 100 102 107 114 118 122 116 111 105 113 103 98 96 102 96 85 83 81 67 64 46 51 43 47 35 38 34 23 23 21 18 22 19 21 25 23 19
20 26 22 19 14 18 24 14 24 24 26 33 29 37 45 41 43 50 61 57 70 76 75 81 88 100 96 101 106 103 111 109 109 110 109 106 105 107 94 95 91 84 81 82 70 66 55 54 49 40 46 32 31 32 32 25 17 26 23 21 21 19 22 19
26 25 22 23 23 24 25 20 24 22 25 30 28 35 42 37 44 38 53 61 69 65 78 82 85 94 90 93 95 96 96 97 100 97 105 93 103 94 97 83 87 85 74 69 59 65 53 49 48 35 39 31 33 30 19 24 24 18 26 16 15 17 18 19
15 18 23 26 21 20 19 18 25 16 19 30 32 31 39 42 44 44 48 55 57 65 77 73 76 88 89 93 92 88 88 88 89 87 90 89 86 86 82 88 80 69 65 59 55 56 45 37 38 43 38 36 35 26 29 24 20 15 22 22 17 22 23 17
16 22 16 15 19 14 18 20 19 22 18 23 31 28 34 29 31 41 35 53 53 54 66 69 74 75 79 86 78 82 85 81 84 79 80 85 77 84 83 71 74 72 60 63 57 43 46 43 40 28 31 34 24 29 19 19 18 25 17 22 26 16 18 15
24 20 20 25 20 22 15 16 23 26 16 17 26 21 22 24 33 38 39 39 48 56 59 62 59 69 75 69 79 76 79 78 76 74 77 77 76 76 75 63 65 66 61 56 45 35 35 31 27 30 27 21 20 22 25 22 21 23 21 18 22 16 25 18
14 25 22 18 15 14 18 19 22 15 23 20 24 27 31 31 25 31 35 31 38 48 43 59 58 61 68 60 68 66 74 74 75 76 70 63 67 71 61 56 58 47 44 48 36 37 28 34 27 23 25 17 22 26 20 16 16 15 15 16 24 19 21 15
24 14 25 26 18 22 21 22 21 20 17 17 25 19 17 23 30 26 27 31 30 33 39 42 54 53 57 60 61 59 61 70 62 65 65 66 56 51 57 55 48 47 40 38 30 26 24 31 18 21 21 19 25 25 21 14 24 22 15 26 25 23 25 16
18 16 23 25 24 15 24 25 16 17 17 21 22 25 21 26 17 22 18 27 28 25 37 38 37 44 44 50 47 57 51 56 59 63 63 59 53 50 48 41 42 37 32 28 20 23 29 16 18 17 20 24 24 15 25 20 18 24 21 14 15 19 16 19
17 21 26 17 19 16 22 17 24 23 20 16 22 19 22 24 24 21 15 23 16 20 26 26 33 37 40 46 43 46 49 54 48 55 50 49 46 49 42 39 32 31 23 19 21 18 19 16 25 26 16 26 24 24 25 14 22 14 17 19 26 20 19 24
22 26 17 17 23 25 23 26 16 14 14 19 24 22 23 14 22 25 20 19 25 14 21 20 27 37 37 38 35 38 44 49 46 43 48 44 46 40 40 34 34 28 17 23 17 22 24 23 22 26 22 19 21 15 17 23 21 25 19 17 23 20 24 23
14 17 23 21 23 21 26 16 14 15 25 24 23 26 16 14 26 22 22 19 26 21 14 16 26 33 32 30 31 34 34 44 43 34 35 40 30 29 28 25 22 26 20 21 25 19 23 16 14 23 22 23 18 24 24 24 22 20 18 23 24 19 18 16
21 23 16 23 18 14 24 21 18 19 19 18 25 18 15 21 17 26 20 20 17 25 20 18 19 28 19 29 23 26 37 36 28 27 32 29 28 32 20 24 23 22 17 15 18 24 19 26 15 15 16 15 20 20 22 23 22 25 25 17 14 19 23 22
21 22 25 18 23 18 21 24 22 23 25 21 22 23 15 16 22 23 17 19 24 25 23 17 14 20 19 21 18 20 24 28 25 23 22 23 23 16 25 21 21 23 22 23 16 14 16 17 24 25 19 19 25 16 19 25 25 17 22 25 20 20 21 15
24 24 19 18 16 26 19 24 24 21 19 14 16 23 16 19 24 19 19 20 24 17 23 18 25 17 22 19 14 16 22 21 25 15 23 20 23 17 18 18 22 17 26 25 23 25 25 20 14 19 25 18 26 25 23 20 18 15 22 17 26 17 24 20
19 22 20 18 23 16 15 20 20 14 24 25 17 24 23 16 16 17 24 18 17 18 21 23 19 24 14 21 20 23 26 17 14 15 19 23 26 21 20 20 14 19 16 19 17 16 21 23 24 14 21 15 15 21 26 22 17 20 24 22 17 25 16 22
18 20 25 16 23 17 19 14 21 19 20 20 20 22 25 21 20 25 25 21 25 20 24 23 18 20 26 26 24 26 19 26 21 19 16 22 20 25 16 23 15 14 26 26 14 18 25 18 26 23 19 14 20 20 17 20 22 22 18 24 21 19 14 18
26 17 15 16 17 24 22 18 16 16 25 21 20 22 25 15 15 15 21 19 25 17 21 19 25 16 16 23 21 24 21 23 20 24 25 21 18 21 15 15 19 24 23 22 19 22 20 19 18 20 23 20 15 22 26 15 24 21 26 15 21 21 25 15
26 18 14 22 19 15 19 17 21 17 20 24 17 15 20 24 25 22 16 26 24 15 23 17 14 22 16 19 14 23 17 20 16 25 25 14 16 23 23 24 23 15 20 26 26 19 21 21 14 24 15 23 18 19 16 17 19 21 16 18 21 15 19 16
14 26 26 16 19 15 21 24 20 21 24 23 15 15 23 22 16 15 24 24 24 16 22 15 25 24 26 17 14 14 26 21 16 14 17 18 19 26 22 21 24 21 23 23 20 16 14 23 18 14 23 20 17 19 25 25 22 25 19 20 16 21 15 23
14 21 20 23 18 24 16 14 22 16 22 20 26 14 25 19 19 26 15 18 20 21 23 15 21 18 21 20 21 15 20 25 20 18 17 20 23 15 17 21 15 24 25 20 18 19 18 15 18 21 18 20 18 21 22 17 21 22 26 25 15 26 20 17
25 16 19 16 24 17 18 20 14 15 21 25 17 23 26 23 22 19 22 18 25 20 14 14 23 17 15 25 15 24 21 17 23 14 22 23 22 15 24 18 14 21 24 15 26 16 19 24 19 23 24 20 15 16 18 20 26 16 14 20 22 16 15 16
15 19 23 14 26 24 23 15 21 24 25 15 15 16 14 23 18 20 23 19 25 20 16 22 17 23 17 21 18 26 19 19 24 26 17 20 24 20 17 20 21 15 17 23 17 15 22 14 20 23 25 20 22 14 20 18 16 18 18 25 16 14 17 21
19 15 18 16 14 26 14 15 16 25 18 25 18 23 15 23 20 25 19 20 23 15 19 21 16 24 16 17 24 16 15 15 20 22 17 24 15 20 19 22 23 19 22 23 26 24 14 24 25 15 23 17 19 20 26 15 20 22 19 21 17 16 14 15
15 26 19 22 19 24 26 20 17 26 24 20 26 18 17 26 16 17 22 23 23 23 23 25 16 14 17 14 20 17 14 25 22 16 14 25 16 26 22 15 19 25 25 14 21 26 16 24 25 23 22 17 14 25 23 23 16 24 15 18 15 15 14 22
25 16 24 20 16 26 16 14 17 21 26 17 25 15 18 19 22 23 16 22 20 16 19 15 19 26 17 17 25 14 26 14 20 23 20 25 24 25 18 21 18 24 22 15 26 23 18 22 18 17 17 24 24 20 15 20 20 26 16 17 26 19 23 15
16 15 22 22 18 16 25 16 23 19 22 16 24 23 16 17 26 16 20 15 23 18 19 15 26 25 24 21 22 24 18 19 25 18 15 17 23 17 16 14 14 20 26 17 17 15 26 23 18 23 15 20 16 16 16 16 21 24 24 21 23 20 25 17
