P2
64 64
255
23 16 16 17 21 16 21 22 23 26 15 17 24 22 18 18 17 21 22 22 15 18 15 24 24 20 16 23 23 26 16 25 20 19 20 20 19 25 21 17 26 21 26 20 16 18 16 21 23 22 20 17 14 15 18 17 22 14 24 21 21 19 22 21
24 20 20 25 22 22 16 19 20 16 23 26 26 26 22 26 20 21 20 22 18 16 26 15 17 18 25 15 15 20 19 19 25 24 22 24 21 24 26 21 23 25 21 16 26 20 21 19 20 22 23 26 18 26 15 26 24 24 24 14 23 14 21 19
24 17 21 24 14 19 26 15 19 14 24 19 21 16 23 25 15 24 25 22 24 16 15 16 26 17 18 17 17 23 20 15 18 24 24 26 17 21 18 21 25 15 17 24 14 20 21 23 22 23 17 15 19 17 15 19 18 20 24 26 26 18 20 21
14 19 15 17 18 14 14 16 23 20 21 16 26 22 20 20 26 14 15 16 20 24 20 16 23 21 17 25 19 24 20 19 17 22 21 26 16 25 17 15 16 26 17 22 19 14 20 18 16 16 16 18 24 22 19 19 25 26 17 20 24 22 24 20
15 24 20 17 19 24 16 18 23 20 20 17 26 24 19 23 25 17 18 26 22 18 23 24 14 22 16 22 24 16 15 18 26 23 14 19 18 18 24 15 14 18 22 26 14 14 22 22 19 24 23 26 14 22 21 15 24 18 21 19 26 14 14 14
18 22 24 26 15 24 24 19 15 22 16 14 14 20 21 17 21 22 14 24 20 25 18 19 21 16 20 16 18 24 15 24 25 21 22 21 24 18 24 20 24 21 14 23 19 18 17 19 19 21 24 17 18 14 24 15 20 16 14 17 20 23 15 20
26 18 24 25 26 24 18 26 26 14 21 26 26 26 17 23 24 22 20 24 17 23 23 24 24 23 19 23 19 15 20 19 26 20 17 22 20 24 22 25 24 17 14 14 24 19 18 19 16 21 19 15 23 23 15 20 18 17 18 18 14 19 14 22
26 23 24 20 21 16 25 26 24 18 24 14 25 20 17 22 19 18 18 19 18 19 26 23 14 20 23 14 22 25 17 24 17 17 23 17 25 19 19 18 25 20 23 20 15 18 22 24 23 26 23 19 17 25 25 17 19 25 14 20 23 24 17 19
25 24 23 22 24 14 26 16 25 16 14 25 14 18 19 26 17 15 21 26 24 26 19 24 19 15 23 21 22 21 16 20 19 21 19 26 22 26 16 26 23 20 19 25 23 24 20 26 23 26 17 21 24 20 20 25 20 22 21 23 21 15 22 24
19 21 15 24 25 25 26 23 16 24 23 19 14 17 20 19 16 23 21 18 21 21 14 24 25 21 20 17 26 25 26 18 14 21 14 19 23 17 20 14 14 23 25 18 19 19 20 20 21 16 14 24 19 19 16 24 18 19 14 18 15 23 22 18
19 16 15 21 19 23 24 25 15 23 25 20 26 26 26 14 26 25 18 26 24 15 26 25 19 17 22 17 14 22 26 17 15 24 16 22 22 18 23 22 16 15 26 14 20 19 21 17 14 14 25 23 17 14 23 23 19 24 18 22 23 25 19 26
14 25 14 21 21 15 22 18 17 24 14 17 26 19 24 19 15 22 19 24 17 15 21 23 23 26 23 20 18 22 23 15 16 15 14 24 14 14 15 25 19 19 20 18 15 21 26 22 24 15 26 15 16 23 26 19 24 19 16 14 21 17 18 14
25 23 14 20 18 21 25 22 16 24 20 19 23 14 24 23 24 21 22 20 19 18 16 18 17 15 24 17 25 14 23 23 20 20 18 16 16 24 24 21 20 15 17 26 14 16 23 19 25 22 26 17 14 26 15 16 26 18 16 24 22 24 23 22
14 20 17 21 20 22 26 20 16 15 19 26 20 20 24 23 24 16 15 18 14 26 15 20 25 22 25 19 19 23 15 14 17 25 25 22 18 25 17 21 16 24 24 26 16 19 14 14 14 22 19 18 20 16 19 14 14 18 21 20 22 14 26 16
26 18 24 16 24 18 24 22 18 19 20 15 16 15 26 25 19 25 19 25 20 23 18 26 25 15 24 22 25 15 18 23 23 24 24 25 15 14 20 14 25 20 20 22 22 19 17 17 16 22 24 26 21 23 26 15 17 20 18 23 21 25 18 19
17 19 15 24 23 23 15 19 23 24 16 22 17 19 25 16 24 14 25 16 22 17 16 19 20 26 21 17 26 18 20 26 15 17 22 15 21 24 16 18 14 24 14 17 26 14 20 16 16 18 24 23 24 19 17 24 26 26 21 25 19 26 18 26
16 19 19 16 21 20 22 14 18 16 23 21 14 16 15 15 25 15 18 22 24 25 20 24 26 16 17 18 26 20 16 17 19 16 24 26 23 23 16 22 19 23 20 24 22 20 20 20 20 16 26 14 26 24 24 16 25 22 17 19 22 15 18 15
15 23 20 22 20 17 25 15 26 17 26 23 17 19 16 17 26 20 26 26 21 15 26 24 25 23 26 26 24 17 22 14 16 15 26 23 26 26 22 16 21 26 18 15 25 26 26 16 23 23 24 23 15 26 19 22 24 18 26 20 22 17 25 19
18 20 20 23 17 15 26 18 20 21 20 20 16 25 21 16 15 15 22 19 16 23 26 16 25 23 15 16 20 15 25 22 23 19 26 17 15 16 23 23 21 18 26 18 16 20 24 23 22 20 14 16 23 25 22 24 25 26 18 14 23 19 16 16
26 25 24 20 19 21 25 23 22 20 24 23 21 15 25 18 15 20 28 21 21 24 25 18 19 27 20 25 14 14 20 23 25 21 21 23 16 26 20 15 24 23 25 29 30 19 29 21 25 18 20 25 14 15 24 19 15 23 19 23 22 22 18 25
17 22 22 20 19 23 23 20 24 14 14 17 16 14 27 21 29 22 27 32 28 27 33 21 26 28 26 25 18 26 21 26 15 18 22 23 26 22 26 21 20 29 33 24 29 32 30 25 29 25 16 19 15 14 15 23 18 26 14 16 15 26 22 22
18 25 21 21 14 17 21 26 19 17 20 15 24 29 29 30 22 31 34 28 37 33 35 25 27 27 23 26 26 14 23 17 17 25 15 26 21 25 20 32 33 26 35 35 36 36 33 30 25 27 30 29 15 14 16 17 19 15 20 22 25 20 19 20
16 20 20 21 24 15 24 22 16 23 21 23 25 28 26 33 38 32 33 34 32 41 40 37 39 33 31 29 30 24 15 17 18 22 16 24 28 31 32 38 39 37 38 36 39 39 37 31 31 25 24 29 19 27 23 19 15 16 23 16 19 14 24 17
20 17 25 23 21 16 15 24 18 15 27 20 32 23 30 33 29 39 38 35 36 44 33 38 31 34 27 27 24 21 25 21 24 17 23 20 35 32 39 39 43 42 34 43 33 37 44 40 35 30 30 29 24 29 15 22 23 22 20 21 17 26 14 25
23 16 22 22 20 25 14 20 17 18 24 28 33 27 38 41 43 44 45 48 42 45 44 37 45 33 34 28 27 34 28 25 15 26 32 23 29 36 34 43 45 40 40 38 37 49 42 35 40 37 37 35 34 32 27 14 25 19 20 15 25 23 23 23
24 22 25 19 16 20 26 16 25 28 27 28 35 28 42 46 39 50 48 41 42 53 49 49 44 40 43 40 40 35 25 21 24 19 24 33 39 41 40 44 40 41 49 52 46 42 39 39 45 46 38 33 35 33 26 17 26 19 25 20 14 23 16 18
22 16 16 21 14 25 16 19 26 27 33 28 38 41 43 41 47 46 49 52 47 54 55 52 42 41 42 38 38 37 33 33 27 28 33 28 37 36 38 45 43 48 55 45 53 53 50 52 42 40 37 35 38 32 29 28 18 24 23 22 19 19 23 14
14 18 14 23 24 21 16 20 16 28 25 28 38 44 44 45 54 51 55 56 52 50 51 50 47 43 42 38 41 36 32 32 29 35 33 39 43 44 41 54 53 52 55 52 53 50 49 45 44 45 40 33 30 35 24 27 18 19 20 24 26 17 19 26
15 19 19 19 18 15 18 24 29 31 25 28 32 45 45 48 53 57 58 59 64 63 53 50 60 52 53 45 45 35 30 33 34 28 39 43 35 40 45 46 53 57 64 61 63 54 59 56 46 52 50 41 33 29 35 26 22 23 25 26 24 22 24 25
22 16 25 25 24 18 20 22 22 23 35 42 41 48 44 47 52 54 63 65 68 65 57 65 58 52 54 42 44 43 31 37 40 41 34 37 45 51 56 49 50 57 62 64 64 65 54 60 57 48 44 39 34 36 31 29 19 20 25 24 26 20 22 14
26 17 21 25 23 18 26 15 26 29 39 40 35 38 42 58 55 61 59 60 61 65 59 60 60 51 47 47 39 34 35 44 43 35 34 41 50 46 47 57 65 57 60 71 67 68 64 64 61 53 46 48 36 42 30 29 25 24 18 25 24 17 22 25
20 17 25 22 16 16 25 23 26 34 34 33 38 50 53 53 53 59 66 68 67 72 71 67 57 61 52 45 46 47 37 44 44 33 44 43 42 55 56 50 66 66 61 73 75 74 63 66 54 57 52 51 37 36 27 26 26 25 18 18 15 17 22 17
24 14 14 17 15 19 25 22 24 26 39 42 46 43 47 56 61 61 66 66 77 66 63 62 56 63 56 53 42 37 33 41 38 35 36 36 48 44 53 58 57 62 71 68 74 68 64 67 54 49 44 47 36 42 36 32 25 17 15 25 23 19 21 23
15 20 15 23 23 16 21 20 27 35 30 31 47 49 50 58 52 59 63 62 76 65 63 69 57 60 58 46 39 41 42 35 38 37 33 45 40 48 56 61 55 61 73 72 72 73 68 64 53 50 43 49 37 37 30 31 25 28 22 25 16 14 15 15
24 19 18 19 16 26 22 22 19 35 28 39 35 45 53 57 49 56 59 71 67 71 59 59 62 53 51 51 48 41 40 42 36 44 43 35 46 49 55 59 57 59 59 65 69 63 63 65 52 57 44 41 45 42 31 29 27 23 23 18 20 19 24 17
21 17 18 18 15 15 22 21 24 32 33 31 38 43 45 53 54 51 55 64 65 61 65 56 53 54 53 41 38 43 31 33 33 37 40 34 45 42 50 56 50 53 64 58 63 57 53 57 51 46 43 47 35 36 28 32 22 26 20 24 14 19 26 25
14 16 21 14 20 16 18 14 24 27 31 32 32 45 44 54 48 48 51 54 54 53 54 56 55 52 50 40 41 34 29 29 40 30 31 38 38 48 53 54 57 60 58 58 57 61 58 58 56 51 48 42 34 37 34 21 21 17 21 14 23 20 26 18
23 24 26 14 16 20 19 19 28 26 23 34 38 44 48 47 50 49 47 50 59 56 56 59 50 44 51 40 34 32 29 30 31 37 27 38 44 46 47 48 47 58 52 51 53 59 54 54 54 50 37 44 40 27 26 24 26 26 21 24 24 16 25 16
23 18 26 21 26 22 14 25 25 21 30 29 28 32 39 39 43 45 50 52 49 52 52 54 51 49 45 34 33 30 36 24 26 22 25 28 37 45 47 45 47 43 55 50 50 54 53 48 48 42 45 37 39 32 27 26 14 20 16 16 21 14 23 14
27 18 20 20 21 29 17 25 21 24 27 30 37 43 46 48 41 42 45 57 51 47 46 44 50 40 43 44 38 38 31 35 33 27 37 32 42 48 41 51 47 47 56 47 51 57 52 49 51 45 37 39 35 32 27 30 22 20 30 23 23 28 29 28
30 23 25 26 26 26 29 22 32 28 26 37 41 36 42 41 52 45 53 47 51 47 46 56 54 45 40 41 46 42 30 34 36 32 31 38 42 42 43 50 46 47 49 54 56 58 55 55 48 53 52 48 42 38 39 35 29 27 31 33 37 30 28 27
27 36 25 28 25 33 27 34 31 27 33 31 37 46 45 43 49 46 52 50 55 53 58 47 53 53 52 50 43 40 34 35 38 32 44 43 47 50 45 55 55 51 60 52 53 52 60 55 56 46 43 41 43 37 40 36 38 44 32 33 33 43 37 40
21 25 32 21 25 32 25 32 25 29 23 26 25 30 34 43 42 39 47 45 45 46 41 44 47 45 42 41 31 35 35 28 23 32 29 30 37 42 39 42 47 40 42 41 44 51 50 50 49 46 38 34 37 28 33 36 26 34 36 35 37 37 27 33
26 18 27 22 27 22 25 24 19 28 27 18 24 27 34 31 29 31 35 35 34 35 36 30 36 30 34 24 26 30 24 21 18 26 25 30 27 31 29 35 33 30 33 42 39 31 29 36 33 34 25 23 29 30 30 23 30 24 26 22 27 21 24 20
21 21 16 21 16 15 26 25 26 14 25 17 14 24 24 20 25 24 26 33 27 31 30 27 29 30 18 17 20 19 17 15 23 18 21 26 23 23 17 18 22 27 27 27 24 31 26 24 22 20 18 15 14 18 20 23 21 16 19 18 15 23 18 18
16 17 15 21 23 22 23 20 21 20 22 16 24 25 16 19 15 18 19 26 30 25 28 27 16 20 20 16 25 23 18 24 24 18 24 16 26 26 19 17 16 18 27 23 22 18 29 20 16 25 26 20 20 21 21 17 23 25 18 23 14 14 25 15
20 26 24 15 16 16 26 14 19 23 17 20 20 22 19 20 20 23 22 19 24 15 21 15 19 18 17 24 21 17 25 21 19 19 18 26 23 25 21 26 25 24 23 16 21 20 16 16 22 21 24 15 24 17 25 19 21 20 21 20 21 26 24 21
15 17 15 26 23 15 17 16 20 15 22 17 25 18 18 15 22 15 16 26 17 21 22 16 22 16 23 19 21 16 18 22 15 14 26 20 18 14 22 24 23 23 21 21 19 19 21 25 17 23 16 15 21 26 21 17 18 17 18 26 16 23 25 17
25 20 18 23 22 16 25 17 19 17 26 21 25 20 22 14 19 20 14 14 19 20 20 26 20 16 15 20 18 25 16 14 25 22 23 23 20 22 26 16 23 19 18 20 23 18 25 25 26 20 20 16 18 15 26 16 16 15 20 23 19 26 19 19
15 22 18 18 26 17 20 24 23 17 17 25 20 15 26 21 15 24 22 26 20 26 25 18 24 16 22 19 25 17 26 19 25 20 20 25 24 25 16 20 23 14 16 23 18 18 18 17 26 25 14 18 24 15 14 18 24 23 21 20 15 24 23 26
24 14 14 16 18 21 17 20 25 19 20 17 24 21 16 23 25 14 23 20 23 17 14 26 20 14 25 22 23 15 26 19 18 21 19 19 16 19 14 23 15 23 16 17 25 16 18 18 14 18 22 16 15 15 22 20 17 18 14 14 21 21 23 17
20 16 16 17 22 23 21 21 17 26 20 20 16 18 21 14 18 14 21 20 15 14 19 20 22 17 19 15 20 21 16 23 19 15 22 26 22 19 14 19 15 25 15 23 18 23 23 16 15 24 20 19 14 22 16 23 14 18 17 14 14 24 24 14
18 20 23 22 14 20 22 20 24 23 18 15 19 24 22 15 19 22 25 14 17 15 20 24 16 17 15 22 22 17 14 23 23 15 21 22 25 19 26 25 20 17 20 20 14 17 19 17 18 20 16 21 20 21 16 24 26 26 25 17 24 19 21 16
21 26 15 20 18 22 26 25 18 14 15 21 20 25 15 20 21 24 16 19 19 24 22 24 25 15 17 21 17 14 21 16 20 17 15 16 17 19 16 23 26 20 22 16 19 16 22 17 24 17 18 26 25 24 25 19 15 20 16 25 26 18 20 19
14 16 16 19 20 17 14 20 20 19 24 16 15 22 21 16 25 22 22 17 23 25 19 24 18 19 14 19 25 24 18 21 15 24 16 20 23 19 26 25 17 18 19 21 19 19 16 24 22 18 14 23 21 26 18 22 15 18 23 22 24 18 18 17
19 25 26 18 16 20 21 25 22 21 18 22 24 24 22 21 15 14 23 19 19 25 17 24 14 16 14 18 24 23 23 16 14 23 22 15 18 24 25 14 23 25 19 17 15 17 25 20 14 15 21 22 19 26 17 16 20 15 25 23 23 18 16 26
19 21 14 22 15 14 17 15 14 18 18 25 14 18 18 19 23 14 22 24 14 21 14 15 22 25 18 25 23 18 19 22 22 15 25 17 18 21 21 24 15 18 20 16 18 26 22 24 14 25 24 22 14 21 14 14 23 21 21 14 18 23 20 23
23 19 23 22 25 19 19 21 14 21 19 14 23 26 25 20 26 22 17 26 14 23 25 14 22 16 14 24 17 20 17 26 21 26 23 19 17 24 22 21 16 17 15 22 16 20 20 22 25 23 25 24 19 19 25 18 18 15 22 16 23 17 18 21
22 17 18 20 23 15 23 20 21 18 21 22 14 14 23 23 14 15 26 21 16 20 21 21 16 24 20 21 24 17 19 21 18 18 18 23 20 23 20 23 18 15 26 25 25 21 22 19 21 15 15 16 17 23 24 19 16 22 17 24 17 19 21 14
18 18 21 24 24 14 20 14 24 16 25 17 19 21 22 15 25 25 15 17 16 14 21 17 26 24 17 16 24 25 18 25 24 16 18 20 18 21 24 17 26 25 16 16 22 20 21 20 24 23 26 14 23 17 21 23 15 20 14 21 17 20 19 17
24 16 15 18 17 23 18 15 23 17 26 16 25 14 16 17 16 17 21 23 20 24 19 25 26 23 24 19 21 15 23 19 18 18 15 14 17 25 23 22 17 21 21 22 26 16 18 22 21 24 26 23 16 21 15 25 22 23 14 21 24 20 20 19
25 14 25 17 15 24 26 22 16 24 15 22 14 24 19 15 24 15 21 26 24 24 21 23 15 19 18 19 21 18 17 17 19 19 19 15 16 16 26 21 14 18 21 21 26 18 18 21 26 16 20 24 19 21 25 23 16 22 17 22 15 21 14 14
24 18 24 18 14 19 26 22 19 21 18 17 21 21 22 14 23 16 18 14 15 19 22 20 18 24 17 26 22 21 25 26 19 21 24 18 22 24 25 26 20 19 16 26 26 14 16 16 14 21 21 19 19 15 15 19 20 25 19 21 24 25 25 25
20 22 24 23 23 22 26 18 20 18 18 17 17 26 24 21 21 18 22 16 15 14 18 23 18 24 20 22 16 15 20 23 22 26 22 17 26 25 16 16 21 25 26 18 14 21 17 19 15 26 15 18 15 22 17 21 21 18 23 23 24 17 25 14
