P2
64 64
255
22 15 23 25 14 26 14 19 14 19 18 18 17 17 17 26 22 14 23 20 18 17 21 18 23 20 22 24 17 15 15 24 14 15 20 20 16 26 24 19 23 20 14 14 17 20 20 15 14 20 17 26 22 22 21 19 25 16 22 24 16 18 14 22
24 24 17 17 23 16 22 25 16 16 26 23 19 20 18 23 20 15 23 21 20 21 21 21 15 23 19 15 24 21 24 24 15 21 26 19 25 20 18 26 18 18 18 14 16 18 24 19 24 18 24 25 18 14 23 20 24 24 22 19 25 15 23 25
23 26 19 21 26 20 14 16 16 20 23 22 20 15 17 21 17 24 22 15 15 25 22 22 20 21 16 26 21 25 21 25 14 16 16 17 24 16 20 15 16 16 25 17 16 25 16 16 16 14 17 24 23 19 26 25 25 16 24 20 24 14 21 24
23 26 19 21 18 26 25 26 21 15 17 20 21 21 19 18 19 15 22 22 19 16 15 18 23 25 21 24 20 21 21 15 23 21 23 26 25 21 17 18 17 20 26 14 22 22 21 14 21 18 23 19 23 15 17 18 15 22 25 14 26 25 25 16
24 23 18 22 24 25 24 21 25 14 19 26 18 25 25 19 18 21 14 14 20 16 25 24 14 23 19 20 25 21 21 23 15 23 22 18 16 18 25 16 21 18 14 21 25 18 21 18 15 23 15 18 18 14 19 18 18 22 16 23 18 14 24 23
17 19 22 14 20 22 20 22 26 20 19 17 20 26 14 24 18 19 16 19 15 24 14 23 26 14 18 15 23 21 20 16 15 26 19 15 14 26 24 21 26 22 17 22 17 23 18 18 20 19 18 22 18 20 25 20 18 23 24 16 19 14 18 19
16 14 24 19 14 16 16 24 19 23 25 23 20 22 20 14 25 15 22 14 21 16 26 22 25 16 21 25 15 15 15 14 19 20 21 18 16 14 26 26 20 15 16 19 14 20 19 19 22 18 20 22 23 25 17 26 26 22 25 24 26 14 25 25
22 22 24 26 17 14 21 20 20 26 17 26 22 24 15 16 17 15 21 16 26 20 24 21 24 23 26 24 24 25 16 17 21 16 16 14 26 16 15 25 16 22 17 26 21 22 15 20 26 22 14 20 25 14 20 14 19 23 15 17 20 19 22 26
24 25 16 20 20 25 20 20 26 19 22 23 20 17 19 23 16 16 24 26 23 14 22 22 14 22 15 19 19 18 19 25 26 16 15 23 22 22 17 24 16 15 15 22 25 24 18 16 24 17 25 21 15 23 14 14 14 22 14 22 24 24 25 21
23 23 21 17 25 18 26 19 14 14 21 16 17 15 18 25 22 22 25 15 24 26 19 18 22 16 22 24 22 26 21 15 25 15 20 16 17 15 18 21 24 19 18 15 14 15 14 15 15 21 26 17 17 22 23 14 17 15 26 16 16 19 16 26
21 25 14 19 17 16 14 17 24 21 22 21 20 25 26 25 15 19 18 23 22 23 16 22 17 25 15 26 15 22 25 25 15 21 26 20 26 22 24 17 21 14 20 14 14 22 24 23 15 21 26 16 23 20 15 21 26 25 22 23 21 15 23 24
25 22 15 26 14 16 20 17 15 17 17 14 14 20 22 19 17 19 14 17 25 21 17 23 17 25 14 24 21 26 24 25 20 19 16 21 15 14 17 25 14 21 19 20 26 16 21 15 15 22 25 21 19 14 26 24 16 25 23 25 23 26 19 26
16 16 22 20 18 22 22 26 19 26 14 18 25 24 19 15 24 18 15 24 26 15 26 18 24 15 18 20 18 25 18 24 16 22 22 24 16 21 21 26 20 22 18 20 16 24 18 23 22 17 15 24 17 23 19 26 15 18 15 23 24 18 17 22
16 15 22 22 15 19 24 22 19 23 19 16 23 21 18 14 17 25 15 16 26 23 26 23 26 14 19 25 24 21 24 20 17 24 25 24 21 21 22 23 14 20 22 22 19 18 22 20 24 20 14 18 15 22 26 16 17 26 24 16 25 16 20 17
19 24 17 26 26 25 19 23 15 21 14 21 23 18 24 16 16 23 17 18 22 19 18 22 25 14 26 23 14 20 14 22 22 17 22 26 23 17 21 15 14 22 26 21 19 15 25 20 20 26 14 14 26 23 14 19 26 24 14 15 21 17 26 21
19 16 16 17 15 22 19 17 23 25 22 26 26 18 24 22 23 16 21 22 24 17 22 17 16 16 21 14 22 18 22 18 19 15 23 15 16 14 24 15 19 19 15 23 15 16 19 19 20 24 20 23 26 16 20 17 14 23 25 24 19 14 23 16
21 23 21 24 22 18 22 16 20 18 17 22 19 21 22 19 23 24 14 19 24 26 18 21 22 14 19 23 20 15 25 26 25 19 14 15 26 15 26 18 15 23 23 16 17 18 19 20 22 17 21 15 21 18 22 15 16 16 20 16 19 19 18 26
26 20 25 25 24 20 26 25 17 17 19 18 17 17 14 25 24 17 16 26 20 25 23 16 20 16 22 20 26 14 21 14 18 26 20 15 16 18 17 24 26 23 21 21 21 22 23 14 14 18 21 22 19 19 15 20 18 24 23 22 25 26 14 21
25 15 23 15 24 17 21 26 21 16 15 25 22 16 14 24 25 21 22 25 18 15 15 24 18 26 20 26 26 17 23 18 23 25 22 21 24 20 21 26 20 15 26 15 20 26 19 19 21 24 18 14 24 16 21 15 15 23 26 18 22 15 23 20
14 18 22 17 18 23 26 16 15 16 16 15 16 15 22 15 18 28 26 21 24 23 29 25 27 15 21 17 26 24 19 15 17 22 17 26 16 24 20 23 18 22 26 27 23 22 21 24 18 26 22 17 26 24 26 23 26 21 20 18 22 21 15 15
21 17 20 24 23 19 14 19 25 25 19 17 14 26 18 24 25 30 32 29 31 27 26 26 30 27 23 22 19 15 18 18 19 18 23 14 16 19 21 21 27 33 25 29 26 23 32 30 29 26 20 23 20 24 17 20 17 25 14 23 19 22 25 17
24 14 22 21 15 24 22 18 18 15 25 18 26 28 22 25 26 24 33 27 26 28 28 27 31 33 31 25 16 19 24 26 25 22 26 18 27 23 29 24 23 33 35 29 31 28 24 26 25 21 26 24 26 20 20 22 14 16 18 23 17 25 26 24
22 22 25 20 19 19 26 22 14 23 18 16 27 21 27 29 38 29 29 36 39 39 41 29 31 38 29 32 28 25 23 31 26 33 33 24 34 32 26 37 28 31 30 33 34 41 40 33 26 31 30 21 21 19 21 21 25 20 17 19 18 14 17 25
20 15 20 21 26 17 22 15 22 26 25 20 30 35 31 27 31 33 33 33 45 40 38 37 40 42 45 45 40 37 34 35 31 30 41 40 36 43 39 40 39 42 37 35 35 35 35 43 34 29 29 23 27 27 18 22 23 23 22 24 14 26 22 16
25 18 24 14 24 21 19 20 23 16 28 28 29 29 35 31 35 44 38 47 45 42 37 39 49 42 46 47 44 53 42 38 35 43 44 50 53 54 54 50 44 40 45 37 40 41 45 34 44 34 36 30 34 24 25 18 20 26 20 25 18 24 23 15
24 15 22 25 21 20 19 20 19 22 26 22 26 33 33 36 44 46 41 46 46 41 49 46 52 53 56 60 63 56 52 52 50 56 55 50 54 52 62 62 58 55 56 50 44 51 49 43 38 36 39 33 27 30 28 16 26 25 16 22 16 15 23 26
14 19 16 15 19 22 17 25 14 19 30 33 38 34 38 39 42 43 52 49 49 49 60 67 67 62 61 72 63 67 66 66 67 63 63 65 69 65 65 60 69 57 61 56 45 49 51 41 45 41 37 42 40 28 25 23 25 22 17 19 18 23 19 24
14 26 26 18 25 18 16 24 27 31 33 31 34 42 49 48 52 56 51 50 51 65 62 71 67 71 74 79 67 73 74 69 74 73 71 69 67 80 72 70 67 69 71 57 54 48 57 47 46 52 38 39 38 35 26 20 21 20 21 20 16 22 14 18
16 23 14 26 23 23 22 23 24 28 29 36 33 46 47 50 55 50 51 56 69 74 68 73 75 76 87 76 75 81 74 75 74 78 77 75 81 85 75 84 77 74 74 64 63 61 60 58 55 43 44 41 40 28 30 21 25 21 15 20 23 24 17 16
24 17 26 20 18 26 15 26 29 29 30 37 43 40 42 48 58 53 54 62 71 81 76 83 85 82 90 85 94 83 80 91 88 89 92 85 83 88 87 88 80 78 76 82 70 71 63 59 58 54 50 48 40 37 37 23 27 20 20 20 15 21 25 24
23 22 18 17 16 21 15 17 21 23 28 33 39 48 52 52 56 64 68 65 78 82 90 94 92 88 99 95 96 94 92 90 98 99 95 88 89 101 97 99 97 94 89 83 80 66 61 64 57 46 52 47 46 33 28 33 19 18 16 23 14 26 19 14
18 26 17 17 14 23 26 18 30 30 35 32 46 45 47 47 54 64 61 81 80 93 89 95 103 103 101 105 101 103 106 106 108 105 96 101 106 101 104 101 95 94 94 94 78 75 71 57 63 50 55 43 36 38 37 34 29 19 17 19 17 22 25 22
19 25 19 21 20 26 23 21 31 36 35 40 40 44 52 51 55 65 68 77 95 100 93 101 104 107 101 102 101 111 108 112 107 114 104 111 100 111 106 98 102 98 103 94 96 79 76 61 59 58 51 47 47 39 36 31 22 26 21 19 19 18 22 24
25 26 24 23 21 17 22 26 26 32 37 42 43 40 50 54 53 61 75 77 92 98 95 101 101 106 108 106 103 104 106 110 121 110 108 108 104 106 101 106 99 104 100 92 93 79 69 65 51 51 52 47 47 38 29 30 30 27 25 15 26 17 21 21
22 20 14 14 25 23 23 16 21 31 32 33 36 47 54 49 57 63 64 77 82 87 91 105 104 109 110 111 108 111 115 119 125 117 119 114 108 110 110 102 100 104 94 89 81 72 67 55 60 56 44 49 37 35 33 35 24 19 19 15 26 20 20 25
23 23 17 14 24 21 19 25 24 22 29 38 39 46 44 49 56 54 68 76 80 84 89 101 98 99 110 112 112 111 117 117 121 124 122 114 110 103 105 98 102 99 95 86 79 80 67 54 54 45 53 43 34 41 35 30 28 26 26 14 18 22 22 22
15 22 20 14 21 24 16 26 29 28 34 35 40 35 50 42 47 56 69 74 74 84 96 96 101 96 105 108 116 116 120 122 124 124 110 108 108 107 99 105 100 96 89 88 74 77 69 53 52 43 44 40 41 35 31 32 17 23 14 16 24 26 26 23
19 21 26 17 23 26 15 16 17 20 24 32 33 43 46 42 49 50 58 63 69 75 87 97 96 100 101 110 111 108 115 122 118 117 107 113 104 109 108 95 90 87 82 85 69 64 58 50 54 51 38 38 32 36 31 26 22 17 18 22 18 24 23 17
16 19 19 22 22 20 24 14 16 21 30 31 33 43 41 37 46 46 56 61 70 72 75 82 87 89 97 107 102 102 108 103 115 111 101 109 106 100 104 90 91 92 83 77 73 65 57 44 44 41 46 40 38 36 23 19 21 16 23 23 19 23 14 20
14 22 18 21 26 23 24 21 21 17 29 22 36 37 35 46 38 44 56 61 62 74 71 82 83 90 98 90 102 95 105 99 104 98 100 101 93 101 88 86 91 86 83 69 61 56 47 40 42 35 37 32 33 31 29 24 15 24 19 18 26 26 14 19
26 19 24 21 15 26 20 23 17 17 24 32 23 33 39 31 43 43 44 49 63 66 73 81 79 81 82 83 88 92 98 89 91 95 97 88 95 87 91 82 85 75 72 66 61 56 47 42 41 43 36 26 27 21 17 21 20 19 25 24 26 17 22 23
15 18 24 14 25 14 22 23 19 15 26 25 31 24 28 33 37 38 44 45 49 61 68 64 73 70 74 80 82 83 78 79 80 82 88 90 87 84 78 78 73 68 70 52 47 52 35 42 32 34 25 27 24 20 26 24 14 20 18 20 25 14 16 20
25 26 21 23 25 23 16 15 23 23 16 17 28 28 32 26 38 34 37 37 52 58 59 67 65 64 74 79 73 75 70 75 75 73 75 74 72 78 74 65 66 58 61 55 41 36 34 35 36 28 33 24 21 22 14 17 19 26 16 19 17 19 19 15
16 14 22 22 16 20 17 19 23 21 26 19 25 29 19 22 33 26 25 34 42 46 48 56 58 67 61 62 71 67 71 71 64 70 70 69 61 65 65 55 56 54 44 47 41 29 34 32 26 23 26 21 15 26 25 26 15 22 22 22 15 22 19 18
19 22 21 25 24 14 23 25 18 21 20 21 23 25 20 23 20 21 22 33 30 42 44 41 48 57 59 57 58 60 62 59 64 62 66 64 56 58 51 47 50 42 39 43 27 30 28 29 26 29 15 25 14 22 17 26 19 15 21 23 20 25 25 15
17 26 21 24 20 24 20 16 19 18 24 23 15 18 14 21 27 21 23 27 19 27 38 42 46 43 48 54 52 58 62 59 64 58 53 58 55 46 47 50 37 40 39 36 28 24 19 19 21 25 16 17 23 22 18 17 18 14 21 25 16 23 20 26
19 17 25 25 15 19 14 18 22 25 24 19 17 20 20 16 19 18 26 22 25 24 27 29 37 44 37 39 41 52 48 49 46 46 46 52 52 45 47 40 36 26 25 21 25 24 26 16 26 16 19 26 25 23 25 25 19 17 25 19 20 16 19 21
17 22 15 25 14 21 24 22 26 25 26 18 16 23 23 25 26 18 20 19 23 18 26 31 33 30 39 39 45 37 38 51 47 43 46 44 37 34 40 30 32 23 17 23 23 22 23 24 15 26 23 21 25 16 23 20 16 14 22 15 18 16 15 20
19 17 22 26 18 26 17 22 26 16 24 20 26 19 22 21 19 20 20 16 22 14 15 19 19 31 27 38 32 39 37 42 42 39 37 33 37 36 35 27 28 17 24 17 18 26 16 22 20 26 15 19 26 24 23 19 21 18 24 17 15 15 24 14
15 15 23 20 21 16 24 16 14 21 24 18 20 19 17 25 18 25 16 14 23 23 20 24 19 27 24 29 28 33 38 31 31 39 26 28 30 29 29 22 14 22 17 16 25 19 19 26 18 17 21 14 23 24 14 23 18 19 23 17 20 20 23 15
22 25 18 22 19 23 15 14 19 17 18 19 19 19 22 25 21 26 22 18 16 21 23 21 25 16 25 16 23 22 21 25 26 30 29 26 28 19 20 22 25 26 25 25 21 22 18 20 15 17 19 22 18 18 16 17 25 16 16 22 16 23 19 16
24 26 18 18 21 24 20 26 14 25 24 22 19 17 14 16 26 17 20 23 23 14 17 18 19 14 16 23 25 20 20 27 15 24 14 17 24 26 23 25 16 15 24 24 23 16 23 18 17 14 14 25 25 15 20 16 21 14 19 14 26 18 18 24
24 19 25 26 20 16 20 24 16 19 18 17 20 22 19 15 26 15 19 19 18 21 23 16 22 26 18 25 23 17 23 18 20 21 23 15 21 25 26 23 24 23 19 25 23 21 14 17 18 17 14 25 19 16 14 15 23 26 19 15 14 18 17 17
17 19 26 20 16 22 16 16 17 19 24 15 26 16 25 21 14 20 23 14 19 19 21 18 26 22 14 20 15 24 14 24 23 21 22 15 20 22 18 21 16 23 22 23 15 24 16 18 18 14 23 16 15 14 24 18 17 25 17 19 26 22 19 15
16 21 17 24 21 17 21 20 23 24 22 20 15 20 14 19 23 20 25 22 22 25 16 16 26 18 16 14 20 20 18 26 23 26 22 25 22 23 26 21 23 17 16 24 23 20 22 22 17 22 24 21 24 22 23 14 16 15 19 15 21 25 18 16
18 16 19 14 24 21 23 26 22 15 26 25 15 25 19 14 17 26 16 25 18 22 25 19 24 19 15 19 24 21 17 19 22 14 21 18 23 26 17 23 15 21 20 17 18 15 23 24 18 16 20 24 26 14 17 16 19 16 22 26 20 23 19 20
18 21 16 24 23 18 14 19 22 25 26 20 18 23 15 17 21 21 15 18 25 25 14 15 19 18 24 19 24 23 15 26 16 24 25 25 18 16 14 22 15 25 17 24 18 17 15 18 21 25 17 16 26 20 16 21 26 19 17 17 20 17 17 22
24 22 24 20 24 24 20 21 19 19 20 24 26 17 18 17 23 20 26 19 22 15 16 19 19 14 19 24 19 18 21 14 17 16 15 17 19 22 26 17 15 21 14 21 16 23 18 15 21 21 21 24 19 17 22 26 22 21 15 14 24 14 23 25
19 20 23 25 20 24 19 23 19 14 19 24 24 14 16 26 19 22 26 26 23 18 15 25 15 25 22 19 26 23 23 16 17 16 15 22 24 24 17 24 19 18 22 16 20 17 15 18 18 26 19 15 15 21 14 23 14 18 15 24 16 15 15 15
17 16 15 22 19 25 24 21 25 19 25 22 20 24 20 24 25 21 22 15 14 16 24 26 25 23 16 23 16 26 14 20 18 14 26 24 26 22 14 22 15 22 20 19 25 23 18 23 26 26 18 18 22 16 19 22 15 26 18 24 26 22 14 18
22 17 14 21 23 16 23 14 17 19 16 21 18 19 23 15 18 18 16 19 20 15 25 18 25 20 17 21 14 15 14 24 22 21 22 25 15 16 22 24 16 19 20 21 15 15 20 14 15 23 25 16 22 21 20 25 20 21 16 16 19 14 19 23
21 15 17 20 22 17 25 23 15 18 17 23 18 23 20 18 20 19 16 18 25 25 17 25 25 14 26 24 19 25 25 14 25 18 25 26 22 18 24 15 22 22 18 17 17 18 25 23 26 26 14 25 14 21 26 26 20 26 17 17 25 23 15 26
23 26 26 26 17 16 24 21 15 20 14 18 14 15 24 23 18 24 14 20 19 24 25 26 20 17 17 24 23 16 22 19 26 18 23 19 16 15 25 24 15 24 26 21 15 15 24 26 21 23 18 20 22 16 24 24 23 21 15 22 21 22 16 24
23 22 24 20 16 15 18 18 25 15 19 23 20 21 25 19 17 14 16 26 17 18 18 25 20 17 24 16 19 20 20 17 23 23 24 20 22 21 19 24 22 16 24 25 21 20 18 19 26 21 20 15 15 14 22 24 23 20 19 16 15 21 25 17
