P2
64 64
255
20 15 21 14 22 25 14 26 21 16 19 14 26 23 25 24 22 16 21 22 26 17 25 16 14 26 15 22 22 21 25 25 18 14 19 17 21 22 24 17 15 20 15 21 21 18 25 17 22 15 14 26 26 25 19 18 22 16 18 24 15 25 18 17
18 19 18 21 17 20 14 16 20 14 19 26 26 19 26 23 14 21 18 15 22 20 17 21 19 18 15 20 26 23 20 22 19 18 14 16 18 19 14 18 22 17 24 22 17 26 17 23 26 25 14 25 19 20 19 22 15 18 15 25 19 21 25 16
23 26 16 20 25 17 26 15 23 21 23 26 19 23 21 14 22 23 22 17 26 14 22 16 19 17 22 15 20 15 19 22 16 21 16 26 21 19 21 15 24 16 20 18 16 18 24 22 20 20 24 16 26 26 26 23 20 16 17 16 24 16 24 21
16 22 24 18 22 22 20 19 24 22 25 22 17 24 15 14 18 25 18 17 19 22 21 22 17 18 18 15 26 26 19 19 18 16 23 21 19 26 19 22 23 24 15 23 22 26 16 17 23 26 16 15 20 14 17 17 19 14 21 16 14 26 16 16
18 19 15 25 22 23 14 21 20 15 14 15 19 21 22 26 16 22 26 20 16 21 16 19 23 18 17 24 15 25 26 21 26 21 15 26 14 15 21 24 16 22 24 23 21 22 17 21 25 15 17 17 22 25 23 16 18 26 19 19 26 22 19 21
15 24 15 17 18 26 16 15 19 23 22 24 15 16 20 20 22 21 20 20 22 15 19 26 21 24 17 23 22 16 17 18 15 14 24 15 14 23 15 22 20 26 25 23 21 26 24 22 20 17 20 24 17 24 21 25 19 26 15 22 14 22 24 16
25 15 23 19 21 17 21 24 14 16 23 17 21 19 20 20 21 17 19 15 15 21 16 24 26 20 15 21 19 15 23 18 15 14 16 22 16 19 18 20 23 17 21 25 17 18 18 26 14 21 20 16 19 20 25 26 17 14 17 22 21 26 16 25
24 24 19 15 17 26 18 22 15 22 16 21 15 15 15 21 18 24 24 25 26 19 23 23 26 21 17 19 14 18 20 17 16 22 20 23 23 22 18 25 19 25 24 26 25 23 17 26 19 19 25 26 17 23 24 21 26 24 25 19 21 19 26 15
14 23 18 18 19 26 24 14 16 16 16 15 15 14 17 14 24 18 17 22 17 14 14 18 14 24 22 26 21 23 26 16 18 14 15 22 23 25 22 16 19 24 21 21 16 22 18 24 20 16 26 24 20 15 23 18 14 21 18 14 16 26 26 17
25 14 26 18 23 20 18 23 19 14 26 21 15 17 24 18 23 26 22 15 18 24 26 19 16 16 16 19 16 22 17 19 17 17 22 25 18 20 22 17 18 15 18 21 22 18 14 14 17 15 16 16 14 23 20 25 17 20 24 16 19 21 20 23
26 18 16 14 25 18 16 17 18 24 16 22 20 17 26 21 17 15 23 16 16 15 26 18 22 25 14 14 16 20 14 14 18 23 15 17 19 24 23 23 21 26 23 18 20 21 23 19 19 23 22 24 17 15 26 17 20 24 25 26 24 19 17 24
14 22 18 24 19 15 26 15 17 23 17 26 25 21 17 19 14 17 21 21 25 21 25 24 15 23 22 20 16 17 21 23 14 15 23 21 24 15 19 19 20 25 22 21 17 25 17 18 15 19 22 14 25 19 22 25 21 17 26 17 18 21 24 17
14 14 23 15 17 23 20 14 16 15 23 25 17 20 22 21 19 21 22 16 24 26 16 18 24 23 23 14 21 26 15 19 25 14 21 21 18 25 15 18 17 17 25 21 26 26 18 26 16 17 14 19 17 15 22 20 21 19 21 20 15 23 22 26
22 26 18 26 21 17 14 25 17 17 26 21 15 23 17 19 24 18 26 22 17 14 23 21 19 23 15 20 26 14 23 14 17 25 14 16 14 18 19 19 18 25 15 25 21 18 25 20 24 17 26 25 22 17 19 19 24 25 21 14 19 25 20 15
16 17 24 26 25 22 20 25 19 20 19 21 25 23 14 20 21 16 20 26 16 23 23 17 15 14 22 15 26 21 14 15 21 20 19 23 19 14 21 18 21 18 21 17 21 14 22 15 22 22 22 26 18 18 17 25 24 19 14 17 25 18 24 23
20 15 25 21 14 18 23 19 16 26 21 26 15 24 15 17 26 23 23 17 14 20 25 14 25 19 22 25 14 24 15 26 16 15 26 19 26 25 22 22 20 21 14 25 18 21 20 26 26 18 19 16 14 20 21 21 26 20 20 26 21 16 24 24
20 14 22 23 15 21 19 22 17 22 20 19 24 25 19 16 23 23 17 19 25 17 26 18 25 21 22 25 21 17 14 23 21 25 17 25 18 22 25 22 26 18 25 16 21 14 25 22 19 21 25 20 19 22 17 26 22 26 26 22 21 15 16 15
24 26 14 20 19 14 22 18 19 22 20 24 25 15 21 22 16 15 20 19 16 19 19 15 22 23 15 19 14 24 19 26 18 19 20 20 21 26 24 19 20 22 25 16 21 15 16 14 19 19 18 26 25 16 17 14 20 20 24 17 17 14 16 16
16 14 24 15 19 20 21 17 21 15 14 24 24 19 26 19 22 15 26 14 17 21 20 24 21 19 14 14 16 20 15 21 26 16 16 25 22 25 26 26 20 22 23 15 19 19 15 16 26 26 16 17 25 21 17 22 21 15 17 23 25 17 15 25
14 17 22 14 18 26 21 22 23 14 23 24 18 20 24 20 27 21 22 17 18 24 19 24 25 21 21 19 16 19 17 19 19 19 18 24 18 16 19 17 24 17 18 27 30 25 27 25 27 18 26 15 16 20 17 23 22 22 22 25 14 26 14 22
16 14 14 24 17 20 24 14 26 17 15 25 18 18 16 19 30 23 32 23 30 24 29 23 24 20 26 25 18 15 22 15 19 20 25 18 24 24 25 19 29 24 28 27 27 22 23 21 19 24 19 15 26 23 23 22 14 18 21 22 20 24 24 17
26 22 21 26 20 17 17 25 22 18 18 20 18 23 23 22 24 29 26 28 27 26 34 29 32 29 26 27 18 24 24 24 19 29 21 17 17 20 21 30 23 27 33 30 26 34 28 31 29 28 27 27 21 22 23 22 20 24 19 14 14 26 15 16
23 23 21 16 14 26 21 19 15 14 17 26 18 31 24 35 38 34 32 38 32 33 30 34 34 31 26 30 26 32 24 32 32 34 32 28 26 25 25 27 37 36 41 29 30 38 37 35 34 32 29 27 24 19 22 19 14 14 25 24 21 26 23 21
26 17 22 18 17 15 19 14 21 20 24 21 30 24 31 36 31 32 35 34 34 43 41 32 43 45 36 41 45 33 37 29 35 31 42 42 36 46 44 41 34 32 33 35 41 45 33 34 38 36 25 35 28 21 16 18 24 26 24 22 21 21 20 19
16 16 15 18 23 22 16 22 15 24 22 24 24 26 29 41 33 45 43 37 41 42 45 40 50 46 52 46 51 53 52 42 47 39 41 47 50 52 51 51 51 46 38 39 39 41 48 40 42 37 32 36 35 21 27 25 14 25 15 24 23 15 14 25
19 16 24 16 24 23 20 24 22 28 25 34 26 39 31 42 45 47 45 53 43 41 56 51 57 51 57 63 59 51 56 48 52 52 59 59 56 59 57 59 54 48 52 42 42 53 46 46 36 45 40 28 30 33 21 21 26 15 23 25 22 19 24 25
24 26 18 20 14 19 14 25 14 21 30 32 38 34 39 40 46 41 46 47 55 55 60 65 64 62 63 60 64 70 64 62 61 55 61 61 69 72 63 67 67 61 57 58 49 53 49 49 46 44 42 37 38 35 30 22 16 16 25 26 25 25 17 15
21 23 15 15 16 16 19 26 27 26 35 35 38 45 48 47 45 55 49 59 57 58 67 68 78 67 71 79 70 68 73 65 73 72 74 79 77 78 69 68 70 71 72 58 63 50 49 48 46 46 40 41 38 39 29 27 16 21 14 21 18 16 17 24
16 16 24 16 17 14 21 21 26 23 27 29 40 41 47 51 52 51 53 58 60 73 78 82 73 78 85 87 82 78 83 86 83 75 79 80 81 76 76 80 85 76 73 76 59 57 58 59 47 49 49 44 34 36 28 32 24 21 19 25 23 14 26 14
20 21 26 24 15 23 15 24 21 29 27 39 35 37 51 44 58 58 62 71 76 82 82 88 87 85 88 91 84 81 91 83 82 87 80 81 92 86 83 87 88 90 77 77 77 65 58 58 56 47 44 44 38 31 28 34 25 16 14 26 18 17 16 19
21 18 21 14 18 20 22 21 28 31 39 33 39 43 51 55 56 62 65 72 80 89 82 92 89 91 95 90 100 90 100 98 91 93 88 100 92 101 89 93 88 93 83 83 73 67 65 65 57 50 49 41 46 34 35 28 30 16 23 25 26 19 15 22
25 18 20 20 18 22 18 16 25 34 32 31 42 44 47 47 53 56 61 75 88 96 88 100 91 92 95 105 98 101 100 104 107 104 103 104 98 100 106 103 96 91 94 86 86 80 65 61 56 52 49 46 44 35 38 30 29 21 22 18 24 23 24 26
24 24 25 15 20 22 15 19 31 32 33 36 41 45 49 55 58 58 67 82 91 91 102 95 96 102 97 99 111 107 108 105 111 113 108 109 111 99 105 100 100 100 99 100 90 77 64 61 56 50 48 39 38 33 37 30 31 18 26 14 16 23 25 24
17 26 15 15 16 18 21 19 26 32 32 38 36 44 55 47 60 58 68 74 84 89 96 104 108 108 108 111 106 105 116 120 115 110 114 104 111 103 102 107 105 100 99 89 88 84 64 59 59 57 49 49 40 38 28 35 20 23 20 20 23 24 26 19
14 16 21 15 19 19 21 24 22 30 30 40 37 45 47 46 49 58 68 75 82 89 100 102 102 104 104 113 105 113 118 117 115 115 113 111 115 112 104 107 107 98 96 94 85 77 69 58 52 55 48 41 38 39 29 29 20 21 21 18 24 20 16 26
19 22 23 17 21 22 14 23 19 27 37 31 40 45 51 50 48 54 66 76 79 95 89 102 97 106 112 115 108 113 115 117 126 118 121 116 115 107 103 101 107 96 93 89 85 78 62 61 55 50 42 37 38 30 29 34 23 24 25 25 17 19 20 14
18 14 24 25 16 18 26 20 29 32 32 30 43 45 46 48 56 58 58 69 77 85 88 101 99 96 110 108 114 114 117 116 124 117 111 109 116 103 110 102 105 96 93 85 74 70 68 57 48 44 39 39 33 29 30 29 27 25 25 14 18 20 23 16
21 21 18 25 26 20 19 22 18 20 32 34 33 37 44 40 52 51 60 69 71 76 88 87 96 94 102 101 105 105 113 116 115 119 106 114 105 110 107 105 95 92 81 82 77 72 64 56 43 46 38 44 37 37 30 27 28 25 25 16 15 22 26 21
19 25 18 21 23 26 19 24 22 27 23 31 32 42 41 38 49 48 62 57 72 81 83 81 96 96 95 96 109 101 112 110 106 101 107 105 98 97 95 93 88 83 79 73 74 69 51 42 51 38 42 32 32 36 21 22 22 20 21 14 21 24 14 22
17 20 25 17 14 19 14 15 19 22 20 25 38 33 34 37 47 48 51 55 62 76 78 76 82 91 91 100 102 104 95 101 105 103 97 100 96 99 93 91 88 75 76 67 65 59 54 45 36 41 35 35 36 27 20 18 19 17 23 20 16 15 23 24
14 19 23 19 22 18 22 20 26 23 22 29 26 37 37 31 38 34 41 58 57 60 73 81 79 86 88 86 90 98 92 96 89 89 93 97 88 89 86 83 77 72 77 60 53 55 43 37 45 35 32 30 31 22 26 26 25 20 26 19 23 25 15 22
18 25 26 15 14 20 19 20 26 19 21 28 22 23 35 35 29 43 40 45 48 52 59 74 73 82 83 82 83 89 85 78 78 88 81 87 77 78 82 81 74 69 62 56 51 44 42 35 35 38 32 35 24 29 15 23 26 22 15 25 22 17 16 24
24 17 18 26 14 23 25 19 24 14 25 27 27 27 26 26 34 30 30 39 47 56 62 55 61 69 73 69 69 78 74 79 76 82 69 69 73 77 66 73 59 56 54 47 42 46 30 37 27 34 25 25 25 18 22 26 15 25 26 21 25 15 26 26
23 15 18 18 24 14 21 18 14 17 18 25 20 28 21 28 22 33 32 39 40 38 49 50 55 64 67 61 66 64 72 64 66 74 74 68 71 69 61 66 62 50 47 42 42 38 25 27 27 24 25 23 16 25 15 25 16 25 19 15 15 15 15 14
17 17 15 16 17 14 14 20 17 22 15 15 19 26 22 27 20 28 28 23 28 43 38 50 50 58 56 58 63 66 57 67 66 63 60 58 53 58 56 50 51 42 39 38 33 22 33 22 20 27 18 19 14 25 20 14 14 15 21 17 20 25 17 21
22 18 24 17 23 16 18 21 19 15 25 22 26 18 24 16 22 26 24 18 31 27 28 32 46 39 44 48 55 51 56 62 57 57 62 60 49 56 46 43 39 32 35 32 26 18 17 28 20 15 16 19 15 22 22 24 17 21 16 18 16 25 17 17
25 15 17 22 24 17 21 17 16 24 24 24 20 23 25 22 25 20 24 15 18 26 20 32 29 38 37 38 41 48 49 45 55 49 52 55 44 43 38 39 33 30 29 23 23 15 18 25 18 17 15 17 15 18 21 19 14 18 15 21 19 25 18 22
20 17 19 24 19 18 17 17 14 18 19 25 18 16 22 16 19 17 23 21 25 16 17 26 33 30 37 45 44 46 39 50 39 39 42 45 41 40 40 27 35 24 26 15 17 24 18 21 15 21 15 21 18 15 24 23 24 14 20 21 19 25 17 19
17 14 16 22 15 19 26 24 14 25 17 21 25 21 25 19 25 20 14 15 25 19 24 18 22 24 34 39 39 35 40 45 43 45 38 42 31 27 29 23 20 25 23 20 16 23 16 21 23 25 21 18 16 23 14 24 15 21 14 21 22 21 14 26
26 24 16 20 23 24 24 22 15 26 26 23 14 24 15 24 25 24 16 15 19 24 15 15 14 24 27 27 24 26 36 34 37 37 30 27 31 27 29 23 26 22 18 14 18 20 17 17 26 14 18 20 17 22 16 21 23 14 21 22 21 19 26 22
20 26 23 25 16 14 14 21 19 25 22 26 25 18 22 19 16 19 25 24 25 24 19 19 20 25 20 23 18 21 28 32 30 33 24 21 18 20 19 22 19 15 23 24 14 16 15 16 18 18 19 18 22 15 20 15 22 25 25 14 19 20 15 24
20 22 17 17 22 20 25 17 26 22 22 25 20 26 22 21 22 16 15 17 21 25 22 26 17 15 18 19 22 26 22 16 27 27 15 19 24 20 23 23 21 24 18 26 26 24 24 18 14 15 18 20 26 23 16 18 20 17 24 17 18 18 19 15
23 19 26 16 22 14 26 25 14 25 23 26 18 16 21 21 17 20 18 24 18 14 21 18 17 20 23 16 18 17 21 22 17 16 14 23 17 14 23 14 25 14 23 23 25 19 23 16 16 17 22 21 15 26 15 26 23 22 23 26 26 26 26 20
14 15 14 21 19 19 23 20 19 26 14 25 16 25 26 20 19 17 16 16 18 17 23 24 23 20 21 17 22 20 25 24 14 18 21 26 20 22 15 16 15 22 25 22 19 20 26 22 15 18 26 25 15 21 21 23 17 25 15 25 21 17 20 14
24 26 22 17 17 17 22 16 23 26 22 26 20 19 22 25 18 16 18 20 16 25 15 17 25 16 20 22 16 21 19 24 17 17 20 26 25 19 24 18 19 15 21 19 16 22 24 17 24 18 15 20 18 19 26 21 23 24 23 19 15 20 23 18
26 16 19 17 17 22 23 23 18 23 18 15 15 22 14 17 18 20 19 16 22 23 16 15 20 25 19 15 22 22 19 23 15 20 26 25 16 16 26 16 25 18 21 15 16 22 17 24 17 14 18 23 14 24 22 14 21 26 24 15 15 16 16 23
23 18 22 25 20 26 21 24 16 16 21 20 16 23 14 21 20 25 24 25 24 16 22 21 17 26 21 24 17 19 18 17 17 19 16 16 21 26 20 18 24 21 21 26 25 22 15 20 19 18 25 18 25 24 21 21 23 24 15 16 21 25 14 16
22 21 16 24 14 18 18 21 21 18 25 21 19 24 24 16 23 17 22 17 16 23 26 21 26 15 21 17 16 17 26 23 16 18 26 14 24 18 19 14 19 17 15 16 22 19 20 25 24 24 15 20 19 20 20 15 19 18 21 19 26 22 21 25
14 17 16 21 24 14 22 23 20 17 15 25 22 23 18 25 15 19 21 20 15 15 24 16 17 21 19 14 26 14 23 16 18 22 25 24 18 17 15 17 24 26 22 20 26 17 16 17 15 20 21 15 25 16 14 20 19 17 18 23 22 16 26 23
21 25 19 17 18 22 26 25 22 20 22 15 20 22 25 23 25 14 15 17 14 19 25 14 26 20 23 14 23 17 16 20 24 18 25 22 26 17 16 23 14 15 21 24 14 17 17 23 25 16 23 26 26 15 15 19 23 20 23 21 26 17 22 16
15 16 17 25 22 25 17 17 15 14 18 18 25 19 19 16 19 19 19 18 17 25 20 16 22 16 20 25 20 20 20 20 26 22 20 24 19 26 22 19 14 17 24 14 24 20 20 18 15 20 22 23 25 18 26 18 19 19 23 16 17 24 16 20
14 25 24 14 24 19 15 18 15 17 22 15 25 17 23 14 25 17 20 24 14 24 16 23 19 26 21 21 17 17 24 14 26 26 26 14 21 24 25 24 25 26 20 15 26 22 21 16 26 15 26 19 18 19 23 24 25 16 23 22 25 18 22 16
19 19 22 16 24 15 23 25 21 25 25 22 16 26 23 24 18 16 24 16 14 18 23 23 18 17 24 23 21 24 25 19 22 19 14 21 25 19 23 20 25 26 22 22 23 23 16 14 25 19 14 14 26 22 15 21 23 14 17 18 19 23 17 18
16 16 23 20 24 26 14 15 23 14 26 26 18 15 18 15 25 16 19 24 14 14 18 24 16 25 21 21 15 20 19 16 20 21 25 26 15 25 15 19 23 16 22 19 26 14 21 23 25 22 26 15 15 23 25 22 20 23 14 21 20 17 25 18
