P2
64 64
255
18 29 35 38 28 37 20 21 36 21 23 19 38 37 26 23 20 28 27 36 26 31 27 20 32 25 22 38 29 30 18 18 21 22 35 34 22 28 21 32 38 30 26 26 22 35 21 26 37 37 33 25 37 20 27 19 29 21 36 30 28 36 37 18
30 27 27 21 19 26 22 30 33 27 36 19 29 29 26 26 33 28 20 24 35 26 30 21 21 32 31 38 27 25 36 27 23 27 38 22 34 27 28 19 30 27 37 32 26 28 32 30 34 24 24 25 23 36 32 28 24 28 25 30 19 31 31 37
28 32 31 37 28 34 27 26 22 27 29 38 23 28 33 36 23 24 20 22 27 19 22 20 30 33 36 21 34 20 38 33 29 23 29 24 36 29 37 38 22 26 38 24 30 22 30 35 28 25 23 27 24 26 33 26 35 20 24 29 34 35 23 35
30 31 36 36 33 18 37 22 31 21 22 18 31 36 18 33 28 18 19 18 24 23 27 27 33 37 23 18 29 36 31 32 35 29 33 35 24 35 35 27 22 37 24 23 38 24 19 33 24 28 31 22 29 38 38 25 37 18 28 35 33 19 27 24
31 28 28 35 37 29 28 29 27 35 36 36 35 30 25 34 34 23 33 27 30 33 20 33 29 36 21 21 32 24 33 21 38 29 20 31 35 26 23 27 27 23 31 19 25 29 23 24 28 27 38 33 38 31 19 32 21 32 36 24 33 38 34 19
24 20 19 24 24 21 30 26 32 32 20 36 18 20 34 30 22 30 31 38 28 21 36 20 25 18 23 34 33 32 22 22 36 25 25 18 32 38 24 20 30 38 24 19 35 36 26 35 26 30 29 22 35 29 34 25 29 27 30 27 32 30 33 30
31 32 27 29 22 36 29 28 30 37 36 28 23 27 38 30 18 20 27 20 25 23 31 32 33 36 38 26 19 21 18 32 27 22 32 33 20 38 18 19 26 28 27 21 30 24 18 20 18 27 28 38 25 31 34 21 38 19 38 18 33 34 24 30
27 37 22 24 18 37 23 27 24 36 24 22 30 22 18 28 30 18 20 23 30 30 22 31 24 22 23 27 28 20 29 25 20 31 20 22 28 35 37 28 25 29 35 22 22 32 22 28 19 35 29 30 19 28 34 34 34 34 33 27 29 21 38 35
22 26 29 28 34 35 36 37 35 27 19 30 27 18 26 29 37 29 36 26 38 29 36 36 21 26 32 32 31 35 26 33 24 19 33 34 36 27 22 19 28 19 35 35 33 34 23 22 35 26 18 28 36 38 25 21 30 37 37 25 36 35 23 19
36 21 28 20 38 27 33 34 26 28 37 31 27 22 35 33 28 22 28 19 29 26 33 32 27 29 29 25 26 31 19 32 20 20 30 28 24 18 20 26 33 25 28 26 19 31 38 30 25 19 18 24 18 23 35 33 27 18 21 26 26 35 31 37
25 25 28 37 27 26 34 24 31 37 20 24 25 18 32 26 28 34 37 34 19 19 34 34 24 32 31 31 35 23 21 25 33 23 19 20 37 31 19 24 30 38 32 33 32 36 24 36 36 29 32 34 22 28 28 31 33 18 35 26 22 31 24 23
29 20 30 31 34 25 34 37 30 18 37 37 24 27 26 38 34 20 18 26 31 27 23 25 32 23 19 24 26 26 31 20 37 18 36 23 31 20 36 23 32 30 18 27 31 23 36 38 25 38 18 35 27 33 21 23 23 20 25 33 32 34 30 20
33 23 20 26 29 26 18 21 36 35 25 33 27 31 24 31 33 23 19 26 24 31 37 38 25 28 18 25 33 25 37 24 35 34 20 30 20 32 23 19 35 38 21 23 31 27 23 38 32 18 30 27 24 38 35 24 31 34 31 36 34 27 29 26
23 34 37 19 36 28 27 35 24 27 24 34 27 33 21 28 29 34 19 22 21 34 20 30 30 24 28 20 19 29 38 21 20 38 26 20 29 18 23 26 21 33 25 23 20 29 21 20 30 23 28 20 27 24 33 35 37 21 31 33 33 23 38 34
33 29 37 38 38 29 28 36 28 22 23 23 24 22 19 24 19 18 26 24 37 22 22 22 20 28 38 20 31 27 38 36 27 28 38 34 31 19 25 18 38 37 25 26 33 36 33 18 30 37 28 23 25 29 19 38 30 37 37 36 38 34 27 23
27 19 25 27 36 22 23 35 25 27 19 34 35 20 21 18 26 31 21 30 25 26 21 37 37 21 31 27 22 30 24 20 30 23 22 20 31 24 28 20 35 19 30 35 19 18 32 28 36 24 33 25 37 18 22 30 26 34 18 30 20 35 38 23
33 19 31 20 32 35 36 18 20 21 22 35 23 21 21 33 30 21 18 24 27 20 21 22 33 35 28 38 26 31 29 26 28 28 22 19 35 36 37 30 28 30 36 19 19 20 38 37 28 26 25 21 18 18 33 38 30 37 24 28 33 28 24 20
18 25 19 20 30 30 32 23 38 31 32 36 18 30 33 32 31 27 25 37 32 18 19 19 35 27 37 23 33 32 25 22 38 18 30 20 32 26 27 20 27 30 37 23 20 32 28 22 36 31 24 33 29 21 34 24 19 22 32 35 25 35 32 19
38 32 20 30 36 22 36 37 18 37 20 20 22 27 35 33 28 18 35 34 25 22 33 20 31 25 23 30 36 29 30 18 37 24 38 24 29 19 36 21 36 38 36 22 32 32 21 28 38 32 18 21 34 25 23 19 29 36 21 20 36 21 21 37
30 38 22 18 31 18 18 30 27 25 18 24 34 29 34 24 21 37 37 26 25 30 27 21 34 21 29 29 36 26 26 18 33 30 20 34 18 22 33 35 38 35 41 38 32 28 27 20 22 32 23 20 20 31 32 29 29 25 25 30 29 21 25 19
26 30 38 30 34 33 20 19 26 31 19 34 28 19 24 23 30 33 34 45 43 31 43 35 32 38 25 25 24 38 33 23 20 23 26 35 23 24 22 25 37 29 43 40 33 34 40 39 28 40 23 27 19 22 34 27 18 33 29 20 19 37 19 20
34 22 26 26 22 32 37 29 38 29 35 26 30 38 30 39 44 43 41 44 38 49 42 30 46 28 27 34 28 29 37 31 110 25 30 21 30 43 27 43 36 44 48 46 30 34 29 36 28 35 32 22 25 31 30 22 28 26 34 33 32 27 25 26
28 22 23 24 25 24 38 24 24 37 27 26 33 37 30 45 41 38 38 53 39 36 41 45 49 37 32 34 43 38 28 36 23 114 33 23 24 38 37 50 51 33 35 41 51 44 38 43 34 30 45 40 34 28 37 37 25 21 32 22 31 34 19 35
36 31 29 22 20 23 34 34 31 35 38 25 27 31 48 43 52 54 41 54 41 38 56 48 38 46 35 36 41 26 37 122 26 115 22 40 43 30 34 51 41 40 41 43 46 54 48 35 44 46 30 30 29 23 38 30 35 32 21 26 38 23 30 38
23 36 34 38 36 34 36 21 35 36 30 30 32 50 47 52 38 49 50 55 48 51 54 51 55 42 37 41 37 36 116 22 38 111 24 46 32 36 38 41 58 46 51 45 41 55 50 46 47 39 44 46 40 40 29 37 19 30 25 25 23 32 37 33
35 18 24 18 21 25 27 26 18 26 35 45 43 46 48 56 41 44 61 59 50 52 56 47 56 59 38 38 50 45 129 112 24 33 124 47 49 38 47 52 62 51 55 59 46 53 47 58 49 56 55 45 38 27 32 20 26 28 37 27 31 34 32 21
24 38 29 34 27 24 37 34 32 34 44 36 32 54 57 48 43 49 67 61 52 56 57 61 50 46 44 40 43 121 37 39 131 120 38 48 48 39 49 58 48 63 55 57 63 62 64 54 52 49 51 47 33 49 33 29 37 35 19 31 23 34 29 37
35 30 27 21 38 28 23 20 22 40 34 37 54 43 61 50 61 51 66 59 57 71 54 57 55 47 51 54 51 39 129 204 36 36 127 48 48 42 46 59 49 57 64 56 54 69 51 55 51 62 44 48 47 51 38 40 28 36 37 20 35 20 26 34
29 23 20 37 19 28 26 25 22 34 30 48 41 52 50 56 60 72 65 75 57 72 63 54 56 57 51 54 39 42 137 135 122 37 37 121 52 51 65 66 56 69 63 75 74 69 73 70 54 55 51 49 54 47 46 45 26 28 21 36 30 21 37 19
38 18 18 35 26 27 22 31 31 43 36 45 56 45 45 68 69 75 72 67 73 68 72 68 63 64 64 51 47 50 137 207 34 136 134 46 43 62 53 66 72 73 72 64 62 73 59 75 71 61 48 57 39 36 50 42 34 35 27 35 28 27 26 20
29 20 31 37 25 33 35 32 29 29 37 35 44 54 50 70 67 77 75 71 84 82 78 79 57 65 52 47 45 38 131 47 249 39 40 140 43 63 69 63 67 61 71 78 83 74 64 69 57 52 49 52 55 44 33 33 28 26 28 30 27 35 31 31
32 34 23 31 32 19 23 36 32 42 40 45 59 53 47 64 69 73 72 72 87 84 66 73 68 59 55 55 63 41 130 126 207 52 142 42 61 62 51 66 59 74 68 88 73 71 71 59 73 55 56 43 49 37 35 35 28 39 24 38 31 22 19 24
29 24 31 32 33 33 18 33 32 47 49 53 43 61 54 51 60 62 71 82 88 85 87 74 63 57 56 55 59 59 125 134 130 224 52 52 43 59 51 66 68 69 78 86 86 80 83 69 62 55 59 44 42 47 52 37 35 39 31 31 27 28 19 31
33 27 29 18 35 36 27 36 28 30 37 45 39 54 58 58 63 74 72 74 79 79 79 70 64 59 51 61 52 53 125 124 218 138 46 41 51 66 58 56 67 69 66 88 71 84 81 77 69 63 51 62 49 51 32 37 26 38 31 31 32 34 30 21
42 31 24 32 36 29 40 34 37 37 45 50 51 49 61 59 75 72 66 87 81 70 77 79 82 62 76 72 51 47 148 144 216 145 52 63 49 62 58 77 85 85 83 87 84 75 78 71 74 67 70 58 61 45 44 44 32 39 44 45 36 41 42 30
43 38 33 44 30 35 34 40 51 44 61 50 49 60 72 74 65 80 82 84 80 93 80 81 85 81 80 65 68 59 143 142 151 143 147 73 67 69 75 72 82 89 86 96 83 89 82 82 74 85 70 69 57 58 50 47 56 49 42 43 54 49 46 46
41 45 36 43 50 43 52 55 39 47 51 65 68 63 72 83 85 83 77 79 80 87 93 82 92 71 79 78 62 156 75 66 238 76 148 156 68 77 73 95 88 100 86 93 99 92 96 80 88 82 76 75 75 63 77 66 71 61 63 62 69 66 52 63
53 42 48 54 47 43 51 50 61 67 71 62 75 71 81 78 73 94 81 99 91 88 84 80 84 76 84 85 76 168 75 166 63 161 80 172 173 91 80 85 92 86 94 102 104 91 108 96 95 98 90 76 83 73 70 82 64 73 65 73 74 67 66 76
36 44 45 39 45 54 38 41 40 45 46 58 55 65 73 69 72 80 74 83 74 92 87 78 89 87 83 82 75 61 142 141 138 70 70 229 68 76 74 89 93 77 83 78 91 93 80 76 91 82 87 77 70 74 60 59 67 55 71 59 55 58 57 70
30 41 47 33 49 50 44 36 44 46 56 44 58 51 68 70 66 59 69 80 67 80 61 64 77 72 65 60 58 134 53 133 41 127 60 47 234 65 58 61 70 79 75 69 77 83 68 68 68 67 76 53 64 54 48 54 59 60 48 60 43 48 61 55
41 43 28 24 43 38 43 36 36 45 44 31 38 42 53 53 55 48 56 63 60 54 49 64 51 57 56 56 143 45 39 50 113 31 134 221 54 41 54 56 50 53 59 65 69 60 68 64 64 48 61 47 58 39 35 39 46 40 44 45 40 47 37 39
24 28 38 35 36 22 20 30 20 27 32 37 37 27 47 39 43 37 36 46 40 45 53 40 35 38 42 127 45 26 25 38 37 209 211 41 29 38 35 48 47 47 56 58 49 57 53 47 43 38 39 43 28 41 24 36 20 24 32 24 32 28 36 23
26 23 32 34 30 29 33 32 31 32 18 39 33 44 44 47 30 37 48 34 34 37 51 34 41 40 121 34 39 35 20 31 117 115 204 38 25 36 37 41 36 44 37 41 39 44 51 50 42 35 26 31 27 25 19 27 32 18 25 23 35 32 33 36
25 24 38 35 38 33 34 21 33 37 25 25 23 33 37 43 26 46 34 33 30 38 48 42 33 33 31 126 21 28 18 18 123 207 122 26 20 30 25 36 34 31 31 45 39 31 37 33 29 29 32 33 19 36 21 20 24 21 31 20 35 23 25 22
27 26 29 19 18 18 36 20 27 25 20 37 28 27 21 38 29 33 43 42 45 35 29 43 24 25 26 113 27 35 31 30 192 115 34 110 18 38 23 36 30 36 43 46 39 29 34 25 34 26 26 36 32 32 31 25 27 27 30 32 29 25 22 25
24 20 24 31 23 31 30 19 23 26 25 18 21 21 29 19 35 33 31 36 40 26 24 32 36 30 28 19 115 30 24 18 112 114 111 18 112 21 28 37 31 34 21 32 39 36 31 35 35 33 32 30 33 33 33 20 24 21 21 19 19 25 23 19
29 35 37 22 30 33 33 36 29 18 23 34 24 37 25 22 38 37 33 31 22 27 29 32 21 38 37 23 122 19 26 22 116 103 111 35 18 116 36 25 26 26 34 21 31 25 23 34 25 37 30 18 35 28 27 33 23 25 30 23 26 19 38 33
25 27 38 22 31 35 26 33 35 26 34 34 36 20 36 23 38 31 28 31 25 35 37 28 32 34 18 122 20 25 25 121 35 114 30 113 29 28 119 23 30 24 21 24 33 20 38 26 22 28 38 24 22 37 31 29 23 19 32 34 38 20 33 25
33 28 28 25 28 34 18 27 27 38 24 35 19 18 37 30 26 26 24 30 35 22 19 23 35 26 119 36 38 38 35 119 117 36 27 23 109 118 33 37 23 29 33 19 32 19 31 27 20 28 24 29 32 25 28 33 22 28 26 26 20 32 38 36
31 25 38 36 26 36 22 30 37 35 29 31 26 24 18 21 26 21 34 26 28 28 34 31 22 115 32 24 20 31 22 110 110 28 28 119 118 37 31 31 19 30 33 30 24 22 36 27 30 28 33 18 24 20 30 32 23 27 23 23 21 29 25 30
22 36 29 31 24 28 28 31 37 18 21 37 35 26 34 25 25 23 29 22 36 34 36 20 24 119 33 29 29 36 118 23 116 33 26 123 105 31 21 31 18 26 18 18 30 27 26 20 36 19 34 38 32 24 32 26 35 26 36 22 33 29 33 32
32 36 32 20 29 28 28 21 19 21 18 32 31 19 18 32 33 27 28 19 30 37 32 33 36 123 31 26 31 114 19 111 21 28 23 34 103 111 25 32 20 38 35 25 19 29 21 35 36 34 36 29 28 35 38 36 33 29 24 31 25 28 29 18
23 26 26 28 30 28 21 27 38 26 21 31 26 31 24 27 33 18 28 25 34 21 19 28 31 23 105 19 22 19 122 24 113 32 27 36 31 119 113 38 25 27 34 21 32 18 33 26 36 25 36 31 36 32 24 29 26 35 27 20 23 24 28 31
34 20 23 32 34 38 27 24 26 27 32 27 31 20 23 34 37 23 27 36 24 18 20 33 27 123 21 22 30 25 114 38 38 121 30 34 38 23 104 27 36 18 26 27 18 19 35 33 35 38 31 28 21 35 19 23 23 25 19 38 25 34 35 36
36 32 21 24 18 34 32 35 28 38 26 29 34 37 21 28 29 37 37 32 33 21 23 32 106 35 32 30 33 31 35 112 33 38 105 32 29 38 107 32 35 19 25 28 19 21 18 33 31 18 30 25 34 33 21 26 37 20 29 36 21 37 32 28
36 30 19 29 28 24 20 37 27 27 21 32 30 20 18 22 37 20 33 37 38 30 19 105 33 37 30 37 20 30 26 33 34 28 118 26 33 118 20 32 31 34 33 26 21 22 31 20 30 36 37 27 19 24 32 28 25 30 36 33 29 36 18 21
27 28 36 25 36 31 20 35 32 35 28 24 35 27 38 19 27 18 30 35 34 22 108 26 38 33 28 27 19 25 27 18 28 34 26 108 33 30 121 19 36 38 32 28 36 30 35 35 27 32 35 18 26 37 27 19 19 30 24 30 26 34 34 29
29 25 38 20 27 22 24 27 18 36 23 34 31 25 20 29 34 31 20 19 31 110 19 23 24 32 31 33 31 24 21 28 30 28 24 31 36 37 112 24 38 19 37 26 20 30 37 34 27 22 31 25 33 34 24 33 22 18 32 38 27 26 33 28
31 36 34 19 24 36 35 25 31 24 32 35 23 28 18 28 34 24 22 37 24 35 103 31 31 35 29 19 38 28 25 19 26 20 27 18 27 33 123 37 29 23 23 33 38 22 18 19 19 20 33 26 38 31 28 37 26 24 37 34 32 18 29 34
27 30 27 37 24 18 33 25 36 30 31 19 34 25 25 30 31 38 18 31 32 18 37 104 29 26 19 27 30 24 36 35 31 25 22 30 28 24 28 24 33 38 31 32 18 33 38 26 35 25 22 19 18 37 18 23 35 22 29 19 31 22 27 34
25 19 34 27 35 32 31 32 38 20 22 22 23 30 18 34 25 18 21 30 36 20 114 33 23 25 34 26 21 18 35 23 36 26 35 27 28 25 36 19 24 23 32 26 21 28 35 22 30 38 26 25 26 18 29 29 24 27 30 21 36 38 26 31
30 37 20 38 19 18 37 25 32 31 18 29 34 23 37 22 37 19 31 20 35 20 22 32 18 27 34 37 32 24 29 38 31 24 27 35 27 35 28 35 22 32 38 31 22 33 19 30 28 33 19 22 36 36 28 27 33 32 24 25 35 34 35 26
32 29 21 37 20 23 28 28 31 36 25 26 21 20 32 21 27 23 26 32 19 28 38 30 25 32 22 37 30 23 21 21 22 23 29 23 32 23 35 27 29 21 34 37 27 38 20 34 25 20 35 33 38 27 25 19 21 33 23 21 35 22 33 36
35 31 36 36 38 29 29 31 27 33 35 32 38 36 22 29 28 36 33 32 21 20 28 35 35 30 24 35 21 27 23 30 36 21 21 22 35 36 36 20 37 21 21 31 32 24 30 22 19 34 24 35 34 35 21 23 27 25 35 32 37 38 19 23
