P2
64 64
255
28 38 27 18 24 26 38 28 36 38 27 27 31 30 28 34 29 18 25 30 22 28 36 31 35 19 37 22 18 31 29 24 25 35 26 34 24 28 21 29 29 29 25 28 25 30 30 32 22 28 34 27 28 33 20 32 21 26 36 31 29 23 23 19
27 37 28 35 35 22 25 34 29 25 38 20 32 36 30 36 22 35 37 30 26 21 19 34 32 26 20 29 33 27 31 31 23 31 18 31 18 23 19 22 23 35 33 21 19 26 21 25 18 20 37 33 28 38 37 34 23 32 32 28 21 23 22 37
31 18 18 20 30 28 29 21 29 33 21 24 19 23 30 33 27 23 26 36 36 21 31 24 24 36 22 25 20 37 25 26 18 23 33 25 27 28 30 23 36 37 32 34 26 35 34 27 36 29 23 18 37 20 19 31 31 23 32 35 26 21 32 38
23 25 27 33 35 36 18 23 35 34 20 33 37 34 25 34 28 32 36 26 28 25 32 19 36 24 32 18 37 26 33 18 26 28 35 24 23 19 20 32 25 38 20 28 21 30 25 19 31 18 29 34 21 22 18 21 22 21 26 22 32 22 27 33
29 32 34 24 33 32 21 22 37 28 28 31 27 36 38 20 32 29 24 38 18 31 28 29 37 20 20 21 32 21 29 31 19 21 31 28 24 37 36 30 23 25 24 19 37 35 18 22 26 27 36 19 29 32 26 23 32 27 29 28 32 26 29 27
29 21 18 32 26 31 26 31 33 19 25 23 37 31 36 22 35 34 24 21 33 36 34 30 30 18 22 23 35 22 36 19 38 36 37 22 21 20 37 36 19 21 28 34 26 30 29 37 38 22 38 18 28 27 29 20 31 27 38 33 21 30 23 29
37 28 34 21 32 35 32 33 35 32 23 28 30 35 31 30 27 19 35 28 25 34 37 28 29 26 38 24 35 32 33 19 21 21 21 21 25 24 37 23 18 20 25 27 36 33 33 27 32 33 34 33 35 33 19 28 18 25 19 33 24 36 35 22
24 33 18 26 25 21 34 37 30 26 33 32 21 27 34 33 20 20 38 36 24 27 31 24 24 24 33 32 35 32 18 21 24 19 24 22 29 22 22 25 37 37 28 25 26 26 36 37 19 36 29 23 24 35 28 29 37 24 22 22 37 25 35 33
32 35 25 38 37 30 38 31 22 29 28 26 36 32 30 26 27 25 22 31 37 18 35 26 22 34 35 24 28 31 30 31 26 31 35 19 33 27 25 19 31 26 27 31 33 19 31 19 35 26 35 25 31 37 24 25 32 26 29 29 18 27 34 22
32 21 26 33 37 33 18 32 34 27 33 35 28 28 20 32 31 25 20 28 37 31 31 37 21 22 24 24 36 22 32 34 33 22 25 31 22 32 19 38 35 30 29 22 38 23 30 38 38 22 34 36 35 34 27 24 24 26 35 18 24 33 25 28
28 31 37 35 23 24 18 37 19 26 20 36 31 30 36 19 22 37 36 25 28 34 29 18 36 31 22 21 26 36 38 34 33 27 30 34 30 21 37 26 27 26 35 20 29 29 36 18 26 32 21 27 21 30 18 34 24 29 31 37 21 19 24 31
32 29 31 30 27 31 26 27 22 18 29 36 34 24 36 36 24 24 35 18 37 18 26 37 27 26 31 29 38 38 37 30 33 23 30 32 21 26 26 18 18 23 20 20 27 18 19 23 23 26 25 26 20 29 28 28 29 19 34 24 32 29 34 28
38 20 22 31 34 28 38 20 26 25 36 35 32 30 18 20 21 35 32 36 21 28 19 30 30 24 18 21 26 37 19 38 18 33 24 32 26 34 35 26 20 20 20 37 18 27 23 33 34 25 33 38 28 36 32 23 22 34 31 30 32 28 18 22
28 36 21 36 18 37 18 23 32 32 25 38 31 30 27 33 28 37 20 31 32 25 34 36 33 38 23 34 19 34 27 18 33 25 31 27 23 31 25 27 23 35 22 21 36 18 30 26 28 29 25 24 21 31 30 35 34 21 37 30 30 26 24 22
32 23 35 20 29 33 22 22 27 33 30 29 31 19 21 22 30 34 20 35 31 23 29 21 21 24 24 29 31 34 27 31 37 29 32 28 38 19 25 24 22 31 38 24 18 19 30 25 38 24 36 27 19 31 21 20 24 30 22 24 24 18 18 31
29 20 37 18 37 31 28 32 29 21 33 34 32 27 33 33 19 24 21 24 26 22 37 36 18 26 37 34 30 25 20 18 34 35 38 30 21 27 22 20 23 20 33 21 20 28 19 22 31 20 26 23 24 26 35 33 27 30 29 29 32 35 32 38
30 32 32 32 32 22 22 38 19 35 18 24 35 24 29 28 37 33 37 31 21 35 22 25 38 29 22 34 27 27 38 33 23 31 23 36 38 38 37 33 38 21 30 34 21 26 20 19 32 21 18 28 27 26 37 19 35 25 35 25 33 35 24 22
27 30 36 36 28 36 33 34 36 29 22 29 22 21 32 25 32 26 37 35 18 28 19 26 29 38 32 18 24 23 38 34 27 20 37 34 35 18 33 27 25 26 34 29 31 25 36 20 20 30 34 34 33 23 25 32 35 35 37 38 32 28 19 25
30 37 18 26 23 21 32 35 25 31 34 38 38 23 22 20 26 18 32 24 38 32 38 27 26 38 32 35 35 24 31 27 28 21 29 31 36 35 38 18 18 34 22 22 29 24 30 35 35 37 31 25 23 33 25 30 27 29 24 30 38 25 37 34
28 29 37 38 22 35 25 30 26 29 18 21 26 37 30 32 20 40 29 22 37 26 39 22 39 31 28 31 37 34 36 27 37 33 28 28 18 36 27 28 32 29 30 22 35 30 26 40 35 34 37 36 33 24 29 28 28 36 28 36 28 19 22 35
27 18 22 24 34 30 28 32 36 21 30 35 31 37 23 31 35 39 38 26 32 33 45 25 24 23 26 30 35 31 19 33 20 20 31 37 36 34 41 26 38 44 45 27 26 33 30 29 40 24 25 35 19 29 26 31 25 23 19 27 34 18 19 25
25 33 18 38 20 27 31 32 27 30 29 22 35 29 32 25 26 33 34 36 40 31 40 37 41 45 42 43 32 29 39 38 36 40 39 22 25 42 42 37 31 45 29 31 34 34 41 44 33 44 34 22 25 37 34 38 33 21 23 33 27 28 33 25
34 23 36 25 30 25 35 31 18 22 36 21 23 39 46 44 41 39 39 51 38 46 39 41 42 36 40 43 30 42 41 39 29 46 33 29 34 29 42 48 42 51 42 52 48 37 50 36 36 34 45 39 38 39 33 27 32 25 30 27 20 21 25 28
18 30 33 25 36 25 21 33 24 33 28 38 38 27 38 40 38 36 41 48 38 45 38 38 47 51 50 47 54 47 37 38 33 48 51 37 58 40 40 56 44 42 44 38 38 54 54 43 43 45 29 44 43 28 38 29 22 30 33 31 35 31 28 33
31 19 22 20 18 25 24 30 36 33 28 43 42 48 49 42 45 39 51 57 45 44 54 55 57 55 66 55 61 60 57 48 44 55 48 66 63 62 51 54 52 45 44 55 59 41 41 54 53 37 45 32 33 33 37 19 19 25 29 23 31 19 36 38
27 38 31 24 25 25 23 27 37 40 30 44 46 40 43 44 48 55 52 62 61 45 55 58 69 66 63 68 74 72 66 69 61 58 54 65 60 72 76 62 67 69 64 53 58 48 56 53 57 54 51 34 45 31 42 21 29 37 38 21 38 26 22 32
38 21 25 22 18 25 33 24 29 33 36 42 37 47 54 49 63 61 52 52 55 58 75 75 74 83 73 76 76 83 80 78 76 60 73 65 84 72 82 79 68 77 57 59 50 51 50 53 53 52 45 42 49 45 35 24 28 18 30 23 18 25 23 34
27 29 26 30 36 25 26 32 35 36 37 39 53 46 61 52 56 53 65 68 57 66 80 74 70 77 91 77 72 80 87 86 86 79 87 88 85 84 85 88 71 77 80 75 71 66 65 68 50 49 55 39 50 34 43 32 40 27 35 27 19 31 23 33
23 32 33 37 35 22 31 29 34 43 46 42 39 40 51 50 58 69 61 61 79 75 77 88 88 97 95 90 97 87 90 80 90 87 89 83 98 85 99 78 97 91 92 73 64 62 61 59 69 63 50 39 45 51 46 28 27 34 33 22 34 27 18 36
26 32 24 31 18 35 26 34 28 35 43 41 44 46 52 51 51 67 58 81 90 83 93 82 91 104 90 95 100 103 92 92 88 89 102 94 96 88 92 92 103 85 95 83 87 68 67 64 67 68 51 41 42 35 41 32 23 32 31 20 32 29 27 38
25 29 26 25 26 31 32 25 25 33 47 42 58 58 57 57 53 70 80 70 79 99 98 101 104 111 100 105 98 108 102 113 108 106 108 95 95 95 103 104 103 90 99 88 84 85 81 63 73 51 51 42 43 48 35 36 32 27 26 22 35 24 33 20
27 29 21 21 21 38 32 28 41 41 45 55 45 45 47 55 66 69 72 83 92 103 107 108 99 107 103 105 119 101 101 113 112 108 110 117 112 118 114 111 109 97 111 92 96 95 71 62 70 54 61 46 41 50 36 28 35 23 31 35 33 27 36 30
24 36 23 28 20 34 21 33 42 29 38 50 52 52 54 53 71 67 68 80 99 93 100 99 102 104 102 104 103 113 109 120 114 124 118 114 123 103 104 103 117 103 115 111 97 80 79 72 63 56 61 52 52 37 48 36 38 38 38 26 20 38 37 31
31 18 34 20 32 18 27 35 34 37 36 54 54 51 67 56 61 60 87 81 88 97 106 104 119 116 113 113 111 118 112 130 131 129 116 110 117 122 113 114 119 112 111 95 90 87 68 62 66 64 47 43 40 40 33 34 28 27 26 34 36 21 23 32
28 31 20 32 31 24 35 32 37 29 46 40 50 61 66 60 69 61 81 94 87 106 105 103 104 122 124 118 119 117 120 119 134 122 120 111 118 108 116 122 104 113 100 94 101 78 87 74 64 56 48 48 52 38 50 29 36 26 32 22 27 26 20 28
34 29 33 36 32 37 24 21 22 33 31 44 45 44 47 60 70 62 75 75 93 96 111 96 103 102 121 117 122 113 123 138 132 123 128 128 115 107 105 116 115 100 92 96 89 78 66 58 62 50 65 54 51 43 41 33 25 26 26 33 21 20 38 29
18 26 32 30 18 25 28 23 25 32 39 46 39 55 46 60 55 58 63 77 92 102 92 111 98 100 112 122 129 123 115 130 138 120 123 121 114 116 113 100 107 103 99 99 80 76 80 68 66 58 49 55 53 51 44 31 30 37 29 28 27 29 38 36
25 23 24 35 32 26 38 25 30 39 46 38 44 52 42 64 63 63 63 81 88 92 96 100 114 97 110 108 109 127 127 124 130 131 115 119 118 104 120 109 106 103 91 95 76 74 66 67 61 45 42 51 51 34 44 32 30 35 29 18 35 30 19 23
36 37 22 22 28 35 23 21 18 41 34 36 43 41 39 51 62 64 71 75 70 82 84 98 88 94 105 115 106 104 124 107 122 107 122 109 108 117 112 102 99 86 83 83 83 65 62 57 59 50 41 44 52 33 30 41 36 22 18 23 31 36 28 23
26 30 32 35 28 38 25 18 30 28 29 26 45 32 39 46 40 53 52 66 81 71 90 85 94 99 93 96 114 109 107 105 113 100 99 111 100 101 96 90 101 93 85 87 73 68 49 60 46 38 53 42 34 31 23 20 33 29 23 19 18 31 18 26
21 30 26 30 36 18 24 28 25 34 31 41 34 47 47 44 44 49 55 58 57 83 70 91 91 92 96 104 105 109 100 98 88 92 106 108 94 97 90 81 79 84 74 80 57 64 48 42 51 46 45 33 30 26 34 27 29 35 38 34 32 29 29 35
22 37 29 31 30 23 37 18 28 33 36 32 32 37 30 36 53 40 47 65 65 71 66 85 71 78 81 95 85 101 95 97 82 94 101 87 82 94 81 74 91 76 82 68 60 59 39 42 51 45 33 45 38 22 34 33 22 37 22 38 31 30 25 33
20 24 26 37 23 26 34 31 28 28 38 30 26 30 46 31 44 41 40 48 50 56 67 79 76 86 73 73 86 84 84 94 91 91 88 73 84 72 72 77 81 69 61 56 50 45 43 50 48 44 41 39 23 20 28 33 21 22 18 32 20 29 35 20
23 33 20 29 23 28 31 32 30 38 38 23 35 29 23 25 45 37 47 51 42 51 63 65 56 60 68 82 83 68 68 80 69 87 71 69 64 77 81 78 71 55 66 43 56 52 39 40 44 27 39 34 21 33 29 33 32 21 31 28 29 28 34 25
37 18 26 34 37 31 36 33 31 32 34 37 25 22 27 23 22 33 38 36 45 49 50 58 55 67 65 65 65 67 73 62 76 72 72 63 57 54 65 62 49 48 55 40 38 37 39 44 32 32 37 26 28 20 32 31 19 32 37 19 38 21 31 25
25 27 35 34 20 30 27 36 20 21 25 19 30 29 18 23 22 29 22 23 35 36 48 41 39 56 49 65 61 59 64 61 73 68 70 62 60 68 50 58 42 42 34 35 31 34 39 26 29 27 23 27 30 36 20 38 25 22 22 36 22 26 32 30
36 29 28 26 37 24 21 29 29 36 38 23 33 26 37 18 27 36 35 31 26 38 33 44 40 52 50 45 54 62 55 59 68 67 61 52 56 49 41 49 53 37 26 21 29 34 36 22 28 30 28 37 18 21 31 35 26 20 38 31 27 31 26 29
38 25 30 34 31 34 27 36 27 23 34 19 30 31 38 30 30 31 25 25 21 18 26 24 42 32 40 45 59 53 46 58 53 58 59 46 44 43 49 51 36 35 24 38 33 23 21 29 35 30 38 27 22 33 25 33 24 34 35 21 27 27 36 27
24 18 23 20 31 33 37 29 22 35 23 35 27 38 27 25 35 20 26 21 33 18 18 35 22 40 49 38 37 51 46 43 46 57 36 54 51 38 36 36 34 28 36 34 21 33 27 37 29 33 19 38 21 32 18 27 20 31 37 28 18 20 29 32
30 30 29 24 27 20 31 20 32 21 25 36 30 26 27 24 19 26 36 31 37 35 29 24 29 37 37 41 36 49 36 48 42 35 35 45 44 32 32 27 34 34 23 31 25 23 20 37 27 37 18 23 18 24 36 36 20 32 18 25 19 29 22 23
29 18 33 22 33 28 33 32 25 37 26 35 18 21 37 33 20 33 18 30 24 21 27 35 25 24 26 32 38 39 41 31 37 35 42 34 34 39 19 18 37 33 23 22 21 23 38 28 31 27 25 27 38 25 19 32 28 20 37 22 27 26 38 24
31 36 33 29 30 33 28 25 38 31 25 21 36 18 37 31 24 29 22 22 29 30 18 25 36 32 23 18 34 29 30 28 23 29 18 29 32 24 31 21 21 26 31 23 30 36 37 18 32 29 31 24 36 21 29 24 35 19 30 18 31 20 38 27
38 29 29 38 21 20 30 26 33 29 22 29 29 21 38 28 21 26 24 19 22 37 33 20 35 18 32 37 38 30 25 33 20 31 31 31 19 26 21 21 27 18 28 32 26 24 29 30 27 30 36 23 19 32 22 31 19 33 26 38 28 20 36 29
38 35 33 32 22 18 30 28 23 28 25 21 36 28 35 29 32 37 24 31 24 34 36 23 29 38 27 24 33 21 19 19 25 36 28 38 34 30 34 31 28 29 38 26 22 20 28 24 21 36 30 34 37 31 18 18 29 19 30 33 31 36 33 21
31 29 18 31 29 23 34 20 33 32 25 19 27 22 23 27 34 22 27 20 32 37 34 31 27 27 35 27 27 19 35 38 30 32 27 19 32 26 27 28 35 25 18 19 24 19 38 26 31 30 24 30 23 34 35 24 34 31 25 29 28 19 26 36
27 18 37 38 22 34 29 36 19 20 34 38 37 23 36 26 20 25 24 34 29 32 20 23 27 21 30 27 28 31 33 23 32 37 38 30 36 27 34 35 35 29 32 20 25 37 32 25 20 31 21 20 33 23 38 18 33 32 28 31 31 26 35 35
23 33 20 23 30 28 24 34 22 33 36 24 29 29 35 19 18 29 34 19 30 27 35 25 24 32 36 22 18 35 27 28 18 22 26 18 31 33 25 35 20 32 27 28 23 34 23 30 26 32 32 32 22 25 29 18 25 24 33 31 19 19 31 30
37 36 21 25 33 24 34 38 20 31 38 35 21 31 23 21 24 34 27 33 22 26 18 38 22 35 32 27 30 24 27 31 24 29 32 27 30 29 22 27 25 25 20 32 36 25 37 36 34 38 32 27 33 22 33 28 30 31 18 31 28 25 33 21
35 30 28 27 29 34 33 19 27 26 20 30 20 36 19 37 32 32 38 36 25 34 34 21 19 23 37 31 19 23 18 21 32 36 27 38 24 20 23 23 23 24 35 28 26 38 26 34 38 28 33 25 21 24 32 22 18 23 19 22 32 23 18 27
26 28 28 18 38 27 32 24 25 30 23 38 38 27 34 28 36 29 25 36 27 33 23 34 36 18 30 18 32 33 32 29 19 34 25 27 38 29 36 28 38 37 21 38 24 30 35 22 32 32 32 37 34 35 21 35 33 28 36 20 26 23 38 29
26 27 38 20 19 25 37 27 32 19 24 23 32 22 26 31 28 19 36 18 27 30 30 23 31 36 38 30 33 37 23 21 37 34 28 26 34 18 25 20 31 32 23 37 25 25 37 30 32 33 28 30 25 18 38 36 26 22 36 27 32 28 23 19
23 33 38 25 18 28 22 27 28 35 22 37 30 27 33 32 31 35 20 32 33 18 31 35 20 28 35 38 18 36 32 29 22 20 35 25 18 28 18 25 34 34 34 19 21 33 24 21 28 31 38 31 21 24 38 25 26 29 29 36 25 18 29 21
19 20 38 22 38 18 35 18 27 32 32 31 24 36 29 31 35 18 25 23 28 35 20 23 34 37 36 34 25 21 22 32 34 29 31 23 35 24 37 32 24 34 25 19 22 38 32 30 23 20 31 26 18 22 20 35 36 34 38 30 18 31 20 20
30 38 36 38 26 35 38 23 35 23 35 21 21 35 38 25 23 20 25 20 26 31 22 22 38 22 23 37 29 31 35 28 30 34 28 34 37 27 38 37 32 30 28 21 29 31 24 25 37 30 22 36 23 21 30 32 33 34 25 33 27 30 19 32
