P2
64 64
255
38 31 32 28 19 25 18 30 36 26 38 20 23 29 27 31 36 38 24 31 30 32 28 31 19 32 20 26 27 21 19 21 18 24 27 37 23 38 21 30 37 19 35 23 28 31 25 26 32 36 18 22 36 21 18 32 30 37 34 23 30 29 29 36
21 27 33 36 18 18 37 23 32 33 18 26 33 19 23 34 38 32 35 34 34 28 26 20 33 34 22 37 20 18 22 28 32 38 28 38 24 20 35 19 22 35 32 36 22 23 33 27 36 35 30 27 18 24 22 33 30 21 33 34 18 28 38 32
37 23 38 22 26 35 29 26 27 34 35 19 34 27 25 20 21 21 27 37 33 18 25 28 21 29 38 34 26 38 27 21 22 24 21 33 35 38 19 30 22 28 18 26 25 26 25 38 19 37 29 29 32 18 30 25 27 29 18 26 22 19 37 20
26 21 21 31 33 29 28 22 19 25 33 20 29 22 38 30 29 18 34 34 31 26 33 26 37 33 30 18 21 22 32 22 19 20 22 29 33 25 28 28 28 35 18 31 21 27 26 36 21 22 20 19 25 21 18 27 23 37 33 33 35 27 26 29
31 32 29 31 33 30 37 20 37 30 28 33 22 27 26 18 37 33 19 31 30 37 23 21 20 25 35 19 23 35 30 30 35 38 37 22 22 19 19 32 27 36 31 31 35 25 30 33 33 22 22 21 27 35 21 26 27 26 30 18 31 30 27 38
19 25 23 18 35 21 23 33 26 23 27 25 35 35 34 20 19 30 31 27 21 25 23 18 18 37 27 38 28 29 29 35 19 33 35 34 30 30 21 20 35 21 26 18 38 35 19 29 20 32 36 32 25 25 28 18 31 21 20 29 38 24 21 36
27 18 38 19 37 36 20 36 31 21 30 36 37 23 34 34 25 31 32 24 33 21 18 36 18 24 35 20 19 18 24 19 26 28 31 25 32 38 22 22 26 38 27 19 18 38 36 28 25 19 34 33 23 34 23 32 23 18 34 36 25 24 19 19
34 24 23 26 36 22 32 37 30 33 22 28 26 34 37 20 23 24 21 28 29 34 31 30 37 28 38 19 34 34 37 18 35 31 34 20 18 19 30 21 28 22 21 26 19 36 31 34 36 20 37 31 30 32 23 26 33 30 21 38 26 20 20 34
21 35 20 22 28 32 38 31 38 31 20 19 36 34 19 37 18 38 25 28 33 31 18 35 24 21 33 18 27 25 34 34 29 30 19 38 36 33 21 27 35 19 36 32 38 19 29 31 19 27 22 34 31 24 33 32 18 37 29 33 37 35 28 38
24 25 31 22 32 29 36 21 19 27 19 22 26 37 38 30 19 30 26 32 20 21 29 18 28 34 35 37 22 19 22 27 27 37 21 33 19 38 30 30 22 25 36 26 22 32 21 36 18 26 20 33 23 24 19 22 20 20 23 28 19 26 24 19
24 27 36 33 20 20 18 38 23 21 38 21 35 32 36 18 29 25 31 28 29 18 26 30 23 30 28 32 24 26 24 18 30 22 19 18 24 18 30 37 23 26 31 22 20 18 18 29 21 38 22 38 32 37 28 21 33 36 35 38 19 22 23 31
31 32 25 20 26 22 33 22 27 21 35 27 37 36 26 25 36 26 37 36 36 18 29 36 18 36 22 24 32 20 18 31 19 27 31 28 19 38 33 21 27 27 30 22 29 31 38 35 33 30 22 21 20 25 25 34 36 27 37 32 20 30 30 36
26 36 23 26 35 32 34 19 24 28 23 26 26 23 38 29 22 21 32 36 32 30 32 31 38 34 34 31 32 30 33 30 27 31 26 19 36 28 32 38 20 23 20 19 37 25 28 20 26 33 37 28 18 24 20 37 38 38 29 30 35 34 36 36
29 34 36 22 32 23 24 34 26 31 18 32 20 21 21 35 23 36 22 31 22 31 32 34 27 37 26 37 33 18 21 34 19 22 28 25 19 21 22 20 22 28 29 20 19 21 36 24 27 21 32 27 35 30 29 30 19 26 22 25 21 32 30 26
24 26 32 37 29 28 30 36 25 25 26 25 26 26 22 36 38 32 26 34 25 37 24 34 25 30 33 18 38 30 36 18 24 25 33 25 34 32 21 23 29 26 36 29 35 23 18 37 22 37 30 36 38 32 22 34 30 24 25 19 36 26 18 24
24 20 36 32 36 32 20 20 34 31 22 21 31 24 18 32 26 23 26 28 29 25 22 38 22 28 33 22 36 28 27 29 33 28 36 29 23 18 37 30 26 37 38 33 32 22 33 28 24 32 30 34 31 24 29 36 30 29 28 19 25 33 33 33
30 27 32 33 19 35 32 29 38 26 21 32 25 29 32 19 20 34 21 35 33 29 19 30 34 25 37 29 25 38 32 23 27 26 24 33 37 37 22 28 33 34 22 30 28 36 24 20 35 28 18 28 23 20 25 30 33 32 30 26 33 34 37 22
19 38 35 26 22 30 35 20 23 29 24 37 31 23 30 29 36 26 28 32 33 25 26 21 25 35 30 23 20 38 27 32 30 32 32 26 36 21 20 18 35 35 36 29 22 37 28 25 18 25 23 32 38 26 25 26 27 32 30 35 36 24 26 38
22 24 22 36 24 18 37 29 26 26 34 36 27 32 32 23 37 38 23 35 23 20 28 37 22 34 30 27 28 33 20 31 35 21 18 24 37 36 26 32 21 31 25 29 35 26 36 35 21 22 24 25 24 31 38 28 25 20 35 25 38 26 32 35
36 21 37 21 19 34 28 30 24 31 18 19 23 24 19 32 31 35 39 33 36 42 36 21 37 28 33 27 30 20 21 38 32 29 34 32 36 36 18 24 21 26 29 31 24 41 30 35 36 32 37 31 34 37 23 28 33 29 18 27 31 26 27 32
26 37 26 19 31 30 22 37 22 21 18 30 26 24 22 32 30 32 29 45 35 28 40 26 44 35 23 36 24 19 34 18 27 29 25 30 22 33 41 27 25 40 44 42 31 45 36 31 27 37 29 35 33 30 26 25 19 29 33 20 32 30 27 35
20 25 35 24 37 28 37 24 22 33 24 36 37 21 25 28 35 35 38 35 37 35 43 42 32 33 42 29 38 20 28 36 34 24 25 35 36 38 42 35 43 43 33 49 40 34 43 33 39 26 30 36 33 36 34 35 18 35 35 20 36 37 35 18
23 38 36 28 20 34 25 32 27 20 30 19 32 39 28 44 34 43 42 48 33 39 48 52 39 45 39 40 29 38 46 32 38 45 36 48 39 41 38 35 46 32 40 39 39 50 46 47 44 32 44 38 41 29 18 19 19 36 21 23 36 30 30 33
37 33 22 27 33 33 28 21 36 26 29 33 44 47 31 35 53 37 56 42 43 46 43 38 43 51 45 51 41 53 42 38 46 41 41 42 55 54 42 42 47 56 53 53 55 37 53 47 40 47 31 41 38 39 20 28 37 26 32 27 38 38 34 21
23 22 21 26 36 23 23 28 27 29 41 37 30 32 48 41 54 56 52 50 56 59 57 51 63 62 55 63 59 56 60 46 52 55 63 66 61 56 65 58 63 59 57 42 44 46 59 52 38 46 49 44 27 31 33 25 22 37 18 36 33 36 34 28
21 26 31 29 22 20 37 28 38 26 36 37 50 33 39 56 53 43 61 62 62 65 51 54 59 69 57 63 62 69 59 61 57 69 65 66 56 63 64 58 54 60 68 50 65 51 58 45 41 53 51 45 40 45 37 24 21 32 27 18 22 32 26 38
20 18 35 24 25 20 31 22 31 41 45 48 48 51 56 61 48 51 47 66 52 68 73 75 73 75 81 72 80 76 81 63 80 61 73 74 78 65 84 66 67 69 76 56 67 68 53 60 63 50 43 36 43 29 35 23 18 25 22 33 37 28 18 23
34 32 20 38 21 19 26 20 30 31 39 50 38 38 52 62 62 61 62 55 67 65 71 67 78 85 82 88 76 72 72 71 84 84 83 90 72 80 73 71 90 75 71 72 58 63 64 54 56 62 61 55 49 49 38 30 35 19 36 21 24 24 26 31
27 25 20 30 27 18 23 20 29 25 31 46 42 58 60 48 62 57 64 60 71 83 91 80 93 95 87 87 98 85 92 81 80 84 80 87 87 84 85 92 87 82 92 73 79 70 57 64 56 57 60 42 38 45 29 43 35 27 34 19 30 34 30 20
36 25 25 21 26 25 34 29 23 38 37 53 42 60 54 56 56 66 73 80 76 88 84 93 92 97 102 104 88 104 102 97 104 89 87 91 92 102 89 87 97 100 99 95 83 77 70 69 52 62 48 61 51 47 41 44 34 36 33 22 20 31 36 27
24 23 38 33 38 30 24 19 37 31 46 52 44 49 65 68 61 72 77 72 76 93 92 89 99 94 103 98 93 93 99 113 107 112 104 100 111 108 102 108 108 107 106 99 86 80 73 74 59 54 51 49 53 54 35 27 34 34 21 24 18 36 29 18
27 25 18 38 33 28 36 22 31 38 51 45 39 51 47 66 59 66 79 80 100 92 99 111 99 106 116 101 118 104 116 100 119 103 111 104 107 107 108 99 106 105 105 88 100 85 70 78 62 64 66 61 42 46 49 34 30 30 30 26 37 23 34 30
21 33 22 19 31 33 26 22 30 42 44 50 52 44 61 65 69 76 85 95 98 106 110 106 100 117 102 114 115 123 110 125 117 127 119 108 107 123 119 101 101 105 110 105 96 87 72 69 65 63 52 49 42 36 33 48 29 33 18 36 38 20 31 29
23 31 21 26 26 26 36 20 37 37 40 48 58 58 55 59 57 76 88 97 101 97 98 116 118 115 109 112 110 127 124 127 131 124 127 119 107 108 121 116 106 109 106 100 91 93 71 76 64 53 52 50 47 37 33 32 41 23 23 20 32 35 26 21
29 35 18 30 33 35 28 25 25 47 34 35 44 43 63 68 71 68 74 85 84 92 106 109 111 122 125 114 126 123 114 127 121 128 114 128 113 119 110 114 117 107 112 107 100 95 78 73 70 67 55 57 52 40 33 27 31 20 28 34 21 21 26 28
31 22 29 26 29 26 37 20 33 38 35 37 55 50 53 48 57 72 75 85 91 95 103 113 116 109 116 108 120 128 127 128 123 132 134 130 110 127 106 115 102 97 106 90 92 83 70 59 59 48 46 41 50 39 34 42 42 37 24 28 30 18 24 33
29 25 18 26 29 27 22 32 23 31 47 44 56 45 47 50 64 72 78 90 85 90 106 105 97 101 112 119 129 124 114 130 139 131 124 120 119 120 115 112 112 103 101 98 93 76 81 61 55 50 62 44 40 47 43 31 32 38 31 38 37 34 26 31
27 24 26 19 33 31 32 23 32 32 40 37 42 39 53 56 54 61 72 70 74 99 94 105 111 97 103 123 109 122 111 122 128 122 121 125 116 113 119 110 109 93 100 97 78 69 66 58 57 48 43 48 43 46 45 32 36 26 34 20 25 36 21 30
27 27 31 22 24 27 23 35 36 24 25 42 33 53 57 54 48 49 59 68 84 89 81 102 91 109 103 114 116 104 107 124 107 110 113 123 114 118 107 107 97 102 99 84 77 64 70 61 57 41 43 54 34 49 33 41 30 27 36 29 32 36 34 18
26 38 24 27 21 19 33 29 21 30 30 33 31 50 45 56 42 50 68 60 75 76 83 85 93 94 92 104 100 110 107 117 99 109 110 108 111 109 101 107 86 93 85 83 82 74 65 47 55 48 52 32 39 32 42 39 33 24 28 32 23 22 22 20
19 30 26 20 27 24 34 36 21 25 25 41 32 32 43 46 41 51 62 56 75 69 88 85 96 101 84 100 95 96 104 93 102 99 104 108 109 90 95 94 92 81 76 79 63 66 53 47 54 38 36 39 27 44 39 29 18 21 27 34 37 34 31 24
24 29 34 23 32 29 38 27 18 22 27 36 42 40 42 36 35 36 42 60 55 56 64 86 76 78 89 90 88 100 93 84 84 81 87 87 95 90 83 77 79 86 73 59 53 47 38 40 53 33 45 27 24 23 39 25 35 37 34 25 30 33 36 33
37 28 36 23 24 35 18 19 36 24 19 22 37 40 36 47 33 41 40 55 59 70 69 71 65 76 80 73 84 83 74 89 93 88 88 74 76 77 81 73 69 66 69 52 47 59 50 35 32 38 29 33 24 31 35 36 37 23 34 30 36 37 28 34
38 19 21 21 36 36 30 21 28 25 32 19 22 22 35 38 27 39 32 48 50 60 53 62 60 79 77 73 64 65 72 78 75 74 81 65 69 66 76 67 60 59 62 50 57 35 42 34 29 32 43 30 27 31 38 38 28 25 23 24 28 25 27 28
28 23 23 33 23 34 21 24 30 27 22 28 27 19 28 40 34 41 25 42 40 47 56 58 59 64 60 73 66 79 73 74 62 65 62 66 68 56 54 50 60 61 57 40 49 31 34 32 23 29 28 29 38 35 24 23 21 21 38 34 33 27 35 34
34 36 28 26 25 27 35 31 29 34 28 20 33 29 30 34 31 28 31 32 42 42 41 56 46 47 46 67 70 67 57 58 67 57 71 55 58 62 49 44 54 46 32 48 42 24 31 40 39 33 18 29 37 36 21 33 34 31 32 27 25 23 30 25
19 30 30 19 23 34 18 19 24 36 25 27 36 29 20 19 32 34 30 31 25 25 36 34 34 49 42 46 62 48 65 62 53 66 54 66 52 48 53 38 40 29 28 36 27 22 28 34 30 32 23 25 24 27 18 18 18 32 22 38 24 35 29 31
34 21 20 23 28 23 37 33 28 30 37 32 26 18 34 29 35 28 20 24 20 30 37 26 34 48 46 44 41 61 60 49 47 48 48 52 48 48 41 35 28 25 38 38 36 30 30 34 37 36 31 37 24 38 29 28 36 21 19 35 23 36 38 31
24 23 25 24 21 38 35 28 28 34 20 27 20 24 20 20 18 31 30 19 21 37 25 38 38 38 45 46 37 53 37 38 56 47 55 39 52 46 32 27 30 35 25 20 32 32 35 18 21 21 30 35 33 21 23 37 20 18 30 24 26 32 35 21
33 38 29 33 33 21 21 36 37 37 29 20 22 32 38 22 30 37 20 18 36 29 19 36 29 23 40 33 38 39 50 51 35 49 44 31 38 36 30 21 29 26 24 36 30 24 28 38 37 34 29 30 20 18 34 32 22 23 25 38 21 24 25 28
18 36 33 28 19 34 31 29 36 30 32 18 38 19 33 38 37 26 20 29 35 36 26 26 34 31 38 29 31 30 31 43 41 39 42 26 38 37 25 30 24 30 28 37 24 21 28 18 29 32 22 24 29 27 23 19 21 36 29 26 35 33 22 37
38 22 28 22 36 25 19 26 27 36 20 34 36 38 30 38 30 32 21 34 31 37 18 24 21 20 34 36 19 32 31 32 21 30 31 18 23 31 19 35 38 23 21 26 29 36 37 28 23 37 31 28 33 22 36 19 21 30 28 18 21 36 29 18
23 25 27 26 31 32 32 36 21 26 35 23 26 21 27 25 23 26 37 21 36 32 25 18 31 38 26 38 26 38 38 20 21 32 18 35 27 18 29 32 21 31 19 22 19 36 32 18 33 24 29 38 35 20 38 33 29 29 22 18 32 26 28 35
25 26 21 23 38 22 21 36 35 27 37 25 31 21 26 20 22 38 32 33 23 22 31 20 33 36 27 31 37 25 22 38 38 37 37 33 37 33 22 21 18 19 29 36 23 27 33 28 22 19 19 24 24 25 18 23 30 23 26 28 26 24 23 27
32 30 34 24 27 36 37 24 24 34 38 20 20 32 24 29 36 18 24 21 38 29 36 30 20 31 33 25 30 38 21 24 35 35 21 35 27 21 21 28 18 30 20 28 28 32 30 20 30 30 35 38 36 18 38 37 22 32 34 20 29 35 37 18
28 23 34 38 21 27 25 19 22 37 26 32 26 18 20 31 24 18 19 22 31 37 26 20 23 37 28 38 35 20 35 19 33 23 18 24 20 31 27 38 28 18 30 25 22 33 28 26 36 38 23 18 32 19 22 19 30 29 33 33 28 19 32 24
18 20 24 27 21 32 19 27 24 21 28 20 27 19 20 28 18 33 25 25 25 18 23 27 31 25 34 31 24 37 18 28 22 34 33 31 24 20 20 18 38 38 25 36 21 20 23 31 34 26 21 37 31 38 25 34 31 19 28 26 24 23 31 29
36 21 20 35 37 25 27 33 19 32 24 22 35 36 34 33 25 29 33 20 18 33 23 22 20 22 18 30 18 28 22 36 25 19 33 26 20 33 20 26 18 20 31 33 19 36 26 21 34 27 37 30 35 26 28 34 29 37 21 30 19 20 28 23
34 35 29 31 21 25 20 37 19 19 30 36 30 22 34 30 26 31 35 23 31 35 33 34 33 29 25 21 19 19 31 30 27 29 33 27 21 36 26 30 35 22 37 34 36 30 26 35 37 24 29 35 29 33 19 35 29 19 27 24 23 18 30 32
26 32 21 19 20 38 24 25 32 29 22 29 20 23 34 37 33 33 37 25 36 22 18 36 37 23 19 21 37 25 22 28 35 31 34 32 18 30 35 34 21 22 21 21 34 29 19 22 36 20 21 30 21 32 28 21 31 23 24 18 26 35 37 37
20 35 37 18 32 24 38 25 27 36 29 25 25 19 20 30 24 38 29 18 30 21 33 19 30 31 24 36 37 36 23 28 25 18 28 20 22 31 34 30 18 20 37 31 18 26 30 24 23 21 23 25 26 20 30 38 26 22 24 33 25 29 25 25
25 26 34 19 19 20 31 38 24 34 24 38 20 38 26 34 24 35 38 32 36 20 21 27 19 35 26 30 29 35 36 27 29 32 18 29 38 23 19 20 27 20 25 25 31 36 21 25 19 18 22 25 37 38 27 18 21 24 34 25 22 29 34 34
23 38 32 26 18 27 31 33 36 18 35 23 31 21 25 38 32 29 20 31 38 31 26 32 35 38 18 20 30 32 30 35 33 31 24 29 29 30 35 29 21 22 32 36 21 34 20 32 28 20 34 29 21 23 32 26 27 35 28 31 29 28 28 36
20 36 35 21 29 23 35 22 35 38 18 28 24 23 32 20 24 35 29 23 30 35 37 25 23 19 38 32 30 30 23 38 30 21 26 29 30 27 26 34 37 38 22 25 22 22 30 22 34 31 33 31 24 35 38 32 30 21 19 30 24 21 32 30
