P2
64 64
255
18 19 36 31 30 37 29 19 35 20 24 35 38 26 26 27 19 21 32 37 25 35 19 24 24 28 23 35 33 27 23 34 34 31 34 28 30 20 26 30 32 27 31 26 23 21 22 30 31 36 21 38 31 19 25 35 27 20 26 38 37 37 34 20
32 27 23 36 27 24 34 34 32 24 36 29 32 21 31 20 38 35 36 25 18 32 31 35 23 22 27 19 26 30 19 24 36 35 38 28 22 32 32 29 20 38 22 21 34 24 23 18 21 25 30 25 22 32 31 31 23 34 36 38 21 34 38 37
23 23 18 26 18 22 38 36 22 21 37 19 31 35 37 33 27 18 38 33 34 29 36 25 32 27 31 30 20 34 27 38 18 31 25 33 35 29 29 38 21 30 38 29 23 28 31 27 20 23 28 33 29 23 18 27 19 26 18 36 38 26 24 33
26 23 27 33 27 30 19 36 22 36 37 27 36 35 22 20 20 35 27 27 31 18 36 30 37 20 22 25 22 18 24 28 33 31 19 36 18 30 22 23 35 35 20 33 32 32 26 25 32 25 26 21 34 36 34 38 36 34 28 29 30 28 28 23
38 24 19 22 24 20 38 28 34 36 18 21 19 33 23 24 27 19 33 25 27 21 35 24 26 24 25 27 33 22 31 21 25 22 30 34 28 22 29 23 31 32 33 27 18 23 36 30 36 37 21 36 23 29 21 22 38 37 21 33 34 33 22 34
27 25 30 27 21 26 24 32 18 26 36 38 34 19 27 21 31 18 28 26 22 26 35 27 30 32 28 24 24 23 38 31 27 33 22 37 31 21 34 28 32 18 32 20 36 29 27 18 21 22 33 20 23 25 32 29 29 22 38 34 24 30 37 36
20 18 31 22 37 22 32 32 24 36 26 25 38 23 27 27 33 29 29 18 23 24 36 37 29 37 22 27 33 34 30 34 18 22 34 28 24 28 35 36 37 21 28 35 22 38 27 26 29 28 30 38 36 28 34 27 21 18 38 31 32 23 21 36
18 28 23 19 22 36 31 18 29 28 37 36 33 29 27 28 21 30 35 30 32 38 25 18 30 20 38 36 19 21 30 34 25 27 28 38 31 23 31 35 27 29 26 28 18 26 27 34 32 24 32 18 36 22 30 38 18 23 34 18 23 35 36 27
29 31 29 19 22 31 36 33 18 27 30 28 26 20 36 27 25 29 23 20 29 24 24 24 18 24 38 36 31 28 35 35 19 22 20 22 36 23 23 22 33 19 32 33 22 18 19 25 23 18 33 19 20 35 31 33 21 34 22 29 34 34 33 30
23 36 29 19 26 26 18 25 23 24 35 38 18 19 26 35 38 36 19 22 32 26 28 31 32 37 36 20 29 21 19 37 20 35 25 35 32 25 20 37 22 22 38 24 32 26 22 25 22 21 25 28 20 27 18 25 36 38 29 32 37 36 35 35
28 21 36 27 36 32 32 33 36 35 31 31 32 35 37 23 26 27 26 30 30 21 31 26 18 26 27 26 34 36 25 31 30 38 30 29 23 27 25 22 22 30 18 25 22 20 32 20 19 34 35 36 31 32 19 35 34 27 18 19 24 31 30 27
37 27 19 32 37 28 33 29 35 34 33 19 37 21 32 18 20 27 28 29 31 31 21 28 19 20 25 36 27 19 35 32 18 34 35 23 35 21 35 25 36 28 32 27 27 30 27 37 34 26 32 37 29 24 26 38 33 32 36 27 18 22 25 25
24 22 32 37 22 19 26 22 18 23 35 35 30 33 23 35 35 35 30 24 24 28 22 36 24 23 19 23 19 31 21 32 36 30 24 20 29 31 22 30 27 24 20 35 24 35 36 20 36 26 22 37 19 33 24 38 27 35 19 34 21 36 22 29
19 20 35 24 23 20 22 24 18 23 20 23 25 31 27 28 32 30 32 35 21 22 29 36 25 25 29 37 26 25 25 24 18 35 27 37 24 30 22 37 35 18 20 29 35 25 34 22 28 22 18 31 23 32 36 38 38 35 34 21 28 18 18 24
24 20 29 37 31 32 36 20 23 31 35 28 27 37 37 38 28 31 24 33 38 29 21 24 18 36 28 36 19 29 36 24 36 21 35 32 32 33 22 29 24 28 35 22 20 34 31 32 35 38 38 37 19 23 29 36 26 33 34 26 20 33 28 19
31 18 21 27 27 37 22 29 25 35 34 26 36 26 23 25 28 31 24 34 37 19 18 22 36 35 31 27 28 26 36 25 25 21 22 36 37 28 26 19 25 29 26 23 21 37 26 26 27 21 25 29 31 35 29 28 33 20 24 32 31 23 31 29
19 31 38 36 33 21 32 21 29 29 36 27 21 36 19 28 36 20 32 18 30 23 38 31 31 32 26 28 27 41 40 36 30 19 30 34 27 25 30 23 26 29 28 31 27 27 37 34 30 38 38 35 30 19 24 30 30 21 23 28 35 32 20 24
32 21 35 33 26 37 38 24 37 33 38 32 24 34 32 20 18 30 31 34 38 28 32 34 23 43 35 43 48 39 49 52 40 47 28 33 33 26 31 25 25 36 22 27 28 21 30 22 33 18 23 35 24 36 25 34 25 26 25 29 21 23 35 26
28 36 32 20 31 38 26 21 22 36 37 18 30 28 19 24 37 36 19 35 30 29 37 35 33 53 53 53 53 50 64 54 52 54 32 33 39 23 35 21 25 18 28 26 28 26 38 19 32 19 25 30 24 35 23 27 25 20 32 34 29 38 24 24
28 38 21 27 20 23 28 25 21 28 34 38 25 23 29 21 24 26 26 31 27 24 43 45 50 67 71 69 72 78 72 67 52 50 40 40 28 22 26 35 21 36 26 32 23 34 25 25 34 31 22 24 27 35 37 36 38 35 24 32 24 36 36 27
35 28 30 30 31 32 31 20 23 28 20 20 20 23 25 32 35 35 32 44 36 39 45 75 72 81 92 103 95 97 102 75 69 68 52 46 40 44 40 31 32 36 27 35 41 37 31 26 22 31 20 29 22 37 30 26 22 22 25 27 29 37 37 38
23 37 25 18 18 30 20 32 27 31 23 33 28 23 34 36 31 38 44 34 45 52 76 94 98 117 117 139 127 130 113 112 82 68 66 63 39 34 39 29 46 30 42 31 49 48 36 46 26 37 23 31 19 19 26 29 37 35 24 33 23 25 33 22
28 26 21 26 25 19 21 20 27 29 18 23 26 25 28 39 48 50 51 34 56 55 91 96 120 138 147 154 162 148 145 121 95 75 77 59 61 53 33 48 35 40 34 43 50 39 42 47 48 46 41 39 26 35 26 18 19 25 28 30 24 23 35 20
21 29 34 26 33 32 20 35 31 32 22 39 30 32 43 32 48 38 42 44 62 63 103 126 140 152 179 180 179 162 164 128 121 90 79 69 66 61 47 57 42 49 50 53 45 44 39 35 40 42 45 44 31 32 34 29 22 18 35 21 22 20 35 21
35 33 25 33 33 27 28 37 20 37 38 27 28 40 40 41 53 42 45 61 70 92 112 128 156 165 192 200 200 192 178 152 130 106 100 91 88 70 71 58 50 54 61 48 46 41 41 56 52 49 49 36 44 28 21 29 32 22 26 36 22 33 25 30
31 33 37 24 32 21 22 19 29 20 37 45 46 45 45 46 59 60 48 55 56 78 105 143 160 180 210 222 215 217 186 158 136 125 90 87 94 84 76 60 75 59 77 60 53 53 46 44 50 49 55 52 31 43 34 28 18 23 28 33 24 19 31 35
29 21 22 27 25 18 27 25 29 37 27 38 34 41 57 50 56 53 65 55 74 95 114 129 153 170 198 211 213 207 173 164 149 121 112 99 105 94 81 80 79 84 69 82 79 69 50 60 61 59 40 42 45 32 38 25 25 27 26 34 29 33 36 25
34 32 21 34 23 22 37 25 40 30 28 51 54 41 54 64 51 59 51 70 71 91 115 123 157 168 180 198 191 178 176 152 138 119 115 109 102 104 90 95 99 98 90 77 78 76 65 62 62 57 58 45 43 34 38 41 28 24 24 19 27 28 31 35
22 27 21 27 28 21 18 25 25 45 37 43 52 40 60 66 64 56 66 74 71 95 103 130 133 147 174 178 167 174 159 148 143 130 113 107 111 110 101 96 103 89 94 83 93 87 62 70 67 53 49 54 43 47 39 34 31 23 32 25 28 34 26 37
38 33 36 33 32 32 35 32 40 27 43 50 47 57 58 59 69 57 71 76 76 72 91 111 136 150 155 145 157 138 145 139 122 113 114 113 114 99 108 98 113 106 97 105 86 82 82 76 57 64 52 49 52 41 49 42 22 24 28 23 21 22 34 36
36 18 20 31 22 20 34 24 43 43 51 54 54 59 48 69 70 65 66 73 65 83 95 95 117 111 127 135 130 133 124 124 109 112 103 113 111 119 105 108 109 103 102 112 90 99 90 80 53 58 51 45 49 44 48 35 35 38 29 30 36 20 34 22
37 24 29 31 31 25 20 26 44 32 36 51 40 50 51 70 62 77 69 73 69 88 89 83 99 102 99 97 108 106 105 109 109 113 108 104 117 111 112 131 116 120 123 103 96 105 91 69 58 64 65 62 52 53 48 30 36 30 18 22 35 23 21 37
35 38 18 21 21 33 36 26 44 37 39 52 57 49 58 64 61 68 80 73 85 88 75 89 81 85 93 89 85 86 94 101 95 99 104 109 98 126 133 116 128 118 126 115 102 88 94 85 55 71 53 60 51 41 36 29 26 34 24 28 32 24 23 33
36 32 34 29 18 31 32 40 29 47 36 54 48 61 65 56 73 67 73 80 78 70 85 62 64 68 72 67 69 66 84 83 85 95 82 99 113 118 129 131 129 114 108 109 106 90 80 82 72 70 64 57 52 45 31 43 29 27 35 26 38 38 18 35
19 24 28 18 27 20 28 27 23 33 36 39 51 42 56 67 69 69 72 68 73 68 67 65 76 58 75 71 55 71 69 62 80 75 78 85 100 114 122 120 119 116 108 101 107 82 76 68 68 60 65 47 42 38 37 37 34 27 24 35 26 18 21 30
28 19 20 32 35 28 26 27 22 29 38 49 50 44 49 60 69 63 60 62 79 81 66 70 67 65 65 53 44 56 47 69 65 74 67 83 83 98 103 108 110 95 104 106 92 85 79 63 58 49 65 58 50 47 30 33 38 38 20 34 36 37 37 25
26 38 38 28 18 29 22 25 41 25 45 37 47 39 46 61 66 58 74 75 77 68 62 56 68 59 59 46 42 37 57 46 67 66 62 85 78 84 87 93 93 106 89 81 75 73 68 68 68 61 52 40 43 40 46 35 24 24 24 31 23 21 38 36
31 35 30 38 29 35 38 21 25 36 42 43 46 50 57 47 65 54 68 63 55 61 72 60 55 46 54 45 51 37 51 38 51 58 66 78 82 86 85 79 92 91 77 85 67 75 58 67 54 59 61 39 43 38 34 24 28 20 26 28 20 33 32 18
28 38 37 33 36 27 20 26 36 34 33 39 52 50 38 59 49 45 47 67 69 62 68 55 49 61 42 57 38 47 48 41 44 51 55 66 78 77 86 70 86 78 66 77 70 68 63 64 43 50 42 49 42 44 35 36 33 23 34 25 29 36 24 30
24 22 35 29 30 29 33 33 23 29 40 46 48 51 47 55 58 61 53 59 50 60 50 48 47 53 49 50 37 39 30 40 36 42 51 64 59 65 74 70 64 63 60 72 51 47 51 50 56 41 47 43 33 46 25 25 22 24 34 38 35 38 21 35
29 21 36 34 26 20 32 34 23 31 36 25 45 50 43 48 54 46 51 55 45 58 59 48 54 57 35 50 45 33 30 26 27 27 36 56 49 51 52 69 63 67 68 56 42 60 53 41 46 35 43 44 46 38 21 28 29 23 28 21 28 32 37 35
32 26 38 25 36 18 35 28 29 20 31 37 33 35 43 46 39 46 39 39 45 47 57 36 36 49 49 43 45 32 41 29 28 21 42 33 49 55 37 44 59 55 50 45 46 42 50 54 46 48 38 27 28 35 33 30 30 23 26 33 18 23 34 26
22 30 22 30 34 18 20 26 33 28 31 25 22 44 38 28 48 48 46 38 38 47 43 32 37 43 40 28 44 33 29 18 26 38 37 25 37 26 46 35 48 39 35 48 37 50 41 47 32 38 35 32 26 19 38 24 38 25 31 25 19 18 30 25
20 26 23 37 36 37 34 35 30 22 37 28 38 21 40 28 39 31 35 34 41 49 32 43 39 41 44 24 31 21 25 35 25 34 24 24 36 32 24 46 34 38 37 37 33 35 45 33 30 36 38 39 38 22 23 38 28 33 21 27 35 24 24 30
38 20 19 36 23 25 19 34 35 33 19 25 36 22 30 39 41 43 39 27 28 39 45 30 35 34 21 25 23 31 36 34 34 37 34 23 37 26 39 41 29 34 41 32 30 25 37 33 25 28 31 34 32 38 21 31 22 25 20 34 28 26 27 37
26 28 28 19 37 23 30 33 36 28 24 28 18 18 33 25 31 38 29 21 40 26 36 33 25 23 18 30 28 19 37 37 36 36 25 31 25 23 33 21 24 25 26 28 39 34 30 23 38 18 19 37 34 19 33 18 35 33 37 30 22 26 32 28
31 19 31 23 20 37 29 35 31 30 19 26 29 18 18 19 31 22 32 36 28 35 35 36 30 19 20 24 31 20 29 19 29 21 19 24 30 18 36 35 24 18 26 30 31 32 21 36 26 26 38 24 26 36 31 25 32 34 26 38 38 35 27 32
26 35 37 36 23 32 23 31 27 24 38 34 24 37 31 38 25 37 27 22 23 18 31 24 37 33 33 27 26 25 27 38 24 26 22 32 22 30 36 24 28 27 32 20 24 26 33 21 38 32 24 20 37 25 18 23 21 35 31 31 34 38 32 33
31 27 28 34 38 31 18 25 29 32 32 29 25 34 18 19 18 37 35 22 27 18 22 28 30 22 30 25 32 37 19 18 24 27 36 24 30 34 25 20 26 28 37 34 19 18 22 37 35 38 31 20 38 30 25 27 31 36 18 28 28 21 35 38
31 26 32 19 18 19 37 21 18 18 18 32 27 27 20 20 23 19 28 18 29 22 35 20 32 18 29 19 35 20 21 26 33 30 29 18 37 37 38 24 21 26 30 19 33 37 19 32 20 24 34 37 26 37 22 32 19 33 19 33 29 20 25 20
31 31 26 38 26 34 28 22 31 22 34 26 25 29 21 34 35 29 31 33 35 34 21 37 27 18 22 34 29 23 38 31 22 38 28 33 25 31 38 23 19 37 24 20 29 20 38 28 29 19 27 28 33 34 26 24 35 21 34 20 26 35 23 38
21 22 31 32 22 33 37 34 22 34 28 26 19 36 33 29 29 27 23 33 20 25 33 18 38 29 30 29 30 34 38 32 26 18 24 21 26 35 36 38 21 27 27 28 23 34 36 18 25 30 28 35 30 36 35 29 18 31 36 23 30 35 23 24
28 18 23 27 18 21 30 21 23 31 30 23 34 36 34 38 28 35 21 34 19 30 30 36 36 22 18 21 25 25 24 36 30 20 32 19 36 25 29 29 18 21 38 27 28 22 23 22 26 18 25 23 18 22 19 31 22 24 30 38 37 26 27 35
33 25 35 24 24 21 21 18 22 38 28 27 24 28 26 36 35 26 34 32 25 36 22 22 31 32 25 29 34 35 27 37 26 18 23 18 25 21 23 30 34 19 36 30 31 22 27 23 22 24 28 33 23 20 31 21 38 30 23 27 26 35 25 29
32 38 37 37 18 36 36 28 31 36 33 24 19 21 33 31 18 34 32 34 34 19 33 20 31 26 35 27 32 34 30 32 23 29 35 25 31 20 25 37 19 19 33 26 30 28 29 34 36 27 38 34 31 32 19 32 18 31 20 26 18 20 33 25
22 29 34 28 22 31 28 18 37 31 21 28 28 23 22 30 33 22 35 19 22 28 21 29 30 38 21 32 24 37 34 20 32 27 19 22 29 18 34 36 21 23 32 26 20 23 38 26 26 22 20 19 31 37 33 19 23 18 38 21 31 22 32 30
22 33 32 36 32 20 23 34 30 18 28 35 25 22 21 24 18 20 36 37 23 25 36 25 22 24 26 36 23 38 20 33 27 26 20 26 20 24 35 20 30 34 38 37 23 38 32 35 19 26 24 22 21 26 30 22 18 20 38 22 28 38 37 31
23 30 26 21 20 29 37 28 19 36 32 21 34 21 32 19 27 20 29 30 29 35 19 32 24 19 25 21 34 36 36 31 23 28 37 34 32 24 27 35 28 31 29 27 24 24 35 36 20 29 20 32 32 22 32 35 38 27 19 35 19 31 20 19
23 18 21 20 31 35 22 18 30 18 31 21 36 26 23 35 35 28 20 18 37 24 22 34 21 36 38 19 26 33 37 36 21 28 35 30 22 30 34 33 30 30 37 33 26 33 23 30 30 25 21 21 31 23 29 33 26 19 30 25 20 22 38 22
23 31 31 27 27 31 33 21 35 25 37 38 24 35 22 33 27 25 31 18 28 31 36 18 30 24 31 27 19 24 18 37 35 31 36 36 34 21 35 25 35 23 36 29 22 21 22 26 27 32 19 28 31 20 27 27 22 18 32 30 34 22 29 30
19 27 20 19 22 28 29 34 23 21 29 38 26 37 32 23 23 32 19 30 33 31 20 32 26 33 28 23 22 20 34 21 34 30 27 22 23 37 22 22 21 24 37 29 28 36 29 35 19 37 27 36 30 36 33 33 35 21 20 38 28 25 25 27
22 26 31 28 26 18 20 28 36 27 19 30 22 25 23 28 24 18 27 21 29 29 29 33 37 25 18 37 36 21 34 36 26 38 31 29 36 33 24 20 25 18 28 33 36 29 25 38 35 21 34 29 27 19 26 19 28 37 34 21 32 38 27 20
28 19 20 32 20 30 20 26 35 19 37 38 19 30 19 18 20 38 28 38 37 21 23 21 23 28 36 29 31 22 20 31 30 37 37 18 33 21 18 21 30 36 18 26 26 19 19 24 38 34 19 36 31 35 21 34 31 19 34 32 30 35 28 23
24 19 18 20 20 32 31 21 30 29 33 25 18 18 36 25 27 18 34 35 20 22 33 23 21 18 32 20 23 35 32 38 20 22 25 21 20 23 24 34 25 32 33 29 18 30 33 32 32 28 21 23 31 19 34 33 21 27 19 18 24 26 37 26
