P2
64 64
255
26 18 23 23 17 17 22 25 14 24 25 14 15 26 16 21 20 17 23 24 16 15 25 14 26 22 22 15 21 23 21 18 21 15 22 22 16 19 18 19 16 22 15 17 25 24 18 19 20 21 14 21 23 21 17 24 17 18 17 15 20 14 16 25
26 26 16 23 20 19 14 16 20 19 17 16 24 24 26 22 18 24 23 25 19 25 16 17 18 17 20 24 18 17 18 25 26 23 15 18 21 21 25 19 17 18 17 18 23 21 22 18 20 25 26 20 25 14 15 15 19 20 18 18 18 14 18 16
15 15 16 25 22 19 17 14 21 16 20 21 14 21 24 23 16 16 25 26 14 18 21 25 26 23 16 14 24 18 14 18 19 15 17 24 26 19 20 16 20 17 19 25 23 18 21 21 17 17 17 17 26 26 18 23 14 25 22 14 21 26 16 25
20 22 19 26 17 21 22 23 22 18 23 14 15 21 21 20 18 22 22 14 21 26 17 22 22 24 23 19 21 21 25 14 25 25 19 14 21 17 15 22 20 26 19 25 26 20 23 16 17 16 26 23 15 14 14 25 16 21 17 21 24 25 14 26
14 14 22 24 20 25 16 18 20 26 21 22 14 20 14 21 17 25 23 24 17 18 15 25 14 26 14 17 24 16 21 16 17 22 19 17 25 18 26 16 25 26 19 22 18 25 20 18 25 23 22 22 18 18 15 17 21 26 23 19 21 19 26 16
24 17 24 18 18 20 19 19 16 22 25 18 14 16 23 14 19 16 21 16 14 16 14 21 15 22 18 26 15 17 14 15 20 23 15 23 16 23 20 25 15 26 17 23 15 14 25 23 18 26 24 15 25 14 24 15 16 25 25 20 24 20 22 26
14 16 15 18 26 17 21 18 21 21 14 21 24 25 17 23 22 14 24 26 24 21 22 17 18 26 15 26 23 23 18 23 20 15 20 20 16 21 14 23 20 24 17 26 24 18 19 23 17 15 16 14 19 22 26 24 22 17 15 20 26 18 21 18
21 15 23 24 18 25 20 21 21 20 19 20 23 23 21 14 24 24 16 18 21 16 23 21 22 25 24 16 26 24 19 18 18 15 19 22 16 14 23 19 18 25 26 24 21 21 26 16 26 19 24 17 23 19 26 14 26 14 22 17 15 15 22 18
14 18 21 23 15 23 16 25 25 20 23 22 25 20 25 16 16 19 21 16 22 14 14 22 20 23 14 18 17 22 20 14 16 21 23 16 20 25 15 21 16 17 24 25 23 23 21 14 24 24 19 17 17 14 14 19 19 26 23 15 23 18 25 16
22 22 16 16 21 24 19 15 19 18 19 19 24 20 16 25 20 21 23 20 18 25 15 25 26 20 21 17 26 24 25 24 26 15 26 20 25 16 21 15 14 24 19 26 23 16 18 26 14 18 16 17 15 24 24 26 21 17 21 25 18 20 14 18
26 25 26 21 14 17 14 14 19 24 26 26 24 25 19 23 21 17 15 19 24 25 19 24 16 23 16 19 14 14 25 18 24 18 15 16 20 21 15 21 22 26 19 25 17 19 26 15 25 20 25 23 14 17 20 26 15 22 20 19 22 22 15 24
25 15 21 26 16 15 17 21 21 21 26 21 14 14 18 25 21 22 23 21 21 25 18 17 22 23 20 18 20 21 19 22 17 22 20 22 25 14 21 24 19 24 16 26 20 14 14 17 18 22 14 22 20 19 25 25 18 14 14 16 22 24 15 14
21 21 21 23 16 22 16 20 24 18 15 21 20 20 22 26 22 20 26 20 26 18 23 20 14 17 17 25 22 23 16 15 26 16 22 14 16 22 16 21 24 18 23 20 23 26 15 19 16 21 19 25 20 15 23 18 21 25 19 21 16 14 25 26
19 20 15 18 19 24 16 15 19 17 20 19 23 14 26 14 14 18 17 26 22 15 18 26 26 18 20 21 18 24 15 18 17 24 15 15 17 23 18 14 16 16 17 17 16 23 14 24 24 16 17 21 23 17 21 24 22 20 18 17 17 16 26 18
14 19 23 19 24 20 16 22 15 26 22 15 26 23 15 25 17 19 23 21 26 24 21 22 23 23 20 15 26 25 15 26 21 16 21 21 19 26 23 21 26 23 22 18 21 18 19 16 14 24 25 21 23 16 17 15 21 19 18 22 21 17 21 15
19 25 24 26 26 19 25 18 19 20 20 15 20 25 25 14 14 26 20 16 26 17 19 15 19 26 19 15 17 14 26 19 22 18 15 24 18 18 26 24 14 21 25 18 20 26 17 17 14 15 24 20 16 23 18 15 14 24 17 16 17 16 15 24
17 17 21 26 17 25 14 15 21 14 17 17 21 16 21 21 23 22 16 18 23 16 16 21 23 15 20 14 15 25 24 22 16 16 24 25 19 21 22 15 22 21 20 23 21 25 21 19 24 14 18 18 15 19 24 18 21 24 21 19 15 23 22 25
18 21 18 16 18 15 26 21 14 18 21 24 14 16 14 23 15 25 20 16 20 25 20 14 24 14 22 19 25 18 15 25 20 25 14 19 17 19 21 17 18 18 15 26 25 19 20 25 14 14 17 20 24 26 15 18 18 22 17 18 18 24 24 22
25 18 25 26 26 25 15 24 14 20 20 18 17 16 15 19 18 21 16 15 21 20 20 19 19 18 15 18 22 24 17 17 15 21 17 20 25 18 26 14 21 15 18 24 14 18 15 26 16 24 19 20 25 26 25 16 16 15 17 23 21 21 26 24
14 15 23 25 21 23 17 17 25 23 22 20 19 25 24 15 15 18 23 26 22 21 29 17 20 15 18 22 16 22 25 18 14 16 21 20 17 25 26 21 22 22 25 23 28 27 17 22 16 26 20 25 18 22 14 23 21 19 25 15 19 18 18 18
16 17 23 25 14 14 18 24 14 18 21 26 15 17 17 28 19 21 24 25 33 23 25 25 25 19 24 21 16 14 22 20 15 19 17 19 24 19 24 26 27 26 28 26 29 28 23 27 28 29 19 15 15 20 19 17 15 21 14 23 22 15 14 16
26 23 14 25 15 26 15 20 22 25 14 19 19 21 22 20 23 27 33 27 34 28 34 26 26 30 23 28 24 15 28 21 20 19 21 27 25 28 28 25 29 32 31 31 26 34 24 29 26 24 27 20 24 22 16 21 26 20 18 26 21 22 16 14
25 23 17 23 20 16 15 16 17 15 14 20 23 27 22 36 27 28 39 38 32 35 35 28 28 30 29 29 25 32 27 25 30 24 26 35 26 36 33 34 29 31 30 32 38 37 32 35 38 30 25 20 21 24 16 15 20 20 14 15 16 17 18 21
24 21 22 15 15 25 19 17 23 15 15 17 22 31 29 33 39 34 41 45 43 42 35 34 41 40 42 41 37 40 31 32 29 40 42 38 37 43 35 42 37 36 35 43 43 39 34 32 31 29 31 35 27 25 16 25 22 22 16 14 26 18 23 20
15 15 22 21 23 17 18 23 22 24 21 26 27 32 37 34 33 44 42 39 39 42 44 48 45 49 44 53 45 43 50 38 42 39 46 47 55 47 54 49 40 49 39 38 47 41 40 35 44 32 36 38 29 32 21 20 24 24 14 22 25 22 18 20
18 21 18 15 19 19 24 21 17 23 25 28 38 36 33 44 47 50 43 50 51 42 45 46 61 60 62 62 61 59 52 57 53 55 56 51 62 60 54 53 56 48 48 47 48 51 51 50 36 43 32 39 34 22 31 25 25 23 16 25 19 18 21 26
19 14 19 23 18 15 20 18 23 23 23 35 40 41 46 47 44 50 47 51 51 56 59 59 57 65 65 65 61 63 59 57 66 57 67 62 60 62 65 59 60 57 64 57 50 45 45 48 41 42 39 41 37 35 26 26 19 25 18 26 17 25 18 17
22 15 21 16 14 19 25 17 25 25 29 39 40 35 46 43 47 47 59 54 55 60 70 70 73 73 73 72 77 73 71 69 64 68 76 78 70 72 77 67 75 72 68 59 55 50 59 52 44 40 40 37 32 32 23 24 19 23 18 14 14 18 25 25
23 23 20 19 26 22 18 24 19 30 32 37 42 35 48 42 49 48 57 61 60 64 73 77 77 77 78 78 87 84 82 85 83 85 80 82 86 88 84 84 77 82 76 64 62 55 54 51 45 53 47 39 38 38 32 25 21 14 14 15 24 17 26 19
15 14 16 15 22 23 21 18 23 32 31 30 44 39 48 46 53 59 65 71 74 79 76 89 79 92 86 86 90 93 85 91 82 90 84 86 82 82 85 82 81 86 82 83 76 70 55 52 52 45 52 38 33 39 34 27 22 15 19 16 19 17 26 14
16 26 17 17 14 22 23 19 31 26 30 43 37 43 51 54 50 65 68 70 80 78 92 92 94 94 100 92 93 99 94 92 95 97 95 94 100 100 98 90 91 88 86 83 79 66 61 60 61 47 51 50 46 33 36 34 23 16 20 23 18 24 24 22
17 17 16 24 16 17 21 19 23 31 37 40 47 39 47 48 54 62 62 83 90 90 90 92 92 102 105 95 97 105 95 102 98 101 106 101 104 104 99 104 103 96 91 85 90 73 64 66 52 48 43 48 38 39 37 25 25 24 25 14 14 16 19 26
22 26 17 16 16 25 25 21 30 35 36 31 37 51 55 57 51 67 69 74 87 99 100 99 96 101 107 110 102 108 112 108 108 104 111 100 102 100 98 101 106 93 103 97 87 82 71 65 52 47 44 40 45 43 36 29 32 26 23 20 26 20 25 22
26 18 24 14 16 25 24 21 31 27 30 32 44 42 48 54 62 56 71 79 88 91 100 99 100 99 102 108 103 116 107 108 109 114 111 113 104 103 112 109 101 106 96 94 94 82 66 65 51 58 50 43 35 42 31 32 32 26 20 20 25 23 22 22
15 18 18 19 22 24 14 24 31 25 36 38 36 47 42 57 58 61 75 74 80 92 99 104 102 105 109 106 111 113 110 114 120 115 114 117 106 111 114 101 107 105 96 96 79 75 67 55 49 55 43 40 45 33 35 26 26 15 20 16 16 19 26 25
23 22 21 24 23 26 25 20 18 26 27 41 33 47 51 47 49 58 67 73 83 83 89 100 95 101 111 105 109 110 114 122 131 120 114 118 109 113 111 110 100 94 87 94 85 69 66 63 55 56 43 45 36 37 33 34 21 15 24 23 25 19 22 18
19 16 14 22 18 22 14 24 22 31 35 40 40 39 51 53 56 58 67 75 74 89 86 98 98 102 108 112 110 119 117 117 134 121 112 120 116 112 102 104 105 100 91 91 79 68 69 53 52 53 49 39 34 29 29 23 23 21 20 24 21 16 22 20
16 24 24 15 16 26 18 24 16 32 23 33 36 43 49 51 42 57 64 64 69 81 82 92 99 99 103 107 113 117 110 116 111 121 118 114 114 102 103 97 98 92 82 75 72 73 56 58 44 45 45 45 39 29 25 29 20 14 26 16 19 26 20 24
26 24 21 25 23 14 18 20 18 22 31 31 38 43 46 39 40 45 57 63 73 78 84 87 84 98 100 104 109 110 106 112 113 109 101 102 101 100 99 89 88 87 77 80 64 67 54 43 45 42 40 37 39 32 32 25 20 23 16 19 15 26 23 16
21 16 19 19 17 20 22 16 16 28 20 30 37 36 41 40 47 47 47 64 60 74 73 86 85 91 91 89 99 105 98 93 95 103 100 104 103 92 99 86 91 81 79 72 61 62 50 50 45 40 43 34 31 34 24 16 21 17 25 26 21 19 24 17
19 18 22 16 16 21 15 20 15 25 19 23 32 37 35 32 41 37 51 53 56 68 68 77 79 85 82 86 88 95 88 92 90 96 88 89 93 89 81 82 82 81 76 63 59 50 49 41 33 40 39 27 28 26 23 17 19 26 26 23 22 22 23 24
14 19 25 17 25 21 15 21 17 17 20 17 23 24 26 27 37 42 36 53 59 59 69 63 79 73 73 80 80 81 79 87 80 86 82 82 87 81 84 77 67 69 58 64 55 52 39 35 29 34 28 23 31 27 25 20 24 25 20 16 22 14 15 22
18 26 19 17 24 19 21 23 15 22 19 15 25 25 28 34 36 31 34 36 47 47 52 64 59 71 74 68 74 69 75 72 70 76 73 74 72 76 72 72 66 65 58 55 41 45 29 32 32 31 22 29 19 19 21 19 23 21 26 25 21 20 20 26
26 22 14 19 23 25 22 21 17 14 23 19 17 26 27 24 29 27 35 32 43 39 48 56 54 66 58 63 67 63 65 75 69 64 69 68 63 66 59 57 57 52 49 44 43 35 33 30 32 27 30 17 26 19 21 15 26 15 23 19 18 18 23 18
23 23 25 17 21 20 17 19 23 26 16 14 22 18 26 27 19 30 26 24 35 44 40 50 53 55 59 62 54 64 64 62 70 61 69 56 58 51 60 54 46 52 38 37 39 29 31 26 19 21 24 22 16 23 15 20 15 17 23 19 20 26 24 26
16 23 14 24 21 15 22 21 22 26 17 19 25 24 17 22 23 22 24 25 20 36 38 35 39 40 41 44 56 54 63 52 62 56 56 55 52 45 41 42 35 35 32 27 21 19 20 28 27 20 16 23 14 19 18 14 18 16 25 15 19 20 23 23
16 16 26 26 24 25 23 18 17 21 23 20 25 17 19 22 22 26 19 21 17 23 32 25 38 38 44 44 48 50 52 45 46 49 56 54 50 47 42 38 35 35 31 18 22 24 14 20 22 22 16 17 24 21 19 21 18 14 25 25 16 14 24 20
25 25 19 26 22 25 15 26 23 23 21 19 20 16 20 24 21 25 14 25 23 15 21 25 24 30 31 44 41 40 48 43 51 44 47 45 42 41 37 39 27 31 21 20 23 15 16 18 22 15 15 15 24 16 20 23 14 25 26 20 19 20 18 26
25 20 26 23 16 19 17 24 23 20 19 24 26 19 23 15 25 23 25 21 21 24 20 18 28 31 37 30 29 38 43 41 43 41 41 36 32 29 30 24 29 18 24 17 22 23 17 20 23 17 20 14 26 25 15 23 15 16 21 14 19 26 19 21
20 24 26 23 21 19 21 19 18 20 19 20 14 23 26 21 20 17 14 19 21 21 17 19 17 23 21 21 32 27 28 33 34 34 33 31 26 30 27 25 14 23 22 25 21 20 21 15 19 19 19 20 22 15 23 15 22 23 21 19 14 18 20 18
23 20 23 18 16 26 21 25 23 22 16 19 19 18 21 19 19 24 20 23 15 22 16 18 14 16 15 18 19 30 22 27 29 27 27 27 25 17 22 22 25 14 22 19 22 16 25 24 16 19 26 17 23 25 15 15 24 14 20 15 19 21 16 15
17 21 25 24 25 22 25 14 14 20 21 15 17 22 15 24 25 19 22 23 18 15 16 15 18 22 17 21 15 20 24 26 17 20 16 17 17 22 15 16 16 26 26 18 23 19 22 15 17 16 16 19 17 18 15 18 22 17 17 18 23 20 18 26
19 21 26 19 23 15 16 24 15 18 26 22 16 22 22 23 18 23 23 20 24 19 18 19 26 18 16 24 19 20 23 26 14 18 20 18 24 26 25 19 25 26 23 25 19 21 18 25 14 25 20 19 16 22 25 23 26 16 14 16 16 23 25 20
21 19 15 22 14 19 22 21 26 25 16 15 18 20 23 20 24 16 25 18 23 22 20 15 25 25 16 25 25 26 26 14 15 25 20 21 18 18 15 19 17 14 16 22 24 18 22 16 15 22 23 17 16 24 16 25 19 14 14 15 14 21 22 25
20 25 17 21 24 15 14 24 19 19 17 21 20 15 19 26 26 16 16 23 23 17 20 25 15 15 19 22 26 19 23 17 17 19 21 23 25 18 14 21 26 26 18 18 22 20 26 15 14 15 19 24 22 18 26 23 21 25 21 21 16 19 14 20
14 25 26 25 20 22 21 22 20 26 23 18 15 18 22 18 24 21 22 21 18 19 16 17 26 17 20 19 20 25 19 18 26 17 22 20 20 15 16 20 21 22 24 23 15 21 17 19 22 17 24 18 21 25 15 24 16 14 14 23 16 19 24 16
24 25 14 17 18 17 26 15 18 24 26 14 14 16 20 20 25 25 26 24 15 18 26 25 14 24 16 14 18 23 24 22 26 16 20 18 21 24 24 26 17 25 14 16 18 23 22 14 22 14 18 16 16 26 26 14 18 16 18 21 16 19 21 26
17 20 16 25 25 20 23 22 24 23 16 21 24 17 22 25 25 14 23 26 22 17 22 20 21 14 14 19 26 17 23 25 22 22 19 20 23 20 19 20 22 23 17 19 20 14 23 18 15 21 24 17 14 24 21 17 19 15 23 21 21 19 15 16
21 16 14 23 19 24 18 16 16 24 22 21 25 17 20 19 14 22 16 19 25 19 25 25 14 26 21 16 16 19 21 17 15 15 21 19 19 22 19 20 25 18 22 15 22 18 14 17 25 21 15 20 23 16 23 24 24 22 25 19 25 25 26 19
22 18 24 21 18 22 14 20 18 25 14 26 16 14 16 20 25 25 26 15 19 15 15 21 21 14 20 19 23 18 14 26 20 23 15 18 24 16 22 26 26 22 17 14 23 21 19 16 17 23 25 22 20 20 16 17 18 17 26 15 19 26 20 19
17 18 15 18 18 19 25 26 20 17 18 15 19 26 22 15 23 18 23 14 23 20 16 23 23 23 15 23 22 14 21 21 19 16 26 22 21 14 15 26 16 19 25 15 23 23 19 14 17 14 24 15 15 17 19 15 22 21 23 22 18 14 21 19
26 15 17 20 20 26 21 19 24 15 25 18 15 23 19 18 20 26 22 17 26 22 19 19 14 20 19 22 22 24 18 24 26 25 20 21 19 23 25 16 24 24 24 20 22 16 22 25 25 25 17 16 24 26 15 14 21 19 22 21 14 14 14 19
14 25 16 14 15 20 23 24 21 24 21 24 22 18 24 20 19 25 24 15 26 22 15 19 25 20 24 22 25 22 14 15 21 25 22 18 24 20 25 25 21 19 24 24 14 26 14 16 19 19 16 24 24 23 23 14 22 14 15 18 23 18 24 22
22 22 20 25 16 25 26 17 25 19 22 15 14 16 22 22 26 16 14 26 17 14 20 22 15 15 26 24 15 21 19 19 21 16 20 26 14 14 22 26 22 14 17 25 16 15 24 18 18 18 15 23 15 18 26 18 15 18 25 15 16 16 25 18
