P2
64 64
255
22 30 24 33 26 35 32 21 21 25 27 24 37 37 33 38 18 22 22 22 25 30 24 21 32 33 31 36 34 19 31 32 34 21 34 23 18 18 34 35 22 18 32 36 19 21 34 28 18 23 29 20 24 32 27 24 31 36 35 32 21 26 27 24
19 27 25 33 22 35 23 38 37 26 32 30 25 23 36 33 32 25 26 29 36 30 18 30 37 21 18 24 34 29 27 22 27 21 28 30 26 22 24 28 29 35 28 30 30 36 34 24 19 19 26 37 35 25 30 29 31 33 25 25 30 30 35 24
27 18 18 22 25 33 28 25 28 37 31 29 28 20 25 19 23 25 25 34 31 27 28 21 35 30 30 22 29 26 21 19 18 33 23 20 22 37 35 22 29 36 38 38 26 20 18 27 34 18 28 25 19 38 31 29 25 18 18 31 27 22 19 18
20 27 31 30 21 22 22 27 28 31 29 28 22 35 29 33 33 33 31 27 36 18 24 30 29 23 37 19 35 28 21 37 22 31 27 34 35 21 35 21 23 20 30 21 23 33 33 22 23 18 35 36 35 25 26 34 27 38 28 35 37 30 29 32
26 26 26 35 37 18 26 32 22 25 38 30 18 26 22 25 31 29 20 38 38 30 21 26 29 28 34 36 38 37 29 27 31 28 30 34 33 29 19 38 38 20 24 21 37 33 27 26 24 36 33 21 31 34 20 33 23 24 30 31 18 25 38 31
23 35 29 24 19 19 34 19 21 22 37 19 31 35 26 18 21 36 35 18 31 33 35 28 21 27 22 26 32 34 25 31 25 19 21 33 27 21 36 38 24 32 28 26 23 37 38 36 27 30 38 30 18 38 28 37 35 36 36 23 21 32 25 22
22 31 21 23 36 21 23 35 33 21 25 27 34 29 25 37 31 27 37 35 33 35 38 32 28 34 27 35 38 28 38 21 32 35 19 27 25 25 22 28 27 19 36 23 38 31 22 34 23 28 23 37 20 31 24 21 22 25 21 29 21 24 18 30
30 30 32 38 28 28 21 21 37 38 31 32 37 21 34 26 36 25 37 37 20 37 34 20 38 28 19 25 30 25 24 18 33 19 30 27 29 23 22 21 21 33 31 33 32 20 23 23 22 31 28 24 20 26 30 18 36 28 35 22 26 20 20 24
19 19 32 34 34 29 21 19 24 23 31 23 24 26 33 24 29 37 23 38 36 26 23 37 20 35 25 36 20 27 35 22 36 29 32 19 30 36 18 34 20 25 33 28 30 33 38 18 24 19 19 23 36 22 32 33 36 37 20 23 21 31 28 24
20 32 31 31 19 20 34 35 19 29 37 26 37 27 30 18 32 25 26 37 29 33 24 31 38 24 23 36 21 23 23 28 21 34 18 35 23 37 18 34 19 31 35 33 28 31 31 23 32 30 27 27 31 18 36 31 18 36 36 29 27 28 38 25
31 33 28 20 24 24 23 33 36 32 35 31 27 21 22 25 20 36 25 36 34 23 26 33 27 30 28 34 19 20 35 32 20 24 32 28 30 37 32 38 28 22 27 30 22 19 24 34 36 25 25 25 36 35 32 21 20 27 29 30 18 21 19 26
28 22 19 28 38 20 36 23 34 22 21 21 19 20 31 25 38 21 34 38 32 26 36 37 35 35 21 34 26 33 23 29 33 26 29 22 28 35 27 31 28 35 29 27 20 35 29 24 32 26 35 37 22 35 38 18 30 32 29 21 19 23 22 37
24 19 18 20 37 38 37 22 25 33 24 31 29 22 29 23 22 38 37 20 34 20 32 26 33 33 35 20 38 35 37 27 24 19 28 22 23 34 33 38 34 25 38 36 38 19 38 29 29 33 28 30 31 27 29 30 24 34 38 22 35 20 23 25
26 21 35 18 23 21 22 20 38 30 38 35 35 32 35 30 29 36 37 34 35 36 28 24 34 29 27 23 31 18 35 21 20 21 19 37 25 31 35 21 20 32 18 24 20 31 22 18 35 28 31 30 37 37 19 37 23 33 32 18 23 27 32 19
29 38 36 25 19 20 25 22 35 37 25 34 20 38 20 26 32 21 24 23 38 33 36 19 28 29 26 18 31 29 30 20 26 18 23 26 30 36 26 20 35 26 32 24 23 37 30 35 25 31 38 27 35 35 29 34 36 26 21 37 34 36 34 29
26 36 21 37 21 22 27 37 32 21 30 27 30 36 24 31 21 24 33 20 20 20 37 24 33 28 27 33 30 33 38 37 20 35 37 38 32 20 20 35 18 20 24 18 18 20 25 20 37 34 24 35 28 32 20 24 23 27 37 26 27 37 18 29
20 28 26 36 18 31 36 36 26 36 21 24 30 33 25 36 34 36 34 23 36 35 21 32 22 20 30 31 28 32 22 38 29 38 20 36 24 27 26 25 29 30 38 31 19 27 28 30 33 32 27 18 31 33 20 24 31 38 35 25 19 22 22 21
20 22 36 30 28 20 24 25 21 30 30 21 38 19 37 35 31 29 34 31 23 28 32 22 20 29 26 29 20 27 18 19 30 24 37 34 36 28 24 35 21 21 25 26 30 29 22 32 27 32 28 36 21 37 31 22 37 37 29 21 30 33 24 18
20 25 23 23 30 32 23 35 24 21 33 25 35 27 32 32 36 18 34 18 29 38 34 34 26 31 24 37 36 25 36 29 29 30 29 32 23 22 36 18 35 28 37 20 35 35 28 32 37 24 20 28 35 35 21 29 24 33 31 24 19 35 20 21
37 29 19 33 33 30 19 38 33 28 21 38 26 37 29 20 28 24 37 35 33 33 41 37 30 21 29 30 23 24 23 34 28 32 30 37 18 24 36 19 22 22 36 25 28 37 22 32 25 21 34 21 29 36 33 37 19 30 24 36 31 37 19 30
37 26 20 22 22 35 26 23 27 18 35 26 22 20 37 39 27 44 29 31 44 40 26 38 36 22 30 39 24 28 24 33 37 31 28 29 21 20 24 40 26 38 41 38 33 25 34 44 25 40 33 29 28 34 33 34 29 19 34 36 37 31 27 23
24 38 29 21 23 19 38 27 36 27 36 25 25 36 40 36 41 35 38 38 35 49 47 32 47 39 26 43 27 24 24 37 23 37 30 26 39 29 43 35 45 38 36 43 36 34 44 32 31 34 35 33 23 21 30 23 20 36 24 35 27 38 37 30
32 29 27 34 36 37 26 31 38 38 20 37 24 36 41 36 34 33 36 46 43 36 46 44 41 41 47 40 31 33 36 24 22 38 21 35 37 26 42 48 31 38 33 51 53 39 50 36 34 28 43 43 31 21 29 38 19 31 33 37 28 18 31 34
35 26 19 26 27 21 21 33 30 36 37 31 31 28 31 37 33 55 56 38 43 42 57 44 44 48 35 38 30 24 24 36 27 26 27 43 38 46 37 47 46 49 39 45 45 45 43 41 36 46 31 27 41 40 34 23 18 18 24 22 23 38 25 25
29 38 21 24 37 19 22 34 22 22 26 27 43 36 35 36 53 43 46 49 42 45 55 59 45 42 43 51 42 34 38 28 22 34 31 43 45 48 49 54 52 48 48 43 46 59 49 56 49 50 52 35 29 39 24 34 29 37 23 28 38 19 33 33
32 19 32 34 29 30 26 34 20 21 35 42 31 43 38 47 54 62 53 61 58 56 45 51 62 49 56 36 34 44 26 33 35 28 45 39 45 50 43 42 42 50 59 64 57 59 57 55 50 51 43 43 44 33 37 30 29 24 36 34 34 23 23 24
25 26 23 36 25 27 24 19 27 34 25 40 43 48 45 43 47 49 65 56 61 65 57 51 52 57 48 55 54 41 49 37 35 41 39 32 39 47 54 45 61 63 54 52 62 58 67 51 61 51 48 55 52 43 26 25 34 29 31 23 20 28 25 35
20 21 34 25 25 21 25 30 39 38 46 40 34 42 52 44 58 62 57 64 73 69 67 66 68 57 52 57 42 43 50 35 43 37 42 44 50 42 53 51 54 60 64 61 68 72 67 56 48 63 48 50 52 48 31 44 36 34 27 25 25 36 34 38
24 31 25 33 30 18 33 23 21 35 43 43 41 55 46 56 56 71 69 60 70 70 58 54 65 61 66 44 41 42 38 42 47 37 46 50 41 58 65 51 72 73 59 63 72 58 73 52 50 62 52 39 52 32 41 29 35 37 21 24 18 37 33 24
38 20 25 29 29 33 23 20 34 33 33 34 57 50 48 53 52 75 60 76 72 79 63 74 66 55 68 57 61 45 35 37 48 38 44 41 47 45 59 64 66 63 73 66 65 78 59 69 53 64 64 60 38 47 37 35 42 37 32 37 27 32 23 34
27 21 35 25 26 28 24 21 31 45 31 38 55 58 62 62 61 58 71 79 68 69 74 71 57 57 63 48 60 41 42 49 56 45 45 55 55 47 62 63 75 68 66 70 83 81 80 66 71 53 53 44 39 51 35 40 32 30 28 35 28 19 36 22
34 24 35 33 24 32 38 25 32 35 46 51 39 45 47 66 71 58 66 76 83 83 71 65 64 57 67 51 59 46 44 48 36 53 46 50 43 66 51 58 61 66 75 83 88 79 75 75 59 56 51 57 53 37 37 47 35 21 38 21 23 25 18 19
23 31 33 31 36 23 34 35 34 46 40 51 49 44 52 61 59 66 71 78 85 87 76 78 77 67 52 51 48 58 57 41 56 42 42 43 56 51 70 56 63 72 84 73 86 82 76 77 71 70 67 56 47 46 32 32 32 39 19 18 34 34 24 26
29 37 23 29 36 25 32 24 30 46 49 41 56 50 66 57 70 67 64 84 79 72 65 71 59 63 68 50 44 49 47 54 53 52 47 50 59 58 60 55 64 82 83 80 68 82 72 72 71 53 48 47 51 39 34 37 29 28 26 25 19 20 28 37
34 35 30 23 19 20 35 35 27 30 39 50 51 56 61 64 59 64 61 68 78 72 72 80 58 67 50 53 59 49 42 50 37 38 42 51 49 65 50 73 75 79 83 83 84 78 77 60 64 66 60 44 46 48 31 42 26 29 25 38 25 28 26 19
34 25 25 27 21 24 31 28 30 43 37 53 56 53 48 65 55 55 72 65 63 71 61 73 73 63 68 58 44 42 43 43 38 38 54 53 50 47 59 59 67 62 78 70 71 77 59 64 67 55 47 51 50 51 46 41 38 19 25 31 28 29 19 21
31 26 20 33 21 21 32 36 27 26 33 37 43 49 57 47 52 56 71 71 69 57 74 66 53 67 54 47 42 37 45 42 52 48 50 36 45 56 53 68 61 70 72 61 62 65 67 52 68 63 46 43 38 42 36 28 21 24 21 36 36 32 27 35
35 33 29 26 24 30 30 21 32 29 40 42 34 50 52 60 66 54 62 59 55 64 67 51 49 49 45 57 55 34 49 34 47 29 47 48 37 48 55 54 53 65 61 56 55 56 69 52 65 55 59 54 46 41 33 32 21 22 28 32 23 21 36 33
30 30 18 19 26 30 31 31 23 30 39 39 38 40 53 53 54 64 67 59 62 58 67 58 46 62 47 45 43 41 31 34 46 32 35 37 38 46 56 51 63 66 66 60 53 56 60 51 54 58 54 37 34 49 38 25 31 19 26 37 30 29 34 35
27 38 37 33 23 28 38 29 31 36 35 38 51 50 46 48 46 49 53 55 59 56 61 47 62 45 51 57 43 49 40 29 35 37 31 45 43 50 61 59 52 52 62 64 65 65 63 56 62 57 51 54 54 42 49 37 29 28 28 29 29 34 27 33
26 28 44 31 26 36 28 44 35 26 30 38 42 43 58 62 65 60 50 65 49 50 63 53 61 54 53 52 48 46 39 37 39 36 51 52 54 56 56 66 49 60 69 60 59 62 68 62 48 62 58 54 50 44 52 34 47 48 50 34 35 36 40 47
39 47 37 40 31 48 42 46 48 37 34 40 42 43 59 45 49 52 67 53 66 54 60 67 62 54 55 45 56 42 35 35 50 38 51 52 44 64 57 67 69 64 68 61 60 66 72 54 63 60 62 62 44 47 47 49 42 50 47 49 47 39 41 50
35 39 27 30 36 36 29 26 40 25 27 29 44 46 38 45 51 42 57 44 46 46 57 58 57 43 40 35 37 43 30 42 40 29 30 31 47 53 43 53 53 45 59 63 46 58 56 55 49 43 54 46 38 46 31 38 44 43 41 35 46 46 45 37
37 28 39 31 40 38 25 35 34 29 30 27 39 44 41 34 37 51 50 38 33 49 46 52 41 39 30 45 38 37 38 42 40 32 33 30 39 41 41 44 36 49 41 47 35 41 42 43 51 43 28 36 35 38 43 36 29 29 29 41 38 31 32 35
30 24 18 19 33 20 18 31 30 32 28 34 36 18 29 23 30 26 45 42 38 29 36 32 43 30 40 32 37 19 37 23 21 28 29 32 30 29 26 29 32 31 28 32 31 27 44 31 29 37 25 21 27 22 33 34 29 34 18 30 33 21 33 34
37 30 38 34 19 18 32 27 24 38 37 36 19 27 30 20 39 25 26 26 25 41 41 31 36 36 18 30 20 24 21 36 23 35 28 32 34 29 22 26 34 30 31 32 27 38 32 24 34 27 18 21 25 20 30 36 33 23 27 33 18 19 20 33
36 38 22 37 25 27 31 21 37 29 38 34 30 24 19 29 19 21 38 30 31 18 37 30 37 37 18 22 31 37 35 38 35 20 31 30 18 34 27 25 22 21 21 22 33 37 25 18 34 28 32 38 26 22 22 24 26 32 29 26 28 38 36 24
35 36 35 34 19 23 23 33 35 28 35 34 38 18 30 34 25 29 22 37 38 30 21 35 34 37 31 32 25 37 28 21 24 19 35 20 31 33 35 25 23 25 22 37 30 23 18 21 29 24 30 36 38 38 28 19 38 26 30 31 37 26 28 20
21 18 35 35 30 25 25 27 18 25 35 30 23 30 28 24 38 19 32 24 20 25 22 34 33 30 24 29 37 21 37 36 23 19 31 21 21 19 28 36 38 28 26 26 20 23 21 26 33 20 18 18 24 31 21 34 38 18 24 22 30 31 34 18
26 23 19 21 20 19 30 21 33 32 29 36 30 30 27 35 20 28 36 23 35 36 21 22 37 21 35 36 23 25 34 19 37 21 31 28 22 18 33 38 36 31 21 34 24 18 37 24 37 21 19 27 30 32 35 29 34 25 32 34 27 26 22 29
27 30 19 30 22 28 31 34 19 34 26 19 32 36 32 18 35 33 24 24 34 30 21 20 22 30 22 33 20 24 30 29 31 29 29 30 35 20 35 23 24 19 33 31 18 32 31 28 23 37 19 21 35 31 26 25 30 19 24 32 35 20 25 32
20 26 25 19 20 29 19 32 38 33 18 25 30 30 36 38 19 27 30 36 20 24 26 19 19 28 26 38 32 25 18 26 27 20 19 38 26 20 22 36 38 21 24 32 30 25 20 25 22 18 18 31 24 20 38 21 23 33 28 29 22 22 18 37
24 29 22 27 33 33 23 18 23 38 19 21 30 38 29 31 30 37 25 22 19 19 20 24 31 27 31 26 31 20 37 36 25 26 34 35 28 29 35 35 28 19 28 24 34 25 35 22 38 32 21 21 33 19 20 37 28 29 21 35 28 25 30 31
31 25 29 21 30 35 29 19 19 33 27 38 37 31 25 28 22 36 34 20 34 31 22 19 34 38 22 37 24 23 28 22 26 19 31 19 21 33 18 32 18 27 20 26 26 35 25 21 35 22 24 34 38 24 22 35 36 34 22 28 31 34 32 28
32 34 36 23 25 27 37 33 31 18 24 24 22 28 35 19 35 27 21 35 32 21 35 18 21 33 37 27 37 22 36 35 36 19 28 29 27 25 34 18 31 34 34 33 24 26 35 38 38 38 35 36 32 27 19 36 32 35 31 25 37 36 25 28
21 26 24 31 26 27 19 33 36 20 30 25 33 24 31 33 20 34 29 28 29 19 34 38 21 29 23 27 33 29 27 26 18 32 30 26 30 18 28 18 28 35 36 34 27 35 30 22 19 30 35 37 18 28 29 22 30 33 24 30 27 19 20 34
31 24 36 23 35 20 21 38 22 23 35 30 29 29 27 32 30 23 25 38 29 19 28 29 27 24 21 32 29 26 30 36 28 30 25 27 18 31 18 31 19 37 25 37 20 26 34 33 19 26 34 22 29 22 25 24 34 36 26 35 25 38 23 22
38 29 23 36 36 24 20 28 27 19 34 22 20 25 20 25 18 34 27 25 26 37 19 21 26 37 23 34 19 19 22 33 19 19 33 34 27 33 37 36 19 19 33 38 22 24 24 24 26 22 21 35 32 32 20 19 32 33 36 25 36 22 36 33
25 32 35 32 19 23 32 32 34 37 20 36 30 26 37 19 18 19 19 27 28 38 34 23 21 27 22 24 35 28 23 30 30 36 19 28 23 32 33 38 36 32 31 27 21 38 37 23 32 34 34 29 18 29 31 21 37 35 36 24 20 23 29 36
18 36 27 20 30 20 22 36 34 34 24 33 30 22 32 33 27 22 20 24 36 29 22 20 37 22 32 26 24 18 34 18 21 38 19 29 30 26 31 23 26 22 31 23 34 23 21 37 24 38 28 35 23 28 21 35 28 26 19 38 36 36 36 32
34 30 26 21 27 31 37 37 26 28 36 21 23 28 19 37 20 32 38 21 21 29 30 23 29 26 25 37 28 19 37 21 31 22 37 37 20 36 24 22 33 31 37 38 27 34 31 29 29 33 18 30 26 27 36 27 27 29 20 26 25 28 25 27
22 35 20 21 30 20 33 25 25 34 22 34 31 30 30 25 34 34 31 27 18 34 20 18 33 36 21 18 29 29 28 20 18 22 19 19 27 25 31 28 35 21 32 32 26 22 23 21 29 27 37 28 38 26 32 29 22 33 37 24 31 23 24 21
33 30 20 23 24 30 29 20 28 21 19 22 37 26 34 25 34 21 34 23 20 30 21 18 36 22 25 25 36 33 18 20 32 26 32 38 33 19 37 18 33 25 32 35 38 35 24 38 31 18 22 35 28 21 23 36 25 25 21 38 20 32 19 24
30 19 20 24 20 34 29 28 33 18 31 38 21 29 36 24 25 25 29 36 32 28 33 38 18 26 19 38 23 21 37 18 18 38 28 22 34 25 33 20 38 20 27 19 27 35 27 26 19 23 37 18 20 18 36 18 36 20 18 27 29 38 27 29
