P2
64 64
255
28 20 35 29 36 21 22 22 27 23 34 37 35 20 35 34 31 25 24 34 29 23 34 20 29 34 29 33 34 27 25 31 31 24 20 38 22 22 26 21 37 20 23 29 38 27 24 37 22 36 20 29 21 18 23 34 25 34 33 31 25 36 31 28
38 25 31 20 32 20 38 38 25 31 23 26 35 18 34 36 36 26 18 22 26 18 30 29 31 36 23 22 35 34 29 26 18 36 37 38 21 31 30 28 37 26 34 38 27 18 25 24 25 37 19 30 27 38 35 32 26 37 36 32 23 22 38 27
27 34 38 25 26 20 21 36 22 20 23 26 26 33 21 19 30 33 29 20 19 32 24 29 21 20 37 20 37 19 25 24 23 19 21 38 18 38 27 25 27 31 38 29 32 30 36 18 28 23 25 24 36 28 30 38 25 33 28 30 24 21 30 32
34 36 29 25 38 24 20 22 24 27 38 35 28 30 26 36 32 18 28 37 21 37 22 36 19 20 20 24 36 26 31 27 20 31 23 22 28 29 27 22 28 25 32 23 37 32 29 37 23 26 25 22 33 32 32 34 32 34 27 19 24 30 37 32
23 22 19 20 28 33 31 20 24 21 23 31 29 32 20 18 36 30 21 30 31 19 19 18 24 37 35 31 24 36 21 37 23 24 29 29 33 24 37 37 36 24 29 25 20 27 33 36 27 37 24 19 26 35 30 37 33 31 38 37 23 19 19 18
38 37 29 31 33 31 25 27 19 19 22 36 20 22 25 27 35 27 34 23 37 26 32 22 23 36 28 30 31 36 27 20 31 34 22 29 37 23 21 31 18 28 33 35 32 37 25 20 36 24 25 29 36 36 36 33 33 27 31 35 18 29 35 26
27 35 24 27 31 29 19 37 22 24 36 18 23 31 20 32 33 38 29 34 21 20 30 31 24 20 34 35 20 38 34 23 36 36 18 27 28 29 20 35 31 27 34 38 37 37 25 33 25 19 33 30 32 25 32 37 33 32 25 28 27 19 36 30
22 37 20 19 33 35 22 18 33 36 34 27 30 33 21 23 27 34 29 22 27 33 33 29 27 18 20 32 33 26 31 22 32 18 30 30 33 19 27 25 25 18 31 21 22 30 25 33 35 32 24 36 34 18 37 18 25 22 29 38 22 18 24 35
21 20 28 22 25 34 21 20 37 19 21 36 31 37 31 19 23 33 30 37 38 22 24 18 27 35 28 36 25 23 36 23 26 32 22 28 30 27 28 38 23 36 19 19 23 28 38 34 29 23 18 18 32 22 37 37 32 21 33 22 20 35 32 25
34 27 18 30 31 37 38 21 29 36 22 35 20 24 37 27 26 30 28 36 27 25 36 26 35 37 20 36 33 28 18 35 35 30 33 22 23 22 36 21 31 21 31 21 18 19 21 23 27 36 35 28 30 33 35 34 36 26 18 25 36 33 29 37
18 35 37 21 25 36 27 35 24 35 24 37 22 26 20 26 36 34 33 35 34 38 34 35 34 29 29 23 35 28 26 20 19 34 25 23 27 22 24 31 38 35 23 22 33 18 34 37 25 23 23 25 23 20 25 32 21 18 31 34 34 34 30 38
23 33 35 30 38 33 19 33 22 29 32 36 18 34 25 36 33 20 38 19 32 27 37 27 21 32 24 28 38 32 24 28 27 23 24 23 30 21 21 26 18 23 31 29 38 19 22 37 35 37 32 21 19 22 26 33 35 35 37 38 19 33 29 33
36 29 19 24 28 33 19 33 19 19 36 30 29 20 32 25 30 23 31 36 29 33 25 33 19 28 20 23 25 19 28 33 19 24 38 24 30 18 29 26 29 35 35 38 32 28 32 30 18 37 36 36 21 37 21 21 29 32 30 27 36 21 24 38
27 36 22 22 18 33 35 33 33 18 30 29 37 37 30 19 22 38 18 31 24 37 29 27 29 22 23 33 23 34 20 21 37 20 25 35 22 32 34 28 29 37 34 25 24 18 31 25 32 27 27 33 29 18 33 19 25 28 30 24 19 20 29 27
35 21 32 23 34 35 23 31 36 19 34 24 23 33 32 35 36 20 25 18 38 24 35 37 32 23 31 38 29 29 23 21 21 20 28 35 28 36 37 28 19 36 21 19 29 38 32 33 32 34 22 22 32 30 23 25 22 28 25 19 31 25 27 32
35 23 24 34 32 26 20 20 29 35 22 28 19 22 23 25 24 18 19 30 18 35 25 35 20 30 23 20 38 37 23 37 19 33 33 24 18 33 36 22 35 37 27 25 35 31 21 38 25 34 36 19 24 34 25 26 20 35 37 38 20 18 37 19
29 23 32 35 36 32 33 34 26 28 36 28 27 34 35 32 29 34 20 21 20 33 35 34 30 21 18 24 26 32 23 26 34 30 29 38 21 35 32 25 24 21 33 36 38 25 30 33 32 22 32 27 30 26 29 33 26 22 33 29 34 21 32 26
35 32 25 21 34 23 26 27 32 31 32 36 23 35 38 21 22 34 23 19 30 36 27 18 18 18 25 33 32 32 27 25 34 37 33 23 29 29 34 27 31 24 38 32 18 18 26 31 18 33 25 22 28 26 25 38 21 30 21 25 38 28 22 19
27 21 21 30 26 38 23 30 23 29 36 31 25 28 37 33 19 38 21 28 26 30 34 38 31 25 22 24 26 23 38 27 19 31 23 29 18 25 30 27 33 35 36 29 23 30 32 26 21 23 30 35 32 27 35 25 25 21 28 37 19 24 29 24
29 38 24 23 19 26 33 22 21 32 29 38 32 28 36 18 31 31 22 39 35 30 36 27 32 21 27 21 25 25 31 30 30 26 33 35 37 30 31 37 20 36 30 40 22 35 27 40 19 19 19 22 18 21 23 38 38 23 35 24 36 18 37 19
34 18 37 21 36 29 23 25 30 24 19 25 19 22 27 30 32 41 25 38 36 29 43 28 43 23 23 30 24 35 35 35 19 21 30 34 38 32 28 41 25 36 32 42 44 43 34 44 41 35 24 33 19 22 35 31 38 23 31 28 26 25 33 21
24 25 22 31 28 31 22 30 19 18 33 26 22 31 41 34 41 29 36 35 31 34 35 44 37 37 33 43 35 38 32 23 19 34 31 22 40 27 29 31 37 36 29 49 44 40 40 44 28 42 25 35 32 29 38 34 26 38 18 21 21 26 36 37
25 26 37 24 27 27 29 25 33 35 25 28 34 37 40 39 41 37 42 50 41 51 49 67 50 56 50 60 52 48 37 28 33 28 39 27 36 40 45 41 33 32 37 45 38 53 42 32 50 37 32 40 32 33 31 36 31 38 19 28 21 20 38 29
33 34 36 29 35 29 34 20 34 20 32 21 29 42 46 51 48 36 38 50 68 61 71 72 76 62 58 71 53 56 44 28 27 32 22 26 47 35 41 52 38 40 52 39 53 49 45 35 40 47 49 29 27 26 38 32 36 37 22 38 27 21 26 24
27 25 34 32 28 21 26 38 20 19 40 32 29 43 44 54 57 41 67 56 64 75 79 89 73 78 72 72 63 52 58 34 44 30 37 27 44 36 39 56 54 48 52 53 41 43 41 48 49 40 42 31 34 33 27 23 23 18 38 37 26 35 31 34
37 26 38 36 28 37 29 21 30 25 39 27 30 34 49 56 59 55 64 69 74 88 96 102 98 91 101 86 70 64 70 43 40 35 30 48 44 46 38 45 47 57 48 61 46 48 63 60 58 40 38 37 41 45 37 38 23 30 28 22 32 33 28 36
35 19 37 34 20 23 35 29 37 38 45 31 44 54 46 42 58 55 74 83 84 101 101 98 100 107 107 91 87 91 67 70 50 44 32 38 46 45 45 51 48 50 54 64 59 58 66 46 44 58 47 36 35 36 36 30 26 28 35 22 26 35 36 35
38 18 23 26 19 31 19 25 27 43 27 50 35 40 55 59 63 66 77 83 109 118 114 126 127 126 113 97 91 89 74 77 53 60 37 38 37 50 55 46 51 69 55 55 67 70 57 53 48 56 58 44 36 42 29 31 30 22 22 30 32 18 26 33
30 25 23 30 22 27 35 24 21 25 49 50 51 53 60 58 67 68 83 97 109 118 120 126 127 137 127 123 111 100 84 79 59 60 50 49 55 45 52 50 59 61 63 73 71 65 56 59 68 48 58 52 56 44 47 45 39 28 21 24 26 29 35 18
31 37 33 25 18 21 28 21 39 31 50 42 37 54 61 48 63 80 94 101 107 116 120 129 149 149 133 133 121 103 87 77 80 58 43 44 41 54 57 54 65 71 63 70 69 65 76 64 58 59 59 44 43 53 50 28 39 31 22 32 28 36 38 22
32 21 31 20 31 33 22 36 35 32 41 55 45 47 55 64 77 89 88 107 119 129 148 143 165 153 151 145 122 113 82 76 81 57 63 40 57 60 52 55 70 78 67 76 69 70 67 57 69 67 55 43 47 53 37 37 42 22 25 32 29 27 29 37
31 33 37 23 31 20 37 24 25 27 39 43 43 60 61 52 67 91 89 117 131 144 148 164 167 159 163 154 134 105 87 79 78 62 49 48 61 65 62 74 70 81 70 73 76 82 74 63 63 61 51 59 51 35 35 37 35 23 19 33 37 28 29 28
38 31 28 22 26 27 34 37 39 31 49 41 40 43 57 54 82 78 98 128 142 149 155 171 164 162 152 145 132 107 102 80 76 66 64 50 56 50 61 71 65 64 86 87 91 85 79 60 69 60 67 46 49 47 52 36 44 32 34 21 21 24 24 35
26 36 30 35 23 38 26 23 33 29 44 46 45 52 67 66 77 86 100 110 135 146 164 169 176 172 168 144 128 125 107 99 72 50 41 47 71 65 65 84 82 72 65 85 87 80 68 65 73 51 47 62 48 47 31 39 44 39 32 19 28 30 37 30
33 28 18 31 19 30 25 33 25 29 43 38 54 60 57 62 72 85 95 116 142 147 156 156 174 162 167 146 129 128 106 92 82 54 51 72 81 80 78 86 81 92 73 68 66 71 65 74 73 66 62 42 57 48 35 30 30 20 36 20 30 25 21 21
35 26 32 31 24 30 26 19 23 41 46 48 44 57 62 51 67 75 89 119 141 139 157 161 158 168 153 151 149 121 101 98 88 76 72 79 77 94 93 85 103 87 83 88 70 78 66 67 69 63 51 61 49 44 41 33 34 33 26 32 22 28 21 19
21 21 20 24 23 34 18 27 24 42 30 39 55 39 63 56 56 69 88 122 138 142 164 161 159 163 167 153 135 124 104 90 87 83 82 74 88 96 92 100 101 96 86 88 87 80 67 53 54 50 46 50 40 35 32 37 38 18 35 23 26 24 19 37
20 26 33 25 36 36 29 24 22 41 47 47 48 42 51 52 74 85 84 102 126 142 148 161 157 159 148 157 139 126 98 97 80 93 82 97 87 99 106 103 101 101 92 91 91 73 64 66 49 44 58 44 36 48 29 38 38 20 36 21 18 26 32 35
38 22 26 24 23 25 35 29 23 35 45 45 38 42 56 57 64 68 82 106 123 121 147 142 158 164 152 134 128 119 108 100 88 97 83 99 107 107 125 110 110 105 112 87 78 77 53 45 48 60 45 40 48 43 39 31 38 18 30 25 34 32 22 24
33 30 18 32 34 27 32 33 34 20 24 38 32 44 41 46 59 77 86 99 115 110 125 139 152 166 155 125 123 105 85 93 97 100 105 100 118 111 127 123 117 108 95 85 83 74 58 50 58 56 53 52 40 34 28 34 30 23 38 22 22 31 24 35
21 35 27 21 21 34 25 34 35 36 38 42 43 40 42 49 64 74 90 90 104 107 128 127 136 131 126 117 113 88 86 85 80 97 91 110 106 137 136 139 115 108 110 98 92 73 54 46 37 40 39 50 31 31 28 30 28 22 29 27 35 18 27 37
20 24 38 23 28 21 35 38 36 36 38 30 25 27 46 38 53 57 75 82 92 108 117 116 134 124 117 114 101 88 85 83 81 91 105 107 122 119 137 134 130 107 96 86 70 68 53 37 44 50 39 45 34 21 34 32 37 28 22 33 37 20 33 30
32 34 22 21 24 19 25 18 24 35 24 29 40 25 45 36 41 48 64 86 80 104 99 103 118 115 99 93 99 83 87 86 83 90 85 104 115 120 126 123 106 98 97 86 80 59 48 32 49 28 46 41 32 37 20 27 23 36 21 19 32 25 32 36
31 33 22 22 19 24 28 37 38 21 24 37 28 37 24 27 44 42 61 73 66 92 99 100 101 88 92 80 77 82 82 84 79 78 73 84 93 113 117 109 115 108 93 84 66 62 53 33 26 29 26 22 34 32 32 26 32 22 21 36 25 18 20 22
20 30 32 29 19 18 21 27 31 20 27 26 32 27 36 38 23 32 54 65 57 78 79 76 94 82 76 85 76 59 59 59 70 67 76 90 88 97 107 104 100 86 72 73 56 43 33 30 26 39 34 30 31 21 37 24 25 28 26 32 38 29 27 19
33 34 38 26 33 26 30 30 28 33 34 25 31 29 26 25 29 29 37 37 62 60 56 63 70 71 62 74 67 58 45 63 56 65 57 69 79 73 83 90 85 82 73 63 57 51 31 39 29 24 29 26 23 28 27 36 31 24 27 25 25 24 36 22
25 31 20 34 32 26 33 29 23 27 25 28 22 29 23 37 36 26 23 45 48 47 49 54 59 48 49 46 46 46 37 34 42 45 58 61 70 73 75 78 67 57 55 52 38 24 26 18 35 20 38 19 19 20 31 33 18 22 33 30 20 32 30 38
24 30 30 31 18 26 28 38 35 22 35 34 31 18 20 26 21 34 27 36 31 46 46 53 48 40 48 36 44 38 36 34 40 49 45 47 67 60 60 54 57 51 50 46 29 33 37 31 30 36 23 28 35 22 36 22 35 35 22 38 28 31 27 30
26 31 38 34 19 26 30 22 25 24 36 32 23 35 33 38 30 29 30 18 29 29 24 42 31 34 32 41 38 31 38 29 33 23 47 49 50 44 54 48 51 51 35 37 19 27 21 26 31 24 25 20 18 33 18 36 28 31 31 38 19 22 24 37
36 36 38 26 36 18 18 26 34 20 19 26 23 38 21 20 24 38 19 19 28 37 30 28 34 36 35 31 19 21 25 30 29 32 25 35 28 44 29 29 46 23 37 29 21 36 34 21 19 36 18 25 20 31 18 27 34 29 20 27 38 22 20 36
32 29 29 37 22 36 33 26 19 37 34 21 26 34 18 19 26 24 29 24 38 34 23 20 34 18 28 29 20 34 33 33 29 34 28 36 26 26 22 32 24 30 33 18 19 38 37 19 34 36 37 23 28 34 35 24 22 25 36 33 22 36 19 27
33 36 32 30 33 18 27 38 30 28 35 28 23 18 31 38 33 23 19 22 19 24 27 38 20 21 26 35 34 22 21 21 37 23 35 32 38 24 25 37 38 19 31 36 19 23 37 22 23 28 23 24 35 31 38 23 33 21 24 28 33 38 22 37
23 21 23 27 32 37 32 25 19 37 25 38 35 37 20 37 23 26 22 34 30 35 24 20 22 36 19 33 38 24 25 30 29 25 23 26 26 36 26 21 31 18 31 18 27 23 31 27 18 28 26 30 18 26 28 32 37 19 38 23 26 28 35 37
21 28 19 25 20 31 37 32 38 37 22 20 23 32 27 24 34 26 36 21 24 35 23 22 25 23 34 35 19 19 32 31 34 37 32 36 25 38 25 28 18 24 22 19 34 21 27 20 32 19 30 36 38 22 24 37 19 38 20 28 28 38 34 33
23 21 23 18 20 28 26 32 23 32 31 24 29 26 29 18 26 24 18 21 21 29 28 32 36 19 22 38 24 29 37 29 20 32 20 23 37 25 23 30 27 37 23 28 19 18 22 33 29 38 25 26 18 23 38 37 29 23 37 36 24 24 27 22
36 34 31 31 30 30 25 33 26 20 38 30 27 34 29 22 24 30 35 32 38 27 19 37 29 34 38 18 37 29 30 32 32 21 19 20 34 33 24 34 38 19 31 33 24 30 29 25 29 22 38 29 27 25 24 31 35 33 36 35 34 20 30 22
35 31 37 26 23 18 20 37 35 34 30 26 28 37 25 21 22 34 27 37 24 30 35 24 26 19 19 25 22 27 37 29 31 34 30 36 24 22 29 30 35 25 27 29 26 18 23 22 31 30 30 24 31 22 37 26 32 26 29 27 35 27 29 31
23 26 22 35 31 32 26 35 38 23 20 25 34 35 30 21 21 24 19 23 37 26 34 29 38 21 33 26 38 38 35 29 18 28 22 30 37 37 18 33 34 36 26 21 34 37 22 36 21 36 19 25 21 24 30 31 19 22 34 26 21 26 22 36
20 27 23 38 26 27 19 30 22 34 32 27 20 26 24 36 19 37 34 21 31 30 29 25 35 35 19 35 37 29 32 19 23 25 29 37 28 24 27 32 38 35 30 38 30 30 38 36 30 26 25 32 38 28 19 18 31 25 36 34 20 18 19 24
38 21 31 22 29 27 25 27 29 32 35 18 23 26 25 37 35 29 29 33 24 27 20 23 36 34 37 37 21 37 21 33 22 34 31 27 18 36 30 21 32 37 33 23 34 38 18 35 19 29 18 37 24 32 37 36 30 30 35 23 21 31 24 28
38 37 20 27 27 31 25 22 28 33 25 28 25 36 25 36 21 33 30 32 19 29 22 23 35 30 35 23 37 31 38 24 36 27 27 29 22 31 31 22 19 35 30 31 38 19 26 29 34 29 20 27 36 31 38 21 36 22 26 19 33 28 35 20
21 36 29 25 32 37 34 35 29 20 26 26 24 33 23 38 26 29 27 18 38 25 35 23 24 27 29 31 37 21 35 28 34 37 21 23 19 21 33 35 19 22 21 28 37 25 21 38 28 19 27 23 19 30 30 26 25 28 36 37 25 18 26 33
30 26 30 21 25 28 19 28 19 28 20 18 29 26 32 31 22 25 26 20 33 38 23 30 21 37 30 34 28 30 31 27 24 24 18 31 30 20 21 22 28 23 21 26 29 31 33 38 33 23 31 32 32 19 27 21 21 23 31 38 35 29 30 24
38 22 31 36 21 20 30 31 34 23 21 35 24 32 37 32 26 29 28 24 27 37 25 37 20 20 35 33 21 31 22 28 32 18 18 22 33 36 26 37 35 18 37 18 30 25 30 23 33 38 21 21 28 25 30 38 31 35 34 24 37 21 34 37
