P2
64 64
255
29 18 26 23 30 32 21 18 33 18 28 26 36 28 22 19 37 25 23 36 26 33 33 34 31 27 31 27 20 31 37 26 19 34 27 25 29 37 29 33 30 32 35 25 24 20 28 35 37 24 26 31 23 37 21 35 31 26 29 32 30 33 28 25
26 31 31 35 28 32 37 29 37 36 33 20 35 27 23 19 29 24 32 24 24 38 25 26 27 34 31 37 25 23 24 29 30 28 36 33 30 33 30 37 20 38 31 18 25 27 35 22 21 22 37 38 24 32 30 36 31 29 36 20 21 34 19 21
38 19 19 31 26 30 22 33 31 34 28 25 30 32 29 23 19 28 37 37 37 31 32 20 36 34 31 23 29 24 28 33 30 20 20 37 22 34 20 33 23 32 34 32 26 34 20 19 29 29 23 34 36 22 25 36 34 37 25 25 32 29 38 37
34 29 38 18 33 23 32 26 30 28 19 32 32 27 18 20 26 30 25 37 27 27 31 27 36 34 30 20 38 35 24 37 24 26 31 32 19 33 38 33 30 32 27 18 26 38 26 37 23 30 27 29 36 29 35 38 18 18 23 19 26 32 22 38
37 30 34 33 35 34 27 30 37 31 35 37 32 20 20 35 21 29 36 22 34 26 38 27 18 23 29 20 28 32 35 19 31 24 22 21 29 27 27 22 29 30 28 23 30 31 18 20 37 24 37 38 24 32 37 34 24 35 29 36 23 31 37 21
18 32 22 28 35 23 31 30 19 23 21 26 19 26 26 23 32 34 36 37 19 30 20 33 26 18 35 33 32 23 24 20 38 27 37 19 26 26 19 20 20 38 25 28 37 20 27 21 27 31 20 33 33 26 19 27 36 31 27 25 26 25 33 25
21 21 23 36 32 26 30 27 27 32 18 30 31 27 26 21 28 30 30 20 20 23 25 28 24 30 24 24 21 32 35 25 32 22 26 21 21 24 26 31 30 18 21 38 22 21 32 33 36 24 21 37 38 29 20 21 20 20 19 37 33 18 38 25
31 35 23 19 18 32 28 31 37 20 34 20 26 24 24 37 30 24 18 23 20 35 29 34 18 36 26 21 29 37 34 23 24 30 30 31 20 37 36 24 29 36 28 25 28 24 20 35 20 24 35 32 34 36 19 38 27 19 30 22 18 20 37 26
23 37 28 34 22 30 38 23 29 36 34 36 22 24 36 18 37 20 23 29 31 22 19 33 31 34 37 32 27 21 35 35 32 38 23 34 38 27 21 38 35 25 38 31 26 32 25 25 37 23 30 33 33 25 33 37 25 22 31 22 29 37 25 20
29 21 21 27 32 31 31 19 30 26 37 22 38 21 20 23 19 30 36 32 34 22 27 38 27 33 36 21 32 36 27 19 30 21 34 25 31 18 26 29 26 21 26 31 34 23 20 26 28 31 31 27 27 31 32 28 34 38 19 32 24 22 36 19
31 35 33 31 31 22 34 31 37 36 21 36 31 38 20 38 29 27 37 33 30 31 36 34 21 29 20 22 28 32 23 38 24 28 25 35 27 38 36 27 18 27 37 23 29 27 38 38 37 24 33 31 25 24 26 21 33 29 23 38 22 21 34 25
35 28 24 19 20 22 29 19 26 35 18 30 31 29 25 29 21 24 30 21 32 25 26 18 21 30 37 29 23 23 18 18 22 29 35 30 29 36 18 18 21 33 35 19 31 31 38 23 24 38 30 32 24 27 37 20 25 26 20 32 24 28 37 38
28 25 19 25 27 21 37 26 29 28 22 24 21 26 29 35 19 21 20 30 35 21 36 30 29 33 33 26 25 35 33 22 24 20 23 26 19 30 26 34 19 38 20 19 27 26 36 22 20 20 35 21 30 26 37 28 26 24 38 23 27 29 24 31
25 18 32 33 27 27 23 28 26 31 21 34 23 34 37 38 23 20 38 35 20 22 32 23 23 31 20 30 35 38 19 24 35 18 26 29 19 31 21 26 29 29 29 35 37 34 37 30 19 38 29 31 23 23 25 20 27 24 31 23 18 20 31 36
32 35 38 20 19 29 28 36 30 31 28 25 25 23 32 19 36 32 21 37 33 28 36 24 28 36 19 26 32 27 24 32 29 24 24 29 27 30 32 23 32 23 26 32 37 22 37 33 18 36 34 38 21 20 19 21 38 38 18 28 24 33 30 33
20 26 33 32 33 32 24 24 31 25 31 30 28 32 25 32 38 19 31 31 20 34 37 33 35 32 22 26 27 23 32 26 26 18 18 19 35 24 35 27 33 37 23 33 24 19 22 35 29 38 29 36 19 26 31 21 30 24 25 31 36 30 36 32
24 27 32 22 21 20 34 19 24 34 25 38 19 26 36 20 19 38 23 24 32 23 29 36 21 31 22 38 37 20 23 36 34 35 29 38 27 38 34 27 27 19 31 28 18 31 30 36 38 32 35 28 19 31 18 32 28 20 23 27 25 38 20 19
26 27 38 31 36 36 21 28 20 22 26 29 27 20 23 28 37 32 20 31 18 38 35 25 27 30 28 35 32 29 30 22 33 20 24 21 18 33 27 19 19 22 21 21 22 20 28 30 30 38 37 34 38 19 38 35 37 29 21 20 18 18 36 34
35 21 37 23 35 27 19 25 29 34 34 22 20 23 24 25 30 33 23 37 20 24 34 34 19 37 29 35 36 31 38 32 36 20 28 28 19 22 24 20 23 28 20 18 35 30 27 30 24 18 20 27 24 29 21 21 38 29 32 23 35 33 29 28
36 31 25 35 37 33 36 29 27 29 23 38 34 34 31 25 39 23 31 38 35 29 25 22 37 27 24 24 30 25 37 33 34 27 36 24 38 28 21 26 27 31 37 23 24 30 28 20 35 21 29 25 22 20 27 19 37 26 18 33 36 24 25 20
20 20 27 38 19 27 22 18 35 29 32 29 30 26 38 30 28 25 40 27 36 42 29 39 38 29 22 28 26 26 19 18 25 37 23 20 19 20 36 25 44 26 29 41 29 34 39 28 28 25 29 31 34 20 28 19 34 24 36 31 38 24 22 19
27 34 18 36 31 21 24 30 27 38 25 23 26 23 33 32 37 33 34 31 40 35 47 47 31 36 30 35 27 32 33 24 32 29 25 119 33 40 40 38 44 36 49 48 39 39 38 28 35 28 40 41 30 37 30 31 31 27 36 18 21 28 31 36
35 21 26 28 33 32 38 28 27 22 31 26 22 27 45 33 47 34 47 53 45 49 44 38 46 44 41 45 29 21 20 36 24 19 24 34 127 37 40 31 31 47 41 46 45 52 34 48 44 40 36 30 41 26 35 32 22 19 22 33 21 33 35 25
37 35 29 38 27 28 37 38 31 38 26 41 40 47 37 31 52 39 47 48 38 38 56 49 35 46 36 42 30 24 34 25 28 29 24 129 30 118 42 39 55 51 46 54 55 41 51 47 34 51 37 35 34 21 36 32 31 34 27 25 33 28 27 29
25 26 18 33 23 27 18 24 33 25 40 30 40 30 41 50 37 52 56 61 54 58 52 44 52 53 36 48 36 40 30 32 31 34 124 41 119 52 43 44 54 46 51 44 54 46 58 46 41 55 49 41 27 34 21 22 36 36 26 23 20 26 24 37
24 29 31 18 30 36 30 38 24 40 43 36 34 47 43 52 43 48 43 65 59 50 57 43 53 44 38 49 32 37 30 43 30 25 214 31 47 131 42 47 58 44 54 59 63 45 58 45 50 47 36 49 41 26 34 37 25 20 27 28 35 35 29 36
30 38 24 35 21 25 35 24 18 28 42 31 49 38 56 51 51 62 48 61 67 62 64 51 61 51 54 58 38 43 41 28 38 27 115 126 36 52 134 49 56 56 57 62 67 54 62 60 52 46 42 41 33 38 29 22 34 22 31 22 20 18 30 18
34 27 30 32 21 20 27 33 21 38 27 44 52 53 49 60 48 51 57 60 66 68 52 56 58 61 63 43 46 34 44 32 129 46 130 41 134 53 56 137 52 55 70 58 61 72 70 54 65 46 60 40 54 41 32 38 37 18 35 25 20 22 28 32
29 25 35 25 25 27 28 21 30 41 40 44 38 55 47 65 68 52 59 63 58 71 74 62 52 66 54 46 47 43 34 134 32 40 40 139 128 49 132 69 63 57 70 57 67 66 60 56 63 62 54 42 54 41 39 34 29 21 18 30 35 23 31 18
18 31 36 25 33 22 30 27 29 45 33 42 37 55 64 67 65 67 67 68 68 71 67 69 68 61 53 53 54 40 124 37 35 36 138 223 51 130 49 62 62 60 61 61 64 60 67 57 70 57 61 58 49 42 30 26 34 34 23 23 36 25 37 25
35 27 33 26 30 21 18 20 43 31 49 52 38 48 50 63 60 57 79 64 79 81 68 68 58 53 60 59 60 45 121 51 49 36 208 126 60 64 141 71 76 63 63 83 80 71 66 77 58 52 56 59 45 38 40 38 42 39 19 32 22 28 22 19
38 34 38 32 31 28 38 36 29 29 42 41 59 52 48 69 60 65 64 83 75 82 79 66 73 65 57 57 54 39 43 129 53 137 134 47 137 140 69 66 71 68 76 78 82 73 80 58 66 70 59 50 58 44 34 29 27 32 33 30 30 31 38 32
24 26 21 30 36 30 19 22 34 44 44 36 52 56 51 70 64 77 65 78 72 71 87 69 65 69 52 66 56 56 127 57 40 57 213 41 215 53 51 66 69 73 82 77 71 85 74 76 69 66 50 48 59 35 33 48 27 27 27 38 34 30 21 18
24 31 25 36 19 27 22 21 38 28 33 39 54 63 60 61 74 70 71 67 77 69 83 65 70 58 55 58 45 134 46 36 52 125 42 139 227 60 68 55 64 79 67 80 83 84 80 64 56 52 58 63 53 36 47 30 43 29 38 19 23 36 23 27
33 24 26 24 40 42 26 29 36 37 40 57 52 65 52 64 61 63 83 76 71 84 75 83 83 79 64 67 54 62 146 62 45 134 133 136 145 59 70 70 77 78 72 85 87 77 68 82 73 67 55 62 52 56 53 39 44 46 41 45 36 42 28 30
39 45 41 40 49 38 32 49 37 43 43 57 56 71 72 79 74 80 80 79 94 92 77 77 88 80 82 78 60 66 151 61 55 62 222 67 234 76 78 86 71 77 81 78 96 96 88 90 77 78 81 80 76 71 50 60 59 39 56 48 53 56 46 53
44 47 35 34 44 49 36 41 46 55 67 66 60 78 80 83 87 89 88 95 84 90 83 81 90 75 83 82 63 155 72 61 59 152 63 163 150 165 75 82 90 87 96 100 101 100 99 92 91 85 91 81 66 72 70 70 65 58 60 49 58 65 54 57
50 52 53 57 55 53 44 53 44 53 69 75 77 81 72 85 85 90 95 95 84 82 98 92 91 82 88 74 87 67 158 62 65 73 240 170 73 77 163 98 96 96 92 108 95 107 104 88 85 96 91 82 88 79 86 68 73 71 64 71 74 75 70 65
46 39 56 38 50 48 54 46 48 56 57 57 54 75 70 75 81 75 70 76 90 88 88 79 89 85 83 78 78 149 59 55 64 66 235 157 72 160 76 86 90 80 87 90 96 90 77 91 91 88 89 78 82 64 73 55 50 63 58 68 70 62 61 60
33 48 34 40 36 30 46 39 50 34 54 54 46 53 49 62 66 60 66 73 68 62 78 64 64 62 56 64 135 59 44 41 48 58 217 61 140 146 66 69 70 66 69 77 70 82 71 77 66 76 66 58 65 59 52 54 47 54 53 41 59 60 53 61
43 43 24 38 32 29 28 42 41 33 31 51 43 47 53 60 49 52 66 49 51 55 56 68 51 58 45 55 141 43 35 36 39 128 46 127 58 146 131 54 56 62 58 64 56 61 68 56 57 56 49 43 54 46 38 47 34 38 43 35 39 33 48 41
24 19 34 35 37 25 20 28 18 38 23 30 38 35 30 44 36 42 47 57 57 40 55 39 51 36 36 32 126 24 24 39 37 104 39 27 125 37 214 36 43 46 47 55 53 38 39 52 44 42 47 33 44 32 38 33 34 22 22 21 32 22 33 37
28 36 20 22 29 21 21 37 23 36 31 37 37 26 28 36 47 44 37 51 52 48 41 39 49 32 42 123 24 36 35 20 19 116 31 112 36 205 34 32 36 32 38 41 43 49 42 32 37 33 28 27 25 23 23 23 29 32 20 25 33 27 19 31
21 18 20 18 36 37 23 28 19 25 18 33 36 25 42 24 46 45 28 48 31 32 48 41 28 44 127 31 32 23 25 32 111 20 33 108 27 128 117 33 42 29 42 46 34 35 34 40 38 29 31 22 38 37 23 27 19 23 32 32 28 23 23 32
34 33 32 23 25 21 23 28 18 18 23 31 33 37 34 29 41 43 44 32 44 28 34 42 43 117 33 27 23 20 38 34 109 18 28 38 109 20 195 32 25 39 44 29 28 25 28 43 25 29 36 33 19 20 30 22 30 32 22 32 24 36 25 29
32 24 25 30 36 36 34 31 20 25 19 22 38 21 32 21 19 40 35 34 41 30 33 21 31 31 116 22 30 20 37 122 27 31 36 30 109 18 195 26 33 26 22 42 24 26 30 27 27 20 25 29 36 18 26 36 23 30 31 21 28 20 29 21
33 33 23 24 20 37 38 24 30 29 34 23 38 22 33 38 30 28 36 22 31 27 29 22 25 123 23 32 31 29 36 32 119 32 26 35 32 104 206 18 25 18 25 19 29 36 31 35 23 25 37 18 21 32 21 27 31 21 24 32 38 25 18 19
34 25 30 38 35 29 37 32 30 35 33 33 30 38 34 20 30 20 32 18 32 22 28 24 32 122 35 23 38 19 29 32 24 114 30 38 119 34 106 123 37 26 23 35 18 28 28 22 33 36 27 28 27 38 23 18 24 29 20 24 21 27 29 36
28 18 34 30 27 38 30 27 33 34 32 37 33 18 27 22 26 27 21 24 22 18 23 27 34 117 32 35 18 32 34 18 105 31 37 33 38 205 26 25 121 34 21 26 33 28 38 24 18 36 34 33 31 29 36 31 32 37 38 37 32 30 31 36
30 36 29 37 37 31 18 36 37 21 19 32 24 33 38 24 23 20 19 29 23 18 23 32 107 25 33 31 18 37 18 36 29 108 38 32 112 19 104 29 38 115 23 19 33 31 38 18 22 32 33 26 21 32 25 27 34 33 21 24 18 20 25 28
18 33 30 22 36 24 32 35 27 34 33 25 28 28 24 27 35 36 33 34 28 22 34 33 120 30 31 28 25 30 19 36 119 30 27 34 20 121 23 103 28 25 119 33 36 38 37 36 23 29 35 30 33 21 30 26 38 30 18 34 20 36 21 28
30 20 32 32 24 22 22 28 31 34 20 37 34 27 27 38 32 30 22 18 24 24 28 21 33 121 21 33 20 36 29 37 109 23 22 26 33 107 36 112 37 108 35 28 25 30 38 32 28 29 34 35 37 27 32 19 32 26 29 20 23 24 31 28
19 28 38 30 34 21 29 18 33 31 21 33 19 33 26 35 36 25 23 26 25 34 38 34 38 29 114 29 25 37 25 35 118 37 26 21 31 19 208 18 26 109 29 21 20 37 28 36 20 34 35 36 38 28 28 34 33 33 36 22 37 33 24 35
22 24 32 27 34 34 36 34 32 34 26 33 18 18 35 33 27 18 18 23 28 36 29 25 35 23 106 24 23 25 32 23 35 109 18 22 34 34 108 24 21 109 19 30 27 20 24 31 19 21 35 37 28 34 22 23 22 35 29 24 28 34 19 22
18 25 18 36 28 28 18 23 38 18 20 32 38 24 27 22 32 19 18 36 38 23 35 28 19 18 19 109 31 31 35 36 113 28 22 28 32 34 28 116 22 106 34 28 38 29 29 19 38 24 19 24 28 20 37 26 18 38 33 32 22 19 22 26
30 35 26 38 35 30 20 27 36 31 29 22 38 27 38 19 27 29 20 21 36 38 22 26 24 34 20 27 120 21 35 29 20 111 34 30 25 29 31 38 38 122 37 18 28 19 38 37 38 21 21 27 37 32 37 19 35 34 38 24 23 24 19 22
30 38 22 34 18 31 32 19 27 18 27 38 30 37 33 25 21 25 31 37 22 32 29 21 37 30 38 27 108 18 26 34 32 122 34 34 19 24 21 33 116 35 38 22 36 28 28 25 29 24 32 18 37 33 18 20 23 24 26 37 31 38 37 31
34 24 23 22 22 21 19 35 35 33 27 34 38 20 36 24 25 26 37 22 36 33 32 22 35 36 19 21 29 122 24 28 106 29 33 22 31 26 21 28 21 29 22 31 29 27 25 31 31 32 30 37 29 30 37 31 37 18 22 32 36 25 18 34
29 30 35 36 36 37 30 28 24 36 32 34 19 25 25 23 38 35 26 18 24 31 34 36 19 31 38 32 35 25 105 36 109 22 25 23 22 27 19 35 34 24 37 24 36 18 21 24 34 31 25 29 28 27 29 27 24 37 27 19 21 21 33 30
36 19 19 27 25 36 27 24 32 34 22 32 28 30 36 31 19 31 38 32 33 32 27 29 31 34 35 25 34 31 29 28 18 113 24 22 30 18 21 22 20 33 21 38 35 21 20 34 36 19 35 37 22 18 28 28 38 30 26 37 33 32 20 30
35 35 27 38 31 33 30 31 29 23 36 32 19 35 20 33 28 33 34 32 22 38 18 22 25 22 33 21 21 21 25 20 121 18 25 18 22 19 27 24 37 18 26 34 18 23 25 25 34 34 28 38 34 36 31 35 38 26 31 22 22 36 22 22
36 18 34 27 30 38 18 30 30 26 19 32 19 36 35 28 23 22 24 32 26 37 28 18 28 28 18 37 27 27 22 20 25 29 26 25 35 23 37 21 24 20 22 37 30 26 19 24 19 28 32 32 36 33 18 24 33 35 27 21 24 20 31 31
21 21 19 21 22 32 28 23 29 30 31 26 32 19 21 23 23 32 19 22 21 34 36 35 23 21 23 28 29 28 26 38 24 35 18 29 32 34 33 32 36 24 21 30 25 24 19 22 30 19 37 22 31 36 27 31 32 27 25 22 23 22 34 26
22 29 37 35 29 38 22 22 20 31 22 35 26 27 30 24 23 33 26 20 31 33 37 29 29 26 27 29 36 26 23 31 31 28 32 32 20 35 35 23 29 26 18 35 29 26 27 34 29 27 38 30 19 23 18 38 36 30 22 22 19 37 26 34
