P2
64 64
255
20 24 18 16 17 21 14 21 14 17 18 24 15 26 21 26 25 22 17 15 14 24 26 25 19 19 17 15 18 17 25 15 17 19 15 19 16 26 26 25 17 24 21 26 17 24 17 18 25 17 19 18 17 25 18 21 18 19 26 24 21 24 24 14
18 16 22 16 24 18 17 20 14 16 22 21 21 19 17 24 24 25 24 14 17 26 20 26 21 21 14 14 25 21 16 20 26 22 18 23 20 16 14 24 21 19 15 14 24 18 18 17 23 19 17 21 15 15 21 17 20 20 17 17 23 14 20 14
14 25 18 14 24 22 21 19 15 24 21 25 19 24 16 24 19 23 26 21 26 24 22 21 26 25 22 15 21 16 21 17 25 14 24 18 23 18 18 17 17 22 18 20 21 24 15 17 18 23 19 15 14 14 17 19 26 18 19 22 23 18 19 16
20 16 15 17 26 15 15 22 26 25 20 26 18 22 25 23 22 26 14 21 21 15 14 26 26 17 17 23 23 24 20 21 16 15 14 22 23 19 16 18 26 14 24 23 16 14 24 16 16 21 16 16 25 23 20 25 25 18 23 24 18 19 22 24
18 20 15 22 23 21 22 26 25 22 23 15 16 21 22 21 24 16 23 20 15 23 23 21 24 21 18 17 17 26 18 16 24 23 21 22 21 19 22 14 15 25 15 23 21 18 23 21 15 21 18 14 15 21 18 26 25 22 14 26 17 16 26 22
20 16 18 21 14 15 14 18 18 21 26 26 24 25 16 21 20 18 26 15 18 18 18 15 15 26 22 21 18 22 17 19 22 23 15 18 17 14 25 18 23 25 23 23 21 19 15 26 20 15 16 17 15 15 23 25 25 22 14 18 21 25 24 19
24 23 15 14 14 25 25 16 20 16 16 24 18 23 23 21 20 19 19 19 19 23 22 17 19 19 21 14 15 21 19 24 20 17 20 15 17 16 22 17 18 19 22 14 24 21 19 20 21 21 24 24 19 14 25 15 25 20 23 18 16 26 23 21
21 23 21 17 14 18 23 14 23 25 23 16 15 25 15 25 19 25 26 19 20 19 15 21 16 24 16 18 18 20 16 17 25 15 26 25 19 20 18 23 14 25 14 25 20 19 15 23 23 26 17 18 17 24 15 21 26 16 14 19 14 16 15 15
26 20 23 16 23 17 23 17 15 25 25 22 22 20 17 25 16 15 23 21 23 17 23 15 17 23 17 15 17 19 25 22 15 24 17 26 24 26 25 17 20 20 22 23 25 15 23 26 24 26 17 21 16 19 20 25 17 26 17 18 26 22 23 14
25 15 23 19 15 14 15 20 14 18 23 22 20 26 24 14 19 14 23 23 20 23 21 23 18 25 16 14 15 19 24 18 22 25 19 21 21 14 15 15 18 20 14 20 20 17 25 15 21 20 21 14 16 16 26 20 16 23 23 22 21 20 24 21
17 22 25 18 24 16 24 23 25 17 26 20 15 16 26 14 26 17 26 19 25 25 15 15 15 16 18 19 19 16 24 14 21 18 19 18 19 26 23 14 19 22 26 18 25 21 25 24 15 18 22 26 16 18 17 20 18 17 22 16 15 16 15 18
14 15 21 17 25 23 19 18 23 21 15 26 16 25 24 15 19 26 20 21 26 15 26 16 24 15 24 24 23 15 22 23 25 22 15 21 17 20 18 24 15 25 17 24 20 18 18 15 15 19 26 16 18 17 18 22 22 19 19 18 21 14 16 22
17 18 24 18 26 17 14 21 25 16 23 15 15 17 24 19 19 23 22 14 19 17 17 14 21 24 16 23 16 17 19 24 24 22 20 18 14 22 23 16 20 18 18 24 21 23 22 17 19 20 17 23 26 20 14 18 20 14 24 15 26 22 14 15
24 18 20 15 19 15 26 20 17 23 16 26 19 18 21 22 17 23 14 14 14 22 26 20 24 20 25 24 21 25 20 20 16 25 15 14 22 22 18 20 26 23 18 16 18 17 19 16 19 14 22 19 19 20 16 25 14 18 23 16 20 19 21 21
18 16 15 14 18 16 18 21 19 21 17 21 22 26 15 14 14 23 26 18 21 20 18 22 23 16 18 17 25 14 16 22 18 14 26 15 18 15 14 15 22 14 25 14 14 16 26 24 24 25 20 25 18 15 20 15 18 26 17 21 15 17 21 14
19 25 19 18 20 25 14 15 18 17 14 24 17 26 17 15 15 25 16 21 26 26 24 14 15 19 25 14 20 26 24 20 15 19 18 21 24 21 20 26 25 17 26 21 17 22 20 22 25 18 15 19 14 25 21 26 16 23 17 16 20 21 17 17
21 14 21 16 21 24 26 19 19 19 15 26 18 17 16 15 22 24 21 24 16 24 21 26 23 19 19 25 25 26 16 18 18 14 15 18 19 18 25 25 21 24 19 22 19 18 16 17 18 24 24 25 22 14 23 26 23 19 22 15 23 20 14 22
15 24 25 14 15 22 18 26 19 20 20 14 22 18 25 17 20 14 19 17 25 14 17 26 19 20 26 21 24 20 22 15 16 25 26 21 14 14 25 24 26 22 22 17 18 25 14 25 23 25 18 21 25 25 14 14 19 26 24 18 14 25 22 15
18 26 20 25 18 19 15 23 24 22 19 25 19 20 17 25 15 16 14 22 24 16 18 20 21 18 19 17 18 19 19 21 16 16 19 24 18 25 15 21 14 25 17 15 20 16 17 21 25 24 23 18 16 24 15 15 22 26 21 22 21 26 18 22
22 20 14 16 17 14 21 21 26 26 18 20 26 24 23 23 17 20 24 23 21 26 18 20 17 25 18 15 15 23 22 17 17 15 26 25 20 19 25 19 27 22 28 26 22 23 19 18 19 21 25 18 22 17 20 16 25 20 14 22 24 17 21 20
15 19 18 18 17 19 14 19 25 25 23 16 15 14 23 27 20 31 26 23 26 23 25 32 31 21 27 24 18 20 18 20 19 14 18 20 15 25 29 26 27 24 29 24 27 31 23 29 19 29 21 24 22 26 18 22 25 16 20 18 23 20 21 15
19 22 19 23 17 26 14 21 20 22 23 18 15 23 28 20 25 27 33 33 33 32 27 27 27 30 27 27 19 25 18 23 17 22 22 21 22 23 28 24 24 26 31 25 34 36 36 35 31 29 28 17 17 15 19 17 22 16 25 24 19 20 19 16
23 20 21 20 16 17 26 17 19 22 16 15 26 26 33 28 30 33 39 40 37 31 29 33 38 36 28 30 32 17 17 23 22 18 22 25 29 32 33 33 39 38 41 29 38 30 38 30 36 30 27 24 22 24 19 19 21 25 16 26 23 18 19 17
21 26 18 21 22 14 21 20 19 25 24 26 22 23 31 38 39 31 35 34 43 34 45 35 32 34 39 34 24 23 18 24 22 21 21 30 25 27 37 31 43 35 40 37 43 37 32 34 36 36 27 24 24 21 24 24 21 23 15 17 19 18 18 22
14 20 20 17 16 22 21 18 22 14 27 23 35 30 34 41 33 45 45 38 37 43 42 43 41 37 33 30 34 29 30 22 14 25 29 25 34 36 31 42 40 43 37 41 40 45 40 35 34 33 34 37 25 27 18 25 25 19 14 17 15 14 19 15
21 19 26 25 21 24 16 14 26 23 30 28 27 35 40 40 37 48 45 43 48 52 46 45 45 40 45 31 29 34 34 31 30 29 22 34 32 42 46 43 43 49 51 48 52 44 41 48 44 38 43 34 36 28 19 24 26 17 15 26 25 19 26 23
24 24 16 17 19 21 21 25 25 24 23 25 40 36 36 47 50 50 50 49 46 54 49 50 44 40 43 44 33 40 33 32 28 21 32 30 32 43 47 45 41 46 52 57 54 47 53 49 46 47 42 41 28 26 25 30 26 21 23 18 24 25 15 17
14 15 24 26 18 26 16 17 27 22 31 32 39 44 38 42 53 51 47 59 57 59 54 59 47 44 41 46 33 30 28 36 31 30 31 33 41 45 45 47 49 58 54 54 61 56 58 48 46 40 43 43 32 35 34 20 20 19 14 19 22 18 23 20
21 22 18 18 23 15 21 20 26 28 32 31 40 39 49 52 49 59 60 62 54 59 54 55 51 51 49 43 38 38 34 30 28 38 33 33 36 51 44 55 49 57 52 65 63 56 52 50 53 45 50 37 35 31 34 24 18 24 21 20 19 24 16 22
15 24 18 17 18 24 19 26 22 34 38 40 36 40 45 53 48 56 55 60 69 65 56 54 56 49 53 42 42 33 36 34 36 39 41 41 38 52 45 59 62 63 61 59 57 66 55 56 47 46 42 41 44 30 35 34 18 17 17 18 18 17 20 18
25 26 25 24 18 16 15 19 23 28 27 42 43 42 42 53 50 54 58 68 70 68 66 60 53 50 52 52 47 44 43 39 38 44 40 44 50 52 49 51 65 58 67 67 61 61 62 57 49 54 50 50 36 33 38 33 31 26 21 14 16 14 19 25
17 20 21 22 14 17 24 18 24 31 30 34 42 50 49 55 59 63 64 64 72 69 65 60 64 54 53 54 47 37 33 39 37 40 40 43 43 50 51 52 57 69 62 75 76 67 67 54 53 49 46 42 47 32 30 30 31 17 25 16 17 22 14 15
22 19 25 19 14 24 17 19 28 25 38 37 46 42 53 58 55 57 64 73 70 77 71 66 62 58 51 50 42 35 44 36 40 34 40 45 49 54 53 62 63 65 66 68 68 70 67 63 51 49 54 39 45 33 30 27 28 22 26 22 17 21 14 16
24 18 18 21 18 24 21 21 20 28 29 37 39 39 51 58 53 57 67 72 74 66 68 68 59 52 53 48 47 47 44 38 34 43 37 46 45 46 51 50 63 62 65 70 72 69 65 64 61 48 47 40 38 35 37 31 31 18 16 23 20 17 26 21
17 15 25 19 24 26 19 24 28 29 34 37 39 50 42 57 55 65 59 63 70 64 69 65 55 60 46 50 47 35 37 41 36 36 36 36 38 49 51 52 62 66 66 70 72 67 65 54 59 48 50 48 46 37 35 27 27 16 15 23 23 22 18 16
19 25 15 25 21 18 19 16 20 24 27 30 38 43 42 50 49 56 64 58 68 68 66 60 61 57 46 48 47 41 41 41 40 35 37 38 47 41 56 54 62 59 62 60 64 66 62 62 57 47 51 38 35 31 29 30 26 16 22 18 20 23 22 24
17 22 19 22 20 23 22 17 22 26 26 33 41 43 43 50 53 54 56 63 65 59 54 61 50 57 42 51 45 44 29 36 34 28 34 41 42 48 43 49 57 53 54 63 64 63 54 60 45 51 46 46 36 32 31 24 23 21 25 20 19 16 19 20
15 17 15 14 14 16 15 17 18 29 34 32 34 40 38 49 49 49 54 50 50 57 56 57 54 47 39 44 36 42 36 36 32 27 33 32 36 44 47 49 54 51 49 57 58 58 54 55 51 41 39 40 31 31 31 31 27 18 24 22 18 20 15 15
16 20 14 22 16 15 19 20 14 20 31 35 33 33 42 46 50 44 54 54 57 49 54 44 46 49 42 39 38 40 35 31 30 28 36 37 32 46 43 51 52 51 56 47 52 47 52 42 45 43 35 39 29 31 24 18 17 23 25 25 20 14 17 19
28 21 19 17 28 22 26 26 19 20 32 36 41 41 35 46 45 46 47 49 55 55 53 54 49 40 43 39 38 39 29 33 30 25 31 39 41 45 47 50 46 54 51 51 46 52 56 52 48 48 48 41 40 35 36 33 24 30 26 26 31 32 32 27
23 22 27 29 26 28 30 23 22 21 32 33 35 38 45 47 49 53 55 50 47 48 50 55 55 52 49 39 46 38 37 39 34 27 32 43 47 45 47 46 57 51 54 49 49 53 56 47 51 44 43 50 38 33 31 38 34 34 36 38 31 36 36 38
24 35 24 30 32 26 26 27 37 27 37 28 37 37 48 51 53 49 44 56 49 58 46 54 55 49 47 41 44 35 41 29 38 36 43 43 46 49 48 44 58 55 50 60 49 52 52 52 50 55 43 45 47 42 42 41 39 34 37 42 41 34 38 42
24 23 29 30 30 24 23 23 31 21 29 33 32 27 32 41 46 41 44 38 46 45 42 37 46 45 45 42 32 34 30 29 25 26 29 33 33 33 45 38 42 38 48 49 40 43 50 50 47 47 38 35 40 34 36 34 27 33 31 30 37 32 27 30
27 29 22 24 28 20 25 19 29 27 22 21 25 29 25 32 35 36 31 37 37 34 31 38 31 26 31 29 31 25 30 21 19 21 19 25 30 30 37 28 29 30 36 41 38 33 39 30 38 25 27 23 22 20 29 25 22 26 29 32 26 29 32 23
25 15 15 20 26 26 26 17 20 20 19 24 22 20 23 17 24 26 31 29 29 31 27 30 24 18 19 24 17 16 23 25 24 16 20 24 20 19 26 22 30 31 31 24 23 26 23 28 25 28 26 24 23 16 18 14 14 19 17 19 18 16 17 20
14 22 20 25 14 18 16 26 14 26 15 15 19 26 19 14 17 19 22 27 27 28 21 29 28 20 21 18 15 19 24 25 23 23 23 21 24 14 16 17 16 18 29 20 21 20 22 23 19 26 15 19 24 24 17 14 15 22 20 22 14 18 21 16
25 25 22 14 26 24 17 17 25 24 23 23 21 14 23 25 22 26 14 20 26 23 19 21 15 25 19 14 26 19 14 21 15 19 19 20 18 24 26 14 25 23 16 21 17 26 16 25 15 23 14 17 15 26 16 19 14 16 14 20 18 24 20 20
19 24 22 24 14 25 21 24 17 24 25 25 17 22 22 18 25 25 23 22 22 21 19 18 23 15 18 16 15 22 26 26 18 24 25 24 23 24 24 22 26 21 15 18 25 20 18 25 17 22 24 15 22 19 24 19 19 26 26 16 15 21 16 25
16 25 16 17 15 14 19 22 23 26 26 16 16 19 18 26 26 18 25 14 14 24 17 18 20 17 20 14 18 24 17 18 23 23 16 19 22 17 23 22 14 26 23 22 22 22 26 14 21 17 20 16 17 22 21 20 23 22 20 14 17 14 17 15
25 14 20 17 21 22 20 17 18 23 24 23 26 18 22 17 23 24 21 26 15 26 14 23 20 15 17 19 22 25 18 14 20 24 19 26 24 20 18 18 23 15 22 15 21 21 20 22 16 26 26 18 21 18 24 26 19 16 23 15 21 15 14 14
15 16 19 18 16 17 25 20 24 25 16 19 22 18 21 26 16 16 18 19 19 16 26 25 25 26 15 23 14 17 14 16 19 22 17 21 26 18 18 17 20 16 16 17 25 23 17 22 15 25 17 25 26 25 15 25 24 25 16 18 26 19 16 15
17 18 19 24 16 16 14 21 18 19 20 19 22 17 14 20 23 26 24 25 15 21 21 21 22 19 19 22 22 18 25 17 16 16 14 21 15 24 21 21 14 18 18 19 24 20 19 24 22 22 14 14 14 24 25 20 15 17 24 23 16 21 16 26
24 23 24 14 26 23 16 20 18 19 17 26 16 26 18 24 21 20 22 15 16 17 16 17 19 19 23 18 21 18 20 16 24 17 21 17 18 20 25 15 15 26 16 14 21 18 17 14 25 20 18 14 19 19 21 21 18 24 16 15 21 18 15 21
17 22 24 16 20 15 17 14 15 18 22 25 18 25 22 25 16 15 22 15 15 20 22 16 25 24 25 25 14 24 23 18 21 22 22 18 19 26 19 16 16 23 18 17 25 17 23 20 23 14 17 15 18 21 24 14 25 16 21 18 24 24 21 15
23 16 22 17 17 25 17 20 15 14 21 22 26 19 16 20 21 26 25 26 23 25 15 17 22 21 19 20 16 16 15 23 15 15 26 19 24 25 23 23 22 23 19 20 19 19 18 15 15 18 19 24 20 17 24 17 21 15 15 24 23 20 21 23
20 25 26 21 17 17 16 19 17 25 19 18 24 15 16 16 16 21 17 24 18 22 26 26 21 22 25 25 19 21 16 26 14 17 26 21 17 14 14 17 24 22 25 17 15 26 17 22 22 19 16 24 18 24 19 26 14 26 18 16 21 24 26 23
25 18 19 20 17 19 17 14 20 26 20 18 19 20 25 24 16 16 24 16 15 22 26 14 25 19 14 18 23 23 25 18 24 17 25 15 24 19 24 24 24 23 18 21 25 22 24 15 17 14 22 14 18 26 16 25 18 14 18 23 14 19 22 15
23 19 23 23 23 21 25 14 16 23 25 23 25 14 24 18 25 16 15 21 17 17 22 20 14 26 21 16 23 20 22 15 19 26 20 20 18 18 20 18 19 16 26 14 19 26 21 21 15 14 24 25 26 15 14 17 24 25 22 19 25 17 20 24
21 16 17 20 15 20 25 21 25 14 16 24 16 14 19 18 26 22 23 24 17 18 18 21 21 25 22 25 20 24 26 15 17 16 23 18 20 26 24 23 24 18 22 21 15 22 25 26 18 19 25 15 16 21 14 17 17 21 23 25 23 17 14 19
15 20 20 19 14 22 21 18 26 25 24 25 21 19 20 26 19 20 17 19 24 23 14 18 17 22 20 24 15 22 19 17 24 15 18 20 21 25 14 26 18 16 24 14 15 24 15 16 24 23 20 24 23 26 14 14 24 21 26 14 19 23 15 24
16 26 14 21 23 25 19 15 20 19 20 21 24 19 18 23 18 23 23 25 16 21 24 16 21 23 25 21 25 14 26 22 18 24 26 19 23 19 25 26 25 15 18 18 15 15 22 22 14 20 26 20 26 16 17 20 24 26 14 25 19 22 14 21
20 14 25 20 16 24 16 24 26 20 20 15 14 24 15 20 21 14 19 22 18 19 18 23 21 26 19 26 25 17 14 17 26 16 24 21 24 18 26 24 15 24 16 20 20 21 17 22 14 19 23 18 14 14 25 22 20 26 16 20 15 23 20 26
20 15 14 26 20 22 16 22 19 26 25 24 20 26 26 21 15 20 19 26 20 26 21 19 25 14 17 24 16 17 20 21 16 19 25 19 24 19 20 23 14 20 14 26 22 24 14 16 23 20 20 19 23 26 19 19 18 19 26 26 20 14 18 20
22 23 26 19 21 20 20 23 18 19 25 15 24 25 22 25 16 15 26 14 20 18 20 21 15 14 20 16 16 26 24 15 14 22 18 26 22 18 24 17 21 22 18 23 21 17 18 23 18 16 22 21 20 24 15 22 20 20 23 14 23 23 26 18
