P2
64 64
255
21 15 25 20 14 18 20 26 22 21 22 26 22 26 14 14 19 15 25 20 23 16 15 19 16 24 26 16 22 19 14 25 16 22 18 25 25 26 21 18 18 15 17 26 26 22 26 24 17 25 18 19 18 19 22 16 25 23 19 25 23 20 21 20
19 20 19 26 15 16 18 25 23 19 25 21 22 19 19 24 15 22 17 23 17 25 14 14 23 25 22 23 15 19 21 22 25 14 26 22 15 16 15 25 17 18 20 20 20 26 26 24 25 22 20 20 20 17 22 19 23 18 18 22 19 22 17 18
26 21 26 17 24 15 24 22 18 21 20 14 19 24 23 21 25 15 19 14 19 17 23 23 21 18 15 17 24 22 18 19 15 24 17 18 26 14 25 15 20 21 16 21 17 14 18 19 16 23 18 25 15 16 21 23 16 23 24 24 15 20 16 18
25 15 25 16 25 25 15 24 21 26 16 15 20 15 16 21 20 22 18 17 20 23 15 21 20 21 15 15 26 26 24 18 18 22 22 16 16 19 19 25 25 21 17 17 19 19 25 26 18 16 21 20 18 19 18 17 25 23 26 17 22 24 21 14
26 20 19 26 19 15 17 24 14 26 20 25 21 15 19 25 21 26 25 25 22 16 26 23 16 18 18 16 20 25 17 25 14 24 23 17 25 15 26 19 14 26 17 21 19 14 18 19 18 24 25 25 17 17 25 22 25 23 23 14 21 21 19 14
26 25 26 24 16 25 24 17 23 21 20 22 23 21 23 16 17 23 18 23 22 23 24 22 18 25 15 14 18 20 22 14 21 15 14 25 15 19 20 20 25 25 18 14 17 19 16 24 14 19 22 16 25 17 19 25 25 21 24 19 25 25 25 14
20 19 21 14 21 15 24 26 26 24 26 26 15 16 19 24 22 24 23 25 26 22 23 22 16 26 16 25 18 21 17 24 19 20 14 25 20 26 15 26 26 19 20 24 17 19 24 23 15 25 22 15 20 16 16 22 23 16 17 19 19 17 22 17
17 18 23 22 16 22 21 26 20 22 26 23 19 16 23 14 21 22 18 18 25 26 18 24 21 26 17 26 20 20 19 16 18 16 20 25 22 15 20 20 15 24 17 24 15 19 15 20 19 25 24 20 20 19 18 21 20 16 17 20 22 26 18 22
19 23 26 18 23 20 21 18 17 19 14 22 18 23 16 21 19 21 23 14 20 17 22 18 19 16 14 23 18 23 24 17 19 18 14 26 25 18 19 23 14 21 17 25 24 20 20 22 25 25 22 14 22 16 25 20 21 21 15 19 15 23 19 17
19 18 14 18 23 16 19 24 26 17 15 14 21 17 23 21 20 26 26 20 23 23 22 23 16 17 22 21 14 25 25 23 19 24 25 24 23 18 20 22 16 18 20 14 22 15 15 21 25 25 20 15 25 20 22 25 21 17 24 23 25 16 24 15
18 18 17 17 18 20 24 24 21 18 17 22 19 18 16 26 26 21 22 14 26 26 16 17 18 18 25 26 16 14 25 22 24 24 18 19 21 26 26 20 18 23 25 18 23 22 14 26 25 25 17 22 17 18 21 24 19 17 21 19 17 25 25 15
14 15 22 16 20 14 26 20 21 21 19 26 20 18 24 23 23 23 17 14 26 25 14 25 24 26 15 20 26 22 26 16 23 21 19 18 19 20 16 20 25 23 19 17 21 14 25 26 22 23 18 26 16 23 17 17 26 20 26 14 16 22 23 25
25 17 14 20 15 14 19 24 14 20 22 21 17 16 23 26 24 25 19 14 25 23 16 25 17 14 24 14 14 25 24 16 19 20 26 21 24 14 25 14 22 14 16 23 22 14 15 25 20 19 17 16 15 22 22 21 20 14 25 19 20 23 17 22
20 15 26 14 14 18 15 23 22 26 19 21 24 19 17 18 21 15 21 16 15 25 16 19 23 21 16 20 15 15 25 15 19 24 26 15 18 22 25 16 18 26 26 25 15 21 20 24 25 21 25 19 21 19 23 19 25 22 26 21 25 14 17 24
22 14 22 18 14 24 24 25 19 21 14 24 25 14 18 25 14 22 22 26 16 25 19 18 26 18 14 24 19 15 19 20 18 14 24 22 26 17 21 25 19 24 17 15 14 21 26 14 24 18 24 21 23 21 23 17 26 18 22 21 22 19 23 15
17 25 22 18 26 26 18 18 26 18 19 23 15 25 20 19 25 22 16 19 14 18 18 24 21 24 17 16 15 18 24 23 23 25 17 21 16 19 17 14 20 26 18 23 22 14 16 24 16 21 18 24 21 18 14 14 25 17 21 24 15 14 19 25
26 26 16 24 15 22 17 22 20 20 14 22 26 25 24 24 21 25 19 20 17 24 26 19 20 24 25 26 20 15 22 23 20 14 25 14 23 21 14 26 21 18 20 20 14 19 15 18 19 16 19 24 18 20 17 20 21 23 15 20 23 16 22 21
14 23 25 21 23 17 21 25 23 17 23 26 24 20 26 25 22 20 24 16 23 23 16 23 18 22 16 26 16 15 24 15 26 19 14 19 20 26 22 21 14 25 17 14 19 25 18 21 23 24 18 14 19 16 21 23 15 14 17 14 18 19 20 26
20 16 18 21 20 19 17 16 16 22 15 17 26 25 25 19 22 15 26 18 23 19 25 23 19 17 17 15 20 25 21 22 26 21 26 18 15 15 14 26 23 14 20 14 14 18 15 15 25 21 16 23 17 18 19 17 16 15 15 17 21 16 23 25
14 26 18 17 18 17 21 15 16 20 22 17 16 16 23 18 21 17 25 26 29 24 19 18 25 18 23 22 14 25 25 15 21 18 16 14 20 22 14 22 18 29 24 29 25 27 23 18 18 17 18 17 20 14 16 23 25 20 19 20 24 14 17 21
23 20 19 16 14 17 24 22 20 25 16 26 25 24 22 18 28 20 23 26 32 25 27 28 28 18 25 25 26 26 23 19 16 23 15 17 23 23 28 30 30 31 25 23 24 31 21 23 18 29 15 18 22 22 24 22 14 21 18 18 24 17 19 16
25 18 22 19 19 22 18 25 24 20 17 17 21 29 22 23 32 23 29 34 34 36 26 35 35 22 22 25 19 19 15 23 19 16 26 18 17 21 25 26 33 36 32 35 27 32 26 35 29 25 29 28 25 18 24 17 14 25 15 19 19 14 23 14
25 22 23 25 20 18 17 21 19 18 25 16 22 31 30 33 27 31 35 34 38 41 29 31 35 29 32 33 29 26 23 23 15 15 26 22 29 30 33 38 28 31 32 38 34 39 28 33 33 28 27 20 25 20 16 14 26 23 16 19 25 18 17 21
17 16 20 19 19 24 14 21 16 22 15 20 29 32 34 38 33 34 40 35 34 37 39 39 38 37 30 32 24 25 25 22 23 20 24 21 29 33 38 38 43 43 36 36 45 40 42 36 29 27 36 26 26 22 16 23 23 22 26 25 18 26 20 26
17 21 20 17 25 24 19 17 24 22 25 21 25 38 34 38 40 40 43 37 44 40 45 45 40 35 42 37 30 32 32 28 24 19 31 26 30 29 43 41 43 48 48 44 43 45 43 39 43 41 28 37 30 28 28 18 22 22 24 15 19 22 16 23
16 19 18 26 16 17 15 16 18 23 29 31 27 40 31 34 46 49 40 45 52 53 47 44 40 42 39 39 32 25 29 27 29 31 34 34 35 32 41 43 38 51 47 49 41 50 45 43 42 38 37 36 33 23 31 28 19 23 20 17 24 19 22 19
15 14 26 23 25 15 17 22 21 26 25 25 35 39 36 42 45 47 53 45 52 53 55 50 49 47 41 41 36 33 26 23 31 27 34 35 37 40 44 42 45 51 55 55 50 53 43 52 44 41 42 43 36 33 23 24 26 19 16 21 20 23 25 18
23 19 22 19 16 21 24 15 22 32 27 34 37 33 37 51 48 47 57 58 61 53 51 53 46 54 50 39 37 41 29 30 29 27 33 39 41 37 45 47 55 51 59 49 55 55 59 47 46 46 37 43 34 30 27 32 23 19 22 25 21 16 15 26
21 21 26 24 14 24 26 23 23 31 29 32 35 46 51 46 48 56 55 53 57 59 63 56 59 48 44 43 41 33 31 35 38 28 32 36 40 47 42 46 53 62 52 59 62 56 62 50 46 50 46 45 38 34 37 30 20 15 20 26 22 19 25 23
17 24 26 21 24 19 22 27 27 28 26 31 38 44 49 47 50 60 57 55 62 63 55 64 59 47 53 43 42 44 33 33 34 34 33 34 48 44 56 52 61 59 64 60 63 56 54 62 58 54 53 39 33 39 30 33 21 20 25 16 21 17 26 23
22 19 15 26 15 14 14 26 27 35 32 38 37 48 52 56 55 57 59 71 65 72 61 67 63 60 50 54 44 39 41 35 35 40 41 38 39 46 54 60 57 65 64 63 68 61 63 53 61 57 50 38 42 33 27 28 26 24 23 21 19 14 19 15
18 18 25 16 21 15 16 27 28 27 33 38 38 47 48 54 60 61 68 69 72 65 67 66 65 54 59 45 41 36 34 37 35 36 39 43 41 50 47 58 66 63 70 64 71 63 61 60 63 53 55 46 37 42 31 27 27 17 22 21 24 20 18 14
22 25 16 14 15 21 18 24 22 30 35 36 41 44 49 51 59 59 68 63 71 76 73 61 56 62 58 53 47 35 45 39 35 42 34 35 39 51 53 56 61 67 64 66 71 66 67 67 55 48 47 42 39 42 36 29 26 26 16 19 21 17 14 24
24 16 17 24 20 23 16 17 27 30 33 37 40 41 44 59 60 54 67 62 67 75 67 69 60 50 56 50 51 37 41 39 33 44 38 42 43 49 59 52 54 68 65 67 70 67 59 65 62 59 44 39 47 31 30 29 21 21 19 16 22 19 22 23
18 23 25 26 14 18 24 20 23 27 33 38 44 40 47 52 55 62 61 70 65 61 69 62 63 49 55 45 47 38 41 33 35 32 36 42 43 42 55 49 56 61 70 70 72 69 66 61 49 55 53 42 34 31 36 23 28 17 15 26 20 15 23 17
20 22 23 23 17 24 18 25 29 34 37 39 43 37 49 52 51 58 62 63 61 67 63 55 59 49 54 47 41 35 33 41 33 31 36 42 48 46 54 56 61 63 60 64 62 58 56 59 58 55 52 47 45 39 32 32 26 17 25 20 26 25 18 22
21 22 25 26 17 26 24 18 26 30 28 35 39 46 45 53 55 52 60 53 56 56 54 54 55 45 49 47 36 37 36 32 32 40 30 32 37 39 46 53 49 60 55 63 53 58 61 54 50 50 45 47 36 39 26 26 19 15 18 16 24 26 16 18
14 23 20 20 25 26 26 15 25 30 31 29 33 33 41 51 43 53 52 55 61 50 57 58 47 50 46 39 35 37 28 30 36 34 37 42 38 38 41 46 50 53 50 59 59 59 56 46 45 51 40 34 34 28 26 32 20 23 17 25 14 19 22 20
17 17 16 23 24 24 18 19 22 26 28 31 30 32 34 40 43 47 53 50 55 54 47 47 45 41 47 34 36 33 32 24 23 23 31 36 33 37 46 47 48 54 52 48 50 45 48 47 43 38 35 37 28 31 22 24 16 22 24 20 26 20 15 25
20 26 18 28 25 17 26 19 19 28 33 31 42 39 44 38 44 43 44 48 46 57 46 49 47 48 39 43 43 36 27 30 27 26 34 39 35 39 48 41 44 48 54 54 47 46 46 54 42 42 37 43 44 30 33 26 32 27 26 23 28 23 27 30
20 25 25 33 28 30 24 25 25 27 33 33 38 36 40 45 51 54 52 48 46 56 54 52 46 47 50 45 44 35 38 33 31 30 30 35 39 44 47 47 52 47 49 55 58 48 55 49 47 48 46 47 45 44 32 34 29 37 30 31 28 27 36 38
35 35 31 34 36 29 33 28 29 27 32 32 35 43 40 45 53 43 49 53 48 52 57 53 53 48 48 42 48 37 41 31 32 40 39 41 46 45 49 54 53 51 58 51 54 49 60 51 53 44 44 44 46 37 39 44 43 42 37 34 37 45 35 37
23 22 23 21 28 30 25 21 26 32 24 28 35 34 39 36 38 42 40 43 44 48 38 36 43 45 42 33 41 27 28 34 32 27 35 36 33 41 37 42 39 50 40 46 48 45 48 45 44 45 36 31 29 31 32 27 34 36 27 34 35 30 28 33
29 19 29 27 19 28 17 26 22 29 21 29 26 24 31 35 29 37 31 41 31 33 38 33 32 33 29 28 23 20 20 26 26 23 22 21 29 27 27 37 35 32 36 31 30 37 35 29 38 35 32 32 26 31 28 21 23 25 21 26 32 21 30 30
24 14 17 15 18 19 14 20 15 26 14 18 21 17 24 20 24 22 21 30 29 34 33 27 31 23 25 23 21 26 23 21 24 19 21 23 15 27 28 18 23 28 30 28 34 21 31 26 25 28 22 22 26 25 16 15 17 20 14 16 24 16 19 26
18 16 14 19 21 17 23 24 19 24 20 22 17 20 24 24 15 16 29 21 22 21 26 23 20 25 20 14 22 15 14 21 18 25 25 25 14 24 26 15 20 20 26 18 25 24 17 21 17 15 19 23 24 23 20 16 15 18 18 23 19 17 23 19
17 17 21 18 23 17 14 22 16 15 20 18 25 18 26 19 15 24 22 26 15 22 19 19 24 26 24 19 26 22 21 15 26 26 22 14 22 24 24 26 17 21 25 15 22 21 19 26 14 26 21 16 22 14 15 21 24 19 20 23 15 25 26 24
25 14 26 19 17 23 19 14 16 23 15 17 23 20 21 21 21 25 15 26 26 26 18 14 26 21 18 26 21 20 19 26 25 15 21 19 14 20 16 25 24 20 19 18 26 23 21 24 19 17 15 21 26 17 23 25 14 18 21 17 23 21 26 19
26 16 25 20 20 19 21 16 14 26 17 24 20 26 14 22 16 21 26 18 16 18 26 22 21 22 15 19 23 23 16 14 20 23 14 14 15 15 18 16 24 15 17 26 15 19 17 24 26 15 19 25 17 18 17 24 26 17 19 18 24 25 26 21
21 24 20 24 24 14 23 20 22 25 24 26 14 19 22 23 25 24 26 14 18 24 17 20 22 22 16 15 17 21 14 17 21 20 20 25 21 18 23 16 24 22 22 21 26 20 18 22 23 15 26 18 22 26 19 16 19 17 22 17 21 14 22 25
16 15 19 19 26 26 22 22 21 23 16 26 23 15 20 25 19 16 26 18 24 16 16 15 17 24 19 15 24 23 20 14 25 19 16 19 17 26 17 19 16 24 14 18 22 24 19 23 20 15 18 19 14 19 15 15 15 17 15 25 24 17 24 15
14 19 26 23 22 18 25 17 16 22 23 26 24 22 20 19 15 23 20 16 24 21 14 14 20 23 23 18 24 18 22 22 17 23 17 15 20 18 21 21 19 22 15 21 25 16 24 17 25 16 18 14 20 14 14 25 17 24 19 17 23 15 24 20
26 18 23 21 25 25 15 24 20 23 20 25 15 20 16 22 24 14 20 19 14 14 24 20 15 16 22 24 22 18 25 16 15 25 17 17 15 15 15 18 22 18 17 26 25 14 17 26 21 17 22 16 22 14 20 14 16 20 22 18 21 24 25 24
21 22 19 15 23 19 15 21 24 14 18 14 23 16 18 17 14 19 25 19 14 25 22 21 24 19 24 19 25 20 19 15 16 24 19 17 16 26 23 19 25 18 24 23 20 14 22 22 22 14 26 19 16 15 22 16 20 15 25 22 23 17 17 21
17 19 15 25 19 16 20 19 26 22 16 15 24 21 18 23 25 24 24 20 21 19 22 21 17 17 18 19 22 21 25 18 25 26 20 16 23 25 16 24 25 14 16 21 24 21 26 26 23 15 19 23 26 26 22 16 19 20 16 14 19 23 22 16
18 25 16 17 17 19 26 15 22 15 15 20 20 22 19 18 20 15 18 21 14 18 25 24 16 22 22 18 14 23 18 17 23 25 23 17 24 21 23 26 26 17 26 25 17 21 26 24 24 18 24 17 24 15 25 16 25 20 14 24 19 16 17 20
19 18 15 18 15 19 16 23 16 20 19 25 25 26 16 26 15 14 17 22 23 15 26 18 26 26 20 23 25 26 16 21 20 26 16 17 22 15 25 15 25 21 15 22 24 23 15 21 15 14 18 25 17 17 17 24 21 22 15 22 23 17 19 19
18 16 21 23 15 16 19 16 26 17 17 18 25 22 15 16 20 21 22 20 15 22 19 25 24 20 20 17 24 20 22 24 15 25 26 24 23 20 24 16 16 16 20 26 17 23 18 17 22 24 18 24 21 17 26 20 19 23 25 20 23 15 22 26
16 20 22 21 22 22 20 14 24 15 20 17 21 23 20 26 15 23 14 20 25 19 15 15 17 18 23 25 16 18 22 16 24 17 24 21 26 21 24 18 24 24 19 23 17 17 20 17 14 24 22 22 18 25 24 24 14 19 15 14 26 23 23 24
17 23 20 23 23 23 26 17 17 22 24 17 22 22 15 21 19 14 18 23 22 15 25 17 21 26 25 18 17 26 18 21 23 15 25 17 14 21 25 18 21 23 18 17 16 18 16 26 20 21 19 24 24 18 18 25 17 18 15 14 22 16 15 20
16 17 23 15 18 24 17 16 24 18 16 17 18 19 23 22 19 14 26 16 23 15 25 21 14 20 14 18 22 24 17 15 25 20 26 15 26 24 21 21 14 19 22 25 24 17 18 24 15 24 14 21 20 26 25 23 16 22 19 17 14 22 22 20
22 19 24 21 16 23 26 26 17 26 25 20 19 15 17 17 14 19 19 26 19 18 25 22 20 25 20 23 21 17 22 15 26 24 17 25 24 18 23 25 20 21 26 19 21 22 16 23 17 19 22 20 25 21 21 14 19 18 15 25 22 22 19 23
19 14 26 22 16 25 19 17 14 15 15 16 15 24 14 25 20 14 16 23 24 21 24 17 14 22 25 15 14 24 25 25 23 20 20 23 26 16 14 15 14 26 14 16 17 22 26 21 24 21 24 20 18 24 15 21 21 25 17 24 15 23 23 22
24 23 20 17 18 24 14 19 17 23 20 14 17 23 17 18 24 16 26 18 26 18 19 22 26 24 19 22 23 18 26 23 26 22 14 16 21 16 18 19 24 25 19 20 19 19 24 16 20 25 21 14 24 21 21 24 20 24 26 21 18 15 14 19
