P2
64 64
255
18 16 15 18 26 16 17 23 19 24 26 18 22 16 17 17 15 18 18 18 20 25 16 22 22 24 25 22 21 23 25 24 23 14 23 19 23 25 14 22 23 15 26 18 25 18 15 19 16 25 18 24 14 21 26 23 15 20 15 15 14 24 26 22
16 16 19 17 23 15 16 26 19 22 23 15 25 26 17 21 22 24 16 18 23 26 18 14 16 23 22 26 18 24 25 21 23 25 25 22 17 15 16 16 15 19 16 18 23 19 22 25 23 24 18 22 14 16 19 17 22 16 23 22 15 15 26 21
22 25 25 22 26 24 19 15 22 24 25 17 25 18 21 14 21 26 24 15 17 17 16 24 17 26 24 14 16 20 15 23 16 17 16 15 18 17 20 25 22 15 17 14 15 23 15 18 14 22 22 18 17 24 26 22 23 17 21 21 25 23 22 17
17 22 25 22 14 17 24 14 18 22 21 19 21 22 19 23 20 19 24 20 25 19 24 21 25 24 25 15 26 20 20 14 24 25 20 14 20 19 23 20 23 18 25 25 25 25 15 26 19 14 20 21 16 26 21 21 25 25 15 21 26 20 20 15
21 25 22 23 20 26 14 23 22 23 16 24 26 19 15 19 17 16 19 25 15 22 24 14 25 23 15 14 15 15 17 14 16 26 22 23 19 18 20 16 20 16 20 24 24 18 21 22 17 26 16 26 16 26 17 23 22 14 26 16 24 25 24 21
17 18 21 24 17 21 15 14 23 15 26 24 21 15 17 15 24 21 26 15 16 19 15 19 23 16 18 19 18 19 26 26 14 21 14 20 20 21 21 15 18 17 26 16 23 17 17 20 19 20 19 25 21 15 16 26 19 23 15 17 15 16 26 22
21 20 25 19 14 22 21 15 14 24 16 23 20 18 17 25 25 20 21 14 23 16 24 18 26 16 20 23 16 14 19 14 26 26 18 20 23 20 24 19 24 16 15 18 14 14 19 14 19 19 25 14 14 15 15 19 26 19 25 20 15 24 19 22
18 26 22 26 19 23 23 22 16 22 15 19 24 18 14 15 24 26 16 20 23 16 15 21 15 22 18 21 21 19 21 25 15 20 19 26 25 24 17 24 16 20 18 14 17 22 21 19 26 24 22 22 15 18 15 17 25 19 16 16 16 18 14 15
15 18 22 21 17 26 22 25 24 14 22 16 24 25 17 16 23 26 22 22 26 18 15 26 14 15 14 16 18 17 20 23 25 14 20 21 24 23 15 25 22 18 18 21 15 20 16 22 21 14 17 24 23 16 18 14 24 22 23 20 18 19 22 24
22 18 26 17 19 16 22 19 21 21 25 19 23 22 19 16 16 14 24 16 24 16 18 15 18 20 16 23 20 24 22 15 20 22 19 21 14 25 19 17 20 20 25 20 24 19 21 18 18 26 21 15 24 24 22 23 20 21 25 17 26 16 16 14
14 17 16 17 26 14 20 24 24 25 25 14 17 16 25 18 17 23 25 18 14 26 17 19 23 21 18 16 23 17 19 24 25 22 23 22 22 24 25 16 21 14 18 14 26 25 17 25 16 19 17 24 23 19 16 22 21 14 24 20 21 20 15 25
20 21 25 14 22 24 20 26 26 23 18 24 26 14 26 25 15 14 25 24 16 14 20 20 16 14 25 26 18 17 18 15 21 14 20 23 26 19 17 17 18 19 15 24 14 24 23 22 20 24 23 17 26 24 14 24 15 16 17 26 17 21 25 24
14 25 16 23 26 23 20 25 25 25 24 25 15 19 24 25 16 19 24 22 16 20 14 14 17 16 25 15 21 23 18 14 17 18 19 15 21 18 26 24 25 21 18 15 17 25 25 23 17 19 20 15 17 26 17 25 25 23 26 23 22 24 21 26
16 17 23 16 26 20 22 16 17 15 18 24 21 17 19 19 19 23 18 20 25 24 20 17 20 20 24 25 21 18 26 24 23 23 14 24 26 15 15 19 24 26 25 17 24 25 24 17 25 21 16 26 23 14 26 25 14 14 24 26 14 22 25 16
17 19 20 19 21 17 16 19 21 19 18 22 19 21 22 16 16 21 26 18 21 26 17 20 17 24 25 25 19 26 26 20 21 19 26 23 16 22 24 22 21 26 16 17 22 24 23 18 26 23 14 17 22 20 23 14 23 18 18 25 14 20 21 19
18 23 23 25 16 20 18 23 18 23 25 20 15 23 15 21 25 24 23 21 20 22 20 18 22 24 16 22 18 26 16 14 15 21 24 24 15 22 14 14 20 20 15 23 24 14 21 16 25 15 15 23 20 15 18 22 16 23 22 25 24 18 14 22
22 21 26 26 18 16 23 22 26 26 19 24 23 14 26 21 22 26 26 25 18 25 15 22 22 17 20 22 19 24 18 18 17 17 19 14 23 15 18 15 19 14 16 18 26 25 26 18 22 18 17 19 17 26 16 21 25 23 20 16 19 16 26 22
25 21 20 15 21 19 22 21 25 23 20 25 22 18 23 14 20 15 21 17 20 16 20 15 22 19 21 14 19 18 14 14 15 20 23 22 20 22 23 21 20 15 24 21 15 22 26 14 24 17 25 17 25 23 19 14 22 16 20 17 24 14 19 20
15 14 22 14 22 26 21 24 22 14 16 23 15 23 22 16 16 15 14 21 25 22 17 14 20 25 20 21 19 23 22 18 23 26 25 23 26 23 18 17 20 23 17 16 16 26 14 21 17 14 14 19 21 16 25 24 19 26 18 20 17 18 16 26
14 26 25 19 22 25 17 26 24 20 22 20 20 22 21 20 23 27 26 25 19 22 21 25 17 21 22 21 18 22 16 20 14 15 24 17 23 14 25 19 27 29 24 30 21 21 17 17 19 15 20 22 26 19 24 25 19 18 25 17 26 19 16 25
25 21 26 23 20 24 16 16 23 14 15 20 18 23 16 25 27 27 30 32 27 31 30 24 21 28 18 27 20 16 25 19 23 19 20 14 18 24 25 24 25 31 21 28 29 23 30 31 22 24 24 22 16 14 17 22 15 23 25 16 16 25 21 19
16 17 15 15 22 22 26 23 18 24 14 22 16 19 24 32 28 25 30 29 26 33 33 32 25 29 25 24 23 14 23 17 22 21 17 17 28 28 25 28 31 34 33 30 32 35 24 32 25 24 30 27 24 21 21 17 14 25 26 19 25 22 22 15
23 19 15 19 20 15 15 24 14 17 22 18 27 22 24 32 36 39 30 31 41 37 36 33 37 34 33 26 25 23 25 16 22 23 27 23 31 27 32 34 30 35 32 31 31 31 37 34 29 36 28 25 21 21 16 15 25 24 21 17 19 17 18 26
20 21 17 21 26 24 24 17 17 24 17 23 25 27 29 37 38 34 36 38 33 42 44 38 33 30 33 26 24 30 19 15 22 26 17 30 31 34 37 37 42 42 36 39 36 43 34 37 33 37 34 26 24 17 25 24 25 20 17 25 17 22 19 15
25 22 23 21 25 17 19 23 23 19 29 29 29 32 34 31 35 35 42 42 46 47 38 37 34 44 32 37 29 24 32 28 18 18 31 28 31 40 37 38 39 37 38 48 48 41 37 42 39 36 34 31 35 31 19 19 15 22 18 24 16 15 19 17
16 14 25 25 18 25 15 24 17 17 24 33 36 35 31 41 45 43 47 45 48 42 51 44 48 43 35 33 37 25 31 26 29 22 32 25 29 43 34 44 47 47 43 48 50 53 39 46 46 35 42 39 32 30 24 23 19 22 24 19 18 25 19 22
19 17 20 15 26 14 15 24 21 28 27 35 32 42 46 39 42 42 53 44 57 47 48 45 52 50 37 44 41 29 37 28 24 32 32 32 41 46 38 42 51 50 52 47 52 52 50 49 40 47 38 41 31 33 26 28 19 25 22 14 17 20 22 19
18 23 25 14 14 24 23 21 25 26 31 34 30 40 43 51 53 56 51 52 51 61 58 59 50 52 46 43 41 33 35 29 30 26 30 33 45 44 40 47 52 51 52 54 58 54 52 54 45 41 44 41 30 27 32 27 26 23 25 20 19 24 19 24
14 17 17 17 18 20 25 15 18 28 35 40 43 40 49 44 55 55 50 53 54 58 52 62 59 51 50 47 35 35 33 30 29 34 32 42 36 45 43 49 49 58 52 61 65 52 55 58 57 44 44 47 42 35 34 29 19 14 20 22 25 26 23 18
19 17 19 19 20 21 14 17 23 32 35 41 35 41 51 50 49 63 57 66 60 64 59 64 51 52 51 49 40 37 39 39 39 42 31 45 45 47 53 55 54 62 66 63 67 63 56 53 48 51 44 48 45 32 30 33 21 24 24 22 22 15 17 19
25 23 25 21 14 20 14 23 25 34 30 35 36 47 43 51 54 64 60 68 72 68 61 57 65 56 47 54 48 35 42 37 39 39 42 42 41 54 51 54 54 57 70 65 63 60 58 62 52 52 43 46 39 38 27 34 27 23 26 26 20 20 24 14
19 23 18 15 19 25 16 25 28 27 36 35 45 42 46 53 59 60 58 66 73 66 62 66 58 52 59 49 46 42 38 42 41 33 44 38 42 48 49 58 64 69 68 68 67 72 65 60 60 55 52 44 43 39 32 23 22 18 23 20 20 26 22 22
14 15 17 22 17 24 22 23 26 28 36 41 38 42 52 55 58 63 60 66 71 70 72 71 61 59 49 44 48 45 40 36 42 39 34 46 42 50 53 63 65 68 68 69 71 70 70 67 54 58 44 41 45 36 38 27 29 26 15 25 18 16 21 14
23 18 22 26 16 24 25 23 20 24 37 40 36 49 51 59 62 62 67 72 74 66 69 66 59 55 47 47 51 40 45 43 43 38 41 36 43 46 50 60 61 64 70 68 67 72 62 56 58 48 44 45 45 42 37 24 23 28 25 24 24 22 22 14
14 26 16 22 21 22 18 17 27 31 29 33 42 48 45 48 50 53 58 64 67 67 71 60 54 52 57 47 45 45 43 37 38 32 40 41 47 47 57 58 56 68 64 63 61 70 61 65 53 54 46 40 37 40 28 25 21 27 17 21 15 21 14 24
20 20 18 22 15 20 14 25 21 23 32 42 41 47 45 45 56 51 58 66 64 67 59 59 58 47 50 49 40 34 31 31 38 35 36 42 44 40 48 57 58 65 64 61 58 59 65 55 55 48 44 39 39 30 31 22 22 16 16 14 21 23 19 19
23 24 24 26 17 21 17 14 29 32 36 35 42 38 46 42 46 51 50 53 65 61 56 60 59 45 53 46 47 40 40 35 29 29 40 40 43 43 50 49 58 60 54 60 53 59 53 56 57 49 39 43 35 35 37 33 21 17 14 20 16 26 23 16
26 17 18 21 15 22 14 23 28 25 25 38 38 42 39 50 51 51 54 56 50 60 51 55 46 52 49 37 44 39 29 35 27 33 26 34 37 48 49 46 46 56 60 59 59 54 51 56 47 45 45 36 30 29 34 27 20 16 21 23 23 17 16 26
26 18 22 18 25 26 14 25 22 29 29 25 29 34 34 48 45 49 43 53 57 53 48 44 43 39 40 37 43 34 36 25 28 26 26 32 31 45 37 49 43 55 44 52 53 53 43 48 40 48 34 31 37 31 32 25 19 23 23 15 26 17 14 24
23 19 23 21 25 26 18 26 18 22 34 37 34 38 36 43 47 51 51 54 49 52 53 48 52 41 48 47 35 32 33 36 25 29 32 42 45 44 39 50 51 51 50 47 56 50 46 55 46 48 37 39 40 31 26 28 28 25 20 25 22 28 32 20
31 24 24 25 32 29 29 29 26 21 25 29 42 44 39 50 45 52 44 50 54 50 51 50 54 46 43 47 35 36 31 39 35 35 42 39 39 38 42 47 46 59 53 49 56 57 51 55 45 45 42 42 39 34 35 30 34 30 36 36 39 32 29 37
24 25 36 34 30 24 27 35 30 35 34 37 35 34 44 39 48 43 54 48 52 47 53 46 47 46 44 43 46 34 34 32 33 32 39 44 50 42 49 48 51 59 51 51 54 51 50 59 46 55 43 46 46 39 39 34 35 43 40 33 41 43 37 42
32 26 28 27 32 27 22 28 22 27 22 26 33 30 40 35 40 35 47 44 49 39 43 47 45 44 36 41 34 38 32 30 30 29 36 32 37 37 40 45 47 48 40 43 52 48 40 44 39 40 43 35 36 30 33 38 30 29 36 31 37 30 29 35
28 29 28 22 25 22 24 22 23 24 22 22 20 26 29 30 28 28 37 35 40 38 41 33 32 27 24 35 23 21 27 22 28 20 18 24 23 33 25 29 37 33 33 40 42 36 40 38 32 35 29 34 21 25 22 25 20 21 32 28 23 27 20 28
21 16 17 16 18 22 19 21 21 23 20 17 14 18 18 19 27 26 32 22 31 34 28 32 29 22 19 15 26 14 19 14 25 18 15 21 15 16 17 25 28 33 21 22 23 24 33 32 29 22 19 25 15 23 14 26 18 25 22 18 18 24 24 14
16 16 23 16 22 21 14 15 23 21 14 17 18 20 26 17 19 16 18 23 23 25 27 19 28 25 25 22 15 19 18 14 23 15 19 17 16 25 19 15 21 26 21 21 24 26 19 22 18 15 24 23 17 22 17 18 15 26 24 15 22 25 25 25
15 20 18 26 19 26 22 19 15 14 23 14 15 26 16 16 24 26 26 21 25 18 20 26 15 25 19 21 19 23 24 23 21 18 21 18 16 17 23 17 18 16 14 24 21 14 24 18 26 23 23 21 18 16 22 19 17 17 24 25 25 22 19 14
15 14 21 18 26 23 22 26 24 18 21 20 18 25 20 14 24 20 21 21 17 24 22 24 21 23 23 25 16 21 16 21 19 25 25 21 21 21 24 19 18 17 15 16 20 17 21 22 15 17 25 19 19 15 20 17 26 26 23 14 19 25 24 26
17 24 24 14 17 14 15 16 24 22 24 23 17 17 21 24 14 26 25 16 24 19 19 16 17 18 17 19 25 18 16 21 19 24 14 14 19 26 21 22 23 15 19 17 14 26 16 22 18 16 21 18 14 25 22 14 16 21 22 15 24 22 26 21
17 15 15 26 20 20 24 24 16 16 24 19 20 22 15 25 22 20 26 21 18 24 17 19 21 25 26 26 25 24 22 18 17 15 21 26 19 19 14 24 16 17 24 17 22 15 24 26 24 23 25 23 23 16 26 14 25 17 18 16 23 21 17 22
24 19 19 14 25 18 24 21 22 22 20 22 15 16 14 23 21 20 14 14 24 26 15 22 19 26 20 17 23 17 18 15 19 21 17 25 18 15 22 17 16 25 21 22 21 19 18 23 24 21 14 23 20 25 22 16 19 21 18 21 14 26 24 19
23 26 20 16 21 22 19 14 16 18 24 25 23 25 22 24 18 15 17 26 24 17 15 19 18 23 17 23 17 15 14 15 22 17 18 14 19 22 14 20 20 18 14 17 14 25 17 24 19 20 23 20 24 23 18 26 19 21 23 23 24 15 21 22
22 24 18 23 25 14 24 15 26 17 23 22 17 23 20 22 22 22 15 21 24 17 25 14 18 26 24 26 24 19 19 14 19 17 17 21 21 22 18 24 19 16 25 18 15 25 24 14 19 26 26 16 19 23 14 14 23 21 25 25 22 23 20 21
23 15 19 21 24 21 23 26 22 23 17 25 21 18 25 20 20 21 16 25 16 19 18 26 26 25 18 22 16 23 20 16 21 19 16 15 19 14 15 18 17 26 18 20 19 25 19 17 14 21 18 18 17 17 23 19 22 24 15 16 26 22 24 20
25 23 26 18 15 26 23 16 22 20 23 23 14 16 16 20 21 18 19 16 23 17 23 24 19 20 22 16 24 26 15 16 19 23 19 24 18 21 23 23 22 19 26 20 23 20 17 20 23 20 16 23 19 25 14 14 23 26 24 20 15 25 18 20
15 18 14 26 24 20 17 21 15 25 18 26 21 26 25 23 15 16 17 22 25 18 20 16 19 20 21 15 16 23 17 18 26 17 25 17 26 21 16 18 16 18 24 22 16 18 16 14 19 23 23 23 24 26 24 25 22 23 14 23 19 21 26 22
22 24 18 21 25 16 25 17 16 15 14 21 14 23 15 24 18 21 17 20 23 18 23 24 15 19 16 20 23 20 25 24 14 21 26 17 18 26 23 23 24 17 22 24 18 26 16 17 24 15 20 14 23 15 21 24 17 22 15 22 23 24 21 17
14 15 24 22 22 19 22 22 22 22 18 21 16 24 18 26 16 21 24 24 24 16 20 20 15 17 19 22 21 21 26 20 19 26 23 21 20 26 15 20 26 14 23 17 18 19 22 24 18 16 20 16 18 15 23 15 25 25 22 23 21 22 25 14
16 15 16 19 22 19 25 26 21 21 19 22 18 24 16 19 26 24 26 18 21 25 24 16 26 21 16 15 16 22 16 23 25 19 18 14 22 25 18 18 26 15 15 26 23 17 20 24 23 14 15 16 18 19 21 25 15 16 20 14 14 25 23 25
21 18 16 17 25 14 20 16 19 25 14 14 16 21 24 24 15 22 17 26 26 23 24 24 22 18 14 15 18 19 17 25 14 16 16 22 18 15 18 23 18 19 15 26 15 14 19 26 19 22 23 16 25 26 18 26 24 14 20 23 18 22 16 25
23 24 25 16 20 21 26 17 18 15 21 18 16 16 16 14 26 19 21 17 23 21 16 21 14 20 21 18 15 19 19 25 18 24 23 24 14 22 14 19 24 25 23 18 19 26 20 25 22 23 17 21 21 16 18 16 24 21 17 20 23 19 14 24
25 18 25 20 21 19 26 19 16 23 20 18 21 22 19 15 20 19 20 23 18 23 24 22 19 14 23 23 19 21 22 17 18 21 25 25 19 26 14 24 25 14 24 24 17 25 14 25 15 19 14 19 18 18 14 15 16 25 22 17 26 15 22 17
19 21 14 14 26 25 23 21 26 20 26 15 23 17 19 16 16 23 22 21 16 18 23 22 15 23 18 14 18 21 18 19 15 15 14 20 18 15 24 26 23 22 14 21 25 15 18 21 23 15 22 19 26 16 22 20 24 25 19 20 14 19 26 17
24 14 23 15 22 21 21 19 19 14 17 25 17 19 24 21 26 24 17 16 19 20 23 18 18 21 22 19 24 17 23 23 21 19 20 16 15 25 23 19 17 15 16 17 14 23 18 21 14 24 17 16 20 17 21 18 22 26 24 19 23 22 18 18
