P2
64 64
255
27 36 18 24 34 26 26 32 25 30 18 31 24 37 37 26 33 28 24 24 24 33 30 34 29 22 34 19 35 21 20 26 36 35 23 25 27 32 30 19 28 29 23 35 22 33 33 30 24 37 18 22 20 36 20 26 25 36 23 31 28 20 27 21
18 22 29 33 22 26 27 22 34 28 18 31 20 25 33 23 35 38 19 37 27 37 27 35 20 21 38 29 38 20 27 23 36 36 23 27 33 27 21 27 25 29 23 32 29 20 34 36 27 28 30 29 26 35 31 28 26 23 35 23 33 22 31 23
20 33 35 26 35 34 32 34 27 28 22 34 21 35 35 25 36 37 33 34 24 35 18 20 35 23 32 32 25 33 24 23 24 33 29 23 22 34 29 28 37 37 37 25 28 30 24 21 21 34 27 30 38 35 19 38 29 20 33 20 19 21 20 36
38 21 32 35 19 37 28 19 28 20 19 29 22 25 22 29 23 37 21 22 36 28 20 33 19 28 32 31 32 38 33 37 19 32 30 33 37 23 27 23 31 38 37 36 24 25 28 38 18 30 33 33 21 27 32 18 37 19 38 26 34 22 36 38
20 23 36 35 24 38 33 25 18 30 25 21 25 27 35 21 38 31 21 29 28 37 37 36 28 31 36 30 31 20 37 21 37 36 20 26 26 21 24 25 18 38 31 29 22 18 23 25 32 30 21 38 29 37 34 38 33 26 27 31 25 34 27 30
22 26 33 27 38 29 36 36 27 38 36 27 21 38 18 26 30 19 32 38 22 22 26 24 37 36 36 35 38 31 21 28 25 35 19 20 21 32 35 19 26 29 35 30 21 32 24 24 28 22 35 37 38 32 32 28 33 21 34 30 34 27 37 24
29 38 34 33 22 25 29 36 22 36 33 38 35 30 38 20 23 32 30 25 30 21 35 38 35 33 35 24 22 37 21 24 30 34 36 20 36 37 29 38 29 34 24 19 35 22 23 27 36 18 20 28 19 33 22 24 33 26 33 23 29 25 38 24
25 30 37 19 33 18 38 23 27 22 33 35 33 19 37 21 19 36 21 22 28 18 29 18 21 30 27 18 37 33 21 36 31 32 36 18 27 29 23 25 32 26 34 23 26 35 38 23 27 29 20 28 28 18 37 24 20 29 33 24 25 37 28 22
18 18 18 34 36 30 21 37 34 30 27 28 37 34 34 36 23 24 35 25 18 23 36 26 27 24 18 21 19 36 25 36 28 32 34 18 26 21 34 33 31 31 29 20 37 23 38 19 25 20 20 29 24 38 30 27 20 32 36 36 22 33 35 38
18 31 37 35 21 26 29 22 23 24 26 26 24 37 36 35 33 31 35 18 28 25 19 27 19 27 20 19 33 30 18 25 22 27 28 30 37 38 24 21 36 26 20 24 37 34 25 19 35 30 21 24 37 27 18 38 18 33 23 38 25 21 23 31
29 34 38 30 18 30 22 18 21 32 35 33 35 37 29 18 22 25 21 19 33 18 31 24 24 24 30 20 36 18 22 37 30 31 19 26 26 24 30 28 20 33 34 38 36 21 23 38 32 32 21 34 27 34 26 18 30 27 30 25 32 38 26 22
23 25 34 36 26 27 23 22 23 23 22 35 27 20 23 33 34 21 18 30 28 37 28 36 37 26 37 31 18 20 21 27 38 33 33 33 34 22 33 35 28 25 26 33 19 18 19 35 20 31 31 38 28 37 28 33 33 19 18 31 31 22 23 23
22 26 27 19 38 38 35 24 18 21 32 24 31 21 34 22 35 38 21 23 30 38 29 38 28 38 34 29 19 36 36 21 21 32 20 35 26 34 23 25 38 29 32 37 25 19 20 19 28 25 35 36 38 28 29 23 22 31 33 33 35 38 38 36
18 26 33 20 25 29 33 29 35 35 19 31 18 19 35 37 23 33 36 19 22 23 18 37 36 35 33 27 24 25 28 25 37 29 23 20 30 23 36 34 23 35 24 19 33 38 25 25 19 32 24 25 33 30 32 37 23 35 36 27 26 18 28 38
21 29 23 36 25 22 26 32 21 36 18 35 26 24 24 30 31 19 31 33 29 25 33 24 28 27 36 21 26 36 28 33 28 25 28 21 23 37 25 18 27 20 28 23 31 22 38 27 23 23 25 24 32 19 29 19 34 21 38 32 28 37 28 19
38 29 36 21 38 33 38 23 37 26 22 32 36 22 27 32 35 32 24 19 37 20 24 36 21 32 32 21 21 29 18 27 20 25 37 37 36 24 32 24 32 20 34 27 19 22 30 22 36 26 31 29 27 37 33 21 26 31 30 25 28 36 35 36
20 34 38 19 21 24 31 38 30 26 36 23 30 28 32 22 31 32 31 22 19 23 27 21 37 33 31 22 24 26 26 31 18 22 30 23 27 31 18 36 31 28 18 38 33 25 18 23 18 34 18 23 23 26 35 38 21 35 24 21 38 31 25 26
21 20 24 29 20 24 37 22 28 22 34 29 26 35 21 33 36 25 20 25 24 37 22 31 28 26 24 34 19 32 26 32 33 31 26 33 29 24 26 31 26 23 25 35 26 20 32 21 24 28 20 20 32 36 38 38 20 28 21 21 31 32 30 19
31 29 22 22 32 21 21 34 38 21 24 36 22 28 36 29 21 37 35 29 34 28 25 24 22 25 32 30 33 37 25 31 22 22 21 19 27 26 21 24 33 19 37 38 38 22 26 36 34 36 36 32 25 36 35 32 27 31 38 37 18 36 36 21
19 19 29 19 24 28 26 35 37 30 28 36 35 22 33 37 28 39 41 36 40 35 39 33 35 19 30 19 28 19 21 35 30 38 32 35 25 34 22 33 40 40 28 39 29 23 30 37 21 35 30 32 23 25 18 20 28 31 18 21 37 33 26 28
27 36 34 35 19 26 21 20 30 31 33 25 22 28 35 23 29 30 33 26 27 38 27 42 42 29 27 28 24 36 32 21 36 32 27 22 33 30 34 41 40 43 27 39 43 43 27 42 41 21 37 35 26 37 19 36 25 28 22 22 38 18 21 36
33 22 36 36 18 25 29 30 21 33 38 19 28 35 31 34 32 42 44 35 41 49 31 37 32 33 42 35 33 23 29 114 22 38 34 35 35 43 40 32 35 48 38 40 43 36 34 42 38 41 38 32 34 30 26 20 23 30 30 27 18 29 34 38
35 36 18 21 19 19 37 30 26 29 26 37 35 33 45 44 39 39 52 41 33 45 40 48 35 47 45 45 24 23 26 113 29 23 19 36 32 37 38 42 34 33 50 47 53 47 33 45 48 33 42 42 24 28 21 19 19 25 21 23 33 21 30 21
36 24 19 28 28 37 36 22 36 31 28 28 29 27 49 32 52 36 46 51 53 49 49 46 52 45 45 48 32 37 36 32 112 32 28 123 44 38 34 45 53 42 49 51 47 42 39 44 53 51 29 42 31 38 26 25 36 22 22 37 24 32 33 21
31 19 36 32 34 20 22 25 25 37 32 37 28 30 44 55 44 48 46 55 57 49 52 47 47 44 52 35 46 41 37 34 109 35 32 43 120 49 55 42 41 49 55 45 43 51 52 48 46 51 43 47 34 29 30 34 35 36 29 36 36 22 24 32
38 22 26 30 23 23 19 30 36 20 41 39 38 41 46 44 59 54 59 52 60 62 58 47 53 59 57 43 51 34 41 114 38 33 27 129 44 132 51 59 60 61 45 65 64 45 46 46 52 40 36 48 35 39 38 21 30 30 38 18 21 27 24 22
32 20 23 30 38 18 26 24 35 40 26 49 39 50 55 43 58 45 67 66 68 56 67 67 50 56 47 40 48 47 44 115 41 32 48 136 42 43 140 60 56 60 62 58 62 52 51 65 62 51 46 49 50 32 26 36 36 36 27 34 23 25 26 19
29 30 21 37 31 37 34 36 30 44 28 45 36 41 60 48 65 69 63 64 71 69 71 57 57 61 46 55 45 52 37 116 40 125 48 50 123 135 54 60 65 67 70 57 73 60 55 59 51 54 53 43 43 34 45 44 37 25 22 38 35 30 29 20
35 21 25 36 22 28 34 28 34 29 38 42 46 45 48 53 62 63 58 66 70 57 67 73 57 56 52 49 46 55 36 32 120 39 119 133 45 61 132 60 58 59 60 65 60 61 67 56 62 66 62 51 45 52 44 31 36 22 21 35 27 27 36 33
27 25 25 28 31 37 21 30 39 35 33 52 40 49 56 50 57 73 71 75 77 71 59 62 64 59 68 48 53 48 54 41 120 46 254 38 52 134 64 53 65 62 64 65 79 77 67 62 59 54 63 58 45 39 41 38 23 28 18 32 19 24 23 32
23 35 25 22 26 28 33 20 23 30 50 52 45 48 60 64 55 73 79 78 78 72 65 60 66 67 67 59 58 40 53 56 56 215 127 140 58 64 146 62 63 63 64 68 77 72 67 65 58 69 57 57 45 51 34 31 35 24 31 35 27 33 24 26
25 25 28 21 34 29 25 21 31 38 33 52 40 63 50 57 67 64 70 81 78 72 80 80 67 70 55 48 49 41 47 54 53 208 137 128 58 51 71 152 71 70 82 84 76 68 71 71 70 59 47 54 57 38 46 36 38 38 22 31 21 37 34 24
23 35 31 26 19 30 28 26 40 35 44 38 57 44 65 51 63 78 79 76 73 83 67 79 64 56 51 59 60 55 56 57 43 223 126 53 145 55 56 74 162 76 87 79 71 74 66 74 67 56 62 50 51 36 32 34 43 36 21 28 35 19 24 37
20 28 35 36 22 25 28 38 40 36 35 41 58 58 64 53 75 70 74 82 71 79 85 80 66 62 59 57 52 54 49 39 36 255 44 137 61 53 51 73 156 80 80 77 71 68 74 72 66 53 65 43 50 55 35 47 40 30 28 25 24 38 19 33
30 24 38 25 27 40 32 33 47 32 37 53 62 51 65 66 76 63 75 74 78 87 78 75 72 62 75 59 67 59 57 63 131 227 146 53 65 53 64 67 150 70 91 78 91 82 88 66 73 72 70 60 47 50 60 42 47 35 39 42 30 42 36 36
29 38 46 35 29 32 49 31 44 49 60 46 50 62 72 74 80 82 87 75 83 92 90 75 74 84 62 60 73 58 50 148 239 58 151 61 77 64 68 86 87 176 82 94 79 77 83 90 83 71 71 68 73 59 59 46 55 43 48 56 51 47 50 49
51 34 51 46 51 54 48 39 44 56 51 63 66 64 67 69 70 86 91 82 81 91 80 83 88 89 87 77 64 68 73 141 241 62 70 156 71 77 81 77 81 172 97 103 93 90 98 80 79 85 79 68 72 79 69 67 65 66 54 49 50 66 53 67
46 43 47 54 44 53 51 60 47 59 62 56 64 64 74 70 92 94 98 96 100 98 91 99 95 95 83 77 83 75 73 238 158 79 63 86 159 76 89 89 93 173 105 89 92 97 88 88 93 95 86 94 87 75 74 72 63 65 69 74 72 73 77 65
38 50 40 38 44 39 48 40 41 54 49 56 60 67 67 62 73 67 84 75 80 76 88 89 84 76 73 64 70 75 147 143 150 71 66 59 67 153 88 90 85 76 170 82 95 95 91 84 89 73 88 79 82 70 77 58 61 54 71 55 61 68 70 59
41 43 37 41 36 43 35 50 48 44 46 48 51 54 50 67 54 75 61 63 71 79 75 69 63 71 71 70 63 65 60 228 125 46 55 66 58 64 146 72 80 64 154 71 82 79 83 77 73 59 71 73 69 57 64 45 43 58 55 59 52 61 53 48
32 41 42 31 44 26 25 43 35 29 43 49 37 39 57 49 44 46 55 58 68 58 64 58 65 56 48 55 40 42 37 217 126 34 34 54 58 52 65 144 60 62 58 142 61 61 50 50 62 46 60 58 51 52 50 38 29 37 35 33 38 38 42 35
20 37 20 35 18 34 27 24 35 38 21 32 30 46 49 41 39 52 36 49 44 52 42 38 44 34 31 39 32 27 118 104 114 24 41 38 33 44 40 127 46 37 139 47 49 46 56 52 46 32 41 48 38 27 40 22 28 22 38 34 30 37 21 34
22 21 37 38 29 27 24 28 33 29 30 29 24 33 34 46 44 33 46 53 51 50 46 35 39 30 38 41 25 34 27 205 22 123 32 30 28 34 48 127 32 35 118 46 39 33 39 41 36 35 36 33 31 33 22 27 35 31 29 20 24 33 25 25
22 32 20 23 31 38 28 26 37 28 31 20 33 32 34 40 28 35 46 43 41 46 37 45 30 38 26 35 25 18 118 34 109 120 20 22 27 23 126 34 41 39 37 119 34 42 39 32 28 37 43 25 23 18 26 22 28 33 19 25 34 21 27 22
30 20 23 29 34 25 34 35 27 28 28 26 29 22 36 32 38 28 44 28 35 39 29 35 30 30 23 35 36 33 120 18 115 111 22 27 21 23 124 42 27 33 126 34 26 43 38 35 30 39 38 19 31 26 28 19 37 28 21 38 25 18 31 26
19 35 32 38 21 32 19 38 24 22 38 37 27 38 23 36 21 36 31 21 25 38 31 30 36 33 32 35 20 26 18 191 30 34 121 18 30 23 28 118 36 30 30 111 29 40 23 34 24 23 37 26 19 18 22 18 22 19 35 31 31 20 18 31
38 26 32 23 26 23 37 33 36 31 23 25 19 38 35 22 21 21 36 28 22 37 31 30 34 24 25 30 27 21 21 114 121 22 119 24 28 21 118 24 36 30 123 29 30 22 22 36 30 27 32 23 32 18 30 35 21 18 37 34 21 32 23 22
28 34 23 25 26 29 22 30 22 30 22 38 35 24 38 36 24 25 25 33 19 26 35 36 35 37 34 24 21 29 31 107 31 201 22 21 23 23 22 110 18 32 22 116 29 38 38 24 29 28 31 31 20 35 28 28 19 21 19 33 22 36 34 29
33 29 19 20 28 22 29 24 31 22 27 23 28 36 33 23 34 21 31 32 35 21 24 29 26 18 36 24 33 18 33 122 119 21 107 21 31 34 35 27 110 35 37 25 107 30 23 19 34 25 37 24 38 36 26 32 28 21 26 20 23 36 37 18
36 34 30 29 32 18 37 19 27 28 26 33 31 32 25 18 34 35 21 23 27 26 33 31 32 23 29 31 18 37 34 27 111 106 103 27 30 20 30 24 113 25 33 26 117 26 30 18 36 25 19 38 29 27 29 24 34 38 19 18 29 35 27 35
18 26 36 20 37 23 38 32 32 36 20 31 18 29 22 35 35 29 32 28 21 28 25 20 32 29 19 22 24 34 35 122 121 117 23 23 35 20 33 106 36 37 29 112 23 26 24 38 24 26 21 29 26 38 20 32 25 30 18 34 27 33 22 30
27 38 21 32 29 24 19 28 30 26 24 36 31 27 25 23 29 36 19 29 33 31 31 29 20 35 34 32 31 18 29 122 197 18 30 25 37 38 107 34 21 31 35 19 115 37 36 29 27 22 35 31 24 33 32 20 29 18 33 32 18 28 34 27
29 22 21 26 33 26 21 32 21 23 26 29 32 32 20 29 37 23 21 34 18 38 26 21 34 24 36 31 26 27 34 112 193 20 24 19 37 26 31 111 34 32 32 30 123 30 26 35 24 37 25 35 36 23 18 30 22 22 29 32 30 26 23 35
35 31 21 25 18 32 30 25 32 34 33 24 22 37 22 29 33 23 35 25 18 35 32 26 34 29 18 33 18 36 38 208 29 20 32 38 19 24 23 18 109 23 35 37 35 104 32 20 35 20 20 33 21 32 38 24 35 35 28 21 27 33 26 27
27 30 21 31 31 21 18 19 30 18 33 34 32 22 26 26 34 31 20 36 26 34 34 24 33 22 29 21 29 36 117 27 105 34 24 29 36 19 24 24 118 36 18 28 36 103 27 34 35 38 19 21 21 37 23 27 21 23 23 30 18 32 31 32
23 35 33 21 27 38 19 21 21 24 32 30 38 18 30 33 26 29 28 21 18 27 37 29 32 34 24 22 36 32 33 120 107 18 35 24 23 27 36 22 28 107 18 26 30 35 35 31 32 25 31 30 34 27 38 23 19 34 37 21 19 28 32 26
18 32 35 26 33 36 37 23 22 23 32 27 24 33 24 28 28 22 19 30 30 29 20 29 24 19 18 35 27 18 29 106 119 24 34 35 26 27 24 37 33 35 105 23 21 24 27 23 34 33 24 23 20 26 22 37 18 33 31 27 19 22 34 26
27 38 31 22 32 22 36 37 32 36 26 20 30 21 25 25 34 28 26 34 38 21 30 36 19 23 28 31 37 37 120 36 23 120 18 18 27 23 24 24 33 25 38 26 18 18 25 18 29 33 31 25 37 38 24 20 24 26 28 26 25 31 20 30
37 27 30 32 31 23 25 18 19 18 21 20 23 31 35 29 31 29 30 18 33 19 37 20 20 33 20 18 33 122 26 19 118 27 32 33 27 30 35 23 31 29 35 28 36 24 34 37 31 24 33 18 36 34 20 22 26 36 35 30 31 36 32 26
37 35 25 30 20 32 35 22 33 26 18 19 22 24 35 27 29 19 27 20 30 29 36 38 29 21 22 23 114 24 25 28 30 19 36 38 20 35 26 19 36 26 36 21 22 27 25 24 28 29 22 37 32 35 28 32 20 25 33 20 34 26 26 21
31 18 36 23 37 19 29 24 27 28 30 31 27 37 36 18 31 28 25 19 25 25 21 22 32 28 35 25 116 25 26 22 34 28 31 26 37 33 31 29 34 28 22 22 35 21 37 36 27 34 21 21 18 29 30 35 25 35 27 33 31 31 35 27
36 34 20 35 25 22 23 33 25 38 38 23 19 29 19 22 27 18 26 22 31 30 25 23 18 29 30 22 28 33 33 20 21 19 33 36 36 18 18 21 18 35 19 31 34 27 21 31 24 18 28 25 22 34 33 31 20 34 20 21 22 26 22 38
29 21 26 19 18 18 28 26 18 38 28 28 31 33 26 26 31 19 29 24 22 27 33 37 19 26 34 36 23 25 28 18 23 23 22 30 31 34 18 32 29 31 37 37 33 33 32 29 27 27 34 24 34 35 28 36 38 22 18 24 18 26 22 34
25 19 37 36 31 38 28 33 25 31 32 32 38 37 18 35 34 20 38 27 36 26 38 23 37 22 26 20 26 35 33 23 36 35 29 30 18 26 24 36 26 23 21 36 28 18 35 35 33 18 26 23 20 25 25 21 27 31 18 35 31 22 22 23
