P2
64 64
255
26 16 24 14 16 19 24 22 19 24 19 25 19 24 19 25 21 19 14 17 15 22 20 20 20 16 25 23 18 14 14 25 15 23 22 19 22 18 26 24 19 18 25 14 14 18 16 19 22 21 14 16 20 16 22 20 18 22 25 22 22 23 17 26
25 17 23 22 24 18 20 26 25 22 26 22 15 18 16 24 20 20 15 23 17 14 24 24 14 16 18 15 21 24 21 17 17 23 22 25 15 21 26 22 21 18 14 18 20 16 24 23 19 22 26 15 14 15 20 23 24 24 21 19 14 25 24 14
26 24 22 15 14 18 15 24 20 18 26 14 25 22 19 17 24 23 15 23 18 17 15 17 18 16 16 15 21 23 24 24 23 24 21 15 18 18 18 16 26 16 25 14 17 17 23 22 25 23 17 16 20 17 15 26 26 17 22 15 22 23 20 23
21 25 26 19 25 22 20 26 22 15 16 18 16 23 17 24 21 23 16 19 14 22 22 14 23 22 14 16 23 24 23 22 20 22 22 14 19 22 16 26 16 23 20 16 24 24 18 14 19 22 18 18 24 24 17 22 25 20 21 19 19 16 18 14
23 16 14 22 16 18 19 15 18 23 19 25 16 21 14 22 24 18 25 15 19 25 15 19 23 19 22 15 19 22 15 19 21 26 18 22 16 19 26 15 23 19 26 18 20 25 25 24 18 19 24 24 14 22 17 15 18 24 19 23 23 22 20 19
21 21 20 22 18 20 19 17 20 14 14 22 16 25 21 18 15 14 15 22 25 20 22 17 18 23 24 14 25 23 14 18 21 14 16 20 25 20 24 14 16 20 23 18 15 25 15 26 23 26 19 18 19 18 15 22 14 21 17 15 21 19 21 18
18 18 24 20 24 22 20 23 25 19 17 26 23 23 21 21 18 14 16 14 18 14 23 14 21 16 19 22 16 20 19 16 23 22 14 25 22 22 22 21 23 20 16 18 26 17 18 17 22 22 24 25 18 26 15 23 24 24 19 15 20 20 14 23
16 22 24 14 15 22 15 24 26 15 21 14 22 22 17 22 25 26 24 22 22 22 21 17 26 21 15 15 19 24 21 26 17 24 26 23 17 16 23 21 15 18 15 25 25 15 24 18 19 23 16 25 14 16 25 18 25 24 23 22 23 18 24 14
25 14 15 22 18 16 22 23 16 15 26 15 16 21 21 22 25 14 19 25 23 22 19 22 21 20 20 22 21 23 21 16 14 25 20 15 18 26 25 23 20 16 16 16 21 15 17 26 25 26 20 21 20 17 26 17 17 16 19 14 20 25 18 16
20 16 15 25 26 15 24 25 24 19 23 23 14 17 26 14 20 18 24 23 21 22 24 19 26 26 21 19 15 20 22 23 24 15 20 23 20 17 17 19 26 15 22 19 18 14 16 15 17 24 24 25 25 26 15 15 24 18 22 26 23 15 21 17
26 22 14 19 21 17 19 16 14 16 15 24 23 26 22 22 18 14 22 23 21 15 21 24 26 17 17 16 21 14 24 26 20 24 15 22 22 24 22 23 19 14 25 17 17 21 26 16 23 14 16 23 17 23 19 24 26 24 25 19 20 14 25 14
24 22 18 15 18 24 19 23 20 15 17 17 22 16 18 18 25 16 15 26 18 19 22 20 25 23 23 17 19 25 23 17 17 22 17 21 19 22 18 17 18 21 14 18 16 19 24 14 26 25 21 26 16 25 26 22 17 16 26 16 24 24 15 18
24 21 15 17 23 22 21 23 21 20 26 22 19 15 20 21 24 18 26 14 23 25 21 18 22 14 16 24 19 15 17 16 18 20 16 17 24 15 18 19 25 24 18 17 22 23 18 14 17 24 22 25 23 23 25 22 25 15 26 24 18 20 17 25
20 19 17 22 17 23 25 18 20 14 23 24 18 23 25 17 25 18 25 14 16 18 25 16 21 25 25 22 19 24 14 23 15 20 16 20 14 18 16 24 14 25 23 15 16 22 19 17 26 14 19 21 21 19 22 19 19 25 25 23 26 16 14 24
20 15 19 21 19 25 14 24 26 25 20 19 25 15 23 24 25 26 20 16 21 22 20 16 22 22 22 18 23 26 20 24 21 24 22 21 16 21 16 18 15 16 21 24 20 26 22 24 22 23 17 14 21 26 24 16 26 26 17 24 16 24 18 25
15 20 16 19 24 16 17 20 19 15 14 23 18 24 17 18 19 25 20 17 16 22 22 16 21 22 24 17 15 24 16 22 25 17 22 23 25 26 20 17 17 15 14 19 20 19 25 15 21 19 17 15 17 24 16 22 22 20 16 21 26 17 16 23
14 18 24 14 21 16 18 16 23 14 21 20 20 24 24 20 26 21 22 26 14 23 15 21 20 21 25 17 17 23 19 14 17 25 15 24 15 20 25 22 16 24 23 22 25 20 26 16 15 14 19 23 17 21 23 26 25 18 24 25 25 22 23 22
26 14 19 24 14 23 25 22 15 25 24 23 14 15 20 22 26 22 20 19 23 21 21 15 19 17 16 15 24 14 22 15 16 23 18 18 19 19 23 19 15 21 21 18 25 24 25 16 18 26 14 26 21 15 24 24 18 25 15 19 14 19 19 26
19 14 17 25 14 17 26 15 20 19 16 24 19 15 24 17 17 20 19 25 17 25 20 22 22 25 23 16 17 20 23 20 20 24 16 17 15 23 18 24 19 22 23 20 19 14 26 23 22 25 24 14 25 15 21 17 18 24 26 25 17 20 19 14
20 26 15 15 15 25 17 20 20 22 22 17 24 25 26 16 19 27 20 23 19 21 17 20 24 21 22 22 14 21 25 19 14 17 24 16 20 19 19 27 22 26 21 20 25 19 28 21 23 24 24 25 15 15 18 23 25 22 14 17 16 19 19 16
19 16 22 21 15 14 14 19 19 20 14 23 18 24 25 19 18 31 31 25 23 34 27 33 27 30 17 25 23 24 20 22 25 22 15 25 22 25 20 29 22 21 22 31 34 29 23 29 30 22 22 14 25 14 21 15 19 21 24 15 26 25 23 24
20 18 24 15 19 23 26 18 21 21 15 19 16 18 31 23 27 26 35 25 32 28 27 34 25 34 26 31 16 24 17 21 26 29 19 27 22 24 24 32 35 32 26 27 35 30 31 35 23 26 24 26 15 22 18 16 17 15 22 15 22 15 26 22
21 15 23 18 21 22 23 26 17 20 20 18 21 20 29 28 27 30 37 41 33 38 31 40 39 26 31 26 26 33 25 32 28 27 35 24 26 36 25 30 29 34 37 29 36 29 35 34 31 34 33 25 25 27 19 18 26 18 26 15 18 14 23 14
14 21 18 26 19 14 16 16 24 18 25 22 28 32 25 30 31 31 40 43 36 41 40 39 42 44 36 39 38 42 34 40 31 36 39 34 34 35 37 37 44 36 37 38 34 40 32 43 36 32 37 26 30 20 26 16 21 15 18 21 23 17 18 19
19 23 16 14 19 15 18 18 21 21 23 21 25 36 38 32 41 44 47 42 38 45 41 45 41 47 50 54 51 45 44 42 38 49 45 42 54 44 46 45 43 44 42 37 40 44 37 42 44 37 32 34 28 32 19 20 25 22 26 17 18 21 21 19
20 25 24 24 22 22 20 18 24 19 31 26 33 32 37 37 46 50 44 53 53 48 55 54 59 54 59 63 54 53 60 52 56 55 53 62 58 55 62 57 59 57 46 43 44 44 44 45 48 42 37 39 30 22 26 24 18 16 26 18 21 20 26 14
25 17 21 24 24 25 15 26 18 21 21 36 30 39 36 46 49 43 53 51 56 59 64 60 64 60 62 69 67 61 67 60 57 57 62 70 69 72 72 66 69 57 61 48 54 44 47 53 39 48 36 36 31 26 28 23 14 25 21 19 19 14 24 25
25 17 25 15 25 18 14 23 19 31 35 34 33 35 43 43 53 56 59 51 63 57 62 70 71 72 73 74 74 75 76 68 74 72 64 73 69 80 77 72 71 64 72 63 63 59 52 47 46 48 40 33 30 28 33 26 22 16 23 24 24 15 15 21
26 20 22 20 25 14 24 16 19 26 33 38 34 39 39 45 51 54 52 59 61 71 70 75 76 78 85 84 75 87 82 80 80 85 78 81 83 87 81 74 79 83 71 65 63 61 55 57 57 45 39 37 37 33 30 24 28 24 18 20 16 21 21 25
24 18 17 24 20 24 22 27 28 26 28 32 36 40 50 55 59 63 65 63 67 83 81 88 86 86 83 87 91 89 87 82 92 83 89 83 94 93 83 90 80 80 83 83 75 67 62 57 55 48 49 39 36 31 32 32 29 26 14 20 21 21 22 22
22 18 26 21 23 23 21 17 30 32 37 34 45 41 54 55 54 55 69 73 78 81 94 94 93 99 95 90 98 94 93 98 94 96 95 91 91 100 99 87 92 90 94 80 84 65 61 56 50 54 43 46 41 33 37 26 20 18 14 20 24 19 21 15
18 19 24 21 23 23 19 25 31 25 38 34 43 40 45 57 54 64 64 76 88 86 88 93 101 95 97 95 98 97 96 96 100 99 106 95 95 98 97 102 102 96 89 95 81 83 63 54 57 47 54 45 44 39 33 31 21 24 23 23 23 22 21 16
25 18 21 19 23 23 24 28 29 30 38 35 35 40 55 58 58 56 67 86 94 91 97 94 101 102 104 100 111 99 111 106 107 111 107 103 103 101 108 96 100 98 100 100 94 85 71 67 51 49 45 48 37 43 36 36 20 19 15 24 16 15 21 22
24 15 20 16 15 14 24 22 20 24 27 36 43 42 52 59 61 65 68 79 91 92 93 95 101 103 106 113 105 115 117 115 115 120 113 104 105 111 103 105 108 105 91 96 85 84 69 55 56 57 51 39 38 37 34 31 30 20 15 17 24 23 16 23
14 22 21 23 15 15 14 20 22 25 28 37 42 47 47 55 52 57 74 79 90 98 99 96 101 104 102 111 113 114 122 121 119 119 113 115 116 114 113 106 107 100 98 95 81 75 70 56 59 53 47 47 44 42 35 35 29 25 23 22 17 21 23 21
21 20 19 21 15 15 16 21 24 23 27 38 41 49 46 51 57 56 63 79 82 92 89 100 101 108 108 104 109 119 114 120 129 127 121 120 117 111 111 101 97 102 90 93 78 80 61 56 58 51 47 40 40 32 32 22 19 23 22 23 19 25 14 18
19 25 15 25 19 23 17 22 19 28 29 35 33 44 43 52 55 50 69 70 74 84 85 90 101 103 101 115 113 112 112 128 130 126 120 117 111 114 109 108 104 95 85 83 75 68 64 59 54 52 50 43 32 33 34 33 24 21 18 18 25 17 14 19
22 14 20 24 20 18 17 15 26 21 26 31 31 45 47 47 48 51 57 73 74 82 87 85 95 95 104 105 102 117 117 117 123 115 118 115 114 111 107 99 100 93 87 86 80 73 58 54 50 43 46 40 37 27 34 24 21 19 20 25 23 20 21 26
25 21 15 18 22 26 20 19 26 21 22 31 36 31 42 49 45 51 56 63 65 82 84 81 90 95 101 105 105 112 109 102 113 113 104 107 97 97 101 89 88 84 76 76 72 58 59 46 44 37 35 43 32 34 31 19 23 16 19 16 20 20 16 16
21 20 25 23 24 19 26 26 20 18 23 31 28 31 32 35 39 46 52 58 69 70 73 82 81 84 97 92 92 93 99 98 96 98 97 98 103 99 89 83 91 82 76 68 68 60 46 43 41 34 40 30 31 31 31 23 19 23 21 24 21 22 16 18
15 24 16 20 16 20 24 25 24 22 20 31 25 36 35 36 40 46 52 59 54 65 73 77 76 88 89 88 96 90 97 91 88 95 91 89 91 93 81 79 74 76 67 70 64 57 47 46 39 40 34 26 35 24 19 17 20 19 24 20 20 19 20 26
16 26 22 26 17 18 14 19 18 22 20 22 21 29 36 32 31 34 37 42 55 56 64 69 70 82 78 80 78 85 81 78 86 84 80 90 79 87 85 82 75 74 61 59 55 48 36 41 36 29 26 34 22 18 26 22 24 19 24 20 20 20 23 19
20 23 19 20 19 24 17 15 20 22 19 22 24 25 26 29 35 27 33 40 41 56 63 55 66 66 77 73 76 74 75 74 71 81 79 69 79 75 75 71 69 67 52 46 42 39 31 30 30 35 34 22 29 16 18 19 25 14 20 26 19 16 14 22
24 16 16 19 14 17 14 20 22 23 18 26 16 25 20 24 29 31 32 38 34 39 51 53 60 65 69 65 60 62 75 69 71 70 72 69 62 67 68 55 51 52 51 41 38 38 26 25 26 27 23 28 25 20 18 16 22 21 24 22 22 16 21 20
25 16 15 25 24 26 18 20 17 24 16 21 24 18 22 28 20 31 24 32 35 42 46 45 48 48 51 59 60 56 66 66 63 70 67 64 52 62 59 49 52 52 44 35 34 27 23 21 26 23 15 15 22 16 16 23 17 26 18 15 15 17 14 21
24 14 15 26 20 20 20 24 23 21 15 18 20 24 21 19 18 20 20 22 26 35 28 42 36 39 53 54 50 59 56 56 55 61 60 54 48 51 41 40 47 36 35 34 27 21 28 17 20 19 25 23 24 25 21 19 25 22 25 25 25 14 24 18
18 20 24 25 26 23 18 19 23 22 18 26 21 16 23 25 18 16 22 25 24 23 27 36 31 35 39 42 42 49 47 46 49 45 46 49 41 48 48 38 39 29 22 25 25 20 18 24 17 25 21 17 23 16 16 23 20 16 23 22 25 18 25 26
23 25 19 22 17 22 23 19 21 21 17 14 17 26 21 20 19 19 14 18 16 16 26 31 24 32 38 37 45 39 43 42 39 51 39 41 47 44 33 28 35 26 21 20 20 16 16 15 23 23 20 21 21 21 17 15 20 15 15 24 22 15 23 19
26 17 18 22 20 17 26 26 18 17 24 19 16 24 26 19 21 16 15 23 16 15 14 21 25 30 33 37 40 34 41 39 40 44 35 39 30 36 31 32 28 19 24 19 17 16 25 20 23 19 23 26 20 24 22 15 23 24 22 14 24 15 23 26
16 17 14 19 22 25 17 14 26 22 18 20 15 26 15 22 20 19 25 18 14 22 20 17 21 20 19 29 30 36 31 32 28 39 38 37 35 26 29 18 16 24 15 21 14 23 20 16 26 17 14 20 16 25 18 24 20 24 16 16 24 17 17 18
19 19 19 26 18 24 17 25 18 20 20 22 25 23 25 23 15 14 22 15 23 24 15 19 25 16 26 27 24 21 23 21 21 25 32 23 26 16 17 22 19 16 18 15 18 23 24 23 20 15 23 18 25 18 22 15 21 25 17 21 24 18 25 15
16 24 16 26 20 16 25 19 14 20 19 17 14 14 14 15 23 20 20 17 25 22 14 15 21 21 23 26 14 14 21 15 26 26 14 21 22 23 17 17 16 21 17 24 26 16 15 17 22 21 17 14 15 23 22 18 19 16 21 26 21 24 14 21
26 19 18 19 14 15 21 18 15 17 25 18 23 14 14 19 24 19 26 15 23 24 14 20 25 23 22 15 25 19 21 18 19 22 20 14 15 19 20 24 18 23 17 23 21 20 18 16 19 20 21 17 15 17 26 21 21 17 20 15 18 25 21 26
23 24 22 18 21 18 25 20 21 15 16 20 16 14 22 21 19 14 14 20 14 23 25 21 22 23 18 19 14 15 14 18 21 23 25 19 20 17 24 20 22 19 15 14 18 18 18 16 15 21 19 23 26 25 19 18 18 16 17 20 22 23 21 14
18 19 21 23 18 18 24 15 22 21 19 15 25 26 25 21 20 20 25 23 15 17 17 16 21 19 23 14 18 21 18 18 18 25 23 25 19 16 19 23 26 23 24 22 26 23 17 16 22 16 25 14 21 20 19 23 23 26 24 18 21 24 21 15
15 26 24 15 16 23 22 20 17 23 26 24 17 21 17 22 20 23 21 26 26 21 15 26 21 17 17 25 22 16 14 25 22 24 16 17 25 25 20 25 24 18 26 14 20 23 22 16 24 24 16 22 19 18 25 19 23 22 20 16 19 15 21 15
24 22 21 19 16 23 19 15 21 25 14 21 21 24 15 17 17 15 24 24 18 15 23 19 15 22 21 14 14 21 25 17 21 26 19 17 23 20 20 22 17 22 25 21 20 24 20 16 25 14 25 23 15 26 17 21 18 22 15 24 24 15 25 25
17 19 15 21 21 21 25 18 21 21 17 26 26 22 24 18 15 18 26 24 16 15 18 24 24 24 17 21 20 19 24 26 26 24 14 18 15 20 22 16 20 25 26 15 14 25 20 18 25 16 24 14 18 23 14 16 22 15 16 25 14 14 19 15
20 17 22 21 14 26 26 17 18 16 18 24 15 25 22 16 20 25 21 26 23 17 26 23 15 23 17 25 22 22 20 20 23 23 17 15 18 26 26 26 24 22 14 25 20 25 18 26 25 21 18 14 21 17 23 20 22 24 19 17 17 18 19 26
20 25 18 15 16 16 26 20 16 17 15 18 26 20 26 17 18 20 16 26 26 17 19 22 21 16 21 18 22 20 20 26 22 18 15 22 16 20 25 24 17 17 26 25 17 14 23 15 16 24 21 17 25 20 21 25 21 26 22 23 16 14 20 25
17 23 15 20 14 18 19 16 16 20 26 19 25 14 17 26 21 19 17 21 24 17 24 21 18 24 17 17 14 23 23 25 22 23 17 14 22 26 24 17 14 20 14 15 24 16 24 15 22 21 18 24 22 17 19 25 20 17 15 21 20 19 18 26
15 14 14 26 26 21 15 23 23 26 19 17 25 25 17 23 19 23 14 17 25 19 16 20 16 21 24 26 18 25 19 17 21 15 23 24 15 19 23 25 21 26 20 20 18 20 24 18 19 21 22 19 20 19 23 23 22 18 17 24 24 17 17 18
19 15 19 15 23 26 26 22 14 20 18 14 14 17 23 14 17 16 14 20 24 16 16 15 15 19 15 16 19 16 18 25 23 22 23 17 18 26 26 23 19 23 21 23 26 15 24 19 24 19 19 14 22 19 17 17 19 17 22 19 19 20 15 20
25 17 26 15 24 22 20 21 24 26 24 18 14 21 14 21 21 24 25 15 20 21 15 21 19 24 24 16 23 17 22 22 23 26 20 20 20 26 17 14 26 26 15 21 17 25 15 23 22 15 19 17 14 26 23 19 16 26 17 26 15 17 14 25
