P2
64 64
255
38 20 36 24 25 30 18 32 25 31 28 35 26 32 22 28 27 38 32 30 24 29 22 23 27 29 26 33 25 28 31 31 27 20 22 23 27 20 24 34 27 31 28 38 30 35 36 21 35 19 28 38 29 31 35 34 32 31 34 36 18 36 32 29
21 20 33 34 20 31 35 32 37 23 26 32 19 32 21 24 37 22 26 33 35 26 38 22 22 18 27 21 33 36 27 22 19 31 35 31 22 30 18 20 27 31 27 18 21 31 21 29 37 27 18 29 19 26 24 25 23 36 30 25 18 29 31 20
24 31 28 33 36 34 25 22 25 38 33 34 30 21 29 25 35 33 30 20 25 25 26 30 24 36 36 34 22 35 35 36 36 23 34 20 35 30 20 34 30 25 24 35 29 35 35 35 18 20 24 24 34 29 31 33 32 20 37 26 23 30 28 35
33 27 28 18 35 37 23 32 25 30 20 33 33 22 37 29 38 30 36 21 27 21 19 28 22 37 29 26 22 33 33 26 37 27 33 23 26 24 27 38 26 27 18 28 20 21 18 20 27 31 23 19 19 18 24 22 25 28 19 35 28 21 25 21
34 28 38 27 19 36 24 21 19 38 32 28 38 30 21 29 18 20 32 36 36 23 33 25 22 34 27 24 26 25 32 29 33 23 19 34 26 25 38 28 24 18 24 29 28 33 30 31 38 27 38 32 22 18 21 27 25 23 28 33 27 35 18 29
32 20 29 30 34 27 23 22 27 36 38 19 20 37 21 32 31 34 19 27 37 23 32 19 28 20 28 34 33 25 21 25 28 36 21 26 29 27 22 34 31 36 33 26 31 19 38 29 36 22 37 23 32 37 26 36 38 35 27 34 33 34 32 23
22 35 22 30 20 18 31 35 19 37 38 23 38 25 38 22 36 23 25 28 35 25 23 28 33 30 34 22 30 20 18 21 24 23 19 37 32 27 21 34 34 22 28 21 27 21 21 26 27 27 37 26 31 18 28 18 37 30 25 26 35 22 24 24
29 32 25 18 24 22 18 29 20 24 36 20 21 33 20 19 31 36 28 31 30 23 21 24 20 31 33 23 33 32 30 27 37 36 27 33 34 33 23 29 19 32 35 18 22 21 31 35 26 35 22 37 20 35 27 24 35 29 34 18 34 29 32 30
32 36 38 35 27 30 22 36 27 21 35 33 28 20 38 23 33 25 29 21 31 30 33 20 22 37 31 31 23 25 19 27 32 28 26 34 26 23 31 28 22 19 19 35 26 24 23 35 35 37 19 32 23 35 36 24 21 24 37 34 19 27 30 31
38 26 19 29 37 26 23 24 30 36 32 38 23 18 21 29 18 31 31 31 30 20 26 36 34 25 28 34 19 37 34 36 25 19 25 20 32 30 34 32 18 28 24 22 27 26 35 25 23 30 22 34 31 35 20 28 18 29 22 28 37 19 37 32
27 20 26 36 21 28 25 37 24 20 22 27 34 23 38 21 25 26 35 21 32 32 38 26 27 18 19 22 35 32 36 22 30 31 29 31 38 28 37 27 36 38 18 36 36 37 27 33 23 37 27 36 27 34 28 28 30 28 19 36 33 38 29 37
23 38 20 18 19 35 38 32 22 29 19 20 18 20 29 18 26 24 38 38 26 36 35 21 36 18 38 22 31 25 38 25 22 31 28 26 28 31 21 31 26 38 35 34 26 18 29 27 27 37 31 20 19 34 29 25 30 23 26 30 36 22 20 38
35 23 33 26 19 19 24 35 38 24 22 18 32 23 23 28 36 25 26 35 19 36 38 18 29 23 35 28 38 27 27 29 26 24 18 18 21 24 24 27 27 36 21 38 38 25 28 23 30 20 21 37 29 31 29 37 37 20 29 34 34 19 25 28
26 32 33 34 19 21 28 25 35 18 27 19 38 32 36 36 34 32 32 26 18 30 35 20 23 26 37 31 32 30 32 35 20 30 37 29 31 21 22 25 34 35 28 24 24 37 23 19 27 32 35 26 32 31 32 19 35 21 35 23 36 36 19 27
18 30 19 23 30 26 29 34 32 31 23 22 27 35 34 30 33 25 29 19 35 20 20 33 38 33 36 33 21 21 23 34 37 26 20 30 26 27 34 20 31 28 25 25 20 33 25 25 29 26 33 26 35 31 18 28 26 35 25 18 32 38 29 37
19 21 30 29 30 22 30 31 19 27 20 18 20 32 34 35 24 29 35 18 34 20 28 38 36 36 32 26 38 22 26 18 21 20 25 20 18 23 28 27 31 18 18 29 31 35 32 30 37 31 20 22 21 19 25 22 26 38 26 31 30 30 28 27
38 20 25 26 28 33 30 38 21 26 19 26 23 22 20 29 22 19 37 21 29 23 37 30 28 19 31 30 35 18 31 26 23 25 19 18 25 29 30 36 24 20 30 26 36 35 27 32 20 33 30 37 38 35 29 38 19 36 35 38 29 29 29 19
37 35 38 36 35 37 29 37 18 36 25 21 36 37 18 32 35 30 25 22 32 26 34 31 30 18 31 18 38 23 30 26 25 26 21 18 35 24 36 26 20 33 25 37 18 36 30 35 24 38 35 25 19 33 24 21 38 32 25 27 31 32 25 27
27 30 34 37 23 30 21 27 28 21 22 33 37 26 32 34 20 38 23 33 20 36 23 24 34 37 31 36 32 34 33 24 23 31 28 34 32 26 36 36 24 31 32 19 34 36 19 30 26 30 24 23 20 29 23 26 28 34 34 29 38 18 25 22
30 24 28 34 35 29 32 37 25 30 21 19 31 21 28 22 32 31 40 35 33 26 28 37 31 39 18 24 23 37 18 36 19 37 28 34 30 25 34 31 35 21 36 31 38 29 29 21 20 31 28 30 25 31 34 32 36 34 22 24 35 36 19 25
22 34 26 32 27 30 33 22 23 33 29 18 34 33 21 35 36 25 28 40 40 31 43 37 29 29 37 21 27 20 25 34 34 34 34 21 33 31 29 49 48 43 49 42 32 32 41 39 40 38 38 37 36 26 25 27 18 37 27 29 31 29 28 25
26 22 37 23 34 22 29 29 32 19 19 30 27 36 40 44 34 37 36 30 42 41 46 33 27 39 27 38 26 35 37 28 34 34 31 25 32 37 56 52 73 59 57 52 56 41 44 35 31 33 29 27 34 28 27 21 38 35 37 24 26 27 21 30
18 25 33 30 28 31 19 30 30 18 28 27 21 37 35 47 49 44 45 48 45 46 52 35 41 44 43 43 30 35 39 38 37 38 23 40 28 49 68 81 89 94 93 73 60 65 43 38 32 48 38 40 29 20 23 33 27 29 31 30 33 32 32 23
27 26 21 28 22 31 30 31 33 24 19 28 39 34 33 46 33 44 56 56 53 39 47 50 47 44 32 44 43 29 25 30 27 44 43 47 52 63 81 79 103 107 98 97 71 76 62 45 49 36 34 31 37 29 25 31 37 31 23 19 29 21 24 34
21 32 19 28 22 29 25 23 32 24 21 25 47 33 38 41 52 54 49 45 48 49 52 40 47 44 44 32 34 28 35 50 46 43 59 59 63 88 80 94 108 125 106 97 100 85 66 42 49 42 32 48 42 34 24 21 34 27 20 22 24 22 18 18
33 18 24 33 36 28 35 34 18 30 38 34 46 52 48 44 51 55 45 61 50 62 48 51 42 48 44 52 45 36 39 47 52 61 69 54 81 87 112 103 121 143 117 117 94 87 57 43 41 46 35 39 47 45 37 24 28 33 36 29 20 34 21 25
30 37 24 31 22 38 37 38 25 25 32 33 45 52 57 51 46 54 61 51 49 54 56 51 65 60 55 51 49 57 67 61 60 67 75 67 90 108 102 109 126 126 122 111 107 84 65 50 54 41 54 39 47 29 39 32 18 33 19 21 38 32 34 25
26 32 24 37 31 29 25 31 39 28 45 34 48 44 43 59 47 57 69 68 61 59 56 67 64 57 48 47 44 53 53 60 77 91 89 79 96 108 111 107 125 120 120 100 106 86 69 63 54 54 47 54 46 46 43 28 38 21 35 38 37 38 33 34
32 32 29 28 24 21 20 29 41 33 42 43 45 39 44 53 60 56 72 73 64 74 62 73 52 67 55 52 65 54 67 78 94 84 106 96 103 103 101 103 101 116 107 94 82 79 69 63 59 64 44 47 54 46 49 33 41 18 27 26 19 22 24 28
33 22 28 30 18 37 28 19 39 39 44 39 44 56 55 68 56 74 63 74 76 75 70 65 73 54 63 60 66 67 67 79 92 104 114 99 103 85 96 94 92 92 93 83 88 68 64 63 69 59 51 41 54 34 46 42 37 19 21 18 33 35 28 32
20 37 21 30 18 19 31 25 37 45 37 43 48 46 58 54 70 75 73 70 77 80 83 62 57 72 62 59 67 71 61 78 87 104 95 106 103 93 94 80 93 89 88 74 77 66 61 65 59 60 46 56 52 55 51 32 43 27 30 32 21 26 28 23
21 36 35 20 25 38 26 39 28 29 44 51 58 44 62 70 67 65 64 81 87 77 78 66 76 57 52 54 49 58 61 81 85 98 93 97 97 84 77 76 64 67 72 78 72 86 72 78 73 55 62 45 49 36 49 41 32 36 33 21 26 30 28 29
29 18 22 32 18 37 20 26 41 35 38 55 49 61 55 60 66 66 63 78 90 89 79 66 67 68 60 50 54 66 62 73 86 86 79 83 80 81 84 68 67 78 67 89 90 72 80 74 60 53 58 52 43 48 37 37 27 35 18 19 20 37 28 33
23 35 29 25 36 27 38 33 41 36 38 37 40 53 65 56 61 67 69 74 76 80 85 64 65 63 53 61 49 45 58 57 69 72 72 79 84 75 78 67 67 67 69 69 86 81 69 73 60 71 66 56 40 35 36 38 29 28 18 22 26 29 35 38
18 23 27 20 20 37 22 24 37 35 31 36 46 61 49 58 72 71 80 76 82 75 75 67 68 69 57 57 47 51 45 54 70 65 74 70 75 62 60 58 60 73 72 83 64 76 68 74 54 58 57 47 41 36 33 41 37 32 23 34 30 31 37 32
28 19 19 25 24 31 24 24 38 38 40 52 43 48 65 48 67 57 62 60 72 70 59 68 70 58 49 46 47 45 53 42 56 49 58 63 63 50 49 69 68 61 67 62 75 61 68 57 58 62 60 56 37 36 49 29 22 32 30 37 23 35 23 28
33 23 30 20 20 24 26 23 27 32 42 38 56 40 55 49 65 65 69 60 61 76 75 71 63 55 63 60 45 37 36 43 44 52 41 37 56 53 57 55 81 86 87 79 68 60 65 64 66 60 62 57 41 34 47 33 29 29 37 37 32 22 34 26
25 22 33 21 37 22 23 27 25 27 29 38 37 56 44 58 55 49 54 63 62 55 67 65 68 54 54 41 37 53 40 36 28 30 34 34 49 41 49 70 87 82 83 92 90 71 67 67 48 58 56 53 44 36 27 28 21 34 38 22 38 19 35 19
25 24 28 30 20 26 23 27 33 37 31 40 40 51 43 44 52 48 65 55 62 52 55 54 45 53 51 48 50 48 32 40 37 32 42 38 38 55 56 87 95 106 94 98 84 94 75 60 50 49 56 36 39 35 45 27 18 25 30 32 31 28 27 38
27 31 36 27 38 31 30 24 24 33 42 26 49 33 49 57 45 58 49 55 48 62 45 46 57 58 51 48 51 42 38 32 42 27 27 49 52 49 78 75 94 118 118 113 108 98 70 54 51 58 50 47 32 31 33 38 19 18 33 36 20 20 35 35
31 33 27 38 31 22 28 34 23 33 38 25 31 33 42 37 42 38 52 41 58 52 47 56 47 53 52 36 32 42 26 38 34 31 27 32 49 48 64 95 96 121 123 111 116 102 83 67 50 54 35 30 45 24 25 38 37 34 32 30 26 29 20 29
23 36 38 27 21 32 20 19 38 19 32 30 41 38 41 31 35 40 50 44 41 40 39 56 43 44 49 43 36 41 31 23 25 18 26 38 28 60 70 91 113 131 138 112 108 90 72 51 42 39 29 40 35 26 25 27 37 31 22 24 30 25 38 22
24 32 37 26 35 34 18 36 29 21 37 31 27 26 43 39 36 44 46 34 36 48 48 44 32 42 43 40 28 27 22 33 32 22 23 35 38 43 75 76 99 113 113 108 97 82 63 60 40 30 31 39 23 19 37 38 27 34 25 36 18 20 35 27
21 36 21 28 38 22 38 30 27 27 36 19 31 38 39 32 34 34 39 30 49 32 33 31 44 27 28 26 34 26 29 32 19 38 19 25 36 45 59 73 75 93 101 93 80 71 58 42 44 29 30 36 31 36 34 31 33 18 19 21 37 18 32 37
21 24 22 26 27 27 20 18 34 22 29 26 32 22 28 21 32 25 26 35 30 26 44 45 27 30 28 34 25 25 33 36 37 18 25 26 34 41 42 63 69 86 76 71 77 59 50 46 35 23 38 18 23 26 33 31 25 19 28 34 38 30 20 31
26 30 27 28 35 21 21 28 30 34 31 20 20 32 31 19 31 40 24 38 23 26 28 21 37 39 33 27 19 32 33 18 37 25 18 34 22 19 33 54 45 59 65 54 48 44 27 39 24 27 30 25 30 29 38 32 21 27 37 21 31 31 19 18
25 22 27 29 35 29 29 19 27 37 31 27 27 38 35 20 30 23 23 32 23 37 36 26 19 22 21 25 29 19 29 27 19 20 18 30 29 19 32 21 42 49 39 50 40 32 35 35 37 35 26 24 31 27 26 35 34 19 30 23 34 34 32 36
20 32 35 30 35 27 23 28 27 33 35 38 34 23 22 30 22 19 36 34 29 35 35 33 20 27 23 21 32 21 27 20 36 38 27 25 33 32 28 35 18 25 31 23 27 19 38 18 28 31 25 18 36 36 26 23 26 28 20 30 19 35 28 27
38 37 21 37 23 21 37 19 33 21 34 22 27 21 35 26 24 27 19 33 23 22 38 21 36 34 38 33 23 35 22 36 38 31 27 35 31 36 28 36 27 38 38 23 37 28 38 28 18 18 37 23 35 19 32 33 27 25 31 30 30 33 28 33
38 33 35 32 21 31 35 29 33 22 28 23 23 25 27 31 28 31 26 35 30 22 23 38 21 32 22 20 37 19 25 25 28 25 21 20 35 23 26 31 26 36 23 36 36 36 22 37 18 29 19 30 23 32 38 21 32 18 38 22 22 21 37 28
34 28 34 30 38 21 23 19 37 18 34 27 18 32 27 23 21 20 31 19 32 20 35 33 27 36 26 23 32 36 30 29 20 37 26 23 26 29 21 25 34 19 37 37 30 32 23 23 29 20 29 18 18 22 23 32 20 29 22 25 21 34 34 32
19 27 29 30 22 31 29 25 20 20 26 25 33 20 34 29 33 23 32 21 32 27 22 34 28 32 19 31 35 21 33 37 25 22 33 30 35 32 21 32 27 25 32 21 33 27 24 18 25 23 18 37 27 33 23 22 18 25 36 26 29 28 19 35
20 18 38 34 24 30 33 34 37 20 31 32 22 21 25 30 32 21 18 38 20 36 21 20 22 30 34 35 26 29 21 26 27 31 24 24 30 22 32 23 35 33 24 22 30 19 27 22 31 37 34 22 30 26 24 32 28 18 24 34 21 32 22 18
18 30 19 32 27 33 32 37 21 33 21 33 27 18 37 24 27 28 26 24 36 24 36 30 34 23 20 20 34 31 22 27 37 19 20 29 26 26 31 26 36 30 30 18 26 22 22 26 35 31 32 25 18 33 21 18 21 30 38 36 22 26 36 22
37 20 32 35 23 26 28 19 33 25 38 25 31 36 29 25 35 25 21 25 21 33 24 24 29 27 20 28 25 25 27 26 21 22 33 21 37 37 37 35 30 19 27 38 37 21 29 36 29 19 35 26 37 35 32 21 38 36 37 23 19 22 28 25
36 18 22 36 34 34 25 24 29 32 27 35 35 26 37 31 28 36 27 31 23 27 31 21 35 21 34 20 26 32 33 27 18 24 22 29 35 21 36 32 29 27 22 32 23 22 21 37 22 32 24 35 23 20 19 33 29 18 21 33 38 19 19 28
24 37 24 31 34 20 34 37 31 34 38 23 31 38 25 21 32 38 36 20 25 20 33 32 37 36 18 20 25 30 24 37 18 26 29 32 24 22 18 27 33 34 36 20 30 36 25 22 33 23 22 28 19 21 38 24 18 23 27 28 35 21 37 22
18 29 18 32 26 23 29 33 20 36 21 38 27 31 36 26 23 21 29 21 31 36 33 34 21 27 22 31 36 37 26 19 19 38 21 20 29 28 26 30 38 29 21 21 25 26 21 38 33 33 22 30 28 37 30 21 25 38 20 32 36 30 23 20
19 30 25 18 30 29 38 24 37 20 32 18 35 23 24 31 37 33 31 26 22 29 34 24 25 30 27 28 28 30 20 34 20 24 20 33 35 19 29 28 26 27 23 26 20 38 31 29 37 19 32 21 32 18 27 25 26 30 38 23 37 22 27 28
23 24 23 22 22 35 28 32 34 30 22 37 32 26 25 34 31 31 27 23 18 25 36 35 38 20 27 31 30 31 27 28 37 21 18 21 26 30 19 28 35 30 26 24 32 22 26 21 30 20 28 27 24 32 27 32 18 23 19 22 37 36 30 25
24 22 37 28 21 31 32 19 26 29 31 23 27 27 24 22 25 29 25 25 26 32 23 31 25 27 35 28 37 18 19 19 33 22 38 36 29 32 35 23 38 28 23 38 35 30 26 18 37 23 33 29 37 29 20 20 24 33 18 21 27 32 37 25
24 24 26 26 23 33 19 30 30 23 27 30 33 23 35 21 19 33 28 29 19 34 24 26 25 18 21 35 34 37 33 35 20 21 19 36 21 29 23 22 20 32 38 36 24 31 18 37 27 22 27 25 36 26 21 27 21 35 21 38 27 37 32 30
34 26 24 31 24 26 24 22 30 29 27 18 37 34 32 29 30 36 36 18 27 21 34 36 20 32 38 24 23 36 25 38 34 32 19 32 30 29 18 18 35 26 29 37 32 23 33 25 24 35 38 27 23 19 30 33 38 27 23 28 23 26 21 18
28 35 35 18 25 29 26 37 33 33 25 29 19 34 19 23 25 26 38 25 19 27 30 29 35 36 32 31 36 34 34 32 23 29 33 34 21 19 22 19 29 29 20 25 18 34 21 20 18 33 26 23 32 31 36 35 38 22 32 25 35 20 20 26
