P2
64 64
255
15 25 17 20 26 22 18 18 23 15 22 24 21 26 18 25 22 25 16 26 20 18 14 25 26 21 14 22 25 24 22 20 23 16 15 24 20 23 19 16 23 18 14 21 19 15 14 25 18 19 21 21 21 23 24 22 19 21 20 18 19 18 24 15
20 18 26 22 15 24 24 19 25 25 20 14 15 16 17 14 23 22 25 24 21 20 25 18 17 21 20 21 15 20 25 18 23 15 23 25 20 19 14 14 24 16 22 21 17 21 20 15 17 25 24 18 21 14 21 24 25 15 16 22 24 14 25 25
23 17 20 24 23 18 18 20 15 17 16 25 16 16 17 20 25 26 26 18 24 23 23 17 18 23 21 17 26 16 18 23 18 21 21 19 24 18 26 16 24 17 14 15 16 20 18 23 16 16 20 18 20 16 14 18 20 23 21 25 15 14 20 18
19 23 15 25 23 23 17 22 24 24 16 17 18 25 16 21 23 21 22 15 16 26 26 22 20 24 14 25 19 22 20 25 17 25 25 19 15 23 15 25 18 16 24 20 22 20 23 22 23 26 17 14 23 18 26 14 21 22 22 26 21 16 23 20
26 26 26 24 22 23 17 16 20 17 24 25 23 20 17 23 20 18 18 24 20 19 19 20 18 16 21 16 14 19 15 20 22 24 17 16 17 14 15 20 16 23 18 14 18 26 24 26 14 14 17 14 17 26 17 23 18 26 18 17 18 25 25 15
15 20 18 15 18 20 19 25 21 16 21 22 24 25 24 24 20 24 23 23 24 19 20 23 23 21 17 22 15 26 14 23 19 20 24 17 18 22 19 22 17 20 15 17 25 25 17 21 14 17 20 19 20 26 20 25 20 24 17 15 24 16 26 18
20 25 24 23 24 25 25 24 19 14 16 24 26 19 16 26 19 17 22 16 18 25 19 19 14 18 14 22 14 26 17 19 16 20 25 25 19 21 14 21 18 22 17 19 25 24 25 18 20 20 14 18 16 14 20 19 14 19 15 21 23 23 26 23
21 15 21 17 15 26 24 19 25 16 24 18 14 21 14 19 20 15 17 24 25 25 23 19 23 15 15 14 15 15 20 25 21 14 16 22 15 23 26 25 24 18 24 18 24 19 17 21 18 26 18 16 22 19 16 21 15 23 18 15 16 18 15 17
15 19 14 20 17 24 16 14 25 19 15 23 22 23 21 14 22 17 16 14 26 23 22 15 25 22 22 17 15 26 24 17 20 17 16 16 16 14 15 24 21 25 19 16 16 15 22 25 20 24 19 24 22 24 20 25 14 25 21 26 18 23 20 24
19 22 25 24 25 20 25 15 21 15 14 21 14 18 22 18 15 18 26 20 22 24 19 24 20 17 23 15 25 14 26 20 17 21 20 26 22 25 18 14 16 22 18 19 26 15 18 21 22 21 23 24 18 16 14 20 15 21 22 19 25 16 20 14
25 17 16 23 15 23 17 21 20 15 21 24 24 16 23 18 26 19 16 17 26 26 26 22 15 15 23 19 24 17 17 24 17 20 14 19 19 15 15 24 15 23 16 24 25 14 24 26 26 16 16 25 23 26 20 26 25 20 22 26 14 22 25 19
17 19 23 21 21 17 14 23 26 18 26 25 15 20 15 21 16 21 22 25 26 23 18 23 20 26 17 14 16 14 16 14 20 20 22 14 23 16 25 14 17 16 25 18 23 24 23 18 26 20 22 26 14 17 20 15 18 26 15 21 25 15 14 19
25 26 21 15 16 25 15 24 19 15 26 17 18 19 19 15 26 14 23 24 16 21 14 22 18 19 15 18 21 20 17 18 23 20 15 24 18 19 20 25 14 22 15 17 18 19 15 21 20 23 17 15 26 16 25 23 15 22 15 22 22 17 26 18
14 14 15 22 18 15 20 20 15 16 25 26 14 16 18 19 25 14 19 25 16 14 14 19 23 25 17 14 26 20 17 16 22 17 22 25 24 19 24 22 18 22 22 17 14 15 18 24 21 14 22 18 23 20 18 14 20 26 26 20 25 14 26 15
19 20 19 23 19 15 18 16 14 15 16 15 21 21 20 15 22 20 21 17 19 16 20 18 22 23 22 24 17 15 22 19 17 14 25 17 22 26 26 26 16 26 16 23 18 23 22 24 18 15 17 15 21 21 26 24 23 23 15 18 19 24 20 17
15 24 22 23 17 20 17 19 14 26 23 20 20 16 23 15 26 26 16 20 21 20 15 23 26 21 26 14 25 16 20 14 23 21 15 25 15 20 26 23 24 19 23 24 26 25 14 14 25 16 23 14 19 15 19 26 23 21 19 20 16 25 14 21
14 24 20 15 19 23 26 22 20 17 15 25 19 15 23 18 24 18 15 19 20 14 22 23 23 17 17 19 25 22 26 26 15 16 22 20 24 20 16 14 16 25 17 22 22 18 21 16 18 18 18 26 21 15 24 22 22 14 18 23 16 15 23 25
21 16 20 23 19 21 14 21 20 26 23 21 16 25 14 16 26 15 15 14 17 16 17 20 20 22 20 22 18 17 14 23 14 16 21 17 18 21 23 21 20 15 24 18 22 18 19 18 21 24 17 15 18 22 14 19 18 20 15 16 23 21 22 21
15 16 15 16 19 14 23 25 19 19 22 22 18 20 17 20 23 25 19 22 19 20 24 26 21 16 16 24 23 25 17 17 17 24 21 14 21 24 22 21 17 19 24 16 18 18 15 25 14 14 22 20 15 18 19 21 15 15 18 25 19 23 25 19
15 25 16 16 17 22 23 16 15 24 16 15 15 20 21 20 23 24 20 27 18 28 21 18 25 17 25 21 15 14 19 24 16 20 25 18 18 19 26 19 24 20 21 28 24 21 19 17 27 24 22 20 24 19 17 15 20 25 18 24 18 20 18 26
25 19 20 21 17 26 17 16 23 22 26 16 18 19 26 28 23 23 32 32 27 33 26 29 21 27 18 23 21 24 15 23 24 21 25 26 18 26 26 28 26 27 27 29 33 30 26 26 27 27 17 19 15 20 23 19 17 21 25 17 26 19 17 22
16 26 14 20 14 26 25 21 21 25 21 20 24 17 22 31 28 33 27 37 28 36 29 35 27 25 25 29 17 19 19 18 29 29 18 16 16 23 27 25 25 25 30 25 35 35 30 27 27 22 23 20 26 18 22 17 15 23 23 17 18 14 23 14
16 18 26 15 23 21 22 19 25 19 24 24 26 25 26 27 34 33 37 33 33 30 30 34 31 37 36 31 28 34 34 32 32 32 35 24 29 32 35 37 29 35 32 38 32 35 40 27 37 28 30 31 21 18 20 14 25 15 23 22 17 15 14 20
20 20 21 21 21 15 14 18 23 24 23 18 22 26 34 28 32 31 44 42 43 43 33 43 38 43 41 38 35 44 34 34 33 30 36 35 42 43 43 44 40 35 36 35 42 45 42 37 40 32 27 31 25 27 25 26 15 19 25 15 19 22 22 26
26 22 14 21 15 24 15 17 24 21 21 24 32 31 35 32 42 39 39 44 48 45 39 51 50 42 43 55 50 47 44 47 38 41 42 54 47 43 46 51 47 44 42 42 38 43 39 44 39 42 30 37 32 29 27 15 15 23 16 22 19 21 23 17
22 17 21 25 20 14 15 14 23 20 26 31 27 32 32 39 37 38 47 47 46 51 49 51 58 54 64 56 59 52 48 52 49 58 56 56 58 59 57 57 55 52 52 43 49 41 49 41 46 35 36 31 31 29 20 21 20 25 16 23 24 23 16 25
21 24 21 25 15 21 20 26 22 30 27 29 28 39 43 43 44 41 47 49 55 58 53 64 69 65 61 63 67 60 63 65 57 65 59 68 65 71 62 63 65 67 56 56 51 55 51 52 39 44 44 36 29 33 30 28 25 21 24 20 25 22 15 19
26 18 15 24 24 20 18 19 25 32 25 39 34 41 37 50 50 55 57 49 63 63 66 72 66 67 72 79 71 77 69 69 75 73 66 78 70 77 71 75 77 63 62 61 52 56 56 48 51 51 41 38 31 27 31 21 20 22 20 16 21 16 15 21
22 20 24 26 17 25 16 16 20 33 34 35 36 39 46 42 48 51 55 54 60 68 75 82 78 84 75 82 82 80 74 81 81 76 75 82 75 88 82 74 77 73 73 64 62 60 50 55 56 53 44 44 34 29 25 29 22 16 18 24 22 26 21 20
26 15 14 20 22 19 20 21 21 28 26 37 43 37 44 46 58 62 56 66 73 77 78 83 89 90 86 85 84 90 87 85 92 87 88 85 93 94 87 86 89 81 87 74 68 67 54 61 59 54 47 45 43 38 34 25 26 18 16 24 18 18 16 15
20 17 22 16 23 17 16 27 24 33 29 42 41 46 50 58 50 54 61 75 79 87 88 92 92 89 101 100 101 96 91 96 100 100 90 93 90 100 98 97 87 95 89 89 81 69 64 55 54 50 53 40 41 37 36 24 22 17 21 20 15 16 15 18
22 18 18 17 17 16 14 17 25 34 34 35 46 44 48 54 54 61 67 71 81 87 87 89 100 96 97 94 98 106 97 97 102 103 105 106 95 98 103 92 98 95 99 96 88 79 68 66 60 47 46 41 44 32 36 32 27 22 16 17 20 23 24 23
21 18 21 20 14 23 16 22 30 31 37 37 43 50 50 52 54 59 64 80 90 90 91 104 100 97 109 103 99 106 106 108 116 108 103 106 110 110 104 100 97 93 96 99 88 74 76 58 55 50 48 41 40 39 39 26 25 25 20 19 19 25 14 23
16 24 20 25 25 26 20 19 24 24 35 40 41 49 47 48 56 56 67 79 92 95 95 97 104 105 102 108 114 112 108 112 119 120 116 115 111 105 106 103 97 105 100 92 85 81 64 57 53 58 51 42 44 41 39 29 24 20 24 14 17 23 16 21
23 21 23 17 21 16 22 21 26 28 31 37 39 38 42 46 58 57 71 72 86 96 96 96 98 101 114 106 114 113 117 123 121 121 115 117 111 104 110 103 103 99 103 89 91 76 67 62 54 50 48 45 41 38 36 25 21 27 14 20 24 15 18 26
25 20 23 17 18 18 16 23 24 28 38 31 43 40 42 45 47 59 73 79 87 85 91 93 105 102 106 106 110 112 122 127 120 125 122 114 116 111 106 99 97 104 93 94 81 72 72 56 57 46 41 39 43 32 26 32 18 25 23 15 21 26 25 23
19 22 23 21 23 18 21 19 19 22 25 39 44 47 43 43 53 55 58 78 75 81 95 99 105 107 111 114 116 112 119 127 128 123 116 108 115 108 100 98 99 93 86 87 80 73 63 58 45 46 45 47 34 39 32 22 20 22 22 18 21 19 22 14
22 16 16 15 22 25 21 25 24 21 27 31 35 33 40 47 48 57 62 66 73 81 82 96 101 99 103 111 108 116 108 116 112 110 118 112 104 104 108 94 99 86 85 80 77 66 59 49 53 52 45 39 37 31 25 24 21 18 26 25 16 23 18 23
16 20 20 15 14 19 16 18 17 22 22 28 31 42 41 44 44 44 61 58 74 81 82 91 86 98 102 96 97 111 112 113 114 110 111 108 102 98 94 90 95 81 85 82 71 68 60 45 49 37 40 40 40 29 33 24 17 21 26 22 26 23 20 18
25 15 18 21 24 17 17 14 18 17 19 23 27 30 39 38 41 49 54 64 64 73 78 81 80 91 89 89 101 101 105 103 105 105 96 96 100 100 98 89 86 87 79 67 68 65 53 39 45 46 40 30 28 24 21 26 24 20 25 22 14 23 14 24
14 20 18 17 25 25 19 19 24 18 24 25 34 35 38 42 34 39 50 54 53 67 66 70 85 79 80 82 86 91 93 94 84 95 90 97 97 94 88 89 82 72 70 68 61 52 47 45 45 40 31 34 35 26 21 25 17 15 19 18 16 19 20 14
21 25 15 15 18 26 20 16 20 19 20 26 31 34 27 36 30 42 46 50 47 64 68 73 79 75 74 76 82 89 83 84 80 82 77 80 80 80 77 75 79 65 59 52 48 51 45 40 38 36 27 34 26 27 18 23 15 16 21 18 16 14 15 26
18 21 25 18 24 19 22 18 24 26 16 26 21 25 29 26 34 35 39 44 47 57 53 61 67 67 72 73 81 80 75 76 81 74 75 71 79 69 65 75 70 57 52 56 40 47 32 31 37 33 34 28 22 17 15 17 21 14 26 18 22 26 24 26
24 26 16 15 15 23 20 26 17 18 23 16 18 27 26 21 31 26 34 37 44 38 53 58 62 65 58 60 69 61 72 73 73 73 74 72 71 70 58 66 52 51 48 47 43 35 27 26 23 22 20 27 21 22 18 25 15 26 22 19 23 15 23 21
23 16 19 20 22 26 26 24 21 25 21 25 14 26 21 22 25 22 24 25 34 42 46 51 45 50 49 58 63 64 64 64 66 62 69 67 54 59 58 56 44 41 37 41 36 28 28 30 30 20 22 23 24 19 17 17 23 22 17 22 23 14 25 22
16 26 25 16 24 24 24 26 26 17 25 17 15 20 16 26 16 18 18 20 29 34 36 42 37 44 47 56 53 59 54 57 55 54 58 61 59 54 53 42 47 43 38 29 25 19 19 24 24 26 14 20 20 18 16 26 22 25 14 19 25 24 15 14
17 25 22 17 18 16 26 16 19 21 21 22 23 25 17 26 20 26 15 14 21 16 31 31 39 44 36 49 50 53 47 57 57 57 54 44 51 49 48 42 34 37 25 16 14 23 21 25 17 26 17 18 21 16 18 22 18 18 23 18 19 21 26 17
20 19 15 25 17 17 23 17 16 20 15 26 25 15 21 26 15 17 17 17 26 25 27 26 32 31 34 43 36 41 50 44 41 44 39 37 45 39 42 33 32 28 19 14 17 18 16 22 16 14 25 21 25 22 26 22 26 21 15 22 14 16 22 19
24 22 18 22 23 20 23 22 21 16 24 19 24 21 21 24 22 24 22 21 17 16 23 20 25 23 28 27 40 37 44 44 42 45 40 42 38 34 32 29 18 15 16 14 17 14 15 25 17 19 16 24 24 24 25 25 16 15 22 20 14 26 14 14
25 26 23 18 26 17 19 23 19 22 18 22 22 26 15 20 17 17 16 18 26 16 21 15 24 23 27 24 25 27 35 33 37 32 32 35 31 23 28 26 14 19 19 25 21 23 21 21 18 15 16 17 21 26 22 24 24 24 25 14 23 16 18 20
14 17 16 20 26 22 18 24 23 22 15 19 14 26 26 25 15 20 18 20 17 22 18 14 22 21 21 21 22 25 22 26 28 33 23 19 28 21 19 22 14 23 16 18 25 23 17 26 21 21 14 21 18 15 22 17 16 18 19 21 21 25 19 19
23 14 20 23 20 19 22 18 23 21 18 21 22 26 25 19 18 18 19 20 15 22 21 16 18 21 21 24 17 15 21 24 18 18 22 19 14 17 20 18 21 20 25 24 15 18 17 22 22 14 23 19 23 17 17 23 22 23 26 26 14 16 15 16
19 15 21 17 24 26 22 16 22 21 21 21 25 15 15 26 26 21 25 21 19 23 24 21 25 15 22 23 20 20 20 17 18 15 17 24 21 26 19 22 25 18 15 19 14 18 23 14 19 24 14 14 21 19 18 23 26 16 18 16 25 26 17 18
14 21 26 21 23 26 25 22 25 26 23 25 23 23 20 26 15 16 21 20 24 18 20 19 18 19 22 21 18 20 18 22 23 15 14 15 22 19 21 26 17 15 22 25 15 24 16 20 20 22 17 24 16 15 17 15 14 19 22 17 16 17 16 19
14 15 14 23 25 20 22 14 17 22 23 21 24 16 17 18 20 25 17 20 18 26 18 23 23 19 18 25 17 21 25 15 25 19 21 24 20 20 21 25 24 24 16 14 24 17 21 21 16 18 20 25 24 17 19 23 26 22 25 22 24 24 19 20
22 19 16 21 26 26 14 19 21 15 22 17 22 25 15 20 14 24 26 19 19 17 19 24 19 26 16 24 20 15 22 20 25 16 23 17 25 26 17 20 16 17 24 19 26 19 16 26 16 24 21 21 20 17 18 22 17 14 22 19 22 15 25 26
16 26 19 23 26 23 24 23 26 26 14 16 16 24 24 23 16 19 25 21 23 15 17 17 26 24 19 25 20 17 14 16 21 14 20 25 17 24 24 15 17 14 21 14 23 20 15 15 22 26 24 18 14 23 19 14 17 21 18 15 20 24 24 17
18 23 22 23 26 19 22 21 25 23 25 19 16 26 16 17 24 21 20 14 20 18 17 21 20 14 15 17 19 17 19 22 21 20 21 22 26 20 25 19 16 19 18 16 22 17 20 18 24 26 25 15 15 22 15 22 22 21 21 15 24 26 24 16
26 23 26 20 26 24 20 14 18 18 23 23 16 26 25 17 14 22 21 21 18 19 16 16 17 24 25 20 21 14 16 24 21 20 25 17 17 22 14 14 26 17 21 22 22 15 17 19 23 16 14 14 15 19 17 25 14 21 16 16 26 26 25 17
22 21 26 19 15 18 20 19 18 20 15 17 26 19 20 21 16 21 16 22 20 16 25 17 23 15 26 26 17 25 25 23 15 25 17 18 14 20 21 24 20 17 19 17 14 19 16 14 25 25 14 14 26 16 21 17 26 23 18 25 25 15 19 17
19 18 16 23 16 15 25 16 25 23 18 23 18 21 19 22 23 22 18 22 19 25 26 19 22 20 23 17 24 17 23 24 25 15 22 26 16 21 23 25 20 24 26 15 23 20 23 18 24 15 26 19 24 23 14 16 15 24 14 21 22 22 17 19
21 21 23 24 25 15 15 19 23 24 18 26 17 26 16 16 16 16 25 22 15 23 20 23 15 18 23 19 18 26 14 18 24 23 21 14 23 17 23 21 16 21 23 23 15 14 23 16 22 25 14 25 25 22 18 21 19 19 22 20 19 16 16 16
24 22 23 14 15 22 22 22 20 16 24 21 15 20 26 17 23 22 22 21 18 14 15 21 18 25 16 23 23 26 23 21 20 25 24 14 26 25 21 23 22 18 20 18 15 16 25 21 19 15 26 24 14 25 15 16 24 22 18 25 26 26 17 19
22 24 26 16 21 20 14 21 16 15 20 19 26 21 26 25 25 26 15 23 23 18 25 16 17 15 14 19 17 22 15 18 25 19 26 26 16 23 19 21 23 23 25 16 19 21 19 16 21 26 17 19 19 14 19 17 18 16 24 26 25 18 17 15
