P2
64 64
255
24 35 37 19 28 18 29 26 33 30 27 22 27 34 34 21 19 21 22 25 28 22 20 21 18 23 18 18 31 21 27 18 36 35 25 33 19 19 32 21 25 22 37 24 24 36 30 23 31 23 20 29 28 23 33 27 37 34 29 20 20 32 28 26
38 31 19 26 33 18 23 29 30 30 36 19 22 35 26 34 19 29 32 38 23 30 23 31 32 23 36 25 38 21 27 31 28 30 25 24 21 18 34 20 31 29 33 18 26 32 38 27 18 33 29 19 19 33 35 24 36 20 31 31 25 33 35 19
27 28 20 28 22 31 25 19 24 38 23 28 32 34 26 24 31 26 24 29 24 37 38 21 23 34 38 28 38 34 22 35 26 37 26 20 26 37 19 37 18 21 25 36 27 23 21 21 23 22 35 37 31 34 38 29 24 28 38 25 22 29 31 18
20 22 18 24 31 27 31 28 24 26 31 35 34 18 23 20 38 18 24 21 38 20 30 37 19 30 36 20 29 27 29 32 33 30 28 24 18 31 33 18 18 36 32 38 25 37 23 21 30 22 21 29 33 28 26 32 24 23 29 25 25 26 24 34
23 28 37 23 22 18 23 26 26 34 36 36 28 38 32 36 26 36 27 29 23 36 38 18 38 33 27 31 22 31 26 29 27 38 33 18 22 33 22 28 31 22 32 21 23 30 28 31 38 37 32 24 34 22 29 29 28 20 20 27 30 27 24 28
29 21 24 34 19 36 38 20 31 27 26 32 30 20 22 29 37 30 32 30 23 36 37 36 35 30 22 19 20 32 31 26 24 19 30 34 35 30 22 31 24 29 35 23 32 31 25 22 36 23 27 31 32 19 20 32 28 35 33 24 19 30 25 20
21 22 28 25 33 36 27 25 23 33 29 18 21 28 36 36 23 22 33 24 21 20 29 21 28 37 19 38 26 18 22 24 18 36 32 20 26 18 19 22 21 33 22 24 29 18 28 19 33 21 27 24 23 32 32 19 18 23 33 20 27 20 34 21
34 22 25 23 31 23 33 24 33 23 35 34 35 33 34 18 31 24 33 32 33 19 24 33 27 21 31 36 24 23 24 31 23 27 23 18 30 27 24 29 20 33 31 20 38 18 36 20 36 27 29 37 26 19 19 19 37 26 21 28 22 19 23 31
25 21 24 23 18 18 26 19 30 28 28 22 31 33 22 20 31 31 23 37 33 19 30 21 18 20 27 37 21 26 31 19 24 34 21 25 19 32 35 20 31 21 19 18 36 21 21 26 36 30 21 29 37 27 26 25 21 31 25 29 35 24 37 25
18 23 36 30 35 24 26 33 25 33 37 25 32 29 20 26 31 19 34 20 26 30 27 24 25 19 21 24 37 37 28 29 23 20 29 31 30 35 22 19 26 20 24 34 31 25 35 27 18 31 26 38 29 29 30 36 21 21 18 29 27 34 19 29
38 23 25 33 19 21 18 29 32 31 38 35 22 34 38 33 29 28 32 35 30 20 26 19 36 26 31 26 25 36 22 25 35 21 21 33 32 33 22 24 22 38 35 30 33 19 25 36 25 18 22 31 18 38 32 32 25 20 33 37 20 32 24 18
24 34 34 26 29 21 36 35 38 35 27 31 30 24 35 38 35 22 35 22 38 36 29 34 29 32 22 30 19 24 18 31 27 20 37 32 20 36 32 32 34 27 37 33 28 18 21 27 18 21 22 28 25 34 20 33 35 29 20 36 31 25 32 32
28 25 23 21 30 20 38 38 20 25 33 34 36 35 36 19 31 28 19 20 19 29 22 32 38 18 22 37 31 18 23 21 33 30 22 28 38 24 32 23 22 34 31 28 36 22 20 25 25 30 29 21 18 27 35 20 33 18 30 33 26 29 20 33
22 21 25 29 19 28 32 20 36 20 38 23 26 33 32 24 27 19 35 37 28 22 22 26 38 27 30 36 20 19 18 22 24 20 36 32 32 25 18 34 21 38 22 37 19 30 22 32 26 38 23 22 29 38 19 27 36 35 20 29 38 38 29 19
27 22 28 37 27 33 18 35 22 33 21 21 21 19 30 38 34 20 36 32 31 25 18 28 38 18 22 33 37 30 21 29 34 29 26 35 32 29 26 19 34 37 24 36 34 18 27 23 29 27 26 26 27 27 30 20 32 19 21 33 19 32 26 27
24 26 29 31 20 27 23 33 20 25 33 32 20 25 21 19 31 29 36 38 18 28 20 21 37 25 34 22 24 26 31 18 38 31 33 26 26 37 26 22 31 29 21 28 36 37 30 34 27 27 36 37 34 31 31 27 28 25 34 32 37 28 29 26
32 18 18 19 36 37 24 19 33 26 35 24 33 23 19 36 31 28 26 33 25 23 37 35 35 29 37 29 22 28 29 32 33 23 24 27 19 26 33 27 32 25 28 25 33 25 27 36 22 25 36 27 21 19 20 31 37 38 28 20 28 34 26 30
32 26 38 24 19 20 34 19 38 24 27 35 34 30 21 31 19 29 24 23 28 25 24 37 33 28 31 21 33 26 34 38 23 36 22 38 20 29 28 37 22 35 25 34 19 18 20 36 22 20 31 31 22 20 19 30 36 19 38 19 29 32 31 23
27 19 37 23 35 32 21 23 35 36 35 19 33 33 19 19 37 26 28 23 31 37 18 30 37 33 38 36 33 21 25 31 19 28 20 30 24 33 23 35 26 37 19 23 19 30 21 18 27 25 31 19 29 26 24 38 34 33 19 29 30 31 31 18
33 25 37 29 35 29 24 22 38 27 19 33 25 21 20 33 39 33 27 31 39 30 34 36 25 33 25 20 27 32 28 22 20 32 26 32 34 21 33 29 23 41 34 38 22 28 21 36 22 34 30 33 20 22 21 19 30 32 29 23 20 31 28 29
24 34 19 24 28 19 24 34 25 19 33 33 18 25 21 32 24 25 33 36 38 32 29 32 34 28 33 22 23 18 28 38 30 36 22 25 30 36 30 22 37 45 41 27 34 36 30 40 28 35 25 18 35 21 31 19 20 25 21 29 22 33 22 30
34 26 38 29 21 29 22 32 26 36 18 23 36 38 31 39 38 43 45 35 36 29 36 48 29 37 33 41 35 24 27 33 22 18 18 26 39 43 27 43 28 33 39 41 35 39 30 35 43 32 38 32 27 22 27 37 31 20 20 25 27 32 26 32
31 36 25 28 37 30 19 20 37 33 21 23 26 43 46 40 44 43 37 36 38 39 53 43 40 40 31 30 29 27 32 28 29 28 34 27 26 32 47 50 32 33 47 35 50 33 50 41 46 35 36 38 31 38 22 23 32 31 18 32 23 29 23 35
22 19 28 24 37 33 23 21 34 33 20 37 41 32 45 47 33 47 51 56 50 55 57 41 49 33 46 49 27 40 35 19 18 34 22 30 27 37 42 42 52 36 37 41 47 47 48 53 44 33 29 38 39 41 34 18 37 22 31 34 21 34 36 34
29 29 33 21 34 29 32 32 34 25 21 38 46 45 34 41 39 46 46 59 61 58 44 59 52 54 39 43 46 34 43 23 24 32 43 32 50 48 38 55 57 54 52 60 56 55 58 47 37 55 34 48 37 25 40 27 22 24 27 35 29 33 33 22
30 34 20 31 28 29 23 29 19 36 36 45 35 48 35 43 53 50 49 62 55 65 55 58 48 41 41 49 41 43 27 30 33 37 35 31 44 53 54 44 42 46 46 56 56 53 61 57 56 43 47 37 39 31 26 35 35 31 21 21 36 25 20 27
21 23 34 38 37 33 38 32 23 40 28 48 44 44 50 51 51 46 48 61 63 69 55 67 48 63 41 55 36 44 41 29 45 42 48 45 53 45 61 53 46 57 52 60 64 49 65 57 56 42 45 35 32 46 39 31 26 19 19 18 29 18 23 36
38 18 19 24 36 24 20 37 24 31 45 41 38 54 58 62 62 67 54 70 73 66 72 52 50 56 49 47 56 44 41 38 39 38 37 50 39 54 51 66 67 70 71 67 56 61 67 57 53 52 46 49 49 40 44 32 24 23 30 26 30 37 23 36
18 26 23 32 38 26 38 34 29 43 42 32 52 54 59 64 68 52 71 75 72 68 61 67 63 53 47 59 45 45 42 41 35 41 35 49 56 57 56 67 58 70 71 73 65 57 63 64 53 62 53 48 51 52 44 44 25 23 20 32 23 20 31 38
25 28 25 20 37 24 36 21 34 45 43 44 54 56 56 48 54 63 72 68 77 63 76 65 62 69 53 54 61 52 45 49 49 50 39 50 46 64 49 60 64 60 62 75 61 59 58 66 69 57 45 49 57 39 31 32 40 23 20 20 34 21 20 28
26 22 22 23 29 26 27 29 27 38 45 36 51 53 54 65 67 62 78 83 66 74 76 77 70 56 52 57 54 53 46 41 52 53 37 56 58 56 51 55 75 66 69 69 65 68 77 63 69 53 61 55 41 48 41 32 36 30 24 22 33 19 20 25
34 37 18 37 18 30 27 30 35 40 35 46 41 62 63 62 66 72 76 82 84 77 65 66 68 74 58 62 50 45 42 51 56 54 40 41 50 67 65 72 61 81 80 80 79 85 65 69 66 66 47 56 54 53 50 47 38 24 31 25 32 33 33 32
35 22 25 19 34 37 29 32 40 28 36 49 39 61 58 68 65 75 66 75 84 77 82 79 59 71 67 47 60 43 55 57 49 47 54 47 58 47 66 60 67 76 68 75 80 73 68 68 63 53 48 50 49 48 46 44 24 27 33 19 31 27 21 28
23 37 32 34 25 30 22 32 33 35 37 46 46 51 53 69 64 58 64 70 79 79 69 73 62 61 65 51 58 49 39 46 51 38 52 53 48 61 61 57 68 71 74 81 77 81 73 70 70 69 50 44 41 37 45 38 35 26 34 37 29 32 32 29
30 36 36 29 28 34 19 29 24 38 32 51 50 43 53 60 60 64 77 81 75 78 81 71 57 63 53 47 55 38 54 51 48 56 39 39 50 64 57 62 77 78 72 81 83 74 71 60 67 52 60 59 38 38 41 42 33 19 34 19 28 27 26 35
25 33 31 28 27 23 23 28 31 46 45 40 46 52 51 65 51 71 59 74 80 79 61 77 71 54 66 55 45 38 54 46 40 36 51 47 48 63 65 64 64 70 68 71 70 68 57 75 51 61 49 44 53 40 39 36 39 38 30 32 19 20 31 22
32 35 22 36 22 37 22 20 38 42 47 48 51 56 45 52 68 59 56 69 74 69 76 68 53 56 49 57 49 42 44 51 49 44 49 39 41 56 66 57 62 65 64 58 63 69 66 57 65 48 51 55 38 45 46 37 28 28 36 24 21 35 21 18
22 34 33 35 37 19 37 37 31 38 33 36 50 48 43 54 62 54 55 58 71 53 55 64 61 66 61 46 42 34 38 34 38 40 36 53 50 48 50 56 66 64 58 66 63 62 66 51 52 55 46 46 35 40 30 31 35 19 23 27 37 32 33 20
25 19 28 26 35 32 36 31 37 40 32 30 50 54 39 56 45 60 55 52 64 65 49 51 47 46 46 50 44 32 45 28 31 33 49 38 35 52 51 46 50 64 48 54 65 63 51 49 48 55 40 38 37 30 30 36 31 21 33 23 25 34 19 22
29 22 34 27 39 26 22 25 22 36 42 49 36 50 43 51 58 53 59 61 59 55 60 54 50 53 45 57 41 45 40 43 42 42 36 42 50 49 58 56 67 56 54 67 57 62 64 50 49 44 57 56 49 40 42 27 44 44 33 31 34 40 27 27
24 26 45 42 43 38 40 36 30 27 33 49 53 46 42 51 63 54 48 64 51 51 70 57 47 53 48 47 51 41 44 49 40 40 52 41 45 51 52 48 68 53 66 63 58 72 54 51 60 67 54 55 48 38 48 38 33 36 49 49 33 41 31 35
38 45 30 48 31 38 36 35 30 48 30 52 35 58 48 51 45 50 67 55 61 64 50 61 53 65 59 60 46 42 45 33 39 36 49 51 50 59 61 60 69 53 71 65 72 66 67 70 52 52 65 61 60 50 47 50 39 53 47 43 51 38 42 51
27 36 26 28 34 29 42 35 41 43 35 41 43 44 44 50 47 45 58 47 60 41 42 51 52 55 49 48 53 32 44 45 28 43 33 42 38 50 51 44 52 43 49 61 47 50 45 53 49 46 50 53 42 40 35 48 33 47 49 50 49 32 42 42
27 35 25 22 21 36 34 33 40 36 39 26 30 34 26 27 49 34 32 34 48 46 38 50 44 39 34 33 29 31 42 33 33 28 37 24 32 37 30 45 36 50 36 46 54 44 43 43 33 36 47 41 41 33 41 33 24 41 31 28 36 33 34 42
19 19 30 28 27 34 30 32 23 38 27 34 38 29 27 32 27 37 29 34 29 39 27 28 35 33 38 29 20 19 30 33 31 30 19 28 23 30 38 25 24 27 36 42 31 32 30 29 34 30 20 36 23 30 27 32 33 30 29 33 28 27 32 33
34 38 33 18 23 19 29 19 33 27 35 38 30 32 25 35 22 28 21 25 24 24 39 30 35 27 23 32 32 27 23 26 21 18 19 29 37 25 24 37 25 29 33 27 35 33 31 39 28 38 31 25 25 30 28 35 32 28 21 32 23 30 29 22
28 23 36 31 19 22 30 30 32 24 26 34 25 34 34 21 35 37 27 19 20 30 28 25 18 18 34 28 38 27 33 27 38 31 34 31 28 29 38 26 21 22 21 18 20 24 26 18 27 22 36 30 33 25 31 34 38 37 21 26 22 18 22 38
20 35 26 24 27 20 27 36 19 25 21 20 30 31 31 30 32 34 18 31 26 26 34 37 30 24 18 22 34 24 21 36 25 24 28 31 29 24 33 19 29 26 22 23 27 37 26 18 33 27 20 33 35 35 22 35 20 21 34 20 20 30 33 18
26 21 27 21 23 36 25 32 22 18 33 33 23 27 35 25 28 28 38 32 18 20 24 38 29 32 26 38 33 18 23 21 18 22 33 28 27 32 37 31 23 24 33 35 19 37 29 21 35 35 23 23 35 31 34 35 38 21 19 22 25 18 32 38
27 21 34 37 32 23 22 31 28 18 36 33 26 18 34 38 27 38 26 22 24 21 38 38 24 20 34 32 26 32 26 26 30 20 31 34 36 25 19 29 25 32 22 29 18 35 38 19 28 28 33 26 36 31 23 25 37 21 32 38 19 23 23 26
22 38 36 22 19 24 26 30 24 21 29 36 31 38 36 21 34 38 19 19 34 32 30 37 21 30 33 32 31 29 24 31 18 35 23 22 24 35 36 25 26 18 24 29 38 23 27 37 35 20 31 32 29 29 32 23 35 31 23 22 25 38 35 21
31 28 21 23 34 38 20 29 25 26 37 19 29 19 25 32 24 24 24 21 29 20 30 23 32 26 18 34 35 34 28 35 27 33 32 33 18 30 29 25 19 38 28 33 31 37 33 28 23 24 20 24 35 21 26 18 37 33 34 29 19 27 34 27
31 18 21 26 23 19 27 24 37 38 19 28 24 23 19 38 26 33 28 31 35 21 19 21 33 35 24 19 25 20 18 28 25 19 37 23 38 20 33 21 24 37 26 27 25 18 23 27 21 22 38 26 34 20 18 32 22 24 21 19 26 20 20 36
28 37 29 27 24 30 37 29 19 23 29 34 28 35 26 21 32 26 28 20 27 38 21 26 22 20 20 25 20 38 23 30 25 33 38 35 22 23 33 29 27 32 21 33 38 28 29 19 25 32 21 18 21 25 27 29 38 37 30 18 21 19 34 26
30 27 34 22 32 20 24 30 18 31 20 38 21 33 23 24 26 20 26 19 19 37 28 21 34 38 38 38 34 20 18 33 35 25 20 37 24 31 33 22 29 29 32 28 23 29 23 19 25 23 25 18 33 32 33 30 32 20 22 23 21 27 29 25
32 19 24 32 38 18 31 20 20 24 29 37 22 35 33 30 23 23 19 26 20 21 21 20 37 33 24 33 31 23 25 22 27 38 20 22 30 24 28 26 30 23 38 27 31 32 20 33 21 36 25 35 21 23 23 28 34 32 35 28 32 32 20 22
19 35 18 22 27 30 35 20 24 30 27 24 30 26 28 31 37 36 38 24 33 32 24 25 37 24 18 31 23 38 28 21 23 18 18 27 24 37 20 29 24 26 34 19 21 26 18 34 25 20 33 19 31 21 37 35 31 32 30 26 22 32 23 29
22 19 31 32 31 37 24 37 36 30 21 32 23 31 27 32 26 23 35 21 25 26 33 37 37 26 37 24 30 31 33 20 26 21 18 32 31 23 18 21 19 24 24 27 21 30 22 20 23 24 31 31 19 28 36 32 20 29 29 24 35 18 19 35
38 34 24 30 18 33 30 29 24 30 32 31 25 23 29 21 22 20 31 20 19 27 35 23 34 26 35 21 20 26 23 33 29 22 38 18 22 33 37 37 31 30 24 29 26 21 18 22 28 29 20 31 18 32 32 34 26 26 33 19 21 23 22 38
32 18 38 29 28 19 30 29 33 19 36 20 20 27 33 38 21 36 21 23 36 24 24 30 31 36 37 20 18 35 36 33 19 28 37 35 36 19 24 18 36 19 20 26 27 33 30 19 22 34 38 22 33 19 23 19 34 22 35 35 20 36 30 36
25 34 26 28 29 23 27 20 28 30 24 29 32 20 36 28 25 26 29 25 35 28 25 32 29 25 30 26 23 18 26 28 20 33 29 21 31 26 34 19 29 34 36 34 24 35 34 35 29 38 19 21 20 28 30 34 35 35 19 26 36 30 19 28
26 35 36 33 19 24 18 35 22 24 21 28 25 23 37 31 35 35 30 18 33 36 26 21 24 24 35 22 35 34 28 18 29 38 33 31 20 31 35 37 32 22 25 21 29 36 22 20 25 34 32 26 26 19 21 20 24 28 34 28 24 36 33 28
23 34 26 19 19 36 26 27 35 38 34 19 33 18 35 31 20 35 37 33 36 29 38 21 25 33 21 37 33 37 35 24 20 19 21 21 34 28 37 32 21 35 33 29 18 30 30 28 21 29 32 26 29 19 37 32 32 38 18 38 31 32 26 25
23 37 32 38 32 30 18 38 20 36 23 34 24 34 32 22 35 18 34 23 32 24 22 18 32 30 21 32 30 19 20 18 29 18 21 34 25 22 21 26 19 37 25 38 30 24 26 22 36 25 35 37 34 37 33 36 33 26 35 36 36 33 21 31
