P2
64 64
255
26 27 36 23 30 36 29 33 27 19 27 22 36 38 37 22 33 26 23 22 28 36 33 25 30 33 26 35 32 38 38 21 19 31 24 31 24 25 36 24 29 19 22 30 31 33 21 21 32 23 31 32 27 29 19 34 25 26 27 31 25 25 21 30
28 21 31 29 24 37 26 36 20 36 30 31 35 19 30 29 31 32 34 30 19 19 33 27 33 22 19 20 37 32 35 23 26 37 26 30 29 23 30 35 32 38 19 32 20 33 30 33 21 23 33 32 30 35 21 30 34 38 21 32 35 32 36 19
37 31 30 31 27 22 23 19 25 25 30 25 37 34 37 38 37 36 30 23 32 18 26 18 32 31 25 23 25 37 35 24 24 18 36 29 21 21 32 25 37 37 28 34 30 31 31 18 18 38 19 27 22 30 31 27 24 32 24 22 33 29 27 31
35 33 31 38 33 30 23 26 23 32 32 36 23 28 31 38 20 21 19 25 30 26 33 33 38 38 26 18 28 22 37 27 36 32 38 31 30 36 29 35 34 34 35 23 21 32 18 24 29 20 24 31 24 30 35 18 31 20 19 19 33 31 38 21
29 31 25 30 29 31 35 22 23 18 36 26 38 31 22 25 32 37 23 33 21 22 21 29 33 19 27 37 19 28 21 18 36 19 22 19 38 32 23 19 23 38 21 18 18 35 38 21 31 28 24 35 31 33 19 22 24 22 34 20 23 38 27 30
38 29 26 36 21 28 26 25 38 24 30 19 21 32 33 22 37 18 23 20 18 18 26 21 32 19 38 21 35 36 23 22 32 34 31 36 26 28 23 28 33 22 21 23 33 24 32 25 25 35 38 23 34 33 25 18 36 24 24 25 19 36 18 19
30 38 33 36 22 21 33 32 28 29 20 29 20 20 23 21 38 20 21 36 37 24 38 32 35 20 33 31 31 30 35 19 25 26 29 32 25 34 32 19 37 21 31 32 31 32 34 24 21 24 29 22 35 28 35 34 19 23 37 27 36 37 23 20
27 35 28 37 38 23 18 31 38 20 20 22 29 26 24 25 20 21 18 29 21 25 20 30 23 19 22 24 35 24 24 25 33 26 20 31 38 35 25 33 29 38 32 32 34 18 37 23 33 23 21 30 27 27 18 33 31 20 34 22 30 34 22 31
30 35 27 28 21 38 34 35 25 23 27 34 25 33 20 23 33 26 34 29 24 35 35 25 36 33 34 30 33 38 27 18 33 34 35 26 33 33 22 29 23 34 28 26 27 36 21 21 21 37 36 29 28 20 38 25 37 21 25 31 24 34 32 18
28 18 24 32 36 18 37 34 24 22 31 24 20 33 20 27 20 20 23 21 22 20 29 36 38 36 31 31 25 34 37 31 35 23 33 24 35 31 19 32 38 24 20 31 38 34 32 27 24 27 31 29 32 18 27 37 20 36 33 19 29 35 28 21
34 30 30 28 23 25 37 21 34 26 21 34 31 21 32 20 27 36 19 35 24 26 25 29 24 29 21 26 30 33 37 36 37 36 27 27 21 26 29 26 23 38 37 25 27 27 35 22 35 22 32 30 27 23 34 36 33 24 32 19 30 28 19 26
19 38 36 36 27 33 24 21 24 25 21 19 33 32 29 29 33 38 23 35 22 28 35 38 28 29 20 27 31 24 31 33 30 22 34 33 20 37 18 38 36 24 20 18 37 19 38 29 27 29 30 29 28 38 35 30 38 35 24 36 27 21 20 21
30 19 30 25 19 31 20 22 22 32 27 35 31 20 35 20 28 30 19 32 21 20 31 27 26 18 36 28 19 18 33 32 29 33 19 28 37 29 34 22 25 34 38 19 19 36 36 28 32 29 34 30 20 28 30 25 33 25 28 28 25 30 35 30
22 31 18 18 22 28 28 36 32 30 26 33 20 31 26 29 36 35 34 26 20 18 21 25 29 36 21 34 34 19 31 28 27 22 21 29 22 25 27 31 28 21 30 29 28 29 27 33 22 31 27 27 38 32 25 23 22 31 30 34 29 20 32 19
31 33 36 35 25 25 23 25 31 25 34 22 28 20 22 37 25 29 25 19 26 27 32 21 37 18 33 34 25 23 35 38 23 32 36 35 30 28 27 22 26 33 29 28 28 19 30 33 26 35 23 26 19 21 25 20 30 35 20 22 27 33 30 28
37 25 36 27 23 30 26 23 18 38 22 35 32 37 22 37 22 32 27 18 24 18 26 24 25 19 35 22 21 36 22 25 25 36 33 22 37 38 28 25 26 30 26 20 37 33 24 30 22 36 22 23 19 25 25 20 36 28 18 32 21 30 27 29
21 37 34 32 18 30 24 27 32 31 22 33 30 28 34 21 31 19 23 36 38 19 30 34 23 34 26 28 38 36 28 31 18 22 24 27 36 28 18 24 19 32 35 26 30 30 33 18 25 29 23 27 38 26 35 18 22 33 19 38 25 22 35 27
22 24 27 34 23 34 18 26 35 37 34 21 37 26 22 33 25 21 18 31 19 29 22 24 32 22 32 20 34 18 21 26 21 21 21 37 30 31 26 36 18 22 23 19 38 27 27 23 24 33 25 23 27 25 31 35 18 31 33 26 36 24 30 34
34 29 33 26 21 32 23 34 21 24 21 28 38 21 29 36 26 33 29 34 18 33 18 34 32 32 20 37 18 33 20 26 21 32 30 34 27 25 38 34 28 27 25 18 18 21 21 35 36 35 30 19 25 31 29 33 20 31 30 36 18 31 20 37
25 23 21 33 35 30 38 32 22 32 34 19 26 35 38 27 22 27 41 28 37 34 31 22 25 30 20 27 27 23 25 30 19 36 24 37 21 38 30 38 28 38 22 28 40 22 27 28 28 27 19 26 35 38 27 27 31 18 36 37 31 28 21 26
34 19 21 26 33 23 30 31 20 20 27 37 20 27 36 34 33 34 33 39 32 44 33 32 24 23 37 20 19 21 35 30 23 25 29 35 30 22 21 25 37 35 39 42 28 35 37 32 34 22 33 22 23 23 36 33 37 32 26 23 18 37 36 24
31 22 36 33 28 35 31 30 31 37 38 22 25 28 33 43 40 37 29 29 47 47 39 29 34 33 26 33 22 32 22 26 24 36 32 38 23 43 32 29 37 32 44 32 31 33 42 29 43 32 42 35 22 18 28 36 20 36 25 36 29 24 29 35
27 28 36 18 32 26 23 21 28 19 36 20 26 37 45 37 44 48 43 45 37 39 51 41 43 50 32 40 35 25 32 33 32 31 36 38 33 27 31 46 50 33 50 43 34 42 42 42 44 32 31 28 34 37 37 19 23 38 21 26 21 28 21 36
31 18 34 24 27 32 26 30 28 24 34 39 25 32 46 42 51 36 49 44 48 47 37 54 42 37 42 37 39 33 29 19 35 37 22 43 34 47 48 41 55 50 51 42 52 38 50 45 52 46 43 45 38 32 26 36 32 30 25 33 27 38 32 18
26 30 29 35 25 37 36 38 23 22 36 43 46 31 41 49 56 53 49 55 43 59 48 48 43 53 54 46 34 27 37 36 20 31 31 45 36 32 49 54 48 46 46 49 48 50 50 51 43 51 38 35 46 27 25 28 27 27 34 29 22 26 26 24
38 18 28 30 24 36 38 25 36 37 24 43 48 44 38 41 55 55 50 63 57 54 52 48 61 55 45 35 48 32 30 42 32 35 42 35 52 44 46 53 42 46 52 56 64 51 47 49 47 50 50 41 40 37 38 38 30 35 34 34 33 32 21 24
34 33 38 18 34 36 24 32 22 26 36 42 38 37 54 46 62 58 62 51 57 68 67 51 50 61 50 47 49 32 42 34 35 25 40 44 49 44 46 49 51 59 56 60 54 51 61 56 61 45 39 38 36 33 42 35 18 38 38 23 33 34 35 25
26 24 27 26 21 21 30 36 38 29 28 43 43 49 52 55 61 62 62 70 53 60 61 67 63 62 47 53 41 43 38 39 37 46 39 46 44 58 43 55 56 51 71 73 53 61 53 51 46 45 56 47 35 38 37 26 36 18 34 29 26 29 24 25
38 31 35 31 28 33 22 30 26 37 41 35 51 50 53 49 49 56 65 68 68 65 65 69 68 60 63 51 39 39 33 47 34 42 38 56 44 60 54 58 67 57 70 71 77 59 64 53 57 48 51 41 42 37 32 43 28 27 28 36 38 29 23 24
36 26 25 25 22 31 35 29 40 40 46 47 41 42 51 53 60 71 65 73 76 72 74 60 64 68 57 53 42 57 41 35 39 40 34 44 57 49 66 55 61 76 74 62 73 73 58 75 64 52 50 51 41 45 47 35 38 32 28 35 27 23 28 23
25 27 23 28 23 20 29 21 43 37 46 50 52 54 51 66 68 66 69 74 70 76 63 75 58 64 57 60 49 58 37 48 52 47 36 49 57 53 57 59 61 76 69 65 71 70 69 76 65 70 55 43 56 45 44 41 34 28 19 37 32 21 33 36
28 34 36 31 37 32 27 22 38 42 40 49 56 53 47 65 70 73 64 68 77 74 72 62 78 55 62 60 53 42 42 40 42 56 41 53 61 55 71 74 66 72 68 87 68 72 71 75 63 69 48 46 56 47 51 41 24 36 29 18 20 28 27 27
27 37 24 35 29 23 24 39 42 45 45 46 45 46 49 54 56 64 66 76 91 89 82 80 63 57 54 58 54 46 56 38 46 40 44 51 54 56 54 70 75 76 86 70 91 67 79 74 59 68 61 43 56 40 45 42 37 37 28 18 37 36 23 31
20 27 20 37 29 31 18 39 31 43 47 42 53 52 59 65 65 72 67 76 72 74 74 69 60 60 60 51 56 39 41 37 56 52 50 51 61 66 59 67 62 72 83 73 72 73 64 76 70 60 66 57 40 46 39 35 42 36 38 23 18 36 23 24
35 21 38 24 34 25 20 30 29 39 45 49 58 62 47 56 59 66 61 68 82 78 65 75 59 62 62 51 56 42 41 41 46 51 42 49 43 55 65 69 64 67 71 77 69 70 65 72 55 67 57 54 38 36 33 37 42 33 30 34 32 32 25 32
25 33 37 18 31 29 34 39 27 37 36 53 43 43 61 68 67 62 62 74 63 64 78 59 69 59 56 44 51 55 35 46 45 43 37 56 46 51 59 68 65 76 59 61 80 78 71 72 56 63 55 56 40 39 42 44 31 37 19 29 27 19 28 22
28 18 20 20 38 19 27 33 22 45 49 42 50 53 51 56 54 66 58 66 71 73 69 65 53 68 48 48 51 40 43 47 46 34 42 42 54 54 50 52 54 71 58 74 60 66 68 69 66 57 47 47 44 49 45 25 33 32 22 35 18 19 31 25
18 28 19 26 33 28 31 34 25 43 47 33 34 52 54 45 59 59 59 71 61 57 69 66 51 52 58 55 43 51 45 48 48 40 46 35 56 54 52 52 54 53 55 72 73 59 54 67 55 62 57 51 36 35 35 25 31 35 36 35 21 18 24 22
26 21 35 25 18 38 30 31 37 30 28 47 52 43 39 52 53 64 58 57 55 64 65 59 48 47 50 46 36 37 39 35 28 27 42 43 41 45 48 50 51 64 65 60 57 49 53 55 57 47 41 48 32 31 38 31 23 26 24 27 38 29 34 31
36 29 22 27 28 40 31 32 34 38 30 48 41 40 48 47 60 56 59 63 64 61 52 63 66 53 55 41 50 46 46 37 36 46 47 52 38 47 43 58 55 54 54 53 60 66 60 63 66 62 45 57 43 32 45 28 30 34 28 24 28 29 41 42
36 40 32 42 44 29 37 33 37 25 30 31 47 58 47 49 65 57 60 57 67 54 55 52 50 57 49 49 50 56 41 42 46 47 54 55 46 54 60 56 64 59 53 55 63 70 67 54 57 55 48 49 49 53 49 30 46 31 31 35 33 51 35 38
40 41 34 48 48 45 33 29 47 37 45 46 42 43 58 59 45 50 58 66 63 56 69 62 59 56 58 63 61 52 55 52 32 38 51 45 56 55 58 57 62 63 54 58 53 66 66 53 56 58 48 51 52 52 57 47 39 37 49 42 47 55 41 39
31 43 34 33 39 39 33 33 40 34 34 39 48 36 44 52 38 47 55 60 55 55 45 49 53 57 55 53 35 38 40 43 30 41 35 39 36 43 52 42 58 58 60 46 53 53 51 56 44 55 53 55 45 46 43 31 38 43 46 45 49 36 33 33
27 34 23 36 26 36 25 24 25 30 40 35 26 31 34 37 49 40 42 33 37 52 36 37 42 44 34 35 43 30 38 25 38 30 32 38 34 42 37 39 40 35 47 49 38 38 40 44 39 33 43 38 36 37 42 28 28 34 44 33 44 42 28 34
26 34 30 33 32 34 34 29 35 25 38 22 20 24 36 38 23 36 44 25 27 38 42 43 39 35 34 39 23 36 23 33 20 38 27 21 22 32 33 38 37 35 35 37 29 43 40 26 34 37 30 35 37 32 23 22 37 19 34 36 35 30 27 33
27 21 23 29 27 38 21 19 25 36 26 31 33 28 25 31 25 20 21 36 25 23 29 27 24 23 18 24 22 37 18 32 35 31 27 19 33 22 26 36 24 28 39 35 27 23 37 35 20 25 34 27 23 19 28 27 27 27 30 27 29 26 32 21
25 25 35 22 27 37 34 25 24 22 28 19 26 35 24 30 38 35 34 18 19 32 29 38 24 28 20 21 23 24 38 23 23 28 36 33 30 23 19 21 38 21 28 37 38 33 38 21 23 34 33 38 36 23 27 22 38 19 18 35 19 37 31 24
27 30 26 24 32 24 27 38 20 36 25 21 36 27 38 31 19 23 25 20 30 19 34 38 34 25 28 31 20 25 28 37 36 21 21 37 22 29 18 35 34 24 22 23 27 23 20 29 25 24 28 28 35 24 19 26 34 25 29 24 31 38 30 23
19 37 25 31 38 38 28 21 31 18 19 21 38 38 29 24 22 26 24 27 26 26 35 25 18 36 33 37 19 23 26 18 26 37 21 34 30 28 37 25 31 25 25 36 26 38 38 37 33 20 29 29 30 19 20 28 25 19 26 20 30 26 24 38
26 20 19 36 23 28 29 38 31 27 36 31 24 27 31 19 36 36 25 25 28 27 24 32 38 33 24 27 38 35 33 33 20 21 27 29 25 31 33 38 38 22 29 32 27 21 35 33 32 33 27 24 24 36 26 35 29 23 27 37 32 33 34 21
30 24 28 24 32 36 35 19 31 30 19 27 25 33 31 32 22 38 26 29 31 25 27 31 30 24 30 20 22 36 33 33 23 36 28 26 36 37 19 19 22 23 28 28 33 29 21 25 29 37 22 31 26 34 21 20 24 24 18 33 30 32 29 25
25 25 35 21 30 23 30 25 22 22 24 23 28 24 18 32 30 30 26 37 38 19 34 20 37 25 22 25 34 31 37 23 36 38 29 31 36 30 22 21 30 32 26 31 35 31 35 33 36 35 23 34 36 22 30 32 38 30 23 24 21 24 20 37
27 26 27 24 32 30 35 23 24 27 38 22 21 25 24 27 30 30 25 23 30 23 37 18 28 23 20 31 26 23 20 19 23 34 19 35 29 32 32 19 23 18 27 32 35 22 24 18 38 29 18 29 28 35 28 24 31 25 22 31 31 28 34 38
33 20 33 24 19 31 19 22 24 33 35 36 30 24 29 37 24 24 26 21 33 29 23 37 37 20 18 34 29 36 27 18 33 26 35 29 29 23 34 26 23 28 32 20 23 28 32 20 36 28 32 26 31 25 37 20 36 36 36 30 18 34 25 18
25 27 38 31 18 36 22 18 34 28 36 20 34 19 23 37 21 21 33 32 27 35 18 35 20 31 31 18 37 34 22 19 24 27 18 32 36 31 36 34 20 26 32 29 36 26 23 29 33 29 19 36 19 31 36 28 37 38 34 21 25 36 18 21
23 27 34 19 23 31 32 21 30 34 23 33 24 37 24 23 31 18 29 38 22 38 33 21 38 36 35 23 23 24 34 25 33 19 36 37 23 22 20 22 34 19 34 21 25 30 22 33 18 26 25 24 36 35 31 32 36 32 27 20 34 35 31 19
20 31 29 36 27 26 33 20 38 38 32 21 28 33 22 22 30 26 18 18 22 27 25 32 32 37 33 36 18 28 23 31 26 22 23 27 27 35 33 20 33 35 22 31 23 34 23 22 36 38 36 36 18 18 30 19 18 25 19 19 18 30 38 24
35 32 32 38 21 30 34 34 21 35 29 35 25 24 19 32 31 20 19 18 25 19 19 18 26 24 18 23 33 18 34 20 19 21 19 36 28 31 26 38 34 29 19 35 25 25 27 27 30 25 23 37 29 32 37 33 18 31 30 20 22 19 32 21
33 22 34 34 33 36 21 38 20 28 32 25 20 22 28 36 29 30 28 21 31 32 38 34 22 26 18 33 26 28 30 26 20 35 23 31 29 34 26 27 18 29 32 28 37 21 37 30 20 26 33 19 30 37 35 38 24 38 31 26 19 23 21 18
35 25 22 19 33 32 34 19 23 37 25 36 31 34 28 18 31 28 21 37 23 32 37 36 19 34 23 20 20 25 19 27 33 21 19 37 32 21 33 30 36 34 22 22 24 36 36 34 27 25 19 22 24 38 35 30 23 18 32 33 38 29 28 30
37 36 36 34 34 20 31 22 32 38 26 34 21 21 33 27 33 27 30 20 18 24 31 37 27 27 37 30 24 19 35 36 33 33 37 34 27 19 37 38 18 19 21 23 32 38 28 31 29 22 33 20 20 19 18 31 36 20 32 32 27 25 32 33
26 34 37 24 38 37 24 27 28 19 26 27 28 24 31 38 38 27 26 21 20 30 28 30 37 22 20 19 23 32 18 21 32 30 22 18 31 32 25 19 30 29 23 27 27 20 38 21 29 30 38 26 19 27 27 26 34 36 21 20 34 30 35 35
31 29 32 31 29 20 25 26 26 26 35 28 25 38 23 29 27 22 27 20 33 22 24 35 30 36 31 24 33 33 26 28 26 26 36 18 27 27 24 37 30 30 33 18 25 30 36 18 21 35 20 29 29 33 38 21 22 36 24 36 36 31 32 38
29 28 30 23 31 23 25 35 30 22 27 34 24 18 35 26 36 25 35 21 24 36 37 35 30 28 30 25 35 21 36 19 22 38 35 18 35 28 35 28 33 27 19 31 21 29 26 30 32 36 20 21 32 27 21 22 38 20 23 30 37 37 28 26
