P2
64 64
255
26 33 38 28 25 22 31 35 33 37 37 35 33 26 35 19 30 29 18 26 30 27 29 33 20 33 18 32 22 37 33 30 27 29 37 31 38 31 21 38 18 25 38 29 30 36 37 25 29 18 25 30 23 36 29 38 22 29 36 26 34 28 19 36
22 25 30 22 21 26 20 26 21 33 35 32 38 32 20 32 35 29 32 18 38 35 22 27 31 31 22 38 37 33 37 36 35 26 32 22 38 24 35 24 24 25 25 19 32 24 19 20 34 27 35 20 22 25 26 19 21 23 18 30 22 35 36 27
19 27 23 32 35 22 35 23 38 32 27 24 33 38 35 32 30 28 28 37 20 30 18 34 28 34 27 36 22 27 37 33 37 18 33 33 38 24 21 20 20 32 27 38 22 19 27 36 21 27 25 29 31 35 29 22 34 18 23 18 30 38 36 26
36 20 20 38 20 26 32 18 25 33 33 18 38 36 38 29 22 21 28 18 36 37 36 20 22 30 34 29 24 20 33 38 26 31 20 32 18 20 38 30 36 37 29 24 24 28 34 32 38 36 29 38 18 37 35 25 27 29 31 37 26 29 28 18
26 32 37 18 26 28 26 18 18 33 27 24 24 23 25 28 34 20 35 36 18 25 37 34 19 31 27 31 34 25 23 31 36 18 30 30 34 31 37 32 33 34 26 31 18 31 35 35 35 34 25 35 28 29 26 23 26 27 19 24 34 25 18 29
38 23 22 34 26 32 34 22 34 26 27 37 20 33 34 26 32 35 27 18 35 19 30 31 36 25 25 27 31 38 25 38 18 23 37 20 28 33 36 30 23 27 21 24 37 25 38 35 37 33 33 26 24 25 29 21 30 27 33 22 28 26 28 28
25 25 37 35 36 30 35 26 35 20 27 28 35 23 35 26 30 38 26 34 33 23 25 38 21 34 32 18 33 22 36 24 22 37 23 23 34 37 20 38 30 32 21 22 26 29 25 19 23 33 23 26 37 28 29 35 25 19 34 20 38 27 31 35
35 23 37 38 26 37 26 28 25 30 33 29 20 22 34 21 24 28 20 33 19 37 26 32 22 38 29 19 23 24 38 24 18 21 27 24 35 24 33 30 29 18 31 20 28 37 23 27 27 32 34 29 26 23 31 36 24 33 37 20 24 22 23 20
19 24 35 24 32 20 31 34 18 19 26 29 21 20 22 27 28 25 25 19 36 29 21 31 28 27 35 31 34 23 38 33 25 29 36 33 24 22 20 35 31 34 24 37 32 18 36 35 27 26 34 34 26 30 34 36 27 27 20 23 35 34 25 24
27 31 30 34 37 30 33 18 29 25 38 18 20 33 33 33 21 29 37 29 20 24 33 23 25 29 36 23 32 30 22 26 20 19 26 21 37 28 31 38 24 36 24 24 26 22 20 31 26 26 28 33 18 30 19 25 30 24 30 20 31 19 23 22
29 22 37 25 34 29 24 36 18 34 19 19 32 19 34 18 36 36 18 22 30 38 23 36 23 38 35 20 32 32 21 34 24 18 33 34 23 20 20 28 35 34 25 35 19 18 28 37 27 31 21 36 37 38 33 18 23 26 36 25 29 29 20 22
34 23 26 32 30 36 30 28 18 38 31 37 37 23 34 34 26 24 35 37 19 31 36 29 21 38 18 22 28 35 31 36 30 25 27 18 25 27 36 19 33 27 36 18 27 25 36 32 19 28 20 20 36 21 35 31 24 25 34 18 23 18 36 32
33 35 24 19 24 27 28 18 31 37 22 25 38 21 18 24 28 20 26 26 30 19 37 27 19 22 32 30 36 21 22 26 25 29 20 19 27 21 24 30 29 18 28 36 28 29 19 19 30 38 22 35 36 35 31 30 30 26 31 22 32 20 22 37
27 37 37 25 19 30 29 28 25 30 32 30 27 21 22 31 21 18 19 28 33 26 36 37 20 20 20 26 31 21 21 31 37 23 25 37 26 26 23 34 32 31 36 27 28 21 35 33 35 21 24 32 23 32 35 26 24 23 19 31 37 29 37 27
37 33 31 28 27 26 28 30 35 34 33 28 19 21 32 34 26 35 28 22 33 18 37 34 35 36 36 28 19 35 37 25 30 31 35 37 32 33 38 33 25 37 19 27 18 29 22 20 33 18 21 28 33 35 26 36 37 19 21 18 28 31 23 30
32 38 30 22 23 18 32 32 29 33 29 26 26 25 33 19 29 35 27 23 23 22 21 33 37 28 31 33 31 21 22 24 20 18 28 30 33 20 24 35 19 38 28 35 33 35 33 32 25 36 24 20 24 28 24 34 22 28 21 37 25 21 37 34
19 30 19 26 34 22 37 32 29 22 31 29 18 35 21 33 30 36 18 37 20 28 22 33 29 36 35 36 32 25 30 35 18 27 32 35 26 34 30 37 21 33 21 36 35 35 33 27 38 30 33 31 32 33 22 20 30 19 31 24 29 21 33 19
37 30 29 28 33 31 30 19 34 33 33 22 37 22 35 33 21 26 33 26 29 26 38 27 33 37 33 25 30 37 35 37 36 24 34 31 19 30 18 26 26 34 22 26 30 38 33 21 18 21 36 36 23 28 24 33 31 28 30 26 22 26 19 28
33 34 26 25 25 21 18 19 36 32 19 30 34 33 38 38 18 24 23 30 31 22 23 37 25 21 30 36 23 23 38 20 36 30 23 37 33 22 30 33 31 20 24 26 26 26 18 23 33 36 38 37 28 30 33 31 22 31 18 23 35 35 18 31
37 23 25 29 32 19 18 25 37 31 19 37 36 24 24 23 19 29 23 36 32 24 34 27 26 20 31 36 22 21 18 22 21 25 24 30 30 21 20 31 36 22 30 36 42 22 32 36 37 21 27 32 24 37 23 25 38 36 30 38 33 28 28 36
25 32 35 30 35 35 33 35 25 30 25 21 20 20 32 24 37 27 28 34 28 37 43 38 33 28 34 28 28 36 36 19 24 35 38 38 31 22 21 37 43 31 25 30 28 43 32 34 24 32 25 28 30 31 29 36 37 30 29 34 23 21 30 31
31 30 18 31 25 23 31 34 24 18 29 19 24 38 31 38 44 30 32 39 41 47 47 36 43 46 32 30 23 32 38 25 32 40 39 37 38 26 28 34 47 34 30 32 35 45 44 27 36 42 36 30 23 32 37 34 28 22 27 24 31 20 32 26
37 20 28 27 31 21 35 36 23 19 22 29 21 33 34 47 49 50 36 52 33 45 35 43 32 40 42 30 46 42 38 42 32 43 39 34 49 34 48 39 48 37 40 51 45 52 43 39 34 34 46 25 21 21 30 21 35 36 26 38 28 19 34 38
27 30 18 28 33 27 32 36 33 29 39 24 37 32 34 40 40 42 46 45 52 47 40 51 51 53 53 50 41 53 52 40 52 40 40 55 51 42 39 37 41 36 46 48 38 56 48 51 39 32 36 46 30 35 19 30 23 34 27 24 28 26 21 27
37 23 19 37 36 25 36 27 32 27 29 29 46 44 36 39 49 53 60 58 49 50 47 44 45 60 51 58 56 54 64 59 54 45 53 51 57 52 61 57 50 59 47 49 47 49 43 54 39 41 43 30 29 37 36 18 35 29 29 29 20 20 38 31
19 33 36 28 23 23 38 32 25 25 30 32 42 39 50 58 54 52 52 54 51 48 49 68 61 56 61 72 57 68 72 66 66 57 69 63 55 60 59 73 69 54 53 60 56 61 51 43 49 40 35 41 38 30 27 33 30 38 23 33 24 22 34 35
24 36 24 29 25 26 22 34 19 32 32 42 32 51 52 42 54 48 67 66 52 61 75 68 69 77 72 78 84 82 79 58 63 68 70 75 77 84 80 78 71 68 76 71 64 63 67 57 63 61 46 42 51 46 25 31 30 34 30 27 30 33 38 21
30 34 34 38 27 23 26 20 28 44 30 49 36 40 47 61 57 53 68 63 68 74 78 82 80 74 74 91 80 77 83 76 78 71 73 84 73 91 84 71 87 73 78 68 57 58 67 49 57 63 53 43 41 40 30 29 38 28 37 30 26 35 31 28
32 26 31 23 19 19 18 34 32 34 43 35 37 51 60 63 58 59 66 71 69 85 72 76 84 79 81 92 92 94 81 78 90 92 91 89 91 98 80 82 89 83 73 84 63 57 69 61 69 48 47 40 51 40 29 28 27 35 26 33 22 21 21 35
20 28 21 30 21 29 25 28 24 42 43 40 42 59 47 68 53 57 60 79 70 85 92 94 94 94 98 102 97 90 91 92 89 90 103 97 92 90 91 97 96 93 89 91 84 68 77 75 66 66 48 46 41 43 36 30 22 20 26 21 32 23 25 23
32 37 34 30 22 24 22 24 43 37 41 41 55 45 55 56 72 68 63 75 76 89 91 102 98 101 112 103 103 96 99 99 101 111 97 93 96 93 100 102 105 93 101 89 89 70 61 61 69 54 56 62 41 47 36 34 30 29 34 31 19 19 23 37
20 36 18 27 34 28 26 22 33 45 51 37 57 59 50 71 68 68 81 95 91 96 99 105 99 115 114 104 104 114 100 115 118 118 108 107 111 113 103 97 106 103 95 105 93 88 83 63 62 60 49 46 58 52 33 37 29 32 22 38 29 32 25 21
36 23 23 26 35 28 19 33 40 37 41 44 40 58 67 51 65 67 76 81 101 105 101 117 109 101 105 104 117 119 105 123 111 112 108 119 118 119 106 108 113 109 104 109 103 97 82 62 62 70 58 57 49 53 51 47 41 36 26 31 29 36 31 18
31 34 24 35 18 29 30 24 31 46 37 36 40 47 56 71 57 67 72 81 100 97 107 111 103 106 104 121 114 127 112 115 128 120 127 110 108 117 122 106 107 111 103 110 101 87 80 60 67 56 56 62 59 45 39 33 26 35 30 37 27 19 37 29
23 33 20 34 29 24 38 32 23 36 41 41 52 58 62 53 56 67 86 85 88 91 104 108 111 117 122 118 123 131 120 125 134 127 129 118 124 118 109 122 105 101 97 106 102 80 79 64 54 54 49 49 57 37 44 36 26 26 37 19 30 20 30 24
25 19 26 33 35 25 32 31 36 34 43 53 39 48 60 50 66 77 66 92 100 105 95 99 102 116 116 123 129 115 131 134 134 140 116 120 129 126 115 116 100 96 104 87 89 75 78 62 51 58 59 57 43 47 37 29 33 25 20 28 25 29 29 32
20 22 23 18 18 26 22 22 37 34 34 33 55 54 55 53 52 55 78 90 83 83 109 111 111 107 109 125 124 115 116 120 140 139 130 121 113 110 108 116 108 101 93 93 79 90 65 74 66 62 55 46 50 49 34 39 38 32 21 21 30 21 19 37
32 23 31 31 25 37 33 28 35 27 34 38 50 54 42 56 61 61 64 71 91 92 98 90 94 101 112 115 125 126 124 116 123 114 117 125 108 112 116 110 99 98 93 94 73 68 61 65 58 44 58 46 43 44 45 39 29 28 29 27 25 21 18 18
31 21 26 28 23 22 26 36 27 36 36 46 33 43 44 43 60 58 57 73 72 77 84 90 92 107 104 101 109 121 114 125 119 122 123 113 103 109 100 101 93 101 89 77 86 65 64 61 60 56 56 49 50 32 34 42 31 20 22 30 30 36 32 38
34 32 32 25 32 31 26 36 24 23 38 33 45 50 42 38 51 59 69 77 76 89 85 88 103 87 91 98 103 108 109 100 98 99 98 107 115 109 97 107 85 81 90 87 82 70 57 42 58 44 35 48 49 37 30 23 32 20 19 23 25 19 30 21
29 29 24 38 30 27 25 25 38 22 30 24 35 44 47 36 49 57 60 62 73 64 79 82 87 87 96 104 109 95 99 90 105 95 100 98 105 98 87 82 79 87 89 80 74 60 63 38 56 49 34 49 39 34 27 31 31 35 37 31 33 37 35 24
35 22 33 23 31 33 36 28 27 19 30 34 26 47 45 43 49 54 46 60 59 57 76 78 74 94 81 94 90 84 87 82 90 91 86 85 96 84 86 85 80 79 71 70 65 65 38 54 49 40 42 37 44 40 35 27 27 24 29 27 33 24 30 27
30 30 37 36 33 35 34 36 29 21 35 34 34 25 37 35 41 38 39 45 52 60 75 70 75 86 77 80 81 86 85 85 82 90 74 76 79 78 80 80 71 67 60 56 63 50 46 39 43 48 39 38 31 34 21 23 27 27 32 27 18 37 36 30
18 26 21 26 18 30 34 28 21 33 25 38 38 37 35 43 31 36 29 50 37 42 62 54 61 74 71 67 74 83 72 83 75 81 76 84 77 67 65 67 68 52 60 49 44 32 42 36 33 34 25 30 19 28 37 18 22 28 23 35 34 21 22 30
35 28 26 27 30 19 22 38 33 25 38 25 29 30 20 35 31 35 38 42 50 50 40 62 66 69 67 61 65 69 75 73 78 77 81 68 76 62 72 54 60 48 58 51 46 28 40 28 36 34 39 21 33 18 32 20 29 32 18 30 34 25 30 21
36 21 18 31 23 30 26 21 24 31 23 27 28 36 38 37 37 21 31 41 24 31 46 55 45 56 62 68 55 62 71 66 61 57 66 54 55 66 59 61 55 38 40 48 31 38 22 25 23 31 19 18 22 34 38 30 28 35 30 34 21 36 25 27
38 33 35 31 30 26 36 32 29 19 21 28 22 19 31 28 32 20 34 37 34 20 30 33 38 39 47 56 56 67 65 65 64 59 53 59 50 49 57 54 36 46 43 34 19 27 28 20 31 26 27 37 29 37 31 25 21 19 38 34 23 21 19 33
18 30 19 27 27 30 25 26 32 24 19 32 23 31 38 22 37 30 32 20 34 27 39 26 34 31 48 41 58 55 55 49 61 45 50 49 42 55 52 31 29 24 23 21 23 30 20 20 31 26 24 22 34 37 19 23 37 29 30 23 22 29 19 27
32 22 28 26 35 24 18 27 25 29 23 27 18 20 24 18 34 22 37 32 35 38 35 28 36 31 29 35 53 36 49 57 43 37 48 42 47 32 42 35 33 37 23 30 38 30 21 27 37 37 35 21 20 21 19 18 29 35 34 26 35 18 31 19
23 24 33 38 26 34 25 29 36 34 38 29 33 30 35 20 37 26 23 18 32 37 31 35 32 23 33 44 35 48 31 35 49 35 34 43 30 38 27 31 29 24 36 37 27 23 36 31 28 22 22 23 34 25 22 25 18 18 36 21 32 26 36 22
18 24 36 29 20 19 30 34 30 37 34 22 33 22 34 29 19 38 22 36 26 30 26 32 23 34 21 23 37 24 31 29 33 40 43 35 41 36 22 22 29 26 28 38 22 28 29 36 21 28 29 38 18 18 30 29 20 24 23 37 26 32 18 21
29 31 33 31 18 21 25 26 37 26 23 34 31 18 18 19 23 31 20 20 23 38 25 31 26 22 18 28 28 18 23 37 37 19 29 27 29 29 32 19 36 27 31 34 19 18 28 26 36 33 30 31 36 25 36 21 35 28 34 33 31 35 33 20
34 31 32 19 32 22 35 23 18 36 20 32 25 35 27 26 19 36 31 19 20 30 26 22 27 19 19 25 32 23 21 25 25 36 37 21 29 33 21 25 25 29 21 20 29 24 28 31 23 27 34 19 37 23 28 19 36 28 18 18 33 24 32 37
34 33 26 23 32 19 30 18 37 18 37 35 25 31 27 34 29 28 21 19 20 35 26 35 20 36 21 30 29 27 28 30 35 19 27 24 33 36 21 30 20 31 19 19 26 30 29 22 37 37 32 33 29 34 20 33 30 25 37 38 34 18 19 29
23 31 29 31 27 19 30 25 22 21 29 31 21 31 31 19 19 31 20 33 31 28 18 28 19 27 26 27 31 34 36 33 37 19 25 31 31 26 25 37 32 26 23 35 26 33 20 28 21 24 22 29 22 38 24 22 20 21 35 33 35 33 34 24
38 22 31 36 22 21 34 26 19 36 33 24 35 18 24 20 19 36 24 25 21 23 21 22 21 26 34 38 37 22 20 25 18 23 35 22 23 33 34 22 20 29 28 29 35 37 35 28 30 19 24 23 25 21 18 20 26 37 18 31 30 31 25 22
19 20 25 37 28 29 21 26 27 29 32 25 18 31 34 34 35 36 36 38 29 25 27 23 19 26 31 24 29 33 28 28 29 19 31 33 27 20 20 35 36 35 31 21 34 22 24 29 30 31 29 33 35 36 21 18 38 37 22 22 26 37 34 21
19 36 18 38 26 36 21 38 29 25 19 30 34 18 34 30 23 33 20 36 25 27 20 34 25 36 27 20 32 30 30 24 29 30 27 38 25 34 19 38 18 29 32 26 36 22 29 32 20 28 35 23 36 19 18 21 23 30 18 21 35 29 33 25
38 20 18 18 26 22 27 30 19 25 24 29 37 33 26 28 32 35 38 38 33 36 24 19 29 28 19 22 20 30 34 33 24 29 34 26 33 20 29 20 24 35 18 38 24 23 38 28 28 33 35 19 35 25 31 29 34 31 31 38 25 34 20 36
32 30 20 38 26 26 25 31 29 20 35 36 21 21 30 29 20 32 24 30 25 31 21 36 32 34 21 19 36 28 31 30 33 31 21 23 38 38 38 36 32 19 35 30 28 30 23 21 31 38 23 28 33 34 37 18 35 36 19 27 26 24 21 28
35 36 28 22 19 31 28 29 24 36 18 24 37 19 20 22 31 33 35 35 33 36 19 29 34 24 29 35 32 18 36 28 36 34 21 31 26 20 33 34 33 24 25 21 31 27 33 27 37 34 35 36 33 36 22 25 18 36 31 18 25 26 29 34
25 34 20 20 29 20 30 19 30 35 18 38 24 38 29 23 26 24 25 31 38 37 36 24 21 22 38 37 19 27 35 18 23 26 19 19 18 37 20 33 20 30 31 36 24 32 32 28 26 31 27 27 23 35 25 36 18 31 30 30 26 21 30 18
23 34 32 24 19 29 21 25 28 21 26 21 29 32 21 29 26 36 21 19 24 22 28 35 38 19 35 33 38 33 21 31 31 27 29 33 33 35 23 32 26 25 23 24 30 27 28 19 34 34 37 30 35 26 23 30 18 25 30 20 30 20 37 22
34 26 32 28 30 25 18 22 21 26 26 37 27 20 19 27 19 37 25 38 28 36 35 33 38 26 21 31 21 34 31 28 25 24 19 33 21 18 35 20 21 25 26 36 19 18 35 33 21 33 25 18 18 24 36 31 31 33 19 37 18 30 33 37
