P2
64 64
255
15 21 17 18 24 18 25 20 18 16 20 26 14 18 21 24 21 16 21 20 19 23 20 25 25 21 23 24 19 14 21 18 14 26 18 18 17 22 17 16 17 19 23 22 24 24 23 24 18 24 24 17 18 23 20 21 19 21 18 24 19 24 18 15
20 18 15 24 25 18 23 25 18 24 21 14 15 18 26 23 20 24 18 14 23 21 25 25 14 17 23 18 24 24 19 18 19 17 15 14 19 14 19 14 23 23 14 26 26 19 17 18 19 22 14 26 20 23 20 19 18 15 16 26 17 18 23 17
22 24 21 22 16 20 24 21 21 19 19 20 20 20 14 20 14 22 14 20 15 17 26 24 19 21 22 17 26 22 22 14 20 15 20 23 15 17 16 23 15 20 15 26 21 26 15 26 16 19 17 16 21 24 16 14 17 15 20 24 22 25 16 24
22 14 14 17 19 14 18 26 23 16 18 15 15 24 26 18 26 25 23 24 24 19 23 22 20 17 14 20 14 26 19 18 26 18 19 26 14 22 25 18 18 19 19 25 17 26 26 21 23 19 23 23 18 25 22 19 20 15 25 23 21 15 18 26
26 25 14 21 26 20 24 25 17 21 22 17 21 20 16 18 21 22 24 16 14 26 14 23 17 24 22 18 26 21 15 15 21 26 22 20 17 22 17 18 23 18 24 26 26 23 16 16 21 20 26 21 23 26 26 22 19 18 16 15 20 24 16 22
26 25 16 18 14 25 26 20 26 19 19 14 25 25 16 23 19 17 16 17 14 18 16 17 20 24 21 18 22 17 17 25 20 22 26 23 19 24 14 16 26 16 19 20 19 23 24 17 21 22 26 26 15 24 21 25 19 26 25 18 17 17 25 18
23 23 25 20 24 18 26 20 23 20 23 23 24 19 18 21 18 20 25 26 16 18 17 20 19 20 15 14 19 15 14 20 16 14 21 25 20 16 15 14 15 21 19 15 14 22 25 15 19 22 17 24 14 22 15 22 26 21 19 19 25 22 22 16
25 15 20 15 18 20 16 20 16 18 16 16 19 20 19 21 22 18 23 20 15 25 25 20 17 26 18 22 26 19 23 19 16 21 25 23 17 18 20 25 21 18 16 24 24 22 14 18 24 19 20 23 23 25 19 22 23 14 17 15 19 25 17 24
23 26 17 16 17 23 15 22 15 16 19 21 26 17 26 17 22 21 23 26 23 16 26 25 19 26 17 23 15 24 26 21 25 18 21 20 25 19 14 25 18 26 15 18 17 19 23 23 16 15 25 24 18 16 21 19 16 18 20 14 18 25 20 19
22 20 23 18 24 26 22 18 14 20 20 19 20 18 14 15 24 24 19 18 25 21 22 22 18 18 24 23 14 22 16 24 24 21 17 21 15 21 24 21 16 21 21 24 23 17 20 14 22 16 15 22 14 15 20 19 16 18 25 18 19 21 24 23
21 22 24 18 16 14 15 26 20 26 25 25 14 24 14 17 23 21 20 25 15 21 25 22 17 26 18 20 19 22 25 22 19 21 17 14 17 20 24 17 26 25 25 16 19 19 19 19 21 26 20 16 21 19 17 26 20 18 14 25 25 18 15 26
19 18 17 22 22 15 23 19 24 19 19 16 14 20 25 18 14 14 24 17 15 26 18 23 26 23 16 21 23 26 23 19 19 23 25 21 21 16 23 21 15 22 24 15 15 14 21 17 17 25 25 14 16 19 20 15 24 19 21 20 18 14 24 18
21 23 22 21 26 20 21 16 21 25 17 25 20 19 19 25 19 20 25 15 15 15 23 15 25 25 26 14 14 24 25 26 17 25 26 16 19 14 14 22 24 24 18 15 16 23 19 21 25 19 21 22 20 26 15 21 15 14 25 25 19 21 16 15
19 19 14 23 20 17 16 18 22 16 21 25 23 18 21 18 24 23 19 21 20 23 15 23 20 20 15 26 18 24 24 17 14 19 16 24 16 26 25 22 26 24 25 18 20 15 22 16 14 18 22 17 25 24 23 21 17 24 25 18 22 17 17 25
17 22 24 26 21 16 19 24 19 14 23 17 25 16 18 23 19 26 16 26 22 16 17 15 22 18 15 17 25 22 14 26 17 23 25 15 21 20 23 20 15 20 18 22 21 21 26 14 15 16 19 16 25 24 17 23 24 22 15 20 16 19 14 22
20 17 17 18 19 23 25 18 26 15 24 21 22 20 19 16 26 16 21 23 25 22 17 21 21 20 21 14 23 15 14 16 15 24 26 19 19 23 23 26 15 20 22 17 18 15 19 24 26 25 20 24 16 26 26 23 20 21 20 16 21 19 15 14
19 21 22 25 22 24 18 21 15 20 19 22 25 25 23 23 21 21 16 15 15 26 14 19 14 16 17 22 19 19 20 20 24 20 22 18 18 15 26 19 19 21 26 25 16 23 19 14 14 14 14 22 21 18 23 14 24 15 14 22 23 15 17 25
26 24 15 14 19 14 21 23 23 20 16 24 24 20 25 16 15 20 21 25 14 16 19 16 24 16 19 20 17 16 14 15 23 17 22 26 18 24 22 14 25 17 15 17 15 18 24 17 25 19 15 14 17 16 19 21 15 17 26 15 20 21 26 25
16 20 23 25 16 23 20 17 25 20 20 21 16 26 25 18 23 17 25 14 25 25 26 17 15 23 21 18 16 15 22 20 20 19 25 15 20 17 23 14 26 23 22 25 18 16 17 19 18 24 25 23 17 23 25 25 20 25 22 24 25 26 25 15
18 20 23 22 15 22 21 26 22 23 14 24 22 22 15 15 17 16 29 29 29 28 22 19 21 21 18 16 24 26 25 20 18 23 17 26 25 17 17 27 28 21 18 21 30 27 25 27 17 26 14 22 19 26 14 17 22 23 17 22 18 24 24 22
14 16 14 26 14 25 19 15 23 16 18 18 21 19 17 21 25 22 30 26 34 30 29 29 24 25 17 27 23 20 17 14 26 16 25 15 26 17 24 22 23 24 32 31 22 30 33 29 19 26 20 19 17 15 16 22 18 15 21 22 16 19 23 18
24 17 26 23 17 23 24 22 16 22 17 25 22 26 22 27 24 35 32 34 31 29 31 28 28 32 29 19 20 21 22 14 17 21 21 17 19 28 30 33 23 26 30 25 31 26 31 23 27 31 25 26 26 21 25 17 15 26 21 22 16 22 19 25
20 19 25 19 16 25 23 19 17 19 15 21 26 32 25 27 35 31 35 37 32 36 31 29 32 33 27 34 32 26 22 18 19 21 24 22 20 34 29 31 31 30 32 34 41 31 30 35 37 34 25 32 27 16 14 26 24 22 26 18 17 18 25 25
20 25 15 20 20 20 26 26 24 14 19 26 20 26 32 38 29 38 39 41 40 41 44 33 41 36 39 32 30 25 18 24 20 18 28 22 23 26 31 33 40 41 42 39 34 41 33 37 30 35 35 35 20 19 18 23 16 15 19 26 24 16 26 19
15 18 20 24 24 23 17 23 26 18 27 21 25 34 39 35 38 35 40 38 48 45 47 44 46 43 41 34 31 33 28 23 20 19 20 23 35 34 34 39 34 48 47 44 45 47 36 38 34 43 35 37 27 23 23 22 17 25 16 15 19 16 15 24
14 23 26 22 15 15 17 25 15 21 27 22 31 28 40 34 42 47 40 53 43 43 44 50 46 38 41 31 31 25 30 26 23 29 29 27 31 37 34 37 41 49 42 46 42 44 46 49 43 37 38 32 33 32 19 27 19 15 17 25 26 22 22 24
22 15 20 26 17 25 20 18 17 25 30 25 33 43 38 37 45 53 53 56 47 45 45 46 43 48 48 43 36 35 26 21 22 22 33 33 35 44 39 43 50 43 46 57 51 45 52 50 44 45 38 32 35 34 30 27 15 18 25 15 20 15 23 26
14 19 14 26 15 15 25 24 23 20 34 29 42 35 47 45 50 56 53 57 53 52 50 48 57 42 42 39 33 40 34 29 24 28 28 41 38 42 40 48 49 56 55 52 59 56 53 56 52 47 41 37 32 35 29 24 21 20 16 26 24 19 14 20
24 25 22 14 17 19 24 24 20 21 37 36 35 41 49 48 55 60 52 60 64 63 64 54 53 53 42 39 40 38 30 33 36 39 33 33 40 46 47 48 53 58 59 55 61 61 62 56 50 52 51 40 32 31 26 22 17 23 19 19 20 20 19 14
18 24 18 22 15 26 25 17 20 34 29 34 33 46 41 45 53 61 56 62 63 68 56 65 51 54 55 44 45 33 31 34 35 37 41 35 40 47 47 50 61 60 61 58 59 67 62 61 53 49 47 47 40 31 31 32 24 25 26 24 18 21 23 17
20 21 21 16 26 21 15 17 30 27 28 40 41 45 52 53 53 59 62 64 71 64 71 56 60 51 51 53 47 42 36 38 35 42 42 43 42 50 47 50 58 63 66 72 61 71 68 60 60 56 49 48 44 31 28 25 27 24 18 23 16 22 19 26
15 25 19 18 14 24 20 25 22 32 30 32 37 44 49 56 54 62 70 62 73 65 67 58 60 62 58 50 40 36 38 42 44 39 39 35 50 44 56 57 60 62 62 72 69 65 59 56 62 51 48 47 44 37 33 23 30 23 24 21 14 18 17 16
23 23 15 17 20 20 21 20 21 28 37 40 35 50 51 55 53 65 67 64 73 68 72 66 55 63 47 43 49 40 36 33 34 37 41 38 44 46 49 51 67 71 67 67 74 63 67 61 63 59 46 39 40 42 30 33 20 27 19 25 19 23 26 19
20 18 16 25 25 18 26 28 27 31 33 39 38 46 46 54 52 58 64 69 73 68 67 58 63 50 51 47 42 44 43 38 33 41 35 42 50 51 50 51 54 70 63 76 68 71 70 56 56 53 47 49 44 43 28 28 25 28 20 14 16 21 26 15
22 23 21 25 23 15 21 15 23 29 38 38 43 48 49 57 51 54 64 66 64 66 67 60 58 56 57 47 48 36 32 44 38 37 43 38 49 43 51 60 64 61 62 60 66 70 68 55 54 46 43 44 40 35 33 34 23 22 14 24 14 22 24 18
14 26 23 16 26 22 18 19 30 33 38 40 39 47 53 44 58 58 65 66 58 65 65 61 53 54 50 46 39 34 35 31 32 33 37 39 37 51 53 55 55 56 65 69 61 63 56 57 47 44 42 41 37 40 28 34 19 16 26 24 23 16 23 26
14 18 25 18 16 26 26 14 23 25 26 39 44 35 44 47 46 52 58 61 57 64 54 54 52 55 50 44 39 32 30 30 37 37 40 35 45 47 51 50 50 57 61 56 55 59 51 56 48 44 50 38 32 34 36 25 18 19 19 17 16 14 15 25
22 14 18 22 21 25 19 22 19 29 24 33 35 34 45 42 48 55 50 55 51 57 53 53 51 49 47 48 38 42 35 33 33 31 26 30 39 40 40 50 48 47 50 56 61 50 55 48 43 51 39 36 37 35 31 27 24 17 15 17 21 18 26 25
23 26 23 15 26 17 23 26 20 22 28 32 39 35 43 45 41 42 46 50 49 49 53 43 51 43 37 44 32 40 29 32 23 30 28 32 39 38 46 40 46 47 45 46 50 56 49 48 51 39 38 33 38 32 21 20 14 14 17 21 23 19 23 25
21 26 18 27 28 28 27 17 28 21 33 38 33 42 47 49 50 42 50 51 57 46 57 46 42 42 43 42 41 35 35 36 24 28 35 34 44 39 45 53 48 49 53 48 56 57 46 56 43 52 48 44 36 36 29 32 31 32 29 22 24 29 23 30
31 32 28 26 25 28 26 22 28 24 29 36 34 36 41 49 46 50 48 48 47 54 46 57 44 52 48 41 42 34 32 36 28 38 38 39 47 47 41 43 51 50 59 52 53 56 55 50 53 55 41 38 44 42 30 27 35 32 30 34 32 32 39 29
32 36 24 26 25 28 36 30 26 37 30 31 40 37 37 44 43 55 47 54 54 58 56 53 48 54 45 41 45 45 41 30 31 31 38 39 42 40 42 45 51 49 53 56 60 59 49 51 47 51 52 48 48 42 45 34 37 42 36 39 43 40 39 39
21 28 32 22 29 28 28 29 25 21 22 33 34 30 30 33 46 38 36 37 43 39 46 39 36 44 45 33 30 38 33 24 28 30 28 29 30 36 44 48 42 49 48 49 41 46 42 47 39 41 40 31 37 32 28 31 33 30 32 34 35 38 34 35
28 17 20 25 20 24 28 28 22 23 21 27 19 27 34 33 35 31 39 36 32 41 33 35 38 34 33 26 23 30 30 25 29 26 21 21 23 26 27 35 29 34 30 33 32 36 36 31 34 31 24 24 21 23 28 31 27 25 25 31 22 32 28 24
23 22 14 14 19 22 14 22 17 26 21 14 15 16 19 20 22 21 26 29 30 33 22 29 23 24 26 17 25 18 25 18 14 16 19 19 18 17 23 19 23 24 31 32 29 30 23 26 26 26 18 23 18 19 22 21 25 14 20 25 22 19 25 14
20 25 22 15 17 24 26 22 16 22 25 20 25 14 21 18 21 21 21 27 18 19 24 19 22 15 19 21 21 20 21 17 22 20 20 26 14 21 18 23 28 23 26 20 21 29 21 28 20 18 18 25 26 26 18 14 15 26 17 20 21 24 22 22
20 17 24 21 16 25 25 15 15 17 23 17 25 14 25 25 20 24 17 18 16 25 26 17 21 16 26 18 21 24 16 24 26 23 15 20 22 21 19 19 26 21 17 16 20 18 20 21 19 19 25 23 18 21 17 17 16 24 24 25 18 20 25 21
22 26 24 21 23 22 17 23 16 20 21 24 19 24 19 26 23 18 17 18 15 22 20 14 25 16 22 20 22 15 21 25 26 23 16 14 16 20 25 19 16 26 26 25 21 21 16 15 17 19 14 15 15 23 19 23 16 15 22 21 20 16 26 20
16 16 14 22 25 24 24 16 26 26 24 17 14 18 26 15 19 18 17 21 26 19 23 25 15 17 19 22 15 18 20 22 21 19 16 23 22 19 26 24 23 14 25 26 20 16 17 15 24 19 22 22 15 19 25 20 14 26 16 21 16 22 21 19
17 21 17 15 23 23 22 24 18 22 15 19 24 23 15 17 26 21 16 17 17 14 20 14 15 21 21 21 19 15 26 15 14 18 26 24 14 15 18 23 21 17 21 18 15 19 18 20 20 15 22 24 15 16 25 20 19 19 25 23 20 21 25 22
19 14 26 22 17 15 18 15 20 25 15 21 20 17 15 16 17 15 18 26 23 19 22 15 21 17 20 20 19 14 20 20 22 18 25 19 25 24 18 21 20 22 21 16 24 21 24 16 16 16 15 15 22 25 25 16 16 24 23 25 24 20 17 16
17 25 19 25 19 18 25 15 15 16 24 15 22 14 14 21 17 18 22 17 26 24 14 25 22 14 18 20 23 15 15 17 22 18 20 23 19 21 18 23 15 26 20 17 17 21 14 20 26 26 25 23 23 14 17 21 15 16 20 18 25 16 16 21
24 19 19 14 15 14 25 23 25 18 17 26 15 21 23 22 17 21 26 24 21 18 26 21 15 25 24 22 14 25 18 18 14 24 24 26 15 21 16 22 19 22 15 26 22 15 16 17 18 17 25 19 15 26 15 25 21 22 15 14 18 19 14 26
14 18 22 25 14 14 16 19 18 18 19 26 25 23 16 18 16 22 25 15 20 26 16 17 17 21 15 14 20 24 22 23 16 20 17 19 24 20 15 17 18 18 18 22 23 19 21 25 15 22 25 22 22 24 22 26 24 15 26 18 15 22 17 16
15 18 26 25 25 21 15 16 22 19 21 22 24 24 20 23 22 26 15 20 26 19 24 24 23 25 19 25 21 14 19 26 17 24 19 18 24 17 15 16 21 26 25 26 21 21 22 22 26 17 24 19 17 20 24 16 25 15 14 16 22 19 23 23
20 22 20 17 20 23 19 26 21 21 17 17 14 14 19 19 15 14 26 17 19 26 16 24 20 17 20 20 16 15 25 14 16 23 25 24 23 21 26 26 26 25 15 17 15 24 24 21 26 24 22 18 14 17 21 14 16 25 15 18 19 19 18 20
20 14 25 23 14 19 26 16 19 18 20 21 14 16 14 23 25 23 23 23 23 24 16 25 15 17 17 19 15 14 24 26 16 26 25 14 22 15 25 25 15 17 15 16 24 16 23 22 21 16 18 25 17 15 18 25 19 15 24 26 14 20 19 16
16 15 23 19 24 26 15 19 14 26 18 17 18 24 22 20 18 22 24 19 15 22 14 15 26 18 21 16 26 18 22 23 25 16 20 22 17 22 15 22 22 20 22 23 19 21 26 18 25 14 14 18 14 14 20 19 26 21 16 21 20 18 25 25
15 18 15 17 21 22 16 21 17 25 18 16 25 18 14 20 16 20 16 25 25 16 22 23 16 18 21 20 14 21 14 18 23 15 26 14 18 23 23 18 15 21 20 16 20 20 23 25 16 20 25 16 15 14 24 19 17 20 26 21 22 14 22 17
15 24 22 21 25 23 17 21 25 25 20 17 14 23 14 16 19 23 18 25 18 15 19 22 25 15 15 26 22 25 16 26 26 20 15 17 16 18 18 16 20 22 25 17 20 24 18 14 25 17 17 26 23 18 18 21 16 22 19 16 17 26 17 24
20 22 23 23 22 18 19 19 20 22 25 22 25 22 23 16 19 14 22 18 25 17 19 15 24 23 17 26 14 25 18 16 20 25 20 18 22 24 14 21 15 26 23 16 22 22 14 18 24 23 14 25 21 19 22 19 21 22 26 19 16 26 23 18
15 26 22 26 18 26 21 15 15 15 14 21 20 20 19 24 17 17 19 14 14 15 26 17 25 15 14 20 17 21 19 19 21 17 20 25 16 14 23 19 18 24 14 21 15 24 14 16 26 19 17 21 21 15 22 20 15 21 16 26 17 18 20 15
15 16 26 19 22 26 14 26 14 18 16 26 17 16 21 18 24 18 16 16 24 25 21 22 14 20 19 24 17 21 19 16 22 20 20 17 22 17 15 19 16 21 19 18 22 15 14 20 19 14 25 21 24 20 26 20 26 17 17 18 17 16 16 22
24 20 16 20 21 20 16 24 23 21 17 17 23 23 17 15 18 18 25 24 26 22 18 20 15 26 17 22 14 22 17 20 23 18 26 18 25 14 17 17 23 24 14 20 23 26 21 22 24 18 24 26 15 24 20 15 25 26 17 18 24 18 14 22
