P2
64 64
255
23 27 29 32 37 27 26 36 27 35 22 31 29 27 25 24 22 34 23 28 24 18 29 23 38 31 31 30 19 21 18 26 26 29 32 29 30 18 19 22 29 27 38 19 26 28 36 37 30 36 21 28 35 32 27 23 29 30 25 21 33 22 29 28
32 27 37 32 32 18 21 23 18 26 31 32 32 22 24 34 31 22 38 21 34 35 19 21 30 21 27 33 28 18 25 25 21 22 32 26 30 31 23 24 33 18 38 31 30 31 18 27 35 19 19 33 27 29 38 25 29 21 28 27 21 36 34 36
38 24 28 32 27 24 27 21 22 25 33 21 34 28 25 26 36 36 19 34 20 37 28 28 25 27 31 24 36 31 36 37 23 25 18 23 35 34 36 26 37 28 18 38 34 19 19 28 23 25 27 18 35 29 36 32 38 38 36 30 20 24 31 21
26 26 24 24 28 23 27 38 38 32 35 18 18 19 21 32 31 22 22 18 29 28 32 32 37 38 36 28 28 29 31 35 37 30 25 27 29 33 18 37 27 18 35 19 21 28 32 22 30 35 19 36 29 25 29 33 31 38 28 23 37 23 37 30
38 32 36 33 32 34 35 36 32 21 35 22 32 20 27 26 31 20 18 25 28 31 24 23 22 20 32 31 30 33 25 26 26 31 34 32 22 33 27 27 38 37 23 20 37 20 32 38 20 24 23 37 18 32 21 29 27 38 24 35 34 32 37 29
18 22 29 34 25 19 20 36 36 20 30 19 28 33 22 37 18 37 22 38 32 23 38 27 19 33 26 18 34 37 22 23 32 21 31 31 33 25 35 29 26 21 36 23 28 35 30 20 38 24 35 38 19 38 22 24 26 28 37 25 26 21 19 35
37 18 37 36 19 31 38 32 25 19 37 27 23 20 35 32 20 23 32 18 37 19 25 30 25 21 30 28 25 33 26 19 23 24 26 34 21 31 26 21 23 18 38 29 23 35 24 25 27 21 20 31 20 21 26 20 32 29 20 28 24 19 19 28
38 32 34 34 24 18 38 30 35 22 38 29 28 31 26 25 35 28 36 21 19 38 22 32 26 33 35 30 34 37 29 24 19 37 27 26 38 25 21 31 18 27 18 19 20 23 18 31 22 36 20 27 38 28 21 27 22 31 20 18 28 31 27 32
34 31 34 27 19 31 36 33 38 32 33 31 27 23 19 35 28 37 28 28 32 35 38 30 23 27 21 21 27 30 28 38 30 26 35 19 33 26 37 22 34 28 25 32 30 22 28 33 35 30 26 18 31 26 35 32 23 31 33 19 33 22 30 35
38 26 25 29 20 33 30 26 32 29 35 34 21 18 18 18 33 23 38 28 33 29 23 34 24 26 27 23 27 22 26 18 20 33 33 29 30 25 33 37 20 20 22 18 19 37 20 28 32 35 31 28 37 18 20 28 24 23 27 37 34 30 19 21
20 34 35 21 38 19 19 28 33 32 18 29 35 21 26 32 36 29 27 20 26 30 26 31 29 20 26 22 38 27 22 23 26 18 22 37 28 37 29 36 36 36 33 22 33 25 31 30 33 29 18 27 32 29 31 23 23 27 28 22 20 28 30 22
31 25 23 29 18 19 25 24 36 35 38 34 32 27 18 35 31 37 33 30 37 27 34 30 22 31 22 29 18 27 25 32 27 25 38 34 23 28 20 20 34 22 28 23 23 31 34 28 33 37 33 37 21 27 35 28 31 36 25 23 19 34 32 22
22 18 26 31 33 27 37 21 20 30 27 28 20 27 18 32 32 30 23 34 27 25 25 24 25 18 33 28 38 37 30 33 20 31 19 24 30 37 33 29 21 30 33 28 33 31 25 25 20 37 20 18 24 19 21 37 34 22 23 27 32 25 19 30
20 34 31 34 33 27 38 36 22 33 20 19 35 33 37 33 31 20 24 35 22 27 35 30 20 32 34 26 28 27 24 21 34 35 25 20 34 35 33 29 20 21 19 29 30 20 27 38 27 33 25 36 31 25 38 18 37 33 29 19 21 31 25 19
22 37 33 34 30 32 37 28 23 30 35 21 29 22 27 26 31 36 34 25 28 18 33 18 18 34 20 20 19 34 28 29 27 24 36 22 38 18 27 29 21 23 31 34 19 30 20 29 34 35 27 28 32 23 37 24 18 19 26 37 18 24 25 30
38 25 25 26 18 22 30 30 35 35 21 28 35 18 23 28 31 33 31 36 26 23 37 19 30 26 23 27 23 26 35 19 38 37 32 18 32 25 28 31 21 26 38 34 32 27 30 32 21 18 31 19 19 28 30 22 34 25 32 29 18 35 18 27
20 36 21 35 18 21 20 25 23 25 27 24 31 20 37 36 25 31 21 24 34 37 24 29 38 40 34 25 38 29 29 18 37 24 30 18 30 28 34 29 21 37 25 24 22 21 28 27 34 20 34 23 32 38 23 24 33 23 30 32 22 24 35 24
30 25 32 19 26 24 24 38 26 37 35 32 18 34 26 30 18 21 21 28 36 31 44 49 37 44 43 24 31 22 27 20 37 29 36 29 21 21 28 38 38 36 20 22 30 18 21 28 36 30 37 26 29 19 33 32 38 21 26 23 24 21 29 29
22 25 19 22 33 29 35 27 38 30 20 32 29 28 33 19 26 30 33 45 40 38 45 42 37 41 49 47 44 34 32 22 22 29 32 23 35 18 20 29 27 29 29 28 35 23 34 32 20 28 36 33 32 33 27 22 36 18 22 20 29 24 23 35
34 36 18 21 26 28 18 26 24 27 33 33 32 36 35 25 35 29 39 49 47 65 55 66 59 52 51 37 33 34 33 20 21 21 30 33 32 35 30 36 22 38 39 22 35 30 38 30 29 34 23 26 23 29 27 21 38 23 33 36 29 35 29 38
27 25 19 24 23 21 35 29 24 35 36 31 24 36 28 29 42 52 42 59 55 60 73 63 69 57 61 61 37 36 40 38 23 35 35 22 32 19 22 22 33 26 30 44 26 27 39 40 31 21 30 18 20 35 37 19 33 19 34 27 34 18 32 23
29 24 33 33 22 24 36 20 24 35 30 35 23 36 41 47 48 62 58 62 77 65 70 72 77 79 64 60 52 35 44 40 29 24 23 28 20 41 41 44 30 42 39 30 43 41 41 29 30 29 31 34 37 20 30 27 32 33 24 32 24 31 30 31
18 25 23 35 31 19 25 20 25 27 29 28 36 25 35 52 41 62 58 68 74 84 84 99 81 81 72 70 68 56 32 43 18 18 21 41 34 37 39 43 38 50 34 43 44 36 33 37 44 28 30 42 23 26 33 31 26 33 33 18 35 27 36 34
24 22 27 35 35 18 34 33 23 35 33 32 27 43 33 44 51 65 69 84 82 84 93 103 89 86 83 68 70 52 50 25 37 36 33 30 40 36 37 53 39 51 53 40 55 43 37 52 46 43 37 33 36 22 26 18 38 24 38 27 18 24 36 20
27 27 21 34 19 18 33 22 28 19 31 24 37 37 46 57 65 65 76 94 81 104 111 114 92 102 92 74 61 65 53 47 26 36 25 43 41 46 46 43 39 44 45 44 48 54 57 49 43 41 34 47 40 27 30 35 32 35 27 20 31 38 32 34
36 31 21 23 37 26 25 24 26 26 37 43 49 44 52 53 60 61 79 78 84 107 116 102 103 101 92 78 60 65 58 30 25 42 39 39 47 39 46 40 61 63 63 50 65 57 62 61 46 58 49 41 32 38 42 33 20 35 31 26 25 19 22 23
37 21 31 19 32 19 32 35 29 27 28 49 51 43 57 48 64 81 77 89 95 110 94 98 97 89 91 70 60 56 48 31 37 39 37 43 38 42 50 59 63 58 59 50 56 56 47 54 46 59 43 49 47 43 35 42 28 26 33 34 35 22 31 27
34 32 26 35 26 21 30 32 33 34 32 42 37 56 57 49 72 75 74 94 101 104 93 102 92 86 94 77 66 49 50 46 47 37 35 46 50 59 59 57 56 57 72 64 64 67 70 50 49 56 54 56 47 49 31 37 39 29 20 38 38 23 30 27
28 27 37 37 27 32 25 36 27 34 38 51 54 50 44 51 58 78 80 83 93 95 95 101 102 95 75 77 57 55 40 42 42 41 52 42 47 57 56 68 65 68 76 61 62 62 73 54 51 65 53 49 37 44 36 43 33 33 23 31 25 23 29 21
20 19 34 23 30 29 26 22 33 32 43 47 51 45 61 55 72 77 82 90 94 91 88 92 100 89 71 67 67 54 49 37 44 34 36 48 48 58 57 55 57 70 61 61 67 65 57 69 60 49 45 58 43 41 34 28 24 24 35 23 29 31 27 34
38 24 37 28 27 23 29 31 36 45 39 44 47 58 61 50 69 68 73 84 89 97 94 81 86 85 81 87 78 75 55 56 58 41 51 58 57 50 67 58 62 73 72 67 71 76 74 58 72 60 65 45 48 53 36 38 29 26 30 38 22 23 29 21
19 36 26 34 27 32 24 37 26 30 45 54 59 53 64 66 64 75 76 77 96 95 82 82 75 79 78 81 75 74 85 62 60 60 44 49 61 51 53 71 62 72 65 76 88 74 68 67 61 63 63 52 43 53 45 36 38 21 34 38 23 37 35 25
22 31 37 30 38 37 30 37 25 48 34 45 52 62 51 63 75 65 82 84 85 88 77 83 73 84 83 90 92 84 95 82 82 58 64 56 72 64 67 74 77 63 78 78 88 79 78 65 75 67 47 61 48 40 35 30 30 34 23 33 18 23 18 35
24 37 36 36 29 32 24 20 41 47 37 44 50 56 48 70 61 69 82 78 79 68 67 72 86 76 99 114 102 113 104 109 88 76 76 59 65 76 76 69 59 64 66 82 73 76 81 74 66 64 61 57 39 49 33 47 25 29 25 27 31 37 29 20
28 24 35 25 25 34 18 32 38 41 35 39 47 51 50 51 58 77 61 63 64 82 81 70 88 83 104 121 116 132 124 116 117 109 90 75 76 83 71 77 70 78 75 67 83 82 66 63 65 54 49 43 42 55 48 38 31 31 24 21 25 26 26 38
33 18 23 33 23 22 33 38 22 45 41 49 57 48 47 68 66 61 70 74 62 65 75 60 76 83 102 105 124 147 139 115 124 108 100 81 79 91 95 88 76 72 79 64 69 65 75 58 55 66 49 55 47 37 44 46 33 25 36 26 34 36 38 27
18 22 29 25 34 33 35 34 23 45 32 34 41 49 63 47 59 67 68 71 65 66 73 58 74 90 94 101 119 124 116 131 121 111 112 105 88 104 81 79 76 67 68 77 58 66 64 64 51 61 58 58 42 50 48 36 37 24 30 35 37 18 34 19
22 31 26 34 26 30 34 18 28 43 29 47 46 44 44 46 54 49 63 66 53 69 71 57 61 80 97 102 93 116 115 125 111 108 109 110 108 95 85 77 73 62 72 53 71 58 67 69 61 56 50 40 43 51 44 37 37 34 24 22 21 32 31 29
21 24 25 35 25 34 36 37 25 22 43 32 50 45 52 59 50 54 58 48 51 65 64 64 48 58 85 91 96 89 94 94 108 96 95 116 100 95 90 75 76 58 57 67 67 57 49 45 63 43 52 42 33 38 36 34 19 37 33 32 27 24 36 19
25 20 34 26 28 32 28 25 27 31 29 32 38 49 37 42 42 51 54 47 52 64 58 51 44 48 54 73 68 83 89 74 95 77 99 109 99 90 81 82 77 61 52 49 64 60 46 49 59 57 41 51 48 34 30 22 31 32 22 23 33 28 32 26
26 18 29 27 27 32 38 31 20 28 40 43 31 44 48 46 54 39 50 47 45 49 58 59 50 43 50 61 43 62 63 63 66 67 83 79 97 92 87 62 74 50 48 47 52 56 46 39 53 52 50 46 35 35 38 24 19 31 36 21 29 26 35 24
32 26 19 18 31 26 34 33 22 24 33 33 36 29 42 45 49 55 49 48 47 51 50 36 37 45 34 35 35 44 49 49 64 56 59 81 68 74 58 57 55 57 49 49 43 49 51 38 38 51 45 42 33 29 27 18 21 28 18 22 36 28 36 28
31 23 27 38 25 28 21 27 38 30 32 34 30 32 41 44 32 44 50 45 45 48 49 32 39 49 42 26 34 26 42 32 56 49 55 66 55 64 55 48 52 42 45 35 45 34 45 50 37 44 36 33 23 34 34 33 37 36 33 22 37 35 38 34
30 23 22 22 38 24 23 23 22 36 19 38 35 36 42 39 44 33 42 45 29 37 46 33 41 44 44 27 38 21 35 33 36 53 42 41 49 49 55 50 40 28 37 43 42 38 45 31 37 34 24 30 35 19 24 33 30 33 26 36 30 32 19 25
37 38 20 36 33 18 23 21 34 32 28 29 21 37 27 40 39 41 35 31 39 33 38 45 34 33 21 39 29 31 32 35 31 37 34 45 28 44 24 25 33 36 34 37 38 33 34 40 42 30 29 18 20 38 30 26 33 29 20 19 25 37 31 22
36 26 31 21 38 27 34 37 19 29 24 28 30 25 20 32 22 36 36 24 37 31 22 41 21 24 29 29 35 27 24 28 23 25 21 21 26 21 29 23 24 41 24 33 32 29 36 39 26 28 33 22 36 22 24 28 21 24 28 28 21 18 32 18
28 21 18 37 33 29 34 30 28 20 19 21 28 27 37 18 20 19 35 24 21 32 35 37 35 37 36 22 29 30 20 23 22 38 21 26 19 23 32 36 29 32 26 34 30 22 22 27 21 18 21 19 24 26 31 25 34 35 21 35 28 32 31 25
34 28 35 26 21 20 25 26 30 28 32 38 19 23 33 29 21 19 32 20 19 20 30 21 29 22 33 35 28 33 25 26 27 32 29 18 32 32 20 24 29 37 31 24 30 28 36 32 37 18 23 19 31 33 36 36 36 34 38 26 33 37 19 35
24 29 36 36 22 36 20 36 38 33 32 21 34 23 24 38 25 22 23 31 19 21 30 38 28 35 24 28 26 21 22 36 34 27 21 35 22 23 22 25 22 24 23 33 18 18 25 30 37 26 27 34 31 33 30 22 30 28 38 26 36 32 30 21
32 36 24 32 35 27 32 21 38 31 33 27 24 29 38 19 23 30 20 36 38 33 29 28 31 29 28 24 23 32 37 19 29 34 26 23 35 34 28 34 25 32 33 32 21 24 23 31 18 22 25 38 37 33 30 27 25 20 37 22 38 29 23 38
31 21 19 31 29 29 30 21 31 23 28 19 29 25 22 36 29 32 33 37 25 35 22 29 32 18 20 38 29 26 33 34 29 28 36 38 31 35 27 25 32 19 36 28 31 20 34 31 31 27 26 36 18 35 18 24 26 28 20 22 38 32 27 27
32 20 20 32 36 24 38 19 18 35 35 31 35 28 23 34 38 36 26 38 23 37 27 36 34 33 37 31 30 35 31 30 37 18 26 20 25 30 18 25 25 37 28 37 18 26 26 26 36 27 25 30 21 22 34 32 22 28 35 28 30 31 34 27
32 21 29 26 22 24 27 21 35 35 32 31 27 23 33 36 28 35 37 20 33 35 22 34 25 36 26 22 30 31 29 35 27 19 30 20 21 18 31 25 33 29 22 38 21 21 34 38 31 37 19 23 21 35 29 19 37 21 36 26 22 23 33 31
33 29 23 34 38 30 26 22 38 21 37 38 25 33 19 31 21 37 37 29 26 24 22 25 22 24 18 26 28 20 24 26 29 23 32 37 24 32 22 29 27 25 19 19 36 37 18 29 20 37 18 32 22 33 22 34 18 22 35 25 30 24 24 30
26 28 24 24 34 38 36 29 24 28 35 25 33 24 34 33 18 21 28 19 28 36 23 37 37 23 18 27 38 23 23 32 38 34 22 32 35 26 32 20 20 34 26 24 21 20 24 25 26 27 30 26 30 22 18 31 19 31 20 22 33 18 38 20
30 21 21 20 25 21 19 26 33 23 31 36 25 23 32 27 21 37 24 25 37 19 21 20 35 36 38 20 29 24 32 26 21 33 21 29 34 30 29 34 21 18 21 30 19 36 25 29 22 18 31 28 27 33 25 21 35 38 30 36 34 21 31 24
23 21 30 34 19 31 38 33 23 19 30 18 23 18 26 24 36 21 28 22 38 18 35 19 32 18 37 38 30 29 30 37 35 31 38 33 28 22 31 34 18 35 20 30 25 30 38 33 29 21 34 22 26 33 19 20 28 29 22 32 21 23 21 33
22 30 35 23 36 30 26 35 25 22 28 28 28 25 25 24 32 20 33 33 35 27 28 33 24 25 21 28 24 18 26 25 20 36 31 34 23 25 24 28 26 28 28 35 33 36 37 25 18 34 29 18 29 23 23 18 37 26 24 23 18 24 21 21
26 20 18 36 25 38 27 28 25 24 34 30 32 38 22 27 32 21 26 36 36 35 20 33 37 34 22 37 27 35 24 18 28 33 35 20 37 26 27 21 36 35 35 31 18 25 34 22 29 22 35 24 28 34 24 24 26 32 24 24 23 22 20 27
27 37 33 26 19 25 29 33 32 24 38 26 32 28 35 30 32 36 35 36 37 26 31 24 20 24 38 18 18 38 33 35 31 38 24 37 37 31 35 34 25 37 19 20 34 38 34 36 18 28 25 32 30 23 24 25 31 27 33 28 28 22 31 34
29 37 22 25 19 28 34 30 18 33 35 37 18 21 33 27 28 19 37 19 20 21 33 28 33 21 19 19 28 24 36 27 30 24 37 22 33 37 29 24 38 22 23 21 26 26 34 19 21 32 25 24 31 22 28 22 34 33 35 20 19 24 30 22
30 20 18 29 20 22 29 27 18 18 33 22 20 28 26 32 20 38 34 34 23 38 33 20 36 38 22 31 27 33 32 26 29 19 24 18 28 18 38 38 37 25 38 20 20 26 32 26 37 30 33 21 32 32 34 19 34 36 33 21 24 21 20 35
29 26 37 38 24 34 34 23 20 20 26 25 27 23 35 31 19 28 27 26 32 24 20 26 20 25 34 32 32 23 23 31 25 32 21 31 20 23 29 27 38 37 25 22 26 36 28 28 33 28 34 23 18 31 25 33 29 29 21 38 36 30 29 24
24 36 23 33 25 27 32 25 27 21 24 34 19 36 34 38 22 26 27 18 29 34 23 27 21 25 25 21 23 32 38 24 27 25 38 23 34 32 29 22 22 38 38 21 25 29 19 28 20 21 32 32 29 23 18 23 27 33 32 30 34 34 25 38
