P2
64 64
255
21 36 37 34 25 20 23 33 26 25 22 22 30 34 27 25 35 19 30 20 24 35 36 21 22 18 37 38 27 30 26 29 28 38 36 23 28 38 29 33 30 35 35 28 22 25 24 27 37 30 31 38 31 34 30 27 21 26 36 22 31 36 18 19
23 21 18 34 19 30 28 24 29 31 29 32 27 22 25 30 25 38 33 21 36 19 34 37 26 19 21 20 31 30 21 20 27 38 29 37 36 22 24 27 36 23 31 38 28 38 23 27 37 18 25 33 19 33 37 35 34 36 18 34 30 31 28 29
24 19 36 36 36 20 24 38 36 31 18 33 30 23 38 35 21 27 29 24 31 26 33 29 26 26 38 37 26 36 28 32 31 36 19 23 26 29 37 37 28 19 23 32 37 19 25 28 28 18 23 22 31 25 35 36 34 27 38 19 38 29 31 19
30 19 22 22 23 28 28 27 23 19 31 38 31 30 36 28 38 20 37 31 34 25 35 20 23 27 18 30 30 19 23 21 23 19 36 28 29 18 38 25 33 21 35 33 26 23 18 31 20 21 31 34 18 25 24 32 29 34 25 37 29 30 24 22
38 36 19 22 27 34 34 22 33 19 38 26 21 38 28 26 23 28 36 32 25 31 20 29 31 38 21 36 25 18 19 18 19 38 37 18 38 25 38 35 36 23 36 38 37 19 38 28 34 37 33 32 22 35 33 23 25 27 36 37 38 20 35 21
19 30 25 33 24 20 25 21 34 23 37 28 22 24 38 18 19 35 35 26 30 32 37 30 20 36 36 32 23 31 28 35 35 19 27 24 18 18 20 32 28 24 37 28 34 34 25 21 19 23 33 25 25 25 34 31 29 21 20 31 32 21 25 30
22 20 25 30 36 30 23 24 37 36 38 25 29 37 30 21 21 25 22 30 21 36 22 25 19 36 34 35 31 36 31 29 23 22 29 18 21 29 28 28 37 24 28 29 23 33 32 25 24 25 32 27 18 24 34 33 25 35 22 20 20 35 25 37
22 30 38 25 22 20 34 29 29 38 32 32 19 27 24 26 24 36 33 36 27 20 33 18 34 18 22 32 27 28 25 31 29 38 31 21 32 23 19 23 24 23 31 21 29 23 20 33 28 22 25 32 18 20 20 25 32 36 23 31 25 24 21 33
23 34 25 20 36 18 37 28 24 36 34 32 30 28 34 27 22 18 27 37 30 31 31 24 23 30 18 30 36 26 34 32 31 36 35 27 34 21 33 23 19 23 29 24 27 30 21 30 24 32 27 26 36 33 18 32 37 25 34 34 31 23 21 30
20 25 26 28 21 32 19 35 19 21 18 22 22 34 33 18 33 36 33 38 22 30 31 29 30 26 23 25 25 37 20 31 22 31 20 33 37 21 32 27 22 33 27 20 32 35 32 26 21 34 33 21 30 19 33 34 24 36 24 32 36 35 28 19
20 27 32 20 21 25 33 31 32 36 22 32 25 31 18 28 20 32 30 19 26 30 22 25 34 19 34 27 21 30 21 24 30 37 23 24 34 19 38 37 19 30 37 35 34 35 21 37 36 20 28 33 25 19 26 32 24 30 22 24 25 35 19 23
27 28 33 36 23 18 29 32 26 32 37 27 34 29 24 30 20 35 35 18 23 23 32 19 31 37 36 37 22 29 23 26 20 27 32 24 31 22 32 38 18 21 21 25 31 27 18 32 24 21 37 33 35 20 30 32 34 25 26 24 22 37 35 27
30 26 26 20 21 27 34 33 38 36 34 31 23 24 27 31 35 34 38 27 29 34 25 31 26 35 23 28 37 31 29 21 20 36 36 27 26 27 21 34 21 18 24 32 37 35 21 23 30 29 21 31 23 19 23 29 23 21 24 18 31 19 31 22
36 25 28 35 34 32 23 38 26 35 25 35 25 32 33 37 30 30 25 37 31 34 24 22 19 36 27 35 25 33 20 33 32 37 33 20 26 35 30 29 28 20 29 37 27 25 24 27 30 31 31 24 29 29 26 35 23 27 26 18 20 19 31 22
29 28 29 24 35 33 33 24 21 36 20 33 29 28 30 32 30 34 32 27 20 21 37 24 22 36 26 29 32 38 31 36 27 37 29 38 24 18 29 36 30 28 27 21 31 36 23 34 24 29 36 24 34 22 34 22 32 20 29 34 29 37 22 24
37 20 33 28 27 21 34 25 31 34 27 26 34 25 30 29 33 31 29 31 31 23 23 37 25 23 26 23 18 24 24 20 31 26 33 38 35 35 31 21 32 27 20 38 37 32 31 21 24 32 31 33 36 22 28 35 19 21 34 22 20 28 26 19
28 24 35 34 32 21 32 38 18 23 32 29 29 37 22 37 25 19 35 21 35 35 25 37 37 28 38 31 28 35 24 23 26 21 29 25 32 28 26 28 19 33 23 34 22 29 19 22 27 35 19 36 25 32 36 38 30 24 38 36 21 36 29 38
36 32 22 21 19 34 26 37 21 23 35 36 33 30 26 31 19 21 37 38 32 36 29 37 37 31 22 20 18 20 20 26 20 20 34 26 22 38 31 27 18 33 35 35 26 18 36 19 19 33 32 28 22 36 33 27 19 30 37 22 34 21 27 22
35 32 23 22 31 28 32 21 20 23 28 21 37 23 36 38 31 26 30 36 31 26 18 22 30 34 37 21 37 19 33 28 38 24 20 33 32 37 18 20 29 26 26 30 25 23 28 38 28 22 31 33 26 21 18 27 26 38 38 22 33 23 22 32
25 30 32 24 20 29 18 24 37 33 38 26 34 18 36 28 22 31 31 39 25 36 40 27 40 26 18 36 32 33 28 28 25 26 22 33 24 29 27 35 28 37 24 27 27 23 25 32 25 30 31 30 21 29 32 24 23 18 34 18 38 18 38 31
29 20 28 35 34 35 20 31 19 22 21 22 20 21 39 26 38 41 30 33 29 30 28 39 35 24 27 30 28 22 23 29 35 19 21 24 18 31 39 35 28 41 39 39 31 25 41 40 23 21 20 38 22 36 20 31 21 19 21 24 20 25 33 31
33 18 30 25 32 35 27 35 35 36 32 24 21 23 28 43 35 30 32 33 37 46 47 48 44 37 33 40 22 26 28 27 31 114 38 37 20 28 33 29 38 35 42 29 42 41 36 27 40 36 32 23 18 31 27 28 23 31 27 21 30 36 36 29
34 31 32 26 22 24 29 26 25 23 20 38 23 32 37 45 45 31 46 40 34 33 46 41 51 42 48 37 43 30 27 35 32 37 124 36 44 40 31 39 49 48 42 33 50 38 49 33 36 30 43 40 36 33 33 21 19 30 24 21 32 35 30 28
28 19 25 33 26 37 18 22 34 32 33 23 31 40 49 36 40 44 56 47 52 45 56 52 48 34 47 29 35 35 24 110 28 28 37 124 43 38 44 33 50 55 38 56 38 41 55 42 52 34 33 47 37 37 25 34 38 35 25 21 20 27 21 22
22 30 34 31 33 27 38 21 30 31 25 27 44 41 34 49 46 40 43 57 47 54 61 60 45 47 53 45 50 46 24 36 104 30 31 37 130 48 47 40 57 53 60 58 59 52 42 45 56 46 35 45 46 26 23 32 35 18 38 24 31 23 35 29
25 23 22 37 22 20 37 23 28 40 28 31 49 35 53 43 55 61 47 64 45 58 46 49 45 59 52 48 40 48 36 109 38 112 34 43 39 128 47 41 59 52 48 50 46 61 50 49 42 50 54 52 39 35 41 40 34 29 29 20 33 25 37 33
22 22 28 38 33 33 29 25 22 32 35 29 35 46 45 46 53 57 58 55 63 66 68 66 52 45 61 40 43 39 38 120 35 33 117 45 47 52 144 45 57 47 60 52 62 49 55 52 43 41 45 55 52 49 41 42 20 26 31 38 29 29 36 32
21 33 25 19 26 30 18 33 25 26 39 51 43 55 41 45 47 56 52 56 65 67 67 63 52 49 44 49 56 50 36 130 47 219 48 43 51 42 55 133 52 59 59 68 70 65 63 69 51 56 58 54 54 45 38 25 28 25 29 38 38 32 23 28
36 26 23 32 21 19 23 29 32 31 32 34 56 52 53 54 54 62 55 73 60 59 59 56 67 51 64 54 50 40 52 34 130 218 41 53 41 60 48 151 63 68 61 76 63 64 58 69 63 51 57 44 44 48 39 26 30 18 33 30 24 20 19 35
20 31 28 27 35 26 38 39 30 26 42 52 56 47 56 63 61 61 72 72 79 67 62 77 71 66 63 60 56 142 49 39 132 123 124 43 53 49 51 136 54 76 69 65 77 78 63 61 51 65 55 56 42 53 38 39 28 29 27 32 28 19 20 31
31 27 26 25 21 31 24 27 23 32 43 48 45 54 54 65 59 72 78 83 78 75 82 71 71 56 54 50 53 137 38 139 46 125 37 141 49 46 57 67 154 70 65 65 75 78 68 72 57 62 66 60 44 50 51 36 38 23 30 22 34 37 32 32
23 25 27 31 20 26 19 29 35 29 31 53 45 61 58 65 59 78 74 81 77 75 67 74 66 68 71 55 46 143 43 128 134 55 128 55 51 65 68 56 160 79 79 71 78 67 81 78 75 54 60 53 54 44 41 43 34 25 25 28 38 37 35 27
31 30 22 24 38 36 25 34 38 48 47 41 55 63 61 71 59 69 76 76 81 71 71 65 72 75 68 47 139 39 128 40 132 44 135 51 55 57 71 75 146 83 74 85 83 77 68 72 60 62 48 58 41 46 45 44 31 35 38 24 25 30 25 36
23 26 38 29 28 21 28 25 41 33 41 46 57 52 50 70 65 62 68 71 75 75 78 73 72 72 53 152 59 39 141 53 123 43 44 140 53 54 69 64 64 160 78 80 69 77 74 69 68 55 56 61 46 44 51 30 38 40 34 34 36 31 30 20
22 32 34 38 33 26 41 38 39 49 56 41 50 58 69 58 68 65 84 81 77 74 78 73 83 74 65 55 136 50 51 130 135 50 63 64 139 71 62 63 163 82 83 77 90 90 77 65 67 70 64 68 62 45 41 47 47 34 34 46 32 44 34 30
43 32 47 34 33 29 48 50 46 43 59 55 67 60 70 76 74 70 81 82 77 90 90 78 82 71 70 67 145 66 137 140 61 53 56 72 150 68 79 69 166 76 85 97 80 88 87 86 72 72 67 76 71 57 50 51 47 46 41 44 47 48 53 53
40 51 51 45 47 44 38 38 49 54 53 60 72 63 79 70 77 90 91 92 88 79 79 86 76 90 87 71 62 241 55 66 153 69 64 74 164 80 77 173 89 86 90 95 100 83 89 90 83 89 91 78 83 75 73 62 68 61 59 64 61 61 54 66
45 52 43 58 54 55 54 47 48 61 72 67 59 65 71 87 77 82 98 90 82 99 92 98 81 84 75 72 86 241 62 154 66 70 65 152 78 91 87 183 85 89 99 95 101 100 94 100 87 87 79 85 80 70 78 74 61 74 64 59 64 60 68 80
47 51 46 37 44 51 45 37 45 56 49 66 55 68 74 72 71 76 77 78 91 79 78 80 71 70 69 82 165 65 139 151 63 69 60 147 69 70 159 72 73 76 86 86 84 96 79 94 87 71 74 70 79 68 59 63 64 58 67 60 59 66 59 66
48 44 30 31 34 44 50 48 31 46 51 40 53 57 61 72 67 57 59 69 63 61 73 73 72 71 60 136 54 49 136 134 59 54 53 143 53 72 143 62 67 75 70 72 65 65 77 69 62 64 74 65 64 53 51 45 51 50 40 45 50 61 56 59
25 38 38 39 38 44 31 33 32 28 43 42 53 40 44 57 52 63 56 69 55 63 53 50 58 46 58 126 59 50 205 48 45 44 36 40 140 59 141 47 67 54 66 57 62 58 53 56 54 65 45 60 56 35 52 33 34 37 41 36 46 41 38 40
26 38 31 26 20 36 31 24 24 33 34 24 28 38 33 48 34 45 46 40 42 38 48 44 39 50 130 30 31 195 34 27 24 23 31 110 48 45 124 49 49 50 42 49 57 55 37 42 47 45 38 34 39 36 22 23 19 24 35 20 25 27 24 23
32 25 18 18 25 20 36 30 34 25 38 23 38 39 32 31 31 34 39 36 39 46 43 48 51 120 31 36 113 21 115 26 21 21 21 24 119 115 36 50 34 47 51 35 51 37 52 41 47 28 33 27 21 30 19 32 22 34 35 19 35 19 34 23
23 32 30 29 38 30 24 29 29 25 24 36 34 41 23 30 29 46 47 49 40 33 36 42 27 119 29 32 114 37 122 36 18 21 29 23 31 208 25 28 30 42 32 46 32 41 46 29 40 35 41 26 37 32 38 36 23 34 27 18 25 31 29 25
24 20 27 28 30 30 22 23 22 23 22 21 18 22 33 26 37 41 29 36 40 39 45 36 37 112 24 36 18 119 117 36 21 27 35 36 119 109 37 30 35 38 31 34 30 43 27 27 23 32 31 30 26 36 21 33 24 22 31 38 33 31 19 31
34 21 37 35 35 26 28 27 35 23 35 20 26 35 23 35 34 20 21 36 31 29 26 25 111 34 27 35 23 108 112 34 21 36 30 116 32 26 108 29 24 38 23 28 30 31 39 27 21 37 22 29 21 19 37 23 34 25 30 23 34 21 35 21
27 22 27 24 33 33 36 38 20 23 19 30 29 22 38 34 32 23 37 29 24 38 29 38 36 118 30 28 30 24 195 19 19 19 27 107 22 22 28 105 34 21 19 22 28 35 21 26 30 34 20 21 23 34 23 25 35 21 32 28 24 19 28 34
29 28 28 29 24 34 27 35 19 36 33 31 19 31 22 21 35 31 27 31 28 28 37 20 36 35 122 22 26 115 106 30 32 18 118 31 38 21 107 28 32 23 18 23 38 28 25 24 38 28 30 21 28 27 32 38 36 29 28 37 30 23 23 26
26 19 29 30 31 38 21 24 33 37 31 29 29 34 29 22 21 35 20 22 35 30 38 35 32 111 19 25 31 33 203 29 33 24 29 120 28 107 35 32 37 36 25 35 38 37 26 19 30 24 36 29 32 19 23 35 37 28 34 29 25 19 32 27
38 29 21 18 32 34 20 25 22 26 38 34 18 20 27 24 21 24 32 24 26 26 18 23 32 110 25 37 20 109 113 23 34 23 24 122 18 121 36 30 22 28 28 18 33 21 30 26 32 35 30 30 31 25 32 23 20 38 29 21 25 30 19 27
19 36 26 28 18 18 20 25 25 23 37 37 31 23 31 18 25 31 32 27 33 37 19 25 116 38 38 38 116 103 23 38 31 21 110 38 120 25 33 21 35 34 20 21 22 33 21 37 38 20 34 30 21 26 27 19 35 35 24 19 34 29 19 31
29 25 30 21 29 23 27 32 31 35 29 28 28 37 23 34 28 29 37 30 26 20 35 107 19 37 31 20 103 31 116 28 21 34 123 33 22 105 31 37 21 23 24 33 31 21 20 23 19 38 23 22 30 24 37 37 32 32 20 31 34 25 35 27
23 27 36 34 25 23 38 37 28 37 25 29 36 25 27 37 19 27 19 25 28 31 25 33 110 28 30 27 119 34 104 18 36 38 29 105 103 21 20 18 38 26 24 28 37 31 19 28 28 34 26 37 23 26 29 18 27 33 28 22 32 38 37 18
25 29 19 34 19 32 25 23 35 32 31 35 38 23 36 19 32 37 21 27 26 25 27 35 122 33 35 20 25 106 36 112 26 19 23 113 27 29 36 33 34 31 18 26 32 32 25 36 27 38 31 21 28 31 34 33 24 34 23 33 32 30 27 34
37 25 32 27 26 30 34 29 18 29 25 33 30 38 20 18 21 38 26 32 30 37 35 30 107 28 22 18 30 123 19 118 31 29 19 103 35 19 21 38 31 18 31 38 33 25 23 24 28 20 35 36 19 27 32 19 33 26 22 22 34 24 20 32
37 31 36 23 28 24 19 34 21 28 38 27 29 22 35 35 27 24 33 36 24 37 20 103 26 19 35 37 31 28 22 25 115 21 20 114 20 28 37 26 27 21 33 24 35 32 35 20 25 18 20 29 36 18 27 32 21 20 26 37 35 23 27 19
20 26 38 21 36 31 30 35 20 19 18 27 34 33 23 31 23 26 37 35 28 29 38 26 107 34 25 22 32 31 20 34 27 116 18 29 112 20 25 31 28 25 28 37 38 24 23 23 21 36 20 24 33 18 27 38 26 27 28 21 35 35 22 27
36 22 34 26 38 37 24 21 33 19 28 37 26 22 34 30 22 22 29 33 29 32 26 115 28 30 20 18 36 34 22 23 33 33 23 36 33 103 24 32 19 21 35 28 29 22 23 36 24 28 33 25 21 23 29 38 30 29 26 35 28 22 24 23
33 26 25 30 29 24 28 21 26 29 21 32 25 36 25 26 21 25 22 29 21 33 37 104 19 25 33 20 33 36 36 18 37 20 33 35 38 26 104 27 37 38 27 19 32 19 22 22 34 31 18 22 21 22 19 24 36 29 20 21 22 22 36 24
33 30 35 26 37 26 33 38 18 25 24 34 23 29 19 18 24 18 28 30 33 26 20 107 28 36 18 35 21 29 18 24 20 29 29 19 36 38 36 21 29 31 21 20 21 32 20 21 32 27 35 18 28 35 19 28 35 29 36 20 19 18 23 21
37 38 20 25 20 24 33 29 20 35 28 33 27 36 27 21 18 18 23 18 23 38 119 19 31 32 28 30 29 18 24 37 35 19 23 33 27 36 32 32 32 27 18 18 38 33 37 30 21 23 38 22 35 23 36 25 38 26 21 28 20 23 27 23
23 26 20 36 22 26 28 23 28 26 19 38 19 32 31 25 32 35 28 18 28 19 31 24 35 38 33 37 31 37 23 32 27 28 23 23 30 24 21 28 23 24 18 20 37 34 30 28 31 28 24 27 33 33 23 33 28 36 32 27 36 38 22 27
32 27 25 34 24 37 37 24 27 36 26 20 25 21 25 25 33 31 34 33 35 18 25 37 31 34 21 18 22 20 36 31 25 19 34 27 20 25 38 25 31 22 26 31 20 32 29 18 20 31 37 37 30 34 34 26 34 37 29 24 33 25 28 32
30 18 25 21 37 18 32 19 32 24 32 25 25 38 22 22 38 34 22 21 36 36 27 19 22 38 38 23 21 33 27 23 27 38 21 18 38 22 37 33 18 26 26 32 34 20 34 28 27 30 24 26 32 31 18 21 35 21 37 25 18 21 24 27
