P2
64 64
255
26 36 22 22 25 31 27 34 35 37 33 21 24 33 18 31 32 18 37 26 27 28 30 18 28 28 27 27 21 35 36 34 33 18 31 26 24 23 19 29 18 35 32 21 23 34 28 38 38 21 33 25 31 37 19 20 28 18 31 21 36 31 20 19
23 26 24 24 18 38 22 33 37 18 36 27 32 37 31 20 19 22 20 28 32 26 34 22 30 19 25 24 38 18 32 29 24 18 23 25 20 36 31 24 36 26 28 28 24 30 27 29 28 25 32 24 18 27 24 24 19 36 28 25 34 20 27 26
38 22 23 26 23 25 31 35 33 27 36 28 34 18 38 34 21 23 32 22 30 34 27 35 21 30 22 25 25 20 24 36 28 26 37 34 22 20 23 34 25 23 29 38 19 35 31 18 26 28 20 36 29 37 30 38 30 26 24 18 30 35 21 38
38 33 19 26 38 37 26 24 20 23 34 33 26 18 25 23 37 26 26 20 37 35 35 18 25 19 23 29 38 22 25 31 25 32 38 35 31 31 34 22 38 33 30 32 33 35 23 36 33 24 34 19 36 27 29 30 18 26 32 30 26 27 25 34
29 33 34 32 28 29 33 32 21 22 24 21 32 23 33 34 20 25 29 22 34 18 27 21 28 30 20 28 32 37 33 29 20 22 35 25 31 19 31 22 18 20 25 34 36 18 25 27 27 33 35 25 25 21 31 36 25 27 37 23 32 38 21 28
28 32 34 32 24 19 25 22 22 32 35 26 35 21 32 30 35 29 24 23 27 21 35 24 38 37 25 25 26 27 24 18 31 37 38 35 36 22 37 37 28 34 29 25 33 37 33 22 32 36 21 25 25 32 30 25 29 31 36 21 33 28 38 28
22 19 21 19 36 21 18 35 37 36 29 24 24 32 21 33 31 23 32 22 36 36 20 20 37 21 34 28 37 18 22 19 18 23 27 20 34 24 18 35 20 19 31 36 29 18 32 18 20 29 32 22 23 31 18 24 35 35 21 32 32 23 24 21
23 18 28 19 24 36 19 19 26 30 30 21 29 29 25 20 28 27 21 37 35 23 34 34 37 26 37 30 20 28 36 20 29 20 31 31 26 20 21 21 24 36 32 24 19 22 22 29 38 19 35 22 24 36 21 36 26 18 23 33 38 24 31 31
26 20 36 21 38 35 31 33 37 30 20 25 19 31 18 33 23 38 26 26 33 25 19 37 33 31 31 28 27 28 27 29 21 23 21 31 23 28 33 29 27 21 32 31 23 19 34 22 24 34 20 30 38 35 21 23 21 38 38 18 18 24 24 34
33 26 29 21 34 27 24 37 31 20 26 32 25 35 30 21 33 23 22 34 30 28 31 34 35 22 20 21 29 32 26 28 32 25 34 26 25 36 22 22 32 26 27 36 24 29 30 29 18 23 36 27 31 20 32 27 36 29 26 28 36 34 22 38
24 31 33 23 25 36 30 32 29 38 38 28 32 35 38 23 28 37 29 19 30 18 21 24 20 34 20 32 19 19 21 18 32 28 26 34 37 37 22 18 23 24 22 27 21 26 36 35 36 26 19 36 29 38 28 22 27 37 24 21 30 26 22 30
30 23 26 32 38 34 24 31 32 19 20 23 35 36 36 18 34 19 24 34 35 31 30 21 24 35 37 21 23 25 20 23 23 30 30 29 34 28 23 27 30 34 21 26 36 21 25 24 36 30 35 35 36 37 27 26 35 22 18 29 22 20 32 25
26 24 34 28 30 38 31 23 36 29 37 25 27 35 35 28 32 20 29 21 25 29 28 34 32 35 32 33 29 18 26 22 29 21 30 25 19 25 22 18 25 35 30 38 33 34 26 28 25 31 24 31 31 30 22 33 29 33 28 18 27 33 27 30
37 19 27 20 36 27 18 37 38 23 28 31 29 34 36 34 29 28 34 37 31 18 27 31 30 36 27 37 28 27 25 35 32 38 34 28 29 36 31 33 23 25 30 26 26 37 32 21 31 32 21 34 19 20 20 33 27 19 33 27 22 22 18 36
20 21 31 23 33 23 29 38 21 33 37 37 26 20 20 31 23 35 31 37 20 28 21 31 26 20 36 25 38 31 32 27 36 35 37 23 37 29 33 21 31 37 30 33 33 33 28 22 25 18 38 23 19 31 23 29 30 34 38 20 22 21 21 29
18 31 34 23 27 37 36 38 33 33 22 37 25 38 36 32 31 37 33 29 29 28 22 36 19 25 32 22 36 19 31 34 25 37 30 31 21 30 23 27 23 32 29 31 38 20 24 35 27 38 31 30 38 19 31 31 24 33 30 31 22 30 24 30
30 29 22 23 27 29 19 27 28 38 19 28 29 24 27 18 22 26 29 26 22 31 32 18 25 25 23 32 31 36 22 18 27 27 18 27 35 34 43 43 36 39 28 26 26 18 35 28 35 35 33 36 36 29 26 19 32 37 20 18 23 33 33 32
34 34 30 22 38 24 29 34 31 29 34 37 19 37 37 27 19 37 25 22 26 38 30 18 27 34 35 33 21 18 37 38 32 23 39 40 33 46 43 40 44 42 36 41 41 32 23 23 32 32 30 35 34 31 32 34 36 37 32 18 21 32 27 38
37 20 23 26 30 19 32 26 18 29 20 23 23 30 33 22 18 21 18 34 38 22 29 30 30 35 28 38 23 30 38 20 24 32 45 43 54 65 55 65 65 62 50 39 38 37 25 19 38 30 20 31 28 26 36 28 36 23 26 37 18 30 35 38
22 21 32 18 30 19 19 18 23 22 21 26 31 32 34 30 28 20 38 37 27 34 38 21 32 39 28 25 26 20 32 29 32 52 44 64 71 62 68 76 79 69 55 51 55 56 32 39 30 28 21 27 18 36 32 36 37 23 25 23 29 24 27 27
20 21 19 19 21 34 27 26 34 26 34 26 22 27 25 25 36 31 31 31 39 37 36 38 29 30 27 24 29 21 38 32 33 43 62 65 79 84 71 83 86 90 81 69 64 61 54 44 23 37 19 26 37 21 25 35 26 38 38 24 26 37 31 22
36 31 18 22 28 34 29 38 21 18 34 18 19 34 42 31 38 27 32 35 35 47 31 32 38 26 43 35 30 21 35 37 47 59 64 82 74 104 102 115 101 101 96 84 69 70 64 39 42 26 33 24 22 36 26 28 22 29 31 19 38 31 31 25
32 21 34 21 37 19 29 22 38 33 21 34 36 42 32 35 50 46 34 46 51 51 45 46 31 37 43 35 34 37 31 38 44 56 75 92 99 124 137 142 139 126 120 92 88 75 63 53 49 37 41 33 41 19 26 35 33 21 25 24 34 31 28 27
31 30 32 25 33 21 36 36 33 18 24 27 37 36 44 31 45 43 55 46 47 47 46 41 39 40 36 37 37 41 41 45 53 61 86 100 124 139 156 177 163 156 149 110 100 86 67 62 60 38 30 42 38 35 21 19 27 20 25 37 20 28 34 23
32 21 35 27 18 23 31 31 23 37 29 34 32 41 45 53 50 53 41 49 59 50 47 59 51 48 42 46 36 34 53 60 65 72 83 122 154 174 186 205 184 177 158 134 117 94 82 64 64 48 47 41 43 28 37 20 25 18 25 34 23 38 19 33
38 37 25 29 29 32 21 20 34 28 26 35 46 33 39 42 49 49 56 63 58 61 58 46 61 45 49 53 44 45 56 51 63 63 99 131 149 189 212 223 224 201 176 144 118 103 90 65 51 54 49 52 41 31 41 20 23 38 24 21 31 27 19 18
33 31 21 26 33 23 26 18 31 30 40 45 33 52 51 49 63 45 67 54 55 53 50 48 51 59 48 44 41 43 55 52 69 82 94 132 150 188 207 240 227 198 182 144 132 92 79 66 57 45 52 43 48 42 34 23 37 31 27 35 30 33 21 18
38 20 26 19 30 28 31 20 37 43 38 42 44 39 51 45 65 65 67 56 67 68 68 66 51 63 54 61 62 62 57 72 84 84 117 136 157 191 205 217 202 190 167 153 124 99 90 81 54 48 56 42 47 35 37 31 29 37 31 33 32 24 21 32
33 33 20 26 23 29 28 21 24 43 31 37 53 48 47 65 63 69 66 75 64 75 75 62 78 72 76 70 80 65 60 69 91 87 113 129 141 158 191 184 192 172 156 142 113 96 81 66 56 62 46 56 40 45 45 30 30 18 25 37 32 36 30 35
30 21 33 18 36 19 30 29 30 32 36 44 44 42 57 55 53 64 75 76 63 77 76 69 83 68 90 72 71 78 82 85 93 101 106 114 146 160 158 161 172 152 144 124 110 106 92 82 57 50 54 43 42 40 41 27 32 25 37 37 25 37 18 36
33 19 21 27 23 31 19 34 36 27 39 43 52 43 50 54 62 71 70 81 65 76 85 76 94 88 97 93 79 94 79 91 90 95 97 103 124 131 149 150 149 148 122 122 112 90 94 81 68 60 54 48 56 53 51 39 37 27 38 28 35 28 21 21
18 30 37 38 23 32 31 37 42 36 45 40 57 53 62 64 68 66 63 81 76 77 77 89 88 91 87 96 91 90 91 100 101 91 101 98 109 114 127 115 113 116 109 100 109 83 83 78 71 52 57 52 47 35 37 45 29 24 34 37 21 19 22 34
20 28 22 37 18 27 32 24 43 44 44 50 57 52 59 64 66 70 74 67 82 75 81 98 87 90 91 96 99 99 111 91 105 97 98 95 94 106 100 101 106 103 99 90 92 75 68 76 64 61 50 48 40 48 35 46 40 37 28 34 37 30 18 24
32 20 37 37 18 31 23 27 38 38 34 38 45 63 58 59 75 65 64 83 82 82 86 97 101 91 106 99 112 117 115 100 104 100 100 98 105 92 94 93 78 87 99 91 73 79 76 77 56 57 51 51 39 42 39 30 32 28 18 34 30 33 35 18
34 33 29 24 37 35 28 36 37 27 32 38 53 44 63 62 56 74 72 67 73 77 81 94 99 105 115 117 110 107 119 116 101 106 98 81 81 84 76 80 84 69 74 65 72 78 67 61 68 50 58 44 58 36 48 33 42 37 24 30 36 37 36 26
32 24 21 25 32 27 23 33 41 31 44 37 43 61 50 61 57 60 63 75 80 85 87 82 87 105 97 100 116 117 114 109 108 95 96 89 85 81 63 76 64 69 70 77 75 60 64 56 64 53 52 61 46 52 40 33 24 33 19 36 37 20 25 25
33 34 23 26 26 28 35 21 40 38 45 45 42 47 56 65 69 58 63 61 67 74 77 86 89 87 98 110 101 106 108 113 95 88 98 93 78 78 61 67 55 55 64 68 76 57 65 55 65 48 60 52 39 45 36 44 23 25 26 26 30 37 21 32
25 34 37 30 37 36 19 23 34 42 41 37 41 37 43 63 47 61 51 63 71 71 69 79 82 85 88 106 102 99 101 92 92 98 89 74 68 62 68 63 51 55 70 54 54 56 63 57 47 49 50 49 40 31 41 43 26 38 27 34 21 29 33 30
19 33 32 34 20 21 29 23 27 35 37 30 35 41 53 43 46 51 67 65 69 63 59 68 77 75 98 98 101 106 92 89 87 89 69 71 64 73 58 61 53 47 51 57 65 58 60 58 62 59 42 39 32 45 37 36 20 33 32 38 32 24 27 23
24 26 26 18 37 29 26 21 30 20 29 43 40 48 46 57 59 57 62 60 58 58 73 75 65 70 89 77 93 76 79 89 75 75 72 71 54 62 49 57 44 53 53 62 49 59 57 49 45 46 41 39 46 34 24 27 36 31 35 35 34 37 22 21
23 35 33 22 27 33 22 37 24 29 39 30 29 31 47 39 48 40 59 44 47 59 45 68 75 68 73 69 86 68 65 62 57 71 68 60 54 63 56 40 57 45 60 52 45 47 55 47 57 40 47 46 44 31 26 34 19 32 18 28 28 33 24 19
36 26 26 28 36 28 37 26 19 30 39 33 26 34 41 50 46 53 54 38 54 49 47 46 59 68 69 71 60 57 67 55 52 58 62 56 39 39 47 45 37 41 43 42 56 43 51 51 37 50 31 29 32 38 19 19 23 19 33 25 22 35 35 37
23 29 24 22 34 35 37 29 18 30 18 27 29 26 45 30 47 49 40 41 46 38 49 48 38 57 48 64 57 44 43 60 53 56 52 35 30 39 47 38 46 47 44 49 39 50 32 44 37 34 34 32 23 23 30 19 33 35 30 28 21 21 35 34
38 19 31 28 30 21 21 23 26 23 37 38 28 26 26 33 33 45 31 45 49 40 31 44 30 45 33 52 44 40 33 39 36 33 33 40 30 34 33 41 38 44 43 45 30 30 43 34 42 34 41 29 38 19 24 18 27 38 19 25 21 37 24 26
20 32 23 30 28 20 20 30 32 19 29 34 30 34 22 38 37 40 35 38 28 42 29 39 26 42 31 35 31 28 31 37 29 29 30 24 37 24 40 23 44 26 33 39 45 40 32 35 30 24 35 25 28 25 35 37 21 36 21 26 20 29 23 38
27 38 33 33 24 29 35 37 23 26 25 21 24 30 30 18 23 32 27 39 32 40 33 41 29 24 35 31 24 21 34 37 29 37 31 33 19 29 37 38 32 30 28 41 34 32 26 34 27 37 31 38 31 35 21 20 35 21 22 24 31 29 21 21
29 24 33 33 18 32 38 29 24 21 36 38 34 38 38 22 27 20 34 33 28 30 33 24 24 21 31 26 20 33 24 20 32 37 25 33 30 29 37 23 38 22 31 27 36 26 23 34 26 21 33 30 18 28 30 21 30 34 20 36 25 34 24 35
30 35 26 22 32 19 28 30 34 26 24 35 29 26 22 22 36 21 24 33 33 35 35 34 27 27 30 24 19 37 24 34 19 33 37 21 38 33 31 29 19 38 21 32 36 34 21 28 37 29 18 24 18 36 23 19 20 36 38 18 31 21 18 35
33 31 19 30 20 31 24 37 27 26 26 35 18 22 36 28 29 22 37 32 23 36 33 32 30 27 23 37 22 33 33 29 25 27 26 28 33 38 23 21 36 18 31 36 35 33 23 34 24 18 37 30 36 35 26 23 37 36 36 19 26 38 20 26
26 24 24 33 38 28 26 21 27 38 27 31 36 35 25 29 37 21 27 21 29 35 27 25 34 37 23 24 25 24 27 25 38 21 18 31 33 31 23 25 26 28 23 38 22 28 26 18 33 28 37 20 19 37 25 23 19 34 31 28 24 34 25 29
37 37 36 21 19 29 22 26 32 35 22 18 36 19 18 18 20 37 33 35 36 26 31 29 20 28 24 34 36 26 25 30 36 38 28 37 22 20 28 26 26 28 37 33 38 29 36 33 33 19 25 19 26 34 26 31 19 37 26 21 21 26 31 28
33 23 30 20 32 32 29 38 22 21 35 26 22 27 30 33 34 35 24 36 33 34 34 25 36 20 32 30 26 29 23 20 31 22 25 28 34 34 25 22 22 18 22 22 26 29 22 28 22 25 32 34 28 20 28 32 34 18 20 24 23 30 35 24
28 18 37 30 18 23 23 23 26 25 35 25 38 19 34 30 33 26 26 29 23 23 34 35 20 18 18 29 26 22 36 35 35 25 18 21 35 18 23 23 27 31 37 31 20 36 28 24 31 25 34 23 33 34 38 31 33 31 34 25 25 22 28 21
30 33 18 32 36 30 22 29 27 26 36 37 24 22 27 21 34 36 24 29 34 21 35 25 32 32 38 37 33 27 30 27 33 20 23 24 34 21 30 37 24 34 24 18 38 25 37 36 27 29 38 33 22 32 28 25 35 26 27 18 22 27 22 37
26 23 26 21 24 34 25 25 21 30 18 30 37 30 28 26 34 38 37 25 24 20 37 19 25 32 30 25 31 34 30 25 21 24 31 23 33 24 29 35 34 27 35 31 19 35 27 25 25 26 20 24 37 26 35 19 21 29 20 18 33 23 35 31
33 36 32 19 30 31 25 29 36 19 31 18 38 33 34 23 26 27 22 38 29 23 36 22 20 34 31 32 19 32 28 29 23 25 37 35 27 34 35 34 28 20 36 18 19 19 36 32 38 32 36 20 20 31 20 31 30 19 18 37 32 34 25 25
20 19 23 29 33 37 38 22 30 32 28 31 38 23 36 38 20 27 22 21 36 26 27 21 38 25 37 30 31 24 26 28 36 25 26 36 24 32 19 26 18 27 29 27 28 31 28 38 19 24 21 36 34 34 20 19 35 37 31 27 34 37 28 27
33 28 36 22 21 28 27 30 21 18 38 20 32 35 20 38 21 36 38 24 28 31 18 28 18 26 22 34 20 24 34 18 32 18 28 22 23 35 23 18 25 38 38 29 21 36 33 31 19 23 24 18 34 19 27 33 35 19 18 29 23 25 24 32
24 29 38 31 27 36 34 24 34 18 21 28 23 22 31 33 36 22 30 18 23 29 21 31 35 36 25 21 37 32 30 29 21 33 38 34 25 23 25 37 27 38 28 25 37 18 35 37 36 38 32 32 38 20 26 33 33 28 27 28 34 24 22 26
38 32 29 36 34 30 27 28 23 36 38 27 32 31 32 27 24 26 31 31 32 27 20 33 19 21 19 32 37 22 31 26 19 33 36 30 20 36 33 19 37 30 36 26 24 30 32 23 31 26 20 32 26 20 31 19 23 20 32 31 22 22 28 33
19 19 28 38 29 19 30 27 38 29 36 34 24 31 18 27 37 28 32 28 28 20 18 29 37 22 31 28 35 21 38 27 37 21 34 28 28 32 36 28 18 26 34 33 33 35 32 32 20 18 36 20 32 27 32 30 33 34 33 26 20 31 29 22
19 24 35 32 36 37 34 21 23 25 32 18 19 26 21 34 25 25 37 27 31 38 20 22 29 37 30 18 36 28 19 24 27 18 24 29 38 21 29 27 22 28 23 23 35 23 19 37 33 30 25 36 36 37 34 18 37 21 38 20 38 33 34 37
34 35 24 28 22 34 25 31 22 24 32 31 21 33 30 35 19 18 26 21 29 30 36 25 23 22 29 23 24 36 29 38 34 36 24 28 21 21 24 33 37 18 37 37 37 34 36 33 21 32 21 34 23 33 29 26 21 28 20 31 18 20 32 38
37 18 38 24 23 27 22 33 31 25 30 24 27 35 22 28 20 32 33 36 31 36 20 27 34 29 37 19 27 26 38 28 25 27 27 32 23 22 19 37 36 24 23 38 25 33 29 30 23 19 35 23 24 21 18 18 33 32 23 21 37 33 33 18
