P2
64 64
255
27 33 38 20 20 33 22 33 28 21 27 33 18 24 20 38 33 23 33 25 20 21 18 33 30 20 22 38 22 27 30 25 24 33 24 36 26 38 23 37 24 26 37 22 32 37 29 33 38 32 27 22 25 36 22 34 19 22 26 20 32 32 33 32
23 29 26 26 27 23 27 25 38 35 21 21 26 22 35 29 28 34 36 33 19 36 34 23 27 19 29 26 22 24 37 19 19 21 20 31 33 22 36 35 33 37 19 22 30 25 38 30 37 32 20 37 19 29 24 18 29 31 29 19 29 37 37 29
30 24 20 28 29 35 20 28 34 37 28 35 23 34 36 21 19 24 34 23 38 30 29 30 35 26 29 38 19 21 21 37 18 20 33 29 32 26 28 33 22 34 19 37 28 35 27 28 26 32 25 35 25 29 35 21 29 23 23 19 33 30 24 22
37 26 27 31 28 26 31 22 18 27 34 33 24 33 23 19 23 26 19 27 24 38 32 23 21 37 35 21 27 21 25 32 30 37 21 30 33 36 19 28 25 27 36 37 27 19 27 19 30 24 28 23 35 29 19 29 37 22 24 18 18 36 37 34
38 26 32 31 25 34 38 20 31 29 29 34 34 27 32 21 30 19 23 22 26 27 35 30 33 33 30 37 38 28 20 25 19 24 23 32 28 29 33 29 34 31 37 25 30 37 30 27 29 36 34 22 31 33 19 32 34 25 22 31 29 34 35 32
30 31 32 28 34 33 29 38 37 26 35 36 19 26 22 30 32 33 26 27 20 31 31 26 36 28 22 27 38 25 28 19 21 19 22 30 24 23 27 23 37 19 34 19 35 27 29 30 23 27 19 18 28 24 38 38 29 38 38 21 33 19 29 21
20 26 23 21 33 19 23 35 31 36 25 30 23 38 31 24 22 24 29 21 31 20 30 21 27 29 35 31 37 37 19 22 20 25 35 33 29 34 29 35 35 32 26 32 28 27 32 33 32 28 29 37 31 33 29 27 24 18 36 29 18 25 26 33
28 38 38 20 26 26 18 23 21 22 32 36 38 22 29 35 32 33 38 20 31 31 34 23 36 23 38 32 33 19 38 21 19 21 24 33 29 27 25 35 27 18 18 21 32 35 36 36 28 30 18 20 33 22 23 32 38 18 34 19 28 36 35 24
36 30 38 37 34 32 19 32 23 23 22 32 30 19 20 29 30 32 27 37 36 36 28 32 32 32 25 28 21 35 26 34 34 27 26 21 20 30 26 24 30 20 37 37 29 35 20 23 18 26 36 32 33 22 37 24 36 30 34 37 30 33 19 24
25 36 24 27 25 37 35 18 23 32 20 23 35 37 32 31 24 38 32 25 38 24 33 31 30 38 30 20 23 22 19 35 28 18 18 37 24 34 21 26 33 28 31 25 26 25 37 26 30 32 35 37 24 24 37 37 38 19 18 37 33 19 38 31
36 21 28 18 26 23 18 21 26 38 34 29 35 38 26 26 19 22 29 30 27 29 27 26 19 35 35 35 19 37 25 28 19 35 24 35 36 37 25 18 25 31 22 30 24 21 22 23 22 23 20 32 34 33 26 28 35 29 37 31 25 33 36 27
38 29 18 28 30 30 29 23 19 18 22 36 38 34 22 37 19 24 25 22 25 20 29 19 23 25 22 36 33 20 30 29 21 21 35 29 20 33 31 35 19 37 20 28 19 29 30 31 20 33 36 28 21 22 33 21 22 31 32 18 37 38 23 28
24 25 25 26 38 34 19 26 22 35 23 24 20 35 31 35 37 22 19 35 33 19 38 20 21 20 26 22 32 38 21 32 37 19 33 23 21 24 18 28 36 21 22 27 24 20 38 24 33 38 27 19 26 18 37 34 23 38 31 29 30 26 32 38
33 37 27 21 37 36 26 23 25 26 33 38 32 21 29 25 21 22 30 27 21 23 38 23 20 34 29 35 26 28 23 19 22 23 28 24 37 29 19 37 28 30 34 18 33 35 26 25 21 19 19 18 28 38 24 25 35 38 37 21 21 32 37 33
27 21 33 34 31 18 37 24 26 28 21 35 38 31 38 20 33 25 19 33 27 27 21 22 38 26 20 26 30 26 28 22 32 34 30 30 34 29 37 33 38 35 34 29 38 34 35 21 23 33 33 26 26 21 29 29 22 31 21 25 20 19 38 37
24 36 32 28 18 21 33 22 20 35 19 26 25 34 32 25 36 23 20 24 21 35 36 24 32 25 34 25 20 27 34 23 32 37 31 18 22 35 24 21 38 18 20 20 32 20 31 31 37 27 21 38 38 18 38 33 38 22 27 24 29 28 20 25
25 33 20 21 27 25 19 25 33 27 19 31 20 29 20 38 18 29 26 27 18 25 25 18 38 19 34 35 22 20 26 30 30 29 18 30 23 28 26 22 21 37 37 35 29 25 31 37 23 30 31 29 21 25 28 38 34 34 24 28 31 25 36 32
29 30 24 33 19 26 35 36 36 31 24 19 32 20 20 37 27 19 33 37 25 29 18 19 22 30 27 30 36 31 32 37 38 27 31 37 38 24 34 26 32 24 23 21 27 22 27 21 36 32 30 38 20 22 38 22 24 26 24 25 34 32 23 22
22 28 30 30 29 18 19 27 31 29 22 26 33 27 35 30 18 30 36 38 24 19 35 23 34 24 32 38 33 30 21 37 25 22 31 27 22 35 22 33 36 23 38 31 33 25 29 32 31 29 34 22 19 24 31 25 30 36 21 25 29 24 27 19
38 29 38 28 37 21 36 27 18 20 33 20 30 31 30 28 39 32 41 26 38 32 22 24 32 22 29 29 32 38 31 38 33 21 21 30 32 28 24 30 32 32 41 41 34 22 35 22 21 30 24 37 21 37 20 24 38 28 34 30 32 29 23 24
36 20 27 36 26 31 33 33 19 27 30 28 24 20 28 25 36 35 25 41 44 46 39 43 30 27 33 29 21 31 27 27 29 35 32 19 20 39 39 28 27 36 30 38 39 45 44 24 22 29 39 18 34 22 34 22 26 36 21 28 34 21 25 28
20 34 18 35 28 31 38 21 33 20 37 35 30 36 43 38 31 28 37 37 35 40 34 31 32 30 27 25 23 36 28 32 38 28 31 19 29 39 31 43 35 42 37 37 36 42 38 29 42 41 31 35 29 21 35 28 27 31 32 28 28 31 23 31
35 28 36 23 24 22 27 34 30 22 26 23 32 38 36 31 46 39 44 36 41 47 47 38 46 37 31 45 29 34 24 23 24 36 21 35 36 26 32 32 51 48 37 48 43 48 35 34 41 46 33 32 33 28 32 37 21 24 34 38 20 32 22 37
29 32 19 19 26 22 32 35 23 30 22 26 37 28 29 34 42 41 43 57 57 57 45 52 45 38 49 49 33 26 33 29 23 25 29 43 47 44 42 35 45 37 56 38 40 51 39 41 39 42 37 33 25 41 29 18 28 23 22 26 34 24 33 23
25 37 36 26 22 34 21 37 18 21 40 31 44 36 37 42 38 58 42 42 50 49 58 47 46 50 53 37 36 28 35 31 25 36 39 31 45 50 38 38 52 44 41 54 55 43 51 49 40 52 45 44 42 40 38 24 36 29 24 37 19 38 21 26
31 34 36 32 24 22 29 32 23 36 30 45 48 42 51 46 45 62 48 51 50 63 54 50 47 54 44 53 46 33 43 43 28 42 41 39 38 39 52 56 57 61 62 55 52 48 62 55 40 57 37 37 44 43 38 22 31 33 30 21 31 31 20 38
34 33 29 21 36 20 24 25 21 37 34 30 51 40 58 51 62 54 54 58 52 61 58 51 50 62 51 55 39 46 44 36 36 28 44 52 45 43 43 47 59 51 61 68 60 67 65 47 43 53 52 40 36 47 39 22 23 19 38 18 21 22 26 28
21 33 18 29 36 29 27 19 33 28 47 49 53 54 59 46 64 69 64 60 69 60 62 66 66 54 53 51 38 34 45 29 37 38 36 37 54 57 60 52 65 53 57 67 65 61 70 67 56 51 44 56 53 32 42 39 35 25 33 34 33 18 24 18
19 36 26 33 36 34 24 26 27 37 47 51 37 52 52 57 64 67 66 70 61 60 63 60 63 60 66 60 39 44 50 44 39 47 46 50 40 61 59 60 72 61 70 58 58 66 70 70 54 65 53 59 52 37 44 44 37 36 26 22 18 36 19 19
36 20 32 20 37 18 25 28 23 31 33 45 45 41 49 67 57 72 75 62 70 79 62 68 72 61 63 49 52 41 45 36 54 36 41 52 50 51 68 56 54 75 79 75 75 69 76 70 55 49 63 51 55 36 50 43 39 22 19 28 31 35 18 29
25 19 37 29 28 23 37 39 42 33 47 39 50 53 47 60 57 57 62 78 69 79 65 61 77 58 55 53 56 57 38 52 46 41 51 45 58 49 53 54 68 61 73 70 76 64 77 76 61 63 55 60 50 53 46 29 26 20 37 21 22 25 19 27
29 24 27 36 37 31 26 38 25 36 33 35 54 44 59 53 61 67 76 84 72 75 77 79 65 68 69 55 60 55 47 44 55 50 47 42 52 66 56 57 76 75 67 77 71 76 65 67 67 66 57 51 46 52 50 30 26 29 25 36 24 38 23 24
31 30 27 36 31 29 32 30 26 35 50 38 55 58 67 67 64 78 63 86 83 72 82 78 79 67 51 63 43 55 57 49 48 38 38 53 58 47 62 69 62 81 74 89 82 82 68 77 59 63 64 63 44 46 47 30 31 25 19 31 22 31 19 23
32 20 19 18 30 22 37 24 31 28 32 54 41 61 61 55 66 73 79 80 69 85 82 73 70 60 62 50 57 44 39 50 36 38 57 42 49 54 57 70 67 71 68 79 77 70 78 58 67 51 48 45 42 48 47 41 41 31 25 22 26 29 28 37
22 31 31 32 25 33 35 29 43 35 42 37 51 42 66 67 67 61 77 64 69 64 76 66 74 56 67 65 58 42 46 55 39 55 44 44 46 48 59 61 73 65 68 82 66 69 64 77 56 68 65 61 40 53 34 37 38 25 36 19 20 19 25 33
36 33 24 18 38 20 27 26 39 36 49 49 39 41 56 56 58 59 68 60 66 65 63 57 61 71 62 44 50 52 49 40 51 36 54 37 49 64 68 61 72 59 73 80 73 65 64 69 53 62 45 55 45 39 38 31 35 23 19 26 28 19 35 27
31 31 24 34 34 27 20 25 39 43 38 40 39 41 63 58 54 70 62 75 67 61 67 54 59 58 48 59 42 56 37 34 34 51 52 51 42 51 59 52 71 64 61 75 64 72 58 55 62 63 43 59 43 45 29 32 29 19 36 26 24 38 32 18
36 31 27 25 29 24 19 23 20 38 47 41 35 56 49 52 64 54 68 58 61 61 68 67 51 47 43 47 45 36 45 38 38 30 48 39 57 52 56 52 49 54 52 57 62 60 57 62 53 46 59 57 45 35 33 32 23 32 26 27 21 21 36 19
30 22 38 23 26 25 33 23 28 24 44 29 44 48 43 49 60 48 61 67 61 62 59 67 60 58 60 47 54 47 41 33 42 40 29 33 43 39 57 63 64 66 50 63 66 53 67 46 45 48 49 43 36 36 25 41 29 33 27 36 24 20 38 29
35 29 29 21 26 40 27 39 24 41 39 40 52 49 47 46 50 55 62 52 50 69 56 54 53 56 51 44 53 41 34 33 33 31 46 51 49 44 58 59 53 60 54 52 62 58 66 53 58 48 52 57 50 35 38 42 32 25 42 27 41 25 41 31
29 24 32 38 26 36 36 28 45 37 40 44 35 50 53 45 52 50 66 53 50 62 64 61 47 47 55 57 42 48 52 32 28 49 46 54 44 49 49 52 51 62 53 59 60 71 68 50 61 52 56 52 43 47 47 45 46 48 35 44 49 32 36 39
30 39 35 42 29 35 29 33 46 36 44 45 52 42 51 49 54 55 68 65 56 67 57 55 66 61 51 57 52 45 36 37 41 33 53 49 43 62 49 68 65 64 64 63 60 63 59 72 66 63 64 63 47 59 50 49 40 47 54 45 47 44 40 43
29 42 31 27 28 31 30 35 35 25 28 35 44 36 45 42 40 56 50 59 45 44 46 43 52 45 48 37 43 46 34 35 37 39 31 34 34 41 38 56 59 47 49 50 64 52 53 42 41 47 40 43 47 33 47 43 49 47 34 36 44 46 32 46
36 21 23 22 32 38 41 36 41 29 38 30 27 38 44 27 47 38 47 35 50 36 33 32 44 34 29 36 32 38 25 26 24 28 39 32 28 35 31 44 52 42 43 42 43 42 45 46 33 42 29 33 41 27 27 31 41 28 29 39 35 26 27 35
32 27 21 31 30 38 33 26 25 30 30 24 35 37 21 34 31 35 39 33 34 26 36 29 41 27 34 32 28 22 25 19 21 25 27 25 19 19 40 37 28 34 34 46 29 35 29 29 29 33 37 30 25 37 24 27 33 27 37 20 36 20 21 31
25 20 23 18 34 28 37 38 26 29 28 27 37 20 22 36 31 31 21 41 30 31 31 35 21 36 18 31 34 23 23 38 35 28 30 37 31 29 30 19 35 33 30 41 30 35 40 29 34 20 33 27 33 36 35 35 23 37 18 34 21 27 37 18
22 27 21 30 36 32 38 19 29 30 20 24 32 22 19 19 33 35 26 34 31 24 29 33 21 38 30 26 29 22 32 20 22 30 20 23 20 30 18 29 37 30 33 22 28 38 23 36 21 32 31 22 22 29 36 38 24 20 32 30 27 24 26 26
21 36 25 26 31 37 32 25 30 26 19 25 30 32 32 26 29 34 31 36 33 18 34 26 35 35 36 20 24 23 33 30 33 22 28 33 34 29 25 36 28 33 23 23 24 21 18 35 31 38 37 38 18 33 24 32 31 18 33 28 26 37 36 31
23 27 37 38 24 31 18 22 22 26 36 27 32 36 30 21 32 32 21 28 37 23 35 38 24 34 18 27 18 35 18 28 33 34 30 20 21 38 33 38 38 18 38 31 32 18 22 23 26 29 30 32 19 22 33 26 35 25 22 21 29 31 25 21
18 21 36 21 26 33 20 31 30 22 29 23 22 22 37 21 19 37 32 23 23 21 37 18 24 32 20 18 34 27 34 24 29 33 22 31 22 26 35 32 18 25 18 31 24 36 20 28 24 21 19 36 23 27 32 37 25 19 26 26 23 36 32 29
36 22 34 33 30 19 31 18 29 19 18 34 37 23 28 28 21 32 18 29 36 23 32 24 30 23 32 19 19 28 36 35 31 38 25 28 37 37 20 24 33 32 24 26 19 28 30 28 30 24 31 28 38 32 28 35 28 37 27 30 27 24 31 18
28 38 20 25 18 23 27 21 20 18 31 27 30 27 26 24 31 24 26 20 19 33 18 18 38 36 33 28 36 18 31 21 19 38 25 38 19 36 37 20 36 24 27 23 29 28 20 38 28 31 30 38 28 24 20 33 28 21 34 25 37 33 32 21
20 38 36 37 36 36 28 18 35 18 34 18 32 27 23 31 33 20 22 28 28 26 18 24 26 21 31 31 38 38 19 18 19 37 28 25 27 18 34 31 25 22 38 29 25 28 22 34 27 36 32 30 24 36 37 37 25 26 18 24 25 23 32 32
32 29 30 19 28 24 22 33 28 19 21 28 33 37 28 22 35 32 36 21 32 28 33 27 21 23 25 23 30 31 29 34 31 32 34 24 36 31 35 21 23 27 33 24 34 32 30 30 35 19 20 37 26 19 20 36 30 34 35 27 37 36 28 19
38 24 29 28 28 23 23 19 26 26 28 24 22 36 27 28 36 23 25 27 28 24 30 25 34 28 35 18 27 37 28 19 37 20 32 30 37 25 26 20 27 25 34 19 31 32 27 32 27 25 38 34 28 31 35 35 20 32 33 21 35 21 30 37
37 20 29 22 30 37 38 37 23 31 18 33 18 20 23 20 28 34 30 38 28 24 22 34 33 24 28 22 19 38 37 38 37 23 34 38 22 38 28 33 35 32 25 32 34 22 33 30 35 28 21 24 19 36 22 38 24 37 22 21 23 20 18 19
18 29 28 18 26 35 26 24 18 34 23 23 27 21 18 23 31 18 29 31 19 23 25 33 37 30 32 26 22 23 25 34 23 28 33 30 27 25 23 38 38 37 24 36 18 38 27 20 29 36 33 28 29 37 29 34 38 38 35 32 35 33 35 27
20 25 20 19 31 23 19 36 38 36 29 33 25 36 27 38 25 35 38 24 29 26 31 26 19 19 27 27 20 34 19 34 26 20 18 21 28 38 19 30 27 29 34 27 31 30 34 25 32 19 29 36 28 32 25 38 19 21 23 35 18 20 24 27
37 32 29 26 24 32 36 32 22 19 20 27 31 25 27 30 36 24 33 37 28 34 21 35 18 34 20 35 29 19 26 22 18 23 26 22 34 37 28 34 23 28 31 27 28 30 21 27 20 23 25 32 31 18 19 33 36 20 25 26 25 27 37 37
37 28 24 20 32 30 26 38 36 30 34 38 38 35 37 24 34 24 31 31 22 24 37 27 24 32 21 25 23 34 18 23 32 35 34 33 24 19 23 31 31 35 27 18 24 24 19 37 35 30 25 29 36 32 27 19 21 32 24 22 31 37 25 25
29 29 37 29 19 37 35 26 37 38 18 37 23 29 28 30 28 27 28 26 37 29 24 22 24 19 35 38 23 26 21 22 36 32 29 31 21 27 27 21 36 18 31 18 30 33 19 26 31 21 20 27 31 19 21 32 28 26 19 23 29 29 24 26
19 23 27 30 32 19 30 32 26 25 31 35 37 35 27 36 20 31 28 32 27 23 37 37 22 25 20 21 25 23 23 18 27 35 38 26 26 38 19 27 34 34 18 23 23 36 25 36 25 26 32 37 22 27 22 32 37 20 22 30 37 32 29 38
26 23 38 31 37 38 29 28 21 32 21 38 25 31 34 35 31 33 33 27 35 21 32 35 37 21 37 38 29 38 28 28 37 32 21 33 18 33 33 36 29 27 24 32 34 24 27 18 24 19 35 28 32 29 36 19 26 34 36 30 19 26 28 21
32 31 20 25 18 20 29 33 19 29 22 36 29 27 38 21 34 20 28 29 23 27 24 23 26 27 38 34 18 21 24 19 26 28 36 24 23 38 22 21 28 24 18 37 21 37 29 33 32 31 22 21 32 24 38 33 18 27 29 36 29 24 18 23
