P2
64 64
255
19 16 18 26 21 24 20 24 26 16 25 17 19 26 15 17 26 19 26 16 21 23 17 21 25 20 14 18 26 17 22 15 14 22 24 24 25 24 21 14 14 19 17 26 19 17 16 25 19 22 15 21 18 23 24 26 22 23 21 16 19 19 14 19
16 23 18 24 26 24 23 17 15 19 22 23 22 25 25 26 14 20 17 17 19 19 17 19 18 23 22 20 21 18 25 16 15 17 21 21 18 16 16 17 22 19 15 22 19 22 25 15 23 23 25 24 22 18 23 14 19 20 18 16 20 20 23 15
15 15 23 24 19 20 17 24 21 19 26 17 21 23 22 25 16 23 17 15 21 20 26 19 19 22 16 21 16 16 16 15 17 22 20 23 18 22 17 25 18 20 20 20 14 24 21 25 26 24 14 19 17 15 25 23 19 14 22 23 17 25 22 19
26 15 21 21 24 20 20 15 20 16 21 21 15 14 25 22 17 26 17 18 22 22 20 18 25 19 26 21 23 20 16 23 19 22 17 20 16 20 25 18 21 25 26 23 17 18 23 15 23 26 22 24 15 24 16 20 20 17 26 17 23 21 22 19
14 23 18 18 19 26 20 23 23 19 24 24 18 22 18 25 19 22 23 23 17 19 14 25 26 21 16 19 23 15 17 20 14 18 24 17 20 15 26 16 14 23 24 17 14 23 26 19 20 18 23 21 23 18 22 16 18 14 20 23 18 14 15 23
14 16 15 23 20 16 24 26 17 20 24 20 25 14 25 16 19 19 14 14 24 21 17 18 17 26 26 23 19 16 21 17 25 26 22 16 25 26 14 21 14 19 15 23 19 21 26 16 22 20 18 25 26 16 18 23 25 14 18 19 24 22 23 20
17 15 19 15 16 18 17 18 24 20 24 15 21 18 21 21 21 15 17 15 19 19 17 18 21 19 20 17 15 22 16 14 23 23 14 15 17 20 25 20 16 24 17 23 24 20 16 20 17 25 21 20 23 16 18 16 17 14 17 14 24 25 26 22
18 25 21 24 17 16 21 18 18 17 22 16 18 20 21 18 14 25 15 22 16 21 15 14 20 16 19 14 18 26 19 16 15 24 17 14 15 22 16 22 19 21 14 14 14 15 24 16 20 22 15 24 23 21 17 18 25 26 24 14 20 18 23 19
20 14 20 16 19 15 23 19 15 18 26 19 24 18 14 26 16 21 24 14 14 19 20 14 20 21 15 15 19 14 24 19 25 15 21 21 24 25 18 25 14 19 18 17 21 23 21 23 19 24 14 21 14 15 16 19 23 15 14 23 25 26 19 16
21 19 21 24 20 21 15 14 20 25 22 26 20 16 21 23 20 18 22 19 15 21 26 18 26 24 15 16 17 19 20 21 25 24 24 18 23 21 23 20 17 26 19 20 26 26 24 15 22 21 25 19 15 21 26 22 16 22 18 22 23 18 15 25
25 25 23 22 24 18 16 16 22 19 25 17 16 20 16 14 25 25 14 22 16 23 19 24 24 16 15 20 15 19 23 20 21 20 20 15 22 22 21 19 20 14 17 20 20 23 14 24 21 14 19 21 26 25 25 25 24 17 17 19 23 16 15 20
17 26 22 18 23 16 24 14 23 14 23 26 26 19 18 23 20 15 25 21 22 15 22 15 20 26 19 23 20 20 18 26 22 17 20 19 16 14 18 18 25 18 18 26 17 26 20 20 19 18 23 17 19 24 22 21 17 19 26 20 14 15 23 15
24 17 14 25 26 24 18 17 16 26 23 22 23 20 15 26 19 16 19 22 20 26 24 17 25 17 25 14 18 23 25 16 22 20 17 21 21 18 17 22 24 17 21 20 23 18 16 20 25 25 14 23 22 25 25 24 18 17 14 16 19 26 18 25
17 25 22 23 25 21 18 15 25 14 17 14 15 23 26 20 26 25 23 25 14 18 21 19 14 19 24 18 21 16 26 20 17 15 16 26 19 16 20 15 16 15 26 24 21 24 15 21 20 23 23 24 14 18 16 14 16 23 19 15 17 22 23 14
22 22 15 17 16 21 17 17 15 19 16 19 24 18 24 20 20 16 19 26 21 24 23 21 25 20 23 17 21 14 16 23 21 24 24 24 24 21 20 20 21 24 24 18 25 15 21 14 25 21 25 16 19 15 24 21 17 18 16 25 24 26 17 21
23 21 20 21 17 26 16 24 23 14 23 16 19 18 19 19 19 16 15 26 21 20 21 24 19 26 23 15 22 17 14 24 25 26 22 15 23 25 16 21 19 25 16 16 15 19 19 21 15 24 25 16 24 20 14 16 26 19 23 26 25 20 15 22
18 17 21 20 25 20 17 21 17 19 18 15 14 21 19 25 15 19 20 21 19 19 15 17 22 21 14 26 18 18 24 15 16 26 17 25 20 23 17 24 15 19 21 26 26 17 17 15 14 21 23 19 20 24 23 23 16 23 18 18 15 19 17 16
16 16 14 18 18 26 18 26 18 18 18 15 25 24 19 19 17 14 21 15 16 16 18 15 20 21 25 19 20 20 19 21 22 18 25 24 24 24 15 19 17 19 19 17 16 20 26 25 18 23 21 17 25 24 19 18 17 22 20 19 20 20 20 15
24 23 19 26 19 24 17 24 14 15 16 21 22 25 19 23 14 20 16 16 15 18 14 25 21 18 17 23 26 24 14 18 15 26 19 22 19 21 17 15 20 22 24 17 14 25 25 26 24 25 17 22 18 21 26 25 20 20 14 23 22 15 24 16
15 17 16 17 16 17 14 23 15 14 15 18 16 21 23 17 26 16 26 20 28 26 26 18 27 25 15 25 26 19 16 24 20 22 21 21 21 14 18 26 26 19 22 27 28 19 28 27 23 15 20 24 14 21 20 15 21 17 16 20 24 19 26 14
21 25 20 20 18 21 23 20 20 25 23 22 24 22 23 24 30 28 25 28 34 34 21 26 30 24 23 26 21 14 25 24 15 16 16 19 22 20 21 28 23 24 24 29 30 30 26 32 30 18 19 17 15 24 21 23 21 23 20 20 20 14 24 25
15 19 16 17 18 18 14 22 20 21 22 17 17 27 23 28 23 32 29 35 34 37 36 34 26 31 26 26 18 15 21 16 19 19 26 16 20 26 29 26 33 31 33 32 31 36 25 24 22 28 31 29 14 15 26 24 14 15 18 21 19 19 17 19
21 22 26 16 14 25 19 14 14 14 20 17 23 30 32 34 26 29 31 41 40 33 35 32 29 36 34 24 32 22 16 19 17 20 26 25 31 26 31 37 34 39 35 38 29 34 39 32 31 32 28 31 29 23 26 24 23 19 19 18 24 17 14 20
21 18 23 25 17 16 15 23 15 25 25 29 30 35 25 28 36 42 41 43 37 41 43 32 40 38 28 30 34 25 17 14 16 15 20 23 23 29 37 40 39 38 41 37 45 33 34 32 35 37 26 33 22 22 15 26 16 17 18 18 17 20 20 22
20 16 23 15 23 17 14 21 16 26 20 30 33 30 35 38 39 43 39 43 47 40 48 44 40 45 31 33 36 23 22 21 20 24 24 23 27 34 39 43 41 48 41 40 43 42 41 46 45 41 35 28 33 21 21 14 25 15 16 15 25 20 21 15
20 22 14 19 19 24 18 26 17 27 30 32 26 40 37 35 39 40 40 43 49 47 43 45 50 42 45 32 32 35 30 23 19 30 25 31 32 39 39 42 49 41 51 51 45 47 49 43 36 38 38 31 30 32 24 16 23 14 26 21 23 18 18 15
24 17 23 17 14 23 18 21 19 20 24 33 34 35 44 41 49 50 51 55 56 45 45 55 44 44 47 43 33 35 27 33 30 21 32 34 41 34 49 45 45 47 46 49 46 53 55 53 39 48 40 39 37 30 22 25 15 15 19 20 14 15 19 15
25 16 15 23 19 19 21 19 16 23 27 29 32 41 43 42 44 55 51 58 53 58 49 56 52 43 42 40 38 42 27 29 25 32 35 39 39 45 40 45 48 47 57 49 55 52 47 56 47 47 46 37 36 39 24 30 18 21 20 21 18 16 24 16
16 16 21 15 26 23 14 20 24 22 36 30 35 38 41 47 47 58 50 54 56 59 55 62 57 53 45 44 36 33 34 38 38 31 28 33 46 44 47 53 56 52 63 62 63 56 53 50 56 44 49 41 33 37 26 25 17 24 26 16 20 18 20 24
15 18 18 17 23 15 24 27 19 22 36 35 34 39 45 47 58 53 56 58 65 67 55 63 60 57 54 41 39 38 40 42 36 41 36 39 39 43 54 57 56 63 61 60 68 55 55 57 58 56 48 45 38 39 26 27 19 22 25 21 17 14 24 24
14 14 25 17 21 16 24 24 23 26 35 42 44 46 44 58 56 53 67 67 63 68 61 60 59 58 53 54 47 35 38 42 32 33 35 36 48 54 47 56 55 61 64 69 69 69 67 53 49 58 53 39 45 36 39 34 23 26 25 21 23 23 26 20
19 19 15 16 22 16 16 25 20 25 31 39 42 46 44 51 63 64 65 73 73 72 69 60 64 51 50 50 45 38 39 44 40 33 39 42 44 53 57 61 54 65 62 75 71 72 70 63 56 52 43 41 47 42 29 25 22 28 24 25 22 21 25 23
19 19 20 14 15 18 16 24 26 26 31 43 40 47 46 47 51 55 59 73 76 69 68 63 55 54 54 51 50 38 44 38 41 43 37 47 49 52 51 52 63 59 70 78 70 75 60 59 57 48 55 43 46 41 35 33 23 19 22 24 20 17 20 14
14 26 15 25 24 15 15 27 27 29 37 39 41 48 54 50 55 61 66 64 67 65 65 67 62 50 56 47 39 38 35 35 34 42 37 38 49 51 51 60 56 63 66 68 72 64 66 66 61 50 44 39 45 40 39 26 27 22 18 24 20 20 19 23
25 25 20 20 15 16 19 26 24 33 28 43 34 47 44 49 61 58 64 71 69 61 59 58 59 52 48 43 44 37 36 37 34 41 44 43 41 53 47 49 59 59 65 67 64 67 63 56 54 47 48 50 42 31 33 27 27 17 19 15 24 19 16 23
24 26 17 26 22 15 23 22 20 32 35 35 33 46 48 54 48 54 58 58 57 59 55 58 62 56 44 44 42 41 42 42 32 33 33 43 37 43 44 52 53 63 59 61 59 57 62 57 50 47 41 39 33 36 31 24 30 21 23 21 21 14 25 26
24 20 25 16 20 17 14 15 25 29 26 33 44 42 42 47 55 48 59 60 61 63 63 56 59 49 42 44 46 34 30 33 34 39 32 32 45 49 48 52 48 61 57 65 57 59 50 56 45 48 51 38 42 38 34 30 26 26 18 19 25 18 26 26
18 15 16 21 26 26 17 21 22 24 27 28 38 42 48 47 45 51 59 55 51 56 58 57 47 49 51 44 37 38 29 25 25 35 38 30 39 38 51 47 55 51 53 53 60 50 48 51 52 45 46 38 32 34 28 31 20 25 23 16 14 18 14 18
17 17 17 23 18 24 20 20 24 18 29 34 40 31 35 44 47 42 50 53 54 55 44 51 52 51 48 45 32 33 25 29 32 23 31 32 31 39 37 47 51 55 50 48 54 52 47 49 45 41 35 40 35 29 21 19 25 25 21 14 15 14 26 25
29 22 23 19 25 20 28 17 18 28 31 32 38 37 43 40 47 46 53 57 53 50 57 55 48 48 47 36 33 42 38 30 24 31 32 33 39 48 47 47 45 44 50 51 54 48 48 51 45 42 49 44 38 29 31 33 27 24 21 32 26 21 28 23
27 25 25 32 28 26 26 30 21 21 33 36 39 46 42 51 44 43 44 56 54 49 51 57 55 42 46 40 43 39 38 29 36 30 33 33 43 48 43 51 52 47 59 51 54 57 54 47 47 44 49 48 46 39 31 38 32 29 28 39 35 36 34 31
29 24 31 24 34 32 30 24 27 37 37 39 34 43 45 39 50 44 56 48 48 47 56 47 47 53 47 50 48 44 37 29 36 35 35 37 38 40 45 47 58 48 49 52 56 59 54 49 55 47 54 50 44 43 41 38 40 40 33 33 43 36 43 41
31 22 20 22 21 32 29 28 31 23 23 22 27 33 34 41 41 36 41 44 37 41 40 37 35 46 37 31 36 35 27 26 33 25 31 30 35 39 39 47 39 47 46 40 40 48 41 48 38 41 42 40 31 29 38 34 28 33 36 26 31 31 31 26
17 23 27 26 20 19 22 28 19 24 22 22 23 28 27 24 33 35 29 35 29 32 38 39 32 26 25 30 29 22 21 20 29 20 27 27 24 30 34 33 34 31 42 40 33 35 37 28 34 25 33 22 27 21 21 31 25 27 26 28 28 26 28 22
19 25 19 23 24 18 22 17 23 14 22 14 22 23 17 22 24 23 33 25 31 24 31 26 31 26 29 22 25 15 22 16 22 14 22 25 23 26 21 27 24 27 25 22 30 22 32 21 24 27 23 23 25 16 14 20 15 20 24 19 21 25 20 18
22 16 15 23 23 20 20 20 21 25 19 14 21 21 18 21 26 16 20 19 23 26 19 21 22 26 20 23 23 18 22 17 26 23 15 15 26 18 23 16 17 25 28 28 26 28 17 27 19 20 14 24 14 16 25 18 26 26 15 26 16 23 23 26
16 17 21 26 18 15 15 18 20 20 15 25 14 22 24 21 26 21 21 22 15 17 17 25 24 15 21 20 16 24 19 24 16 19 23 26 23 17 16 16 23 17 20 18 26 16 19 25 17 16 19 23 16 17 22 22 24 15 22 19 19 23 23 14
18 24 21 21 22 25 24 25 21 23 23 17 16 26 17 23 17 25 22 20 15 26 21 23 21 16 19 14 23 25 17 20 16 20 15 15 23 16 22 20 23 22 17 24 22 22 23 21 17 17 17 19 19 15 14 18 26 15 24 19 18 20 21 15
16 16 19 22 17 17 20 25 16 14 25 22 21 14 23 14 19 23 18 22 20 26 19 23 25 25 15 22 14 18 22 23 26 25 22 16 24 24 16 16 15 15 24 18 18 26 15 25 25 22 22 18 22 25 22 15 22 18 24 19 25 19 18 24
16 23 21 20 20 18 14 25 21 16 23 17 22 17 24 14 25 15 26 16 18 25 26 22 20 17 16 23 21 20 23 24 20 25 19 14 14 21 14 15 23 14 14 19 18 21 25 21 22 17 17 16 14 25 21 19 25 15 15 16 20 24 23 25
21 15 18 26 16 25 25 17 21 20 16 22 22 21 17 14 16 21 24 18 26 16 21 19 17 15 20 20 26 25 25 20 17 26 24 24 26 18 21 15 16 17 24 15 14 26 14 21 22 23 20 24 26 24 18 18 14 17 19 16 16 24 14 19
19 14 19 16 23 19 15 16 23 18 25 14 23 23 17 22 18 25 18 24 18 14 26 23 17 24 26 20 16 22 25 15 22 20 25 25 25 23 22 16 21 17 25 17 24 26 26 16 25 16 20 21 16 25 22 25 16 18 23 20 14 19 17 14
21 25 18 17 24 19 19 14 18 18 18 14 17 22 23 18 14 24 24 22 19 14 14 22 15 25 24 26 21 22 24 22 22 16 14 17 14 24 20 20 14 23 19 16 25 24 18 14 17 17 23 25 24 26 15 26 21 19 16 23 14 25 19 26
16 21 25 16 26 20 23 23 24 25 16 18 25 17 19 24 16 15 22 20 26 24 24 17 18 26 23 21 15 22 15 26 14 25 19 17 23 25 18 15 20 20 21 14 19 21 14 23 19 23 17 26 20 16 21 14 17 15 14 15 16 20 21 18
15 20 25 25 14 21 17 16 14 18 19 19 22 26 14 21 20 18 23 24 19 15 25 22 15 15 26 20 19 18 19 20 15 19 14 18 23 22 18 22 24 14 14 14 15 24 20 24 22 18 23 26 17 25 25 15 21 25 19 23 19 26 21 21
22 14 17 20 16 19 18 18 15 14 14 16 20 22 16 24 22 21 24 15 25 14 24 25 26 21 21 25 16 19 24 19 18 21 24 17 20 23 22 26 24 16 21 19 25 15 23 23 23 21 24 21 19 14 20 18 16 19 16 19 22 18 26 21
23 15 23 18 19 22 21 22 24 17 22 25 18 21 19 25 19 20 26 22 21 18 15 17 21 26 26 22 25 14 26 21 21 21 14 26 21 17 14 26 20 20 16 20 16 19 17 15 26 25 23 25 15 25 23 15 20 26 17 14 14 18 20 19
18 17 26 26 18 15 26 25 26 17 23 22 18 16 21 15 22 23 21 18 16 15 17 20 16 25 23 23 20 20 14 23 21 20 14 22 18 17 20 26 17 19 16 21 17 18 23 21 21 20 21 16 20 23 15 20 20 22 20 25 16 26 18 24
26 21 26 15 21 15 21 26 18 25 17 19 21 19 18 24 22 18 21 26 15 17 16 19 23 23 21 26 23 24 26 18 26 22 26 23 19 15 19 26 16 15 26 22 25 25 23 24 20 23 14 22 24 24 21 25 15 22 21 22 17 19 25 20
25 17 26 22 26 19 26 24 15 21 14 18 22 20 14 25 18 24 22 23 24 16 20 19 16 19 17 15 19 20 24 19 21 22 19 14 20 17 14 15 21 26 16 19 20 19 19 25 24 21 25 25 14 14 20 15 17 20 24 16 22 25 24 25
19 25 17 20 20 15 22 22 22 19 14 23 16 26 23 17 14 18 26 20 19 20 14 26 15 17 26 22 22 23 23 19 16 23 19 21 19 14 20 19 20 14 22 15 21 14 19 15 20 24 19 24 26 18 23 26 22 24 14 14 25 18 26 18
17 20 19 25 22 19 14 22 19 19 15 20 19 16 17 17 21 23 26 21 23 23 25 15 18 14 18 23 14 21 20 15 18 20 20 20 21 14 23 16 15 15 14 17 19 19 24 18 21 19 17 21 15 20 19 16 17 22 25 25 14 23 22 14
18 15 24 24 15 20 18 15 20 16 24 18 17 22 14 20 20 18 14 17 24 20 15 16 23 26 16 24 15 14 15 21 16 21 23 24 16 23 18 20 18 17 24 17 20 20 26 23 17 25 18 20 16 20 15 18 17 21 22 20 17 22 16 26
25 25 25 18 24 14 15 20 14 17 26 14 14 15 19 19 23 24 18 21 22 17 18 21 25 25 23 18 26 20 18 23 23 18 20 15 26 16 24 26 18 20 23 19 16 26 14 17 18 21 15 18 17 19 20 19 24 20 20 18 23 23 24 22
