P2
64 64
255
30 22 36 35 29 35 23 33 32 18 21 29 23 28 28 38 38 25 20 19 34 30 24 36 27 26 24 35 19 25 30 36 27 32 19 31 24 21 24 32 36 19 24 25 22 35 31 34 25 30 31 31 32 27 31 30 36 35 32 22 25 38 36 24
27 33 34 26 18 27 21 30 37 32 24 33 38 34 33 19 38 18 21 28 34 32 32 34 27 21 25 29 26 32 26 37 37 22 26 31 37 24 27 36 19 19 20 34 34 31 25 36 20 29 38 25 19 36 31 29 30 36 31 24 24 33 27 38
19 33 23 29 24 19 33 27 19 21 37 18 23 29 32 33 32 33 26 32 23 36 34 28 30 30 26 34 23 38 33 24 27 24 19 32 30 24 25 20 34 25 24 30 37 31 24 26 38 21 23 30 24 18 22 30 27 29 29 24 24 36 21 28
33 34 26 26 27 25 18 32 24 27 29 26 26 30 36 37 25 31 36 33 36 34 20 29 27 31 33 27 21 34 37 20 22 38 32 37 19 20 21 30 37 27 18 29 21 35 37 32 24 19 25 23 38 34 27 38 22 23 26 29 31 29 27 18
31 18 35 25 26 18 30 25 32 29 33 25 30 30 31 21 30 31 21 21 20 36 35 19 37 21 36 21 20 18 28 25 19 26 20 38 38 29 33 20 27 25 27 38 36 18 22 34 23 27 24 37 29 30 22 34 21 37 29 20 19 28 35 21
33 20 28 35 24 36 35 38 29 29 33 37 20 33 26 25 31 28 20 20 30 34 28 38 20 28 25 20 34 18 24 37 25 23 34 37 24 36 23 28 28 19 20 27 37 28 37 21 30 19 37 25 28 37 33 23 19 32 34 22 30 19 25 36
30 22 29 29 28 22 33 18 36 25 19 30 36 27 26 35 38 19 20 38 22 33 26 37 34 31 34 37 37 31 29 37 19 33 36 31 26 36 21 24 27 23 31 38 24 33 29 35 28 30 38 35 25 23 25 23 24 20 27 25 30 26 38 34
25 20 26 23 26 33 37 20 38 23 28 33 29 21 34 34 27 22 36 22 26 33 18 27 36 34 21 34 25 27 34 29 25 27 30 22 20 32 27 29 19 37 19 33 37 32 26 38 20 18 30 22 38 22 32 22 38 18 32 32 20 21 35 22
19 18 27 22 31 25 33 28 29 25 18 26 27 24 32 38 23 27 38 38 35 22 36 18 18 24 24 29 34 28 28 29 32 24 29 36 31 24 23 26 36 36 38 25 26 24 37 31 23 25 37 37 19 35 26 26 35 25 33 32 22 21 32 23
25 24 23 36 30 36 29 31 24 25 38 22 19 27 26 20 18 28 23 32 27 35 31 31 25 27 18 36 22 18 38 21 32 31 37 36 24 20 37 33 26 37 27 38 27 35 32 21 33 33 19 25 35 31 38 38 22 22 24 30 24 21 33 34
37 26 27 25 22 28 37 35 35 32 32 38 29 18 30 37 21 37 19 24 23 36 30 28 27 37 30 24 31 24 22 31 28 38 37 33 32 18 37 28 20 24 36 27 19 37 18 33 21 26 27 24 36 30 36 38 32 34 36 34 38 20 26 35
31 36 28 28 19 37 22 37 34 18 37 23 20 29 26 32 29 37 28 21 36 19 34 30 25 38 22 23 22 27 24 37 30 32 32 32 20 19 37 27 36 35 33 29 23 34 35 38 29 34 24 34 24 24 38 26 26 31 38 27 31 36 26 36
28 24 33 34 28 20 19 34 20 20 30 35 32 25 26 31 25 30 27 20 29 21 31 26 31 28 34 37 30 18 35 24 31 30 27 38 26 37 36 24 19 19 34 35 37 36 28 24 34 33 35 21 25 29 20 23 18 26 33 32 19 26 18 37
31 31 29 18 27 24 32 24 36 26 31 30 32 37 32 27 28 21 22 27 34 24 33 29 22 25 21 26 38 24 31 34 33 28 27 31 24 24 28 28 22 36 23 37 22 19 21 35 20 26 20 32 18 35 23 27 31 26 24 28 30 32 18 31
29 18 20 22 18 21 33 29 27 34 33 32 23 30 22 18 30 34 21 35 25 23 18 20 24 31 26 32 24 29 32 23 27 24 34 19 20 20 29 20 28 33 27 26 24 21 28 33 36 27 23 29 31 18 25 24 23 35 27 19 35 21 20 36
19 26 29 25 38 23 28 21 21 27 32 24 23 36 34 19 21 36 19 18 37 30 33 37 20 28 19 27 36 18 23 37 22 21 21 35 35 24 25 22 20 27 21 30 34 36 19 24 21 22 23 35 33 30 35 27 27 24 23 19 24 24 22 37
24 18 30 18 27 24 29 30 20 32 38 28 22 28 36 25 37 18 32 21 21 27 20 35 37 20 31 20 23 27 26 35 35 21 23 28 32 27 38 26 37 18 32 19 36 31 37 22 31 38 38 25 29 38 36 21 26 35 22 27 21 24 33 31
29 21 33 25 26 24 35 23 24 34 21 18 30 27 37 31 31 28 37 22 18 38 23 33 34 18 22 37 18 33 19 21 21 26 21 30 36 30 30 37 25 30 35 18 30 31 21 37 31 18 23 29 38 20 23 19 29 34 28 19 37 27 36 23
20 36 30 31 25 31 36 21 35 38 27 30 34 34 32 31 18 31 33 22 37 18 22 21 30 23 28 33 38 34 21 19 22 21 35 36 31 29 24 32 27 26 33 32 24 31 33 18 21 18 32 31 28 20 38 30 27 20 22 24 32 33 34 30
20 22 24 30 21 28 29 30 32 29 18 22 20 28 28 22 31 32 34 27 38 29 32 35 25 31 20 32 24 18 27 27 33 38 24 37 18 30 28 34 26 38 35 25 28 30 24 23 33 29 19 25 29 21 32 19 36 35 18 23 24 37 26 33
22 21 22 34 36 21 18 29 19 25 36 28 29 24 27 31 35 29 40 37 37 36 25 37 39 33 23 21 20 28 30 27 19 28 29 28 28 22 35 35 36 45 42 35 32 42 30 37 31 41 26 35 38 22 33 32 38 38 35 24 30 32 24 36
19 37 23 35 35 25 28 36 36 22 36 38 28 22 25 39 30 45 32 37 36 35 46 46 28 35 34 23 38 34 26 31 29 119 20 38 27 36 28 29 39 40 47 48 31 43 38 40 31 33 39 34 21 38 30 31 31 18 22 18 18 38 36 20
22 31 29 21 23 28 33 35 31 33 31 19 34 42 42 29 39 34 34 42 34 46 40 40 36 33 32 46 43 21 32 18 123 28 31 29 33 46 37 35 35 49 45 53 33 40 48 39 50 38 27 29 41 32 20 18 22 36 29 18 19 30 19 33
20 37 20 38 29 19 35 25 19 22 21 37 41 34 39 51 51 40 44 40 45 41 42 41 52 38 40 36 33 44 36 23 38 121 119 40 39 47 35 39 49 53 42 40 43 52 55 42 52 49 36 47 24 38 21 38 28 32 26 26 29 30 35 35
25 26 26 27 19 19 19 29 35 24 38 35 40 44 44 44 45 53 53 59 54 49 56 56 39 48 50 52 41 39 32 22 26 115 122 38 37 32 36 57 38 59 47 57 61 47 49 43 51 44 46 44 31 38 36 24 29 37 33 25 29 35 28 35
35 35 38 30 33 26 21 26 25 28 36 41 44 48 49 51 56 54 61 47 49 46 45 62 45 43 40 35 48 32 33 43 28 30 250 48 33 41 43 41 44 57 58 52 62 61 47 52 49 44 35 36 33 26 34 32 32 38 27 31 33 31 35 21
34 24 34 29 26 27 38 23 28 41 29 41 40 53 44 60 63 48 53 61 56 61 65 63 49 43 42 38 38 46 43 38 29 128 132 120 47 51 54 48 62 62 62 56 49 53 55 56 58 59 54 52 37 45 35 39 27 30 20 26 38 22 31 18
36 18 36 26 19 26 26 33 23 29 30 41 48 44 52 51 50 62 56 57 73 63 61 58 52 52 60 44 55 37 118 34 28 205 32 42 126 41 43 54 69 53 61 54 63 65 66 52 63 46 45 55 38 33 47 33 22 18 34 25 25 35 21 23
21 24 34 20 34 35 23 27 28 25 29 35 54 54 52 65 54 71 65 72 60 72 70 56 69 53 47 56 40 53 120 47 37 202 52 49 130 58 51 63 72 73 67 57 71 69 58 59 56 52 55 49 56 38 31 30 36 24 36 29 21 34 28 37
37 33 22 28 31 18 31 20 26 26 47 44 49 60 53 53 61 55 61 60 77 79 70 75 74 52 63 56 60 53 139 54 210 125 34 125 57 50 66 66 63 57 68 79 77 76 76 55 54 54 47 52 42 36 48 32 37 32 25 37 36 30 33 22
35 29 22 24 20 19 38 33 35 31 40 43 47 49 57 62 53 70 68 79 76 64 75 62 76 60 50 63 47 129 51 39 218 139 54 47 136 54 60 56 70 69 71 81 66 83 69 62 60 67 49 52 38 50 36 40 34 32 38 20 29 22 27 33
36 35 18 35 21 27 19 34 25 47 40 43 58 44 53 59 67 62 77 71 83 69 69 70 73 66 65 50 45 143 48 53 249 55 40 137 52 62 69 62 72 72 78 76 70 72 77 63 73 55 63 58 50 44 32 47 35 40 33 19 21 20 26 32
22 24 28 19 36 31 37 25 29 37 50 41 53 60 51 57 64 73 70 81 74 81 84 71 69 66 64 51 63 58 129 137 223 47 53 41 140 54 58 56 60 80 68 82 79 80 75 64 58 53 67 60 59 46 52 29 44 23 31 25 38 22 34 31
26 22 24 38 23 28 23 33 25 39 31 52 45 60 48 65 62 66 67 85 73 81 85 66 63 57 66 53 47 125 129 217 42 56 57 52 52 140 57 71 78 67 73 78 86 81 73 70 70 60 52 44 43 53 32 43 43 29 38 28 32 24 29 18
42 33 30 35 23 36 24 31 45 46 37 55 45 54 61 73 59 66 78 82 71 87 87 85 82 74 71 69 147 61 63 224 133 48 55 45 58 158 67 77 84 81 91 87 73 76 69 71 79 78 62 68 57 64 43 52 49 41 34 32 33 47 43 39
42 35 37 30 49 38 41 40 33 48 54 65 63 62 57 65 78 88 78 76 93 87 86 79 74 67 65 78 149 59 143 62 220 59 59 68 60 77 151 78 91 78 87 85 93 78 83 88 88 68 73 76 70 61 59 45 60 44 50 49 53 56 58 53
53 49 50 35 45 50 36 47 45 55 57 65 71 74 76 67 73 77 80 92 92 90 93 93 91 82 81 72 72 158 156 232 57 70 64 79 67 162 74 89 94 80 84 104 86 90 88 81 87 77 81 79 66 67 65 64 52 66 58 65 68 65 59 50
45 57 60 43 60 44 60 59 51 48 57 69 68 79 81 85 76 93 82 80 101 86 86 87 99 89 84 74 71 65 164 249 147 68 80 76 78 85 180 98 84 101 105 97 99 97 101 87 85 102 99 90 88 70 73 68 78 79 79 69 78 80 62 73
46 38 46 55 47 48 44 56 49 46 60 62 67 73 65 70 80 72 70 77 90 82 87 71 72 68 75 73 68 72 64 221 224 65 67 68 62 82 164 88 75 92 82 91 95 77 91 83 77 80 88 79 69 79 73 67 63 67 65 67 56 56 66 69
45 45 31 35 38 43 31 47 46 33 55 56 53 65 56 61 56 63 64 73 74 60 66 79 65 66 56 70 53 60 147 56 209 132 56 66 53 61 57 151 62 64 82 83 85 80 79 76 70 65 73 61 52 66 64 60 40 55 50 46 47 52 44 42
26 27 43 42 24 37 27 27 27 32 44 35 50 56 39 50 48 54 49 69 62 50 56 56 64 53 63 40 52 53 134 36 30 218 118 47 42 61 55 145 64 69 61 68 55 57 70 67 63 64 47 46 58 48 33 38 41 30 39 33 38 49 33 32
26 30 37 23 28 18 26 31 21 32 32 27 39 47 41 31 37 50 56 56 52 54 52 49 37 52 40 44 36 33 125 38 35 207 115 43 40 35 46 38 126 49 45 50 39 40 47 44 42 50 34 48 29 30 40 23 26 26 38 24 30 28 22 38
20 28 18 30 28 22 37 37 34 21 20 37 30 39 33 43 35 47 47 33 33 48 40 49 43 38 37 31 38 115 27 29 104 112 107 29 30 43 38 44 50 126 36 44 52 51 36 50 32 41 32 41 22 25 24 25 21 18 20 28 38 31 37 38
23 33 29 21 31 34 19 22 34 29 25 34 31 26 23 24 33 29 34 29 35 34 49 43 41 32 27 37 38 21 103 36 117 103 112 18 24 41 43 36 32 117 36 38 38 41 35 34 38 41 25 22 32 24 25 25 20 37 33 34 20 38 34 18
34 36 23 38 27 24 23 22 20 24 38 36 35 26 38 37 38 33 28 39 37 38 28 28 37 29 40 25 18 121 20 120 29 119 31 110 33 22 26 30 111 29 39 42 35 41 38 38 36 28 28 22 28 37 25 35 20 21 21 26 30 37 20 19
37 19 36 24 27 23 31 34 25 26 28 20 34 38 31 28 35 27 30 26 22 23 28 40 27 38 21 25 119 36 106 30 36 26 117 27 113 33 21 114 31 24 29 31 40 37 28 31 30 35 23 20 22 34 31 20 31 25 37 24 36 35 38 20
34 35 24 27 30 35 20 31 34 23 25 23 30 29 19 26 24 30 32 30 18 25 34 21 33 21 28 23 18 121 109 29 18 25 117 21 113 23 113 28 29 33 33 23 20 35 29 29 23 33 24 28 18 19 20 32 22 32 24 35 28 19 22 25
36 21 30 25 18 21 25 30 25 19 20 35 35 32 30 20 34 21 34 29 31 22 29 30 27 36 36 23 103 21 109 36 26 33 113 30 22 190 23 21 19 31 18 20 19 21 36 23 36 32 21 22 27 32 25 26 32 32 28 35 23 19 20 33
21 30 18 35 24 38 37 38 28 18 27 28 29 34 33 38 27 28 34 21 26 37 30 19 20 32 24 26 108 18 26 123 19 35 123 19 35 202 36 24 20 36 34 35 37 38 23 35 19 31 24 28 29 37 20 27 25 35 18 35 30 25 20 26
36 18 20 26 36 23 37 37 20 28 38 19 24 26 20 35 27 28 34 28 26 26 19 29 33 37 22 122 37 33 37 38 114 38 28 112 111 29 113 23 32 18 18 21 38 36 32 31 36 20 28 26 38 23 30 19 23 33 22 26 34 38 26 33
26 38 37 31 37 37 20 32 20 27 23 29 24 21 29 25 36 28 28 26 36 27 36 25 19 27 118 25 22 30 25 37 22 115 106 113 35 37 115 20 20 21 18 26 23 18 36 29 36 24 24 35 31 29 35 20 33 32 35 38 23 29 18 30
22 37 34 32 36 34 37 19 33 20 30 20 18 25 31 30 18 28 31 20 20 30 26 36 33 111 35 34 37 19 34 32 31 108 200 28 22 33 38 116 20 26 34 34 38 31 26 20 26 21 35 34 28 27 20 33 23 37 28 23 21 32 19 23
38 27 33 19 21 27 20 38 33 27 24 34 18 35 23 34 19 21 36 32 19 20 35 31 107 23 20 30 29 29 18 22 103 110 109 21 34 18 30 122 29 31 18 29 20 22 32 36 31 37 28 33 20 33 21 35 32 32 38 31 27 18 19 27
22 32 33 29 24 28 22 33 19 35 25 28 19 28 34 26 22 26 24 32 25 23 30 34 22 32 25 25 32 33 32 32 115 105 108 21 28 33 25 123 37 38 33 26 35 28 32 23 20 18 38 31 31 27 36 37 36 37 30 25 27 26 32 32
36 24 20 20 25 30 26 35 37 34 34 31 28 20 18 27 24 31 38 21 37 35 29 27 18 35 35 26 27 26 26 30 30 204 18 110 28 31 119 37 24 33 25 34 29 23 26 29 37 29 19 24 25 18 29 34 34 38 26 21 28 23 26 20
33 34 32 29 19 32 33 29 30 29 31 22 32 29 36 21 30 22 31 32 28 28 32 28 29 32 26 37 33 20 36 32 188 23 26 31 35 117 28 28 37 18 28 23 38 19 37 36 26 18 31 20 21 20 34 31 25 18 25 22 19 38 31 33
23 20 28 20 22 26 19 32 30 37 29 33 28 31 32 20 29 24 18 24 24 19 18 29 21 26 23 29 25 37 37 111 21 113 19 18 25 103 23 28 19 33 30 36 27 30 22 18 21 24 22 21 32 23 37 26 26 35 31 29 25 31 28 24
21 27 34 26 27 22 27 26 32 38 18 34 24 23 29 29 37 33 18 37 23 33 34 18 20 32 37 19 19 30 26 123 18 107 25 25 24 38 38 27 26 26 25 25 36 25 29 27 26 38 23 37 34 19 37 25 30 19 34 19 33 27 29 19
25 24 19 31 25 21 21 18 30 20 38 19 22 31 23 37 35 23 32 22 30 32 30 21 20 34 30 22 38 19 38 30 103 120 25 35 29 35 23 27 33 21 18 21 36 28 24 37 30 31 38 25 31 24 29 33 27 35 32 34 19 34 24 19
20 21 33 27 18 38 34 20 25 19 24 28 25 27 38 32 18 26 32 25 20 23 30 36 26 33 30 37 29 23 37 35 30 29 110 21 37 23 27 36 22 19 21 38 30 19 18 25 30 27 34 27 19 20 35 36 33 30 22 30 21 29 20 27
35 35 29 23 27 19 20 36 23 24 19 20 35 38 25 20 38 21 38 20 38 36 30 33 23 37 26 35 31 19 22 18 37 26 116 33 30 20 24 23 34 33 19 22 25 19 34 36 34 20 18 21 32 27 18 24 18 24 20 28 20 34 28 22
37 31 22 25 22 35 34 26 32 35 37 24 33 31 33 38 20 32 18 22 27 36 33 21 37 19 29 24 18 34 36 27 27 30 34 29 37 28 32 19 29 36 29 29 31 31 30 34 36 38 21 20 27 21 19 20 22 25 30 25 36 37 28 28
26 33 29 28 33 25 33 18 22 23 24 27 27 21 23 35 25 30 38 38 28 27 30 21 30 26 31 31 35 38 20 19 29 27 33 18 34 30 20 19 22 24 36 30 22 19 31 27 18 19 38 25 36 34 29 20 24 19 26 19 29 29 24 22
20 25 24 18 35 29 28 37 29 31 36 20 19 35 27 33 35 30 20 34 36 27 19 23 38 30 22 20 19 19 20 23 29 19 34 23 27 20 22 23 30 37 38 22 31 26 18 21 28 20 35 21 27 33 25 20 31 18 32 18 26 28 26 18
