P2
64 64
255
23 20 28 32 20 32 30 33 19 25 27 36 35 24 18 30 32 26 18 33 22 31 35 35 18 23 31 23 29 31 32 23 28 29 22 24 29 37 33 29 24 34 19 29 28 32 21 35 20 35 34 24 36 25 25 28 19 37 19 34 31 36 18 24
25 27 36 32 19 38 35 38 29 21 24 22 34 24 21 18 33 32 36 29 25 37 24 38 33 28 28 19 30 19 38 24 37 29 35 19 20 21 36 27 25 24 36 36 28 20 24 36 21 33 31 38 37 36 31 32 32 35 34 26 32 22 36 26
24 20 26 18 29 19 37 22 20 38 19 24 19 31 27 31 33 34 37 34 24 29 18 22 27 38 37 30 33 34 33 28 27 37 20 18 30 24 24 37 25 29 35 24 37 23 25 38 20 26 18 23 26 20 23 37 24 18 38 27 22 30 25 35
34 35 21 21 35 36 27 23 28 38 26 38 35 18 26 19 30 22 21 35 25 31 21 18 36 20 34 33 27 33 24 23 37 23 36 18 32 30 27 31 31 27 29 32 32 24 27 21 33 30 32 25 32 23 20 29 27 37 27 38 25 19 24 32
23 19 37 24 33 29 30 21 20 35 37 38 19 28 37 27 24 33 22 32 34 21 27 23 25 28 28 26 29 18 19 36 20 27 18 26 31 33 33 19 27 24 30 22 38 22 20 23 33 22 36 23 26 20 35 22 27 31 26 34 37 29 26 36
34 28 22 34 36 33 21 26 37 30 19 23 29 21 23 25 27 23 37 32 31 35 36 32 34 19 30 32 26 19 34 20 28 30 21 28 36 29 18 18 34 18 24 21 34 31 20 28 21 23 21 22 25 22 22 33 27 27 28 33 38 34 20 18
22 28 31 20 34 22 34 25 29 34 32 32 27 30 27 26 33 32 35 22 37 37 35 20 33 31 32 23 20 25 24 38 27 31 31 25 19 31 25 23 25 35 23 34 37 27 20 22 30 28 20 38 26 20 25 27 30 25 33 31 24 23 30 30
25 25 35 24 30 38 18 32 25 18 20 36 19 19 35 32 20 37 26 22 28 25 26 32 37 33 20 18 34 20 26 36 27 25 31 23 22 23 38 23 30 29 35 37 30 30 38 36 30 31 32 21 18 37 35 21 32 37 22 21 26 22 21 18
25 32 21 30 22 33 36 35 21 33 24 35 32 31 25 26 25 19 29 31 20 37 23 24 28 26 37 24 29 19 31 30 30 24 23 26 26 25 24 38 22 23 21 30 19 21 26 24 30 22 35 34 35 28 31 32 32 19 34 23 18 36 29 23
31 20 31 36 18 24 31 20 20 22 24 33 19 23 23 29 27 38 22 26 29 36 29 38 25 37 19 19 21 24 23 21 33 29 34 21 23 37 23 27 35 34 18 23 23 34 33 24 30 28 26 38 24 33 21 36 38 34 32 24 21 23 37 32
29 21 36 33 37 35 29 32 36 18 33 34 32 25 25 32 21 24 37 21 23 30 26 32 21 36 34 29 20 27 19 27 30 22 29 18 38 24 27 24 22 33 32 30 35 25 29 24 22 28 22 31 23 27 34 25 25 19 19 28 27 32 34 20
36 20 20 18 28 24 35 37 20 31 22 28 34 38 18 24 23 32 21 18 26 29 24 22 37 32 36 19 21 22 19 30 22 20 23 37 30 20 27 38 21 19 36 18 35 34 20 21 26 27 29 31 20 20 27 36 30 35 21 18 32 34 23 32
33 26 34 20 19 38 28 35 32 37 37 34 28 21 38 24 26 27 30 20 37 36 28 18 26 18 24 19 22 19 31 31 26 31 37 35 38 31 37 25 21 29 32 34 23 29 35 24 38 35 24 20 18 31 19 22 29 36 36 20 28 19 23 24
35 30 20 23 28 33 34 28 29 38 25 21 33 37 22 31 27 26 24 38 21 32 18 21 26 35 22 24 22 38 38 37 18 27 18 29 19 18 32 25 31 31 28 24 22 35 18 36 19 20 19 37 23 38 22 26 27 33 20 30 20 30 38 21
27 29 30 34 18 30 33 19 37 31 20 26 38 37 22 20 20 32 19 30 25 33 32 19 38 21 20 37 37 20 25 27 30 23 21 34 27 22 30 28 21 31 33 25 24 38 20 26 35 23 33 19 26 36 25 25 32 30 22 31 26 22 21 30
29 34 34 33 23 33 31 24 31 36 29 18 30 38 32 28 38 28 24 33 38 22 30 33 26 38 30 24 30 20 37 23 32 36 30 34 25 19 27 33 32 19 29 21 27 24 33 23 26 26 22 20 22 32 28 36 21 26 22 28 35 36 34 34
30 24 21 33 37 26 19 19 21 20 38 33 35 21 37 21 36 23 29 19 28 35 21 27 34 21 29 28 33 30 26 26 31 38 19 18 30 24 34 20 24 32 30 36 23 19 27 27 26 23 26 35 27 25 38 21 30 28 28 26 27 30 27 19
24 36 28 34 31 27 24 22 25 24 28 22 36 37 23 22 21 30 32 24 27 19 22 31 28 36 21 20 23 20 29 31 35 37 21 19 34 36 32 34 36 19 24 36 36 38 19 28 26 38 29 37 30 19 35 29 18 22 37 27 20 19 37 31
25 27 38 21 24 24 25 18 37 26 36 33 32 22 27 28 25 22 23 26 37 23 26 34 21 35 30 28 18 22 34 35 22 34 25 32 27 34 34 27 32 28 23 25 38 18 21 28 36 34 32 33 36 38 36 36 22 28 20 36 36 18 22 19
27 22 37 38 27 23 36 20 28 35 34 35 28 19 27 18 28 24 37 36 31 26 40 40 40 31 37 27 32 37 35 25 18 23 33 38 18 27 32 27 30 35 41 40 22 27 33 27 24 24 33 26 22 28 30 21 32 25 18 37 28 31 29 20
33 19 26 28 23 34 18 22 27 21 31 26 25 30 21 34 22 38 32 33 42 26 25 32 37 24 32 21 29 32 28 30 37 27 31 28 29 25 32 24 31 30 32 33 30 41 36 26 30 28 28 21 38 36 20 24 35 31 32 29 26 25 28 25
32 23 32 37 38 20 33 32 37 20 21 37 38 25 40 31 44 28 40 45 34 30 31 45 45 28 29 32 25 35 32 35 35 23 39 20 27 40 37 34 36 39 35 48 38 37 42 30 29 28 38 33 28 21 21 30 37 22 37 18 28 38 20 34
33 32 33 25 34 35 31 25 23 23 37 31 30 37 37 47 38 45 47 46 38 51 44 33 32 32 38 44 35 41 46 38 29 32 34 35 30 29 34 32 43 43 33 40 36 51 45 50 50 28 33 36 27 24 19 26 37 22 29 29 24 25 20 25
27 20 36 26 21 18 33 25 35 37 19 37 27 43 32 40 51 53 47 40 54 49 55 43 49 47 57 55 57 45 53 52 53 52 36 46 42 55 41 56 51 50 51 53 53 55 37 44 36 37 46 29 38 24 28 33 34 23 36 19 28 36 38 18
22 38 29 23 23 18 21 29 24 23 35 38 47 38 49 36 57 43 58 46 52 43 46 48 44 52 57 56 66 56 61 48 43 48 44 56 58 49 65 55 55 61 51 61 42 43 57 41 47 40 33 42 35 26 25 20 32 33 36 35 18 18 21 37
37 28 33 31 31 35 31 34 37 21 27 40 49 45 37 58 43 51 56 63 50 62 55 60 58 73 74 60 59 56 65 58 64 54 53 65 75 72 58 74 57 63 61 62 64 56 59 53 59 46 43 38 44 36 30 37 21 32 31 32 25 25 36 22
20 36 31 21 26 18 30 22 25 35 25 33 34 43 41 61 43 48 67 62 65 54 60 71 79 71 66 79 78 69 75 59 67 73 68 79 70 67 75 66 75 77 74 65 58 56 57 56 51 61 40 48 33 45 25 24 27 21 34 27 36 38 28 26
38 25 26 27 38 26 28 27 28 32 34 48 53 38 48 50 60 50 69 67 63 77 77 85 88 86 91 72 91 83 86 69 81 80 74 76 90 73 80 75 74 67 67 60 70 56 58 53 66 48 55 38 42 34 41 30 35 22 31 19 19 24 18 18
34 27 36 18 23 26 25 26 29 37 42 42 52 56 53 66 58 68 59 61 66 79 77 90 78 91 86 83 93 89 91 92 87 90 83 79 91 86 87 86 95 81 87 86 64 57 57 55 51 56 57 47 53 41 37 44 31 31 38 18 33 24 23 26
22 35 24 37 22 23 18 22 34 31 50 45 49 55 51 58 55 72 66 64 89 89 84 102 94 104 101 102 94 101 100 89 106 93 95 91 92 105 86 98 103 91 92 85 74 77 67 56 63 57 46 52 47 47 38 42 34 34 19 20 34 21 29 37
37 21 37 18 20 32 25 29 41 39 43 41 51 53 51 58 73 60 77 75 96 86 102 99 94 106 108 108 101 100 105 107 95 102 100 103 94 110 113 111 108 92 90 100 76 74 69 71 55 67 55 55 57 54 47 43 23 21 32 27 19 34 21 30
38 30 29 18 22 25 38 30 24 31 31 39 45 57 49 60 66 61 81 75 91 91 110 100 97 104 117 106 107 98 109 120 107 112 113 101 99 99 105 107 107 113 106 91 89 85 74 78 66 54 64 59 50 50 51 42 25 32 33 36 29 35 28 24
31 24 24 22 28 36 20 25 27 39 45 43 41 56 66 54 63 70 80 88 100 101 101 117 118 105 117 121 108 116 108 108 112 115 115 120 118 109 101 106 111 115 108 111 91 84 87 64 57 63 66 55 48 54 34 30 35 29 38 25 35 34 18 22
23 23 29 23 27 26 32 30 36 44 40 46 44 44 48 70 56 59 79 82 91 98 102 102 105 122 105 108 120 126 124 119 118 124 113 124 113 118 120 115 115 113 114 98 99 83 75 58 67 56 48 57 59 47 37 37 28 24 29 19 29 20 23 29
31 36 28 20 27 24 26 25 23 30 38 54 39 53 51 56 65 70 68 89 99 106 102 107 112 109 109 122 125 127 114 119 130 121 134 117 115 124 113 118 109 106 107 108 98 96 86 65 63 56 65 53 49 49 45 35 36 36 37 33 27 25 28 27
20 36 38 38 34 21 37 27 33 27 44 50 38 57 55 57 57 73 69 83 100 103 106 110 119 112 122 124 120 132 129 124 129 136 130 116 124 122 118 102 119 103 91 89 83 92 67 60 62 61 65 41 38 43 36 26 30 37 19 23 20 38 38 28
27 19 36 24 36 28 21 34 22 41 42 41 53 40 49 56 67 66 78 82 80 90 100 94 103 101 106 117 116 120 118 126 133 132 131 118 118 127 114 120 110 107 109 88 85 75 71 74 67 61 44 39 36 52 33 45 41 23 38 27 21 25 23 24
34 20 32 25 26 35 30 26 20 40 33 36 43 44 53 48 51 70 67 69 74 82 92 99 103 110 112 119 120 125 111 117 131 132 123 111 115 109 107 108 105 92 87 83 88 68 72 66 54 51 51 50 48 40 36 42 31 28 23 20 33 25 20 34
33 31 19 38 36 37 23 35 32 22 29 43 38 51 56 49 56 63 57 81 79 77 90 100 103 101 108 106 116 114 110 116 108 108 120 123 107 108 112 100 98 92 92 84 73 80 66 57 57 44 53 48 51 30 42 38 19 29 34 34 30 21 31 23
21 37 28 22 37 24 21 34 35 37 39 44 35 40 47 46 50 42 61 59 70 87 95 80 97 105 108 95 95 105 117 98 99 108 102 105 109 100 98 94 102 93 84 83 65 60 64 47 50 42 36 37 39 37 39 35 23 37 35 36 33 24 18 24
18 33 29 20 32 34 38 30 32 28 29 26 32 50 33 52 45 56 52 57 62 76 89 76 96 81 99 96 105 99 94 94 106 92 92 94 89 103 91 101 95 89 73 64 67 51 60 58 56 40 36 41 35 30 35 21 23 26 29 27 24 32 31 20
34 34 23 25 21 21 22 20 33 26 39 21 25 41 49 44 35 45 58 46 66 70 70 76 84 93 88 84 87 83 95 99 94 85 93 86 85 83 92 78 89 71 78 56 54 59 45 46 35 49 32 32 37 23 27 38 36 18 37 34 38 30 34 18
24 29 36 28 33 26 25 20 27 33 22 19 30 40 28 42 32 40 37 59 58 50 55 71 67 87 71 86 81 82 88 77 75 84 89 91 76 90 80 78 68 77 70 61 51 48 34 51 42 33 40 42 38 23 33 31 18 30 33 29 28 26 30 36
37 25 32 20 38 33 26 31 22 25 35 22 25 41 33 29 43 28 46 38 52 53 59 59 64 69 74 70 79 73 79 88 82 72 67 84 67 70 79 76 70 65 53 56 44 34 41 38 44 34 32 29 34 28 24 29 26 21 38 32 21 34 25 30
35 33 28 35 33 23 32 25 31 29 22 30 20 34 38 38 31 27 35 40 43 52 59 64 68 59 66 74 76 66 66 69 74 74 79 66 64 55 57 70 61 62 56 41 45 36 29 29 23 41 37 38 27 36 28 30 25 26 28 20 19 33 18 25
34 22 35 19 18 36 19 34 38 19 18 21 21 24 37 38 29 26 41 30 26 31 44 53 44 47 48 60 57 53 66 64 61 57 71 53 58 65 58 54 44 55 38 41 28 28 37 36 20 32 26 18 32 23 19 36 27 30 23 20 22 29 18 31
37 37 35 30 23 21 27 19 29 25 22 31 37 31 26 30 36 31 22 36 37 35 32 49 49 44 52 54 50 65 67 66 65 67 66 57 60 46 54 38 46 38 41 35 19 22 26 20 34 19 38 32 22 28 29 34 37 33 23 26 22 24 28 34
21 33 37 38 20 30 33 25 32 37 35 38 33 22 24 24 23 32 34 31 23 31 32 25 28 49 54 57 48 45 48 52 51 53 56 61 51 51 46 51 45 31 39 37 18 25 26 21 37 28 25 35 37 29 18 21 35 26 21 29 35 20 29 30
20 25 20 37 25 38 35 36 25 18 26 28 20 28 27 24 36 38 18 28 29 22 24 30 41 42 40 33 38 47 44 42 41 41 53 55 49 40 40 41 42 24 27 26 38 33 37 38 38 34 25 34 31 32 19 27 23 20 26 38 38 29 26 18
26 35 34 27 38 28 24 35 31 18 31 27 31 33 25 32 26 23 26 29 37 33 32 23 18 21 38 30 44 48 36 46 34 34 47 41 47 40 29 29 34 27 27 34 32 19 32 27 37 29 20 27 27 21 20 20 30 25 38 23 35 19 28 20
38 33 34 23 35 25 34 37 32 28 31 34 35 29 32 20 32 30 23 20 18 27 22 33 27 32 18 28 32 25 27 45 31 44 36 25 26 40 23 31 20 38 36 18 27 26 19 37 23 24 22 32 31 19 20 21 23 20 18 21 26 23 28 26
18 24 36 19 28 34 31 18 30 20 19 27 32 29 31 38 26 19 25 31 21 33 19 29 32 35 21 33 22 18 36 33 20 39 38 26 22 30 24 24 25 33 28 32 27 25 23 19 20 22 26 22 20 20 25 29 30 32 30 23 31 35 20 31
37 34 28 34 25 18 21 32 31 22 30 27 30 36 36 33 31 25 21 28 37 22 33 32 38 21 34 21 37 37 38 36 30 31 24 24 36 38 21 18 22 34 33 19 33 35 20 19 38 25 27 29 34 31 37 26 29 31 23 26 25 37 26 21
31 29 24 28 21 32 38 28 27 24 21 38 33 32 20 33 38 27 23 22 32 34 25 18 23 33 27 38 36 26 18 21 28 38 18 21 31 25 22 21 26 29 35 34 26 34 28 21 19 28 25 36 19 35 35 26 34 33 19 38 30 31 33 20
36 32 35 32 24 31 37 23 35 30 36 30 28 28 20 37 28 21 37 36 19 25 34 31 33 25 35 23 36 25 19 36 27 32 22 36 26 20 24 29 30 21 31 34 38 35 32 32 25 27 22 35 22 33 33 27 25 23 22 27 35 28 23 35
20 27 25 36 21 25 36 31 22 21 34 23 29 33 25 21 19 34 37 26 30 25 38 24 28 20 36 30 27 27 29 27 34 24 31 28 20 36 28 38 24 26 23 28 29 27 37 23 31 18 27 23 27 32 22 26 24 38 32 18 24 32 28 27
26 35 20 31 25 18 24 35 38 35 37 34 24 29 25 38 18 18 18 37 30 34 29 27 22 23 37 37 36 26 34 33 20 26 24 33 22 35 18 27 29 19 34 22 35 24 26 35 20 26 27 30 33 19 38 37 37 27 28 36 22 26 29 27
29 25 37 31 26 28 25 26 23 28 33 37 33 33 19 29 35 20 24 24 36 24 31 28 18 21 18 24 38 27 22 20 36 29 33 26 19 18 37 24 20 28 33 23 24 32 21 26 34 38 19 18 35 18 18 31 34 23 32 32 30 26 20 33
35 22 27 31 19 20 38 30 28 21 22 21 35 38 30 35 24 34 35 33 26 25 30 34 20 22 24 36 19 26 36 30 20 29 25 30 30 21 27 25 28 27 35 18 33 31 20 36 24 34 31 19 21 24 35 38 29 38 37 28 24 34 23 20
29 19 27 34 23 32 24 23 25 21 36 33 31 31 25 30 32 19 31 29 26 36 31 32 24 36 26 21 27 32 24 25 21 29 20 21 35 32 24 32 23 22 23 37 25 25 33 25 25 27 27 24 29 24 20 30 30 23 26 31 34 35 28 28
19 33 23 35 32 23 18 25 21 37 23 24 37 31 25 25 23 35 27 34 36 37 34 36 19 25 30 33 25 27 19 27 38 33 26 22 38 31 37 25 25 23 26 28 20 32 30 29 36 38 23 28 33 27 30 20 18 21 28 28 36 22 36 37
32 36 29 20 23 26 36 24 37 35 34 20 31 19 19 19 19 36 22 28 26 18 32 35 26 34 23 18 31 25 38 35 20 34 18 37 20 34 35 38 26 28 18 25 31 32 29 22 23 31 31 37 37 35 32 23 21 34 30 24 35 20 33 29
34 20 22 23 38 35 21 32 25 35 24 30 31 28 19 22 37 35 30 30 22 19 30 36 26 18 38 35 32 28 36 31 27 34 37 35 20 38 35 22 18 20 24 25 23 22 26 34 18 36 36 35 32 25 21 29 37 36 32 36 34 24 20 22
25 33 38 25 19 31 36 33 35 37 23 28 27 19 36 33 21 20 32 24 24 22 32 20 28 32 18 23 29 32 19 25 26 24 26 32 35 30 33 31 32 25 27 24 27 38 27 22 20 25 27 20 25 31 33 37 37 37 32 35 33 34 31 37
