P2
64 64
255
24 34 24 19 35 37 23 26 29 21 34 31 18 31 18 38 33 38 27 26 35 30 23 23 28 29 22 33 22 25 37 31 37 36 33 38 30 19 34 32 19 23 30 33 35 22 18 27 19 36 25 18 37 21 23 22 37 28 34 19 33 37 24 32
26 33 18 26 28 30 35 21 28 35 24 25 19 26 21 24 20 28 25 37 37 28 25 32 31 36 18 22 24 30 18 24 33 28 33 25 31 37 22 27 32 31 22 35 29 23 18 22 28 24 24 21 38 18 21 36 34 22 26 28 29 38 23 34
18 31 33 37 38 26 25 23 19 34 18 20 31 25 36 22 28 36 24 27 20 24 33 27 35 32 29 27 34 34 23 35 37 21 38 18 34 29 24 18 18 18 30 21 27 30 35 32 35 19 34 21 28 26 29 35 23 25 19 26 34 28 34 35
27 38 21 30 32 33 27 21 18 35 36 18 25 19 35 37 25 33 23 28 34 37 38 34 27 38 21 32 20 38 33 28 27 27 28 24 19 25 26 20 32 23 35 25 33 36 30 32 36 33 37 22 37 18 20 27 36 34 36 38 27 33 38 19
27 31 20 31 26 22 27 33 25 19 26 27 35 26 18 20 32 35 18 30 38 38 36 37 25 35 25 26 28 22 20 27 33 26 27 35 28 26 34 25 32 20 24 26 32 24 29 33 22 36 30 35 20 38 21 23 37 29 32 34 32 34 19 29
21 27 37 19 32 26 20 33 25 21 19 32 29 38 19 18 18 29 27 19 33 34 28 34 37 29 32 19 37 32 27 23 26 34 27 38 30 26 27 20 20 30 18 38 32 21 19 29 20 28 34 29 31 35 31 24 31 19 26 23 25 23 31 33
32 23 37 27 21 35 23 26 35 34 35 37 35 38 38 22 20 32 26 25 23 25 20 21 27 35 19 18 26 26 32 20 26 36 22 32 37 20 29 18 36 22 31 18 25 29 37 35 33 38 20 28 37 24 36 20 29 22 31 28 24 30 36 22
32 27 26 26 19 19 34 30 35 35 20 18 24 29 34 22 23 30 28 30 25 18 26 27 29 23 26 18 26 26 29 29 18 34 35 18 35 30 24 21 36 37 22 33 23 37 23 22 31 30 27 24 35 29 32 36 36 23 22 25 24 23 26 18
18 31 25 27 21 35 31 32 21 23 34 38 19 37 36 23 36 34 24 29 32 30 33 27 28 28 38 29 35 20 19 27 38 36 29 23 35 29 23 36 34 19 26 29 38 20 32 19 31 29 37 21 33 18 31 24 24 35 33 34 33 20 34 26
19 30 19 23 23 21 34 38 30 38 37 23 19 23 27 33 33 34 27 25 34 25 35 21 19 31 35 38 24 30 28 35 29 23 32 28 26 18 21 25 27 38 27 34 24 24 36 36 30 27 37 21 38 34 25 34 29 30 27 22 28 35 26 38
22 37 21 33 28 26 25 36 36 24 38 36 24 19 35 34 32 38 29 24 18 22 24 38 38 24 26 33 38 37 28 37 29 32 38 18 35 29 20 35 19 25 27 34 25 20 31 28 35 26 33 26 18 21 33 19 34 26 24 23 19 19 38 26
21 25 31 26 32 25 31 22 31 31 21 37 35 30 38 26 26 27 24 28 36 23 30 20 37 32 18 37 21 22 20 34 19 31 23 18 29 29 31 33 29 26 30 29 27 38 29 36 26 21 22 25 25 19 35 25 32 19 35 38 24 33 23 23
20 21 29 35 20 26 18 35 24 20 21 33 18 24 34 24 25 29 37 38 23 32 19 31 33 34 29 33 21 26 37 37 24 18 36 34 37 24 24 26 28 32 19 24 19 31 38 19 18 37 26 35 24 32 23 27 35 32 21 31 24 23 20 26
21 33 33 18 30 19 31 33 28 28 29 37 30 32 38 34 19 30 30 32 18 37 23 33 31 30 24 32 37 28 30 23 35 35 33 38 29 33 29 31 19 36 23 38 30 31 36 36 25 36 25 38 27 36 19 38 32 23 31 25 28 32 28 19
37 37 27 22 31 30 19 20 32 32 34 24 25 25 25 35 20 23 21 21 19 18 35 29 37 36 36 37 21 30 31 22 25 32 18 23 24 38 34 34 36 25 23 34 29 28 31 24 34 24 21 29 33 22 20 19 25 25 24 29 29 35 29 23
29 22 34 32 32 32 30 37 33 32 18 24 30 24 19 26 20 19 31 35 23 29 19 20 37 25 34 22 25 24 22 25 32 22 25 18 35 38 21 26 37 20 37 22 37 27 19 38 27 19 21 35 29 33 34 30 19 18 21 34 20 21 28 31
24 38 35 29 36 30 22 30 24 35 34 31 30 21 27 35 23 25 37 24 25 24 25 36 28 31 21 18 36 20 33 23 28 27 18 20 24 19 23 36 31 33 20 23 22 34 25 19 24 20 35 24 38 19 26 31 28 34 31 36 24 25 36 25
25 36 18 27 38 20 32 38 34 34 23 26 34 35 37 20 23 36 19 25 38 31 25 22 25 23 18 20 37 23 32 33 28 36 27 38 20 21 21 26 33 31 27 26 35 33 18 24 18 27 37 32 19 33 31 32 21 25 34 24 20 29 32 35
30 38 19 35 36 24 33 21 34 35 18 35 33 26 33 35 35 23 19 28 35 38 37 24 29 29 26 38 31 30 21 20 22 18 34 37 27 18 24 36 31 25 30 18 35 19 20 38 30 31 32 37 27 20 34 19 25 31 32 28 38 19 23 36
27 28 20 19 35 18 19 31 37 35 37 19 30 18 20 19 28 22 35 41 27 37 31 39 36 26 18 25 18 32 34 20 34 26 32 32 34 34 33 29 34 38 39 42 35 29 28 35 39 20 36 37 32 32 27 32 33 18 23 18 24 20 28 37
33 21 19 24 19 25 31 23 36 22 36 30 26 23 23 25 25 33 26 44 40 43 32 34 31 25 32 23 36 20 26 25 32 19 22 38 37 27 37 28 34 33 32 46 28 45 45 24 36 34 29 19 26 24 35 34 33 38 22 34 21 36 23 21
36 28 28 18 20 35 37 20 31 24 24 20 35 34 24 32 41 33 41 41 29 46 40 45 31 34 25 39 31 33 31 29 114 29 33 26 40 37 24 33 36 41 36 45 30 30 28 37 35 29 40 25 24 28 35 24 32 37 30 26 28 20 28 27
26 36 36 25 34 32 38 19 20 35 38 37 31 43 42 46 34 43 47 49 48 52 47 48 45 50 47 42 42 39 27 110 26 23 31 40 32 30 32 48 43 51 51 48 35 49 33 41 42 30 28 30 28 31 24 18 33 18 24 30 29 22 31 27
37 33 33 32 28 31 31 32 35 31 20 25 27 32 45 47 44 43 46 40 41 47 52 38 38 38 47 44 41 123 27 117 22 18 35 41 32 31 47 40 43 49 50 55 54 52 44 43 45 42 35 41 31 31 26 31 20 35 25 19 19 34 31 27
22 18 37 33 32 28 37 28 33 23 27 44 29 33 52 51 55 40 44 52 54 47 54 42 45 42 36 51 37 37 211 30 32 39 36 34 37 35 53 48 53 53 51 47 61 55 49 58 39 43 40 34 34 32 39 26 23 22 33 38 32 26 28 33
20 38 35 24 23 36 34 18 19 30 28 33 34 48 35 55 50 54 49 64 52 55 52 61 45 43 54 53 41 131 131 36 35 26 33 123 50 35 53 40 49 60 58 50 64 63 48 58 45 47 55 41 45 31 29 36 25 34 19 18 19 38 29 34
22 26 38 31 20 35 24 22 21 34 41 37 37 39 49 60 57 60 49 54 64 56 57 54 60 61 44 58 35 118 120 27 35 44 43 137 54 42 50 50 64 61 51 63 57 60 47 59 49 44 56 39 34 30 28 34 22 25 25 32 28 21 22 21
20 26 28 19 25 20 34 37 34 37 36 50 34 52 60 51 52 62 68 61 56 58 65 52 54 56 60 43 55 135 122 42 35 132 42 137 55 48 59 60 51 53 54 63 54 56 58 67 59 64 57 49 51 34 46 44 29 19 20 38 27 19 36 33
22 19 25 35 26 31 29 37 26 42 35 37 56 50 54 51 66 61 61 62 69 60 69 66 70 67 51 61 131 49 117 35 43 133 47 39 134 59 51 67 65 56 58 61 57 70 55 67 64 46 49 57 39 36 39 35 29 28 23 20 21 21 29 24
30 18 35 35 31 22 33 37 42 32 49 41 53 43 48 67 62 71 71 77 62 61 62 71 59 57 63 135 57 130 44 38 128 123 35 56 146 59 66 66 61 64 61 81 64 62 65 71 57 51 55 44 48 52 46 37 30 20 23 21 37 31 32 18
28 18 36 27 37 21 26 27 30 30 44 55 48 48 58 66 64 62 63 71 76 71 73 78 66 62 145 56 56 142 51 56 219 56 41 141 54 61 53 54 75 64 76 76 74 64 65 63 59 51 49 48 44 35 48 36 30 27 32 27 24 36 38 24
29 36 21 35 32 22 26 23 24 40 33 44 43 49 57 63 64 68 68 71 80 84 74 71 61 148 54 57 50 53 126 124 49 137 46 54 132 50 59 74 78 76 82 70 86 66 81 60 56 68 59 47 51 41 47 37 26 21 36 29 18 25 27 26
23 32 29 36 30 30 35 28 40 36 34 41 56 56 49 57 75 64 76 81 76 81 71 69 71 152 63 55 58 129 140 43 127 46 41 55 144 52 62 55 70 69 74 88 91 76 64 65 68 58 60 56 41 46 46 41 38 28 28 38 19 30 30 25
22 23 25 29 24 38 23 30 32 34 50 43 46 59 62 56 74 77 72 81 80 78 66 74 61 159 52 55 129 133 39 41 46 122 48 51 54 135 52 65 60 69 83 80 73 66 74 72 65 51 49 62 40 44 49 43 26 39 20 27 29 29 33 25
27 31 27 40 40 41 37 33 31 44 42 47 58 48 56 76 66 79 79 85 72 88 73 68 148 78 75 150 147 62 44 53 52 142 53 60 54 143 65 70 74 80 86 85 80 78 74 65 61 60 66 67 47 61 40 50 35 38 36 29 33 27 37 34
36 40 34 49 49 30 34 38 43 55 60 56 57 55 57 81 70 86 71 91 89 78 90 172 83 79 159 154 74 55 49 64 134 61 62 61 69 152 80 87 88 86 77 93 83 84 88 78 85 78 72 75 70 64 62 47 58 54 46 42 38 48 48 51
38 45 42 40 36 35 45 50 48 44 63 67 64 70 62 79 77 81 87 84 83 78 179 91 74 78 158 72 147 69 56 60 67 159 75 81 67 167 72 81 85 90 86 92 104 103 82 88 83 77 83 78 67 76 76 58 53 64 53 52 61 56 61 65
47 59 50 44 53 51 60 43 52 51 61 63 75 65 73 70 81 95 94 93 89 88 185 84 82 86 160 74 168 65 81 76 78 149 66 78 167 82 77 95 103 89 104 109 90 93 102 86 93 89 79 76 90 83 83 71 75 68 62 65 77 66 76 76
45 48 53 41 44 37 43 54 39 50 64 60 60 68 66 66 70 75 69 80 76 85 81 171 87 78 69 153 151 75 67 62 139 66 61 162 71 83 88 79 76 90 91 87 93 87 82 80 75 78 74 78 67 68 62 71 62 71 65 63 71 68 66 54
29 32 46 48 43 37 45 47 44 38 38 55 54 51 59 62 58 58 70 66 75 80 146 75 72 73 154 62 50 145 52 141 59 49 46 50 151 66 57 59 63 64 82 65 67 82 65 81 76 70 64 66 64 52 46 43 41 53 53 56 57 44 47 54
27 24 30 42 38 35 34 27 37 42 31 36 43 49 51 60 47 47 57 49 50 145 69 64 61 148 49 40 49 131 51 37 122 31 41 39 131 52 53 50 52 61 53 52 66 64 68 60 49 57 43 60 38 47 36 42 43 46 35 40 31 38 35 32
35 23 35 18 37 38 35 33 38 33 21 38 27 38 29 44 44 48 51 56 129 44 40 45 50 40 125 36 47 35 121 28 123 31 26 27 125 37 36 40 42 41 56 48 41 40 45 48 37 47 35 45 41 33 40 38 19 21 20 26 20 30 29 28
25 32 36 20 20 27 37 34 30 31 32 33 30 43 28 30 33 43 37 42 134 36 44 49 38 40 41 123 40 34 105 34 106 19 20 116 40 36 43 43 37 46 38 41 47 37 37 49 39 35 28 44 37 26 29 37 21 38 34 18 25 33 19 29
26 26 31 24 38 38 18 18 29 37 19 37 37 31 38 36 43 42 44 42 129 31 35 46 46 42 25 30 120 123 23 36 117 29 105 37 21 28 43 39 41 41 47 47 36 48 34 39 35 37 31 32 21 19 29 36 37 19 32 33 18 32 38 18
31 27 36 24 26 33 20 26 22 38 30 36 37 25 20 26 40 35 34 34 127 43 35 43 26 25 36 20 119 18 112 38 104 37 121 26 33 28 25 37 31 39 34 41 40 41 40 33 35 22 23 38 18 19 37 37 19 23 32 28 27 18 27 21
30 24 34 33 35 22 34 25 38 34 27 31 38 19 31 24 20 34 31 117 38 29 37 22 27 38 22 117 31 113 38 29 25 111 118 30 22 35 37 32 39 41 40 39 30 37 22 21 23 21 35 20 30 34 29 25 31 21 38 33 38 18 23 33
29 37 29 34 29 24 22 23 21 22 27 30 19 38 19 31 18 18 118 21 19 37 38 31 29 21 27 19 113 113 29 25 33 109 122 31 25 36 33 29 31 24 34 34 26 31 37 18 21 28 27 38 25 30 23 38 18 35 26 35 34 18 21 28
33 18 19 36 35 33 23 36 34 23 18 36 34 36 25 32 25 103 18 32 36 28 37 27 28 18 34 120 19 122 21 34 117 119 32 36 30 38 25 31 31 20 35 31 35 36 25 26 20 19 32 35 36 32 34 31 35 19 34 27 34 38 30 20
19 19 22 19 24 18 28 19 36 25 37 21 18 38 35 19 22 28 106 35 21 27 35 28 29 31 35 21 123 32 122 35 25 193 37 30 32 38 25 27 22 25 29 28 37 28 18 37 37 25 19 28 18 18 35 20 25 32 29 23 31 38 21 23
28 28 32 32 31 33 20 24 28 38 38 25 24 28 34 25 29 19 32 113 36 19 36 36 28 36 29 31 119 27 30 104 111 30 113 31 26 21 21 30 20 36 29 30 36 22 37 31 29 27 27 20 28 21 26 34 35 37 24 20 20 28 18 34
21 20 27 32 31 27 22 38 30 31 30 27 35 34 22 33 29 22 108 30 20 21 30 26 38 31 36 20 106 38 33 122 109 30 114 28 21 36 33 37 31 32 29 24 18 31 34 28 29 36 20 33 26 32 31 29 20 38 34 19 34 35 28 31
30 37 23 23 34 26 27 21 19 35 37 37 22 25 27 18 38 36 112 27 23 25 24 31 32 23 31 32 23 103 31 116 118 24 25 120 37 38 29 23 28 33 19 36 21 34 25 30 28 30 18 35 37 32 33 30 30 19 31 37 18 30 27 21
35 35 20 36 31 18 31 33 22 36 38 27 37 26 36 35 19 121 36 31 22 18 34 34 32 37 25 23 23 27 208 38 112 20 25 104 36 29 18 33 29 34 31 38 36 34 31 22 20 24 35 28 28 34 28 33 30 28 24 37 34 20 37 33
22 20 38 28 18 18 19 27 27 37 34 23 34 36 27 28 25 20 31 26 21 19 28 24 33 34 20 33 26 200 37 103 36 25 35 36 108 38 25 25 34 29 28 22 20 32 27 34 18 30 29 18 26 31 18 29 33 20 30 33 28 25 18 34
34 26 28 20 30 21 38 19 31 27 19 28 22 32 30 36 29 26 26 30 33 30 26 31 28 37 37 18 23 119 196 35 38 28 20 123 31 34 38 18 25 34 34 38 23 21 38 32 24 23 32 34 28 29 37 23 29 29 38 36 21 38 33 26
36 36 30 26 23 30 35 24 26 38 31 24 28 33 37 28 34 28 35 37 23 20 25 37 30 35 21 34 108 38 118 31 20 38 35 107 24 32 36 23 31 23 32 32 21 19 23 23 37 28 28 18 20 21 37 34 29 27 27 33 37 37 21 21
23 38 37 23 34 18 20 24 35 33 26 28 33 20 21 33 30 36 30 36 32 34 35 30 36 21 30 113 36 32 105 26 38 27 105 35 19 20 19 25 33 19 29 35 30 32 31 31 27 22 19 35 33 36 30 31 23 25 27 35 35 36 18 20
35 22 23 22 28 30 32 25 37 18 30 29 37 24 30 35 37 38 35 28 19 33 37 33 21 33 25 29 19 38 108 34 36 105 29 31 36 29 25 33 27 37 23 26 20 30 18 31 28 23 27 31 18 23 38 22 38 35 28 35 25 29 32 20
19 29 37 19 25 27 31 37 18 28 38 26 19 25 30 32 21 23 27 19 28 37 38 32 18 27 23 25 19 36 30 106 112 25 30 28 22 30 35 37 19 30 33 36 23 37 35 26 34 19 37 38 31 32 21 33 32 27 34 32 28 21 31 23
24 27 25 35 18 36 25 34 34 30 35 31 22 24 37 27 33 29 24 28 18 19 24 37 29 29 22 35 32 18 28 27 103 23 26 36 26 32 23 19 20 18 22 34 30 27 26 34 30 18 30 28 31 23 26 23 18 18 37 28 30 33 35 26
28 26 37 27 30 18 19 30 30 31 38 24 27 21 28 19 25 30 20 21 21 18 20 38 20 37 26 19 35 27 29 118 26 35 21 24 24 33 35 33 27 22 24 35 22 32 26 32 27 26 24 26 21 26 25 19 21 30 33 19 34 36 25 21
29 20 29 22 20 21 29 22 30 20 38 28 28 20 26 20 21 36 38 18 27 26 29 30 21 28 29 21 34 25 22 35 26 21 22 26 29 38 19 35 35 26 37 37 37 36 31 34 22 20 32 27 38 24 21 24 19 35 37 23 18 21 31 31
20 19 21 24 27 27 19 34 35 26 26 19 34 35 31 25 21 33 31 22 38 23 18 24 18 38 38 36 19 34 31 38 23 19 22 23 24 38 30 25 31 18 33 30 33 20 36 31 21 24 38 33 29 36 28 21 34 21 28 29 37 33 36 38
37 22 24 20 24 38 35 35 33 28 29 23 32 31 27 27 18 31 27 22 22 18 26 32 34 34 38 37 31 32 38 29 28 28 34 20 34 30 18 21 20 18 37 35 29 27 22 38 30 29 37 37 34 37 31 35 24 33 18 32 38 26 28 29
