P2
64 64
255
15 17 24 26 23 17 23 24 25 25 14 24 20 21 26 15 25 17 20 23 16 20 17 16 24 15 24 26 21 16 15 20 17 17 24 15 22 16 23 15 24 18 20 15 16 15 17 15 17 17 21 23 25 15 14 25 19 24 25 25 26 18 24 25
14 17 19 18 15 20 17 16 20 22 17 21 21 23 22 21 14 15 20 25 21 15 21 22 25 25 19 26 23 20 19 22 22 20 18 20 16 26 23 14 26 16 19 23 17 20 26 25 21 19 20 24 17 23 25 21 20 20 21 19 18 17 15 25
25 19 26 25 19 19 17 15 26 23 18 24 17 16 19 14 14 19 26 21 18 19 14 19 25 26 24 25 25 16 17 24 15 17 20 18 14 17 25 18 23 16 16 25 15 20 20 16 15 16 15 15 15 25 23 26 16 24 26 22 22 16 22 26
25 21 23 20 15 22 20 17 23 22 14 18 25 17 15 18 14 21 24 16 15 24 16 14 26 14 23 20 14 23 19 25 14 23 24 16 22 22 23 23 22 22 19 26 22 19 14 22 14 21 23 15 14 14 19 16 19 23 14 19 18 26 24 20
23 21 20 17 15 21 17 17 15 19 19 21 21 20 15 22 22 25 23 14 24 15 21 18 19 24 24 19 18 21 22 26 24 26 22 14 24 25 21 15 26 19 16 14 14 19 14 24 19 15 18 25 23 17 23 25 21 22 26 24 26 18 16 24
19 19 20 14 17 24 22 24 22 17 25 16 23 24 16 14 20 21 26 26 20 17 15 26 19 23 22 15 21 19 15 24 21 17 24 16 19 18 17 16 22 19 21 22 17 22 17 20 21 20 15 23 25 24 19 20 17 23 26 22 26 22 17 14
26 19 16 19 17 19 21 22 14 25 17 15 21 18 22 18 18 17 20 26 22 18 20 23 16 17 15 25 21 18 25 18 20 16 26 18 16 19 16 24 20 26 18 25 20 20 22 23 20 17 25 18 23 14 22 22 21 17 23 24 23 26 24 24
17 15 25 25 23 21 14 20 21 17 20 24 19 24 14 20 19 23 26 20 19 26 20 23 26 18 16 15 17 22 19 19 17 24 21 24 17 24 14 21 22 17 23 19 15 17 18 18 15 22 16 15 23 23 16 17 20 23 21 17 14 15 15 21
25 26 18 21 14 25 16 24 25 14 25 26 16 21 16 22 23 23 20 15 15 23 25 16 16 18 16 24 20 17 20 14 19 17 17 23 14 23 23 17 21 16 24 19 17 23 23 22 18 25 25 15 22 26 16 19 20 23 21 19 21 16 21 17
26 24 21 14 26 18 18 15 21 24 16 23 17 26 15 21 22 24 21 23 18 15 20 18 14 16 16 24 16 20 18 16 21 20 18 21 20 17 17 17 21 14 19 20 14 18 22 25 18 23 21 16 16 16 16 18 22 23 18 21 20 23 24 14
18 21 15 21 25 17 22 17 25 19 14 16 23 24 14 24 18 19 25 21 15 19 17 21 23 25 19 24 21 17 19 16 14 17 20 22 16 22 17 22 16 15 15 22 25 22 22 22 19 20 22 24 21 26 16 17 14 14 17 25 24 22 21 17
26 20 22 22 20 22 21 25 23 17 16 18 16 18 26 21 21 18 23 24 18 14 14 15 20 23 20 15 19 22 23 16 24 22 24 18 25 14 17 16 21 23 25 15 20 20 22 19 19 17 18 16 18 23 18 25 23 18 17 17 23 25 20 19
21 17 24 22 19 26 19 19 17 21 25 19 15 15 17 15 24 22 22 18 19 23 19 24 22 15 19 21 23 25 18 16 25 16 20 25 21 25 19 14 15 23 26 19 21 24 16 19 15 21 21 24 20 21 19 19 20 21 25 14 17 19 26 14
15 18 20 19 21 17 16 14 19 26 19 15 14 22 26 19 20 22 19 21 19 22 18 22 18 23 21 19 26 24 22 24 17 16 24 21 19 23 17 24 18 23 21 16 25 16 25 20 18 14 18 25 22 17 18 22 14 18 26 25 23 14 17 16
19 20 21 22 20 18 20 24 16 14 23 25 21 14 19 17 22 24 21 20 14 21 22 15 22 15 20 16 22 21 22 15 23 16 21 17 20 15 20 20 22 21 25 26 15 21 21 22 20 22 14 19 22 26 26 21 22 22 25 23 18 14 25 17
24 24 25 17 17 23 14 19 19 23 26 23 17 21 22 26 21 24 18 25 17 19 19 16 14 26 17 20 17 25 20 20 26 26 15 18 20 16 15 22 14 23 20 22 21 20 26 22 14 18 22 23 21 26 21 26 16 22 17 15 16 26 25 26
26 18 25 15 15 20 25 23 18 24 26 19 16 21 15 14 18 26 25 25 22 24 21 20 25 21 21 25 14 14 15 20 20 26 21 21 20 18 26 17 14 26 14 23 26 23 16 24 24 25 14 20 19 14 16 23 24 24 15 26 15 20 21 19
19 22 21 25 22 21 19 19 20 23 25 26 19 15 22 22 18 21 15 16 17 15 15 26 24 22 18 16 26 14 26 17 20 23 25 25 24 23 16 17 20 20 18 19 19 22 17 15 15 18 20 20 18 17 17 15 17 19 20 23 14 20 23 22
20 14 14 23 14 25 23 25 22 16 19 21 18 26 23 20 21 16 15 16 24 20 23 14 24 18 21 16 22 16 22 25 21 24 14 21 16 23 20 16 14 14 14 16 17 19 25 26 21 21 16 22 26 17 15 15 20 24 14 16 15 19 19 14
22 15 26 15 16 18 19 14 21 25 20 26 23 20 19 23 19 25 24 24 23 30 21 22 22 19 23 17 18 24 25 15 21 19 16 19 25 21 19 21 20 21 23 27 29 21 23 19 22 17 15 18 18 24 24 21 20 22 15 24 16 15 14 14
19 16 17 14 16 18 21 16 19 20 16 16 18 19 18 27 24 31 30 29 27 22 29 29 25 20 17 24 21 18 21 18 19 14 15 22 21 15 26 22 26 33 26 25 25 23 21 32 20 27 16 19 18 26 16 25 16 21 25 18 25 16 19 14
18 24 20 26 21 17 22 20 25 19 19 22 18 20 21 25 31 30 33 28 26 34 32 31 25 27 22 30 26 24 25 21 20 17 19 21 16 20 31 24 30 30 33 34 33 30 36 32 32 31 26 26 22 24 20 24 26 21 22 17 20 18 14 14
18 21 22 26 26 25 25 14 26 15 17 22 17 31 27 26 34 35 39 30 35 36 29 39 37 37 29 23 26 23 19 18 18 22 19 28 20 26 25 30 28 34 37 29 35 34 31 39 32 25 29 24 19 26 14 20 26 24 25 21 20 21 19 19
16 26 25 16 20 17 25 23 25 21 18 23 26 29 30 31 33 40 32 40 38 42 33 32 43 34 36 28 26 25 24 17 18 17 27 28 27 37 27 39 43 36 42 39 39 44 43 40 34 29 28 31 22 23 22 24 14 18 17 20 15 14 21 25
17 22 24 24 19 19 23 24 20 20 26 27 32 30 34 42 40 46 38 42 41 39 46 46 41 44 36 31 36 23 20 21 23 23 22 25 34 35 42 44 37 44 48 45 49 49 40 35 38 35 29 36 23 25 25 24 14 21 16 18 14 23 16 25
15 24 16 18 23 14 24 26 20 25 23 30 31 31 38 38 39 42 51 45 44 46 43 51 46 39 40 38 39 29 28 19 19 30 27 27 38 34 46 44 46 41 51 44 46 45 50 41 44 41 43 28 28 32 29 24 16 23 16 23 20 20 21 24
15 21 24 16 26 21 19 17 23 18 22 28 28 41 41 42 51 47 53 54 45 50 45 48 48 46 41 35 34 28 26 31 31 22 26 37 42 36 42 51 48 47 53 55 47 44 52 48 46 42 37 33 31 27 25 26 16 17 18 17 17 23 22 25
16 19 26 25 20 19 21 17 27 20 29 29 32 36 41 41 45 45 52 55 53 51 58 54 56 48 45 40 42 35 38 29 30 32 26 38 44 36 39 47 52 53 53 53 54 59 49 55 51 41 44 42 33 32 26 28 27 19 23 25 22 19 25 22
22 14 14 16 17 22 21 24 22 23 36 40 39 36 44 53 50 52 53 52 57 64 56 52 53 53 46 49 38 34 30 33 31 40 32 40 40 46 48 46 49 59 60 61 60 63 57 54 55 42 45 42 32 39 37 22 21 26 19 15 19 16 22 19
19 19 18 24 22 23 17 22 28 30 27 32 40 49 44 49 52 54 64 56 69 65 58 65 60 57 46 40 46 44 30 42 42 35 32 42 42 45 44 57 50 59 59 68 63 61 64 60 47 47 52 41 36 38 26 29 28 17 17 21 17 26 17 22
20 22 22 16 17 20 17 17 21 31 30 42 46 42 45 46 56 61 57 59 68 72 66 58 54 55 57 51 42 36 37 39 38 32 33 45 44 43 46 58 62 61 66 72 72 70 60 60 55 55 47 39 34 36 34 26 30 23 26 25 15 19 19 18
15 16 14 23 23 25 16 19 29 34 31 31 41 40 49 58 53 64 60 68 76 64 65 65 63 62 48 55 39 46 41 43 40 40 44 35 46 53 50 62 64 61 67 72 64 74 64 56 61 55 45 39 47 40 32 33 22 21 19 20 21 20 25 22
14 21 14 26 22 15 23 20 25 34 37 33 40 41 54 59 57 59 60 73 71 72 64 67 57 54 55 55 49 43 40 44 35 33 33 39 43 47 47 51 60 63 71 76 76 74 69 59 57 49 44 49 44 31 29 24 27 20 15 16 26 16 22 22
21 16 24 23 23 14 17 17 24 23 35 41 37 45 48 50 54 63 62 63 76 70 66 68 59 54 58 51 46 36 45 42 33 38 34 37 49 45 50 57 66 58 68 76 75 67 61 60 62 48 47 39 43 34 34 27 24 21 15 23 17 22 20 22
18 22 16 21 17 24 22 17 25 26 33 32 41 47 53 54 52 61 60 65 66 72 60 59 55 58 48 42 43 43 44 35 40 37 37 39 49 50 47 58 56 60 69 61 60 61 57 61 54 57 49 47 44 40 38 35 29 18 23 20 25 22 14 21
20 16 19 26 21 24 24 19 18 33 33 30 34 39 43 56 59 62 63 61 65 68 64 63 50 59 47 48 46 43 36 33 39 36 33 40 48 46 45 58 59 58 66 57 69 61 62 59 58 44 47 37 35 38 31 33 26 27 20 19 22 26 14 21
14 17 16 23 18 25 18 16 28 27 37 33 43 46 42 50 52 54 53 56 53 64 53 55 57 56 42 46 45 43 34 35 34 39 33 37 46 39 54 48 58 54 63 64 58 64 50 49 51 43 45 36 38 32 36 27 21 24 17 20 17 26 24 21
23 24 16 22 18 26 18 25 25 24 30 32 38 35 46 42 54 51 59 57 58 53 55 57 55 52 41 45 40 37 35 25 31 30 33 31 34 36 50 51 46 51 60 56 61 60 54 57 44 40 48 41 41 35 31 27 28 19 24 20 26 17 17 21
22 16 15 22 15 14 24 20 15 28 26 34 36 32 43 40 47 47 53 47 52 45 47 53 50 42 46 44 39 30 30 33 22 25 26 38 35 44 48 39 50 46 53 53 52 45 49 49 47 37 38 41 33 27 26 28 18 26 25 23 25 25 15 26
26 26 18 17 20 28 29 19 29 30 34 38 39 42 45 38 42 46 46 54 56 48 45 50 46 49 48 42 39 30 27 33 28 31 27 37 40 36 44 41 48 49 51 55 49 49 49 47 47 40 43 38 36 29 36 32 26 22 29 30 32 23 31 30
24 27 23 28 30 25 33 30 32 32 32 34 43 41 39 44 51 54 49 52 50 55 53 50 48 45 41 48 46 33 30 33 33 31 34 45 43 47 46 47 45 48 58 56 51 49 50 47 44 49 52 42 44 41 40 34 35 29 30 35 34 30 31 34
29 33 29 28 26 33 32 35 28 37 30 36 37 41 44 49 49 45 45 56 51 56 56 51 44 52 49 43 40 37 34 31 36 29 33 43 46 43 42 47 54 56 58 61 60 50 54 51 50 51 44 45 43 45 43 38 32 33 41 37 37 42 33 35
20 24 28 26 23 28 33 33 29 23 22 24 31 34 39 41 45 35 44 37 40 39 47 40 44 39 41 37 30 35 35 28 26 32 25 29 35 36 43 48 48 42 50 42 45 45 42 48 37 39 44 38 29 27 27 31 37 35 31 35 27 33 28 28
19 25 29 23 29 27 21 26 18 21 17 27 19 31 22 31 31 30 28 34 41 36 32 40 31 27 31 35 30 18 19 21 18 28 21 19 21 31 33 28 40 31 37 41 34 31 41 36 33 36 35 22 25 22 20 20 30 26 29 27 21 30 20 24
26 18 24 22 20 19 23 15 15 24 22 21 14 18 22 28 22 22 22 32 24 26 24 21 23 20 17 26 21 26 15 14 22 19 14 14 15 17 21 30 26 21 32 29 23 21 29 22 30 20 21 16 19 14 14 18 25 20 23 23 17 16 19 23
25 24 15 26 20 14 15 26 17 22 23 15 19 15 19 21 24 21 22 18 23 21 24 24 28 27 25 19 14 20 14 24 24 16 21 17 22 21 20 18 28 19 26 27 30 20 20 19 20 16 23 21 19 26 14 26 14 18 25 14 19 17 17 20
26 17 14 22 18 24 17 14 20 20 17 17 18 23 21 25 16 18 26 18 15 17 20 26 19 15 20 14 21 19 15 24 18 16 16 15 26 15 23 23 26 24 17 19 23 17 23 19 19 18 24 18 14 18 24 24 21 20 24 15 18 19 22 26
25 16 20 22 18 14 24 20 20 26 16 25 16 21 24 15 16 16 17 19 26 23 19 21 19 22 18 24 14 15 25 15 26 14 19 18 24 25 26 19 23 18 24 17 19 24 21 18 19 18 17 20 23 14 14 22 17 22 19 18 20 15 25 26
19 21 24 21 20 15 26 20 20 22 19 18 14 18 16 23 23 22 20 18 20 15 16 16 14 15 26 22 17 17 14 14 20 23 14 21 24 18 19 23 20 21 20 16 18 24 26 19 14 16 26 23 15 24 20 16 19 20 17 22 14 25 14 19
17 20 24 25 18 21 16 21 22 17 21 25 14 26 25 15 23 18 17 24 20 22 16 20 16 22 26 19 18 26 18 22 18 23 17 16 20 19 26 26 20 16 23 14 26 14 15 24 16 21 18 14 16 26 19 24 24 18 17 16 19 22 26 14
18 21 16 17 20 23 18 16 25 25 26 17 18 17 14 14 15 18 23 22 17 22 14 24 16 19 17 17 20 25 23 21 19 23 16 19 20 18 17 16 26 16 19 18 16 16 21 25 22 21 22 22 23 22 15 25 14 24 19 18 19 24 22 22
20 26 14 19 25 19 18 23 23 18 17 16 26 22 19 26 16 23 24 20 21 14 17 17 17 22 17 16 15 21 22 22 16 20 21 15 22 18 23 17 19 24 25 26 25 20 14 23 20 22 16 24 22 16 25 17 25 16 15 18 20 23 20 19
20 14 15 15 21 25 15 21 24 15 25 25 23 21 16 16 23 16 18 15 20 16 22 14 21 24 24 22 26 20 15 15 25 25 18 26 15 24 17 25 26 23 16 19 22 16 26 16 24 17 20 26 25 18 15 15 14 26 21 15 21 26 25 14
14 26 25 20 24 21 24 23 23 26 14 17 19 15 21 23 17 17 19 21 22 17 19 19 14 16 17 21 23 23 22 20 17 21 23 18 23 18 20 17 22 22 25 17 23 19 26 18 26 26 19 21 14 17 22 22 24 14 25 24 23 15 26 18
23 15 21 26 18 20 19 24 18 25 22 22 23 24 14 19 26 26 19 25 18 23 25 24 16 22 22 16 18 16 19 20 17 25 19 16 15 22 23 18 17 22 26 15 16 17 16 16 24 26 15 21 26 14 23 17 20 20 18 16 14 26 23 17
21 20 18 22 22 21 23 15 19 17 23 14 16 26 14 14 24 20 21 14 18 17 26 24 18 18 24 14 23 15 17 15 22 15 24 15 14 25 21 15 16 16 17 25 15 15 19 26 22 16 16 15 20 22 25 16 24 26 21 16 17 22 21 23
21 16 22 21 14 16 25 19 21 24 25 20 23 20 14 24 14 14 14 21 24 26 25 21 21 23 17 16 20 20 24 20 26 15 26 14 18 21 26 25 16 17 14 18 23 25 18 23 20 20 15 14 26 21 22 21 25 18 24 19 21 23 26 15
24 21 20 26 18 21 21 24 16 23 14 18 17 23 23 17 16 21 19 15 17 22 25 18 20 24 20 25 16 19 26 19 15 17 17 18 17 14 14 16 18 26 19 16 24 24 25 25 19 23 26 15 22 15 23 19 16 25 17 24 20 23 21 23
18 19 14 23 21 17 17 14 20 20 19 19 22 22 17 25 18 19 25 21 20 25 26 14 14 19 21 18 24 21 17 14 17 15 24 24 18 19 14 16 14 26 19 20 26 26 24 15 21 23 22 21 15 25 19 19 26 17 25 25 14 21 26 17
23 17 23 26 22 26 22 22 21 24 21 25 15 15 20 18 25 26 21 23 15 24 17 19 22 16 16 26 26 23 15 19 23 21 24 26 21 16 21 20 25 24 22 16 17 16 14 19 18 15 22 22 19 22 25 26 14 14 16 24 23 24 15 24
18 17 16 20 17 20 14 22 20 23 25 17 15 26 19 22 17 24 22 23 24 21 25 23 17 24 18 25 14 17 19 15 25 14 17 18 21 22 18 26 25 23 22 22 17 25 21 23 25 20 14 18 23 16 15 16 14 14 24 25 17 19 24 22
22 20 21 17 21 25 21 19 18 16 26 18 24 25 21 15 19 25 25 17 23 18 14 25 23 20 14 22 14 17 17 20 24 15 20 14 24 24 20 22 18 14 24 21 19 26 23 17 20 18 23 21 24 19 17 26 15 19 22 20 14 19 22 22
15 18 20 24 23 18 18 22 26 20 23 17 18 14 24 22 24 15 23 18 25 15 21 15 18 19 19 20 23 14 24 22 21 20 16 17 20 15 15 19 15 18 26 21 14 21 21 16 23 21 17 19 22 16 21 20 19 18 14 24 20 26 26 20
25 15 15 15 19 21 22 14 23 20 16 18 17 17 16 23 16 25 25 25 24 16 14 18 15 21 18 23 19 17 23 21 22 18 23 20 23 14 19 24 22 17 23 18 20 18 26 14 19 16 14 15 20 17 15 26 25 24 15 16 20 14 23 22
