P2
64 64
255
17 19 24 19 24 24 23 25 24 15 15 18 25 14 15 21 16 26 15 17 17 23 16 15 19 23 23 20 24 26 14 14 21 17 23 21 17 20 24 16 17 21 19 15 25 25 24 25 18 23 24 25 17 15 26 26 24 16 19 26 22 25 24 19
19 19 16 18 17 21 21 26 22 25 24 15 16 24 18 23 24 20 19 19 16 16 14 23 26 15 23 20 25 26 14 23 20 23 20 19 14 16 24 26 18 18 24 23 18 18 26 20 18 25 25 14 25 20 15 18 18 25 18 24 16 24 21 24
18 14 21 18 17 18 18 25 23 19 17 15 17 22 22 23 19 19 16 18 22 19 21 21 18 26 15 15 26 26 25 19 18 26 20 22 21 19 14 15 19 23 23 16 15 24 25 20 24 24 21 23 21 26 19 15 21 18 23 21 21 18 18 15
26 26 19 16 16 15 21 26 19 19 24 18 26 22 24 18 22 18 21 24 19 22 23 20 15 14 17 17 18 25 19 19 24 16 26 24 14 17 22 23 22 16 19 17 20 16 23 17 16 24 23 20 14 17 22 18 15 14 21 16 14 20 14 16
21 22 17 20 23 25 14 24 17 23 18 24 14 15 21 22 14 14 19 14 25 26 26 22 19 21 16 22 17 23 20 14 21 16 21 20 23 20 20 20 18 21 21 14 24 16 15 21 26 21 24 23 22 25 25 21 21 14 14 14 14 24 26 22
19 23 16 15 25 21 15 25 16 25 21 24 16 16 17 25 24 22 18 14 21 21 19 23 23 22 25 25 22 22 18 20 17 19 21 25 17 26 14 24 18 18 23 26 18 20 16 25 16 14 15 19 22 23 25 16 17 18 25 21 23 15 15 21
20 15 19 17 23 25 20 15 23 24 14 19 19 15 19 21 18 21 22 18 25 26 15 17 17 21 14 20 22 19 18 24 25 16 17 20 16 26 26 14 22 20 18 18 16 14 17 23 21 23 20 24 21 21 26 26 26 24 19 18 14 15 19 17
23 25 17 16 16 21 24 21 17 26 15 24 24 24 19 22 17 17 16 16 19 16 22 19 16 17 17 19 15 18 26 19 14 19 21 23 22 14 21 23 26 18 20 20 21 23 18 26 25 14 17 20 22 24 19 20 15 18 15 22 17 24 14 15
14 14 25 15 21 16 26 22 18 16 21 18 24 25 20 25 24 16 15 26 14 18 19 16 15 25 24 25 22 24 19 22 19 23 20 15 19 20 23 17 20 17 19 19 22 14 26 15 24 14 19 26 20 23 26 16 25 20 15 16 15 16 23 17
22 23 14 25 15 22 19 18 25 25 25 22 16 25 15 15 17 26 17 16 20 16 26 14 14 19 26 23 26 18 19 26 15 26 23 14 26 20 20 26 17 21 25 25 16 22 22 26 14 23 24 25 25 23 16 25 26 15 15 26 15 21 15 15
26 17 18 17 20 21 16 26 26 14 23 25 25 15 25 17 15 26 22 25 23 14 26 19 26 24 18 16 20 20 14 26 20 23 21 26 18 24 14 25 14 17 23 21 20 24 26 25 17 18 26 24 15 21 18 21 17 16 15 18 20 26 17 15
14 19 23 17 14 18 19 26 25 23 15 18 14 19 20 26 17 23 17 19 25 24 20 21 15 25 17 25 14 26 20 25 26 17 21 18 14 19 21 17 23 14 25 26 18 23 20 17 22 22 17 26 16 19 14 20 18 22 25 22 22 25 22 20
23 24 23 25 18 22 24 14 19 14 19 25 24 25 21 14 14 18 19 24 22 20 20 25 23 23 20 19 26 21 26 25 23 22 24 20 17 17 20 22 18 23 16 17 21 19 23 25 20 23 26 18 25 22 25 24 14 17 22 19 24 17 18 20
22 15 15 19 22 17 21 24 16 20 17 17 24 25 24 18 14 25 26 18 16 19 16 14 26 16 26 22 14 15 25 22 16 26 21 23 24 16 21 21 24 18 14 17 18 24 21 23 22 26 17 19 18 20 26 19 25 21 22 21 21 15 14 26
20 14 26 21 19 25 20 17 26 20 14 17 17 25 18 24 20 15 25 19 14 19 24 16 23 17 22 26 14 16 14 22 18 26 21 26 19 14 14 16 23 20 18 20 17 25 20 16 20 19 19 17 20 18 21 17 26 15 22 20 21 22 18 25
17 19 23 20 22 25 25 15 15 21 19 14 26 23 17 16 22 21 15 24 26 22 15 19 24 15 25 15 14 16 23 18 20 16 17 25 26 16 20 21 14 22 26 26 16 14 26 23 15 17 21 16 18 17 25 16 16 15 19 23 26 16 15 21
14 25 15 24 20 22 25 25 25 24 26 22 18 15 16 21 16 16 25 17 18 21 20 26 22 15 20 25 21 26 22 18 21 20 26 18 20 26 16 23 15 25 24 19 25 18 26 23 22 20 26 18 24 24 24 19 19 25 18 24 24 15 22 20
16 26 18 26 21 24 26 15 16 17 18 24 23 25 15 20 21 21 18 22 26 23 18 15 25 18 23 21 19 24 23 14 26 22 21 18 24 22 18 22 25 20 14 23 20 16 20 26 19 21 20 15 22 20 21 19 24 21 14 15 20 24 25 15
25 23 22 25 26 20 23 24 23 26 18 25 22 18 22 23 20 24 15 26 24 16 18 22 23 26 24 22 19 24 23 26 18 18 23 20 17 14 25 24 15 20 17 26 17 15 22 14 23 19 14 22 22 21 19 24 20 21 16 16 14 18 21 15
20 26 19 22 16 22 19 17 14 15 22 14 23 22 21 24 15 23 25 23 29 22 19 22 26 18 26 16 20 23 22 14 24 22 25 22 23 24 20 27 20 18 27 18 28 29 28 24 20 23 21 19 17 21 21 24 22 18 25 21 25 22 25 26
26 19 14 20 24 24 18 22 14 15 22 21 18 18 26 26 20 32 25 23 24 27 25 24 25 23 20 23 25 17 22 15 15 18 16 16 16 27 20 27 21 28 24 23 22 24 30 23 18 17 15 19 25 14 22 24 26 18 16 20 16 25 18 17
19 17 15 14 17 23 24 24 15 26 22 18 15 17 29 27 33 27 33 29 35 37 26 27 29 34 32 21 19 17 16 27 27 28 28 20 19 21 26 32 28 32 32 36 30 29 24 28 28 30 30 24 22 18 23 22 25 24 15 17 14 14 20 25
25 18 14 19 20 15 15 15 25 21 20 22 17 30 29 26 27 32 30 35 41 41 40 40 38 33 27 34 32 30 33 33 33 26 24 34 26 29 26 38 31 39 37 31 33 34 33 36 32 29 34 22 27 19 23 15 15 24 26 26 19 20 14 17
24 23 22 21 22 21 23 18 25 21 22 20 25 35 31 29 30 31 37 34 44 37 35 41 37 36 41 34 46 41 37 35 31 31 43 41 44 46 43 35 39 37 35 34 41 34 43 36 41 38 35 26 30 26 23 24 22 23 18 20 17 25 21 26
22 15 19 15 22 15 16 20 15 24 28 23 34 28 38 39 43 42 48 44 40 40 45 40 43 44 52 55 52 46 41 47 41 48 41 43 55 45 47 52 50 50 45 46 42 43 47 40 33 37 37 27 35 23 26 14 23 26 24 22 14 20 18 20
14 24 19 15 23 21 17 26 23 28 28 23 36 28 33 46 47 42 50 45 52 50 49 50 59 56 57 56 54 59 54 57 57 49 60 56 57 60 56 59 55 54 50 42 52 51 45 41 39 39 36 28 35 22 22 19 15 19 23 14 15 25 23 22
21 15 15 21 18 21 15 15 20 23 29 25 36 36 42 42 51 50 54 50 45 54 63 59 59 67 64 60 68 69 58 60 67 55 59 67 67 63 68 71 61 58 57 60 53 54 44 47 45 42 34 40 40 25 29 19 21 23 25 21 20 25 20 15
18 25 17 22 14 20 23 20 19 21 32 37 30 41 45 47 48 53 51 53 59 56 63 67 69 77 75 69 76 73 75 70 74 66 66 68 71 73 69 68 70 69 60 57 54 50 54 54 49 50 42 40 39 27 31 27 27 17 16 20 15 20 19 20
23 16 23 15 15 14 22 22 23 27 25 34 40 44 49 42 57 48 60 65 70 70 73 75 80 80 85 83 86 82 77 78 77 77 82 77 75 81 79 84 82 74 70 64 64 61 61 58 48 51 46 44 42 40 28 31 23 19 16 17 20 21 18 17
16 22 20 18 20 25 15 19 29 32 26 32 40 41 43 49 58 60 57 64 74 75 87 85 90 93 82 84 85 84 83 93 91 83 80 91 94 82 85 86 90 81 80 75 73 68 57 60 59 44 41 37 33 41 31 25 24 16 26 26 25 24 17 17
14 20 26 23 20 19 17 23 19 31 29 34 42 41 51 57 50 64 68 76 84 84 87 86 95 92 95 94 100 97 98 95 90 96 98 88 96 91 98 97 91 95 89 80 79 73 68 59 57 47 52 45 39 32 28 31 28 26 22 25 19 21 18 25
21 18 17 21 24 17 26 23 31 34 31 34 35 44 46 49 53 56 63 71 89 93 95 101 97 99 106 94 98 106 100 105 97 99 104 100 98 98 100 103 102 98 97 84 81 77 64 65 60 59 54 49 35 33 27 28 21 27 17 21 26 19 14 26
19 19 19 24 18 23 17 26 27 34 35 33 42 41 46 51 63 65 67 79 94 93 97 105 105 98 98 103 100 102 103 105 110 110 112 102 108 102 106 105 97 98 100 95 89 74 64 67 57 52 46 48 40 33 37 27 29 22 16 19 25 23 19 20
14 16 16 19 14 22 18 16 25 24 39 35 41 46 49 56 53 62 70 85 87 98 94 101 96 108 100 102 108 104 108 108 111 119 107 109 113 113 104 99 106 106 96 95 89 86 70 63 51 58 54 51 36 39 34 29 32 28 22 25 23 19 16 26
24 17 20 20 18 26 19 24 30 34 30 34 39 43 50 46 49 65 66 82 80 98 103 96 107 110 112 105 107 111 122 119 121 123 113 118 111 104 113 109 106 104 91 88 79 78 64 59 60 54 47 48 43 31 35 24 20 17 22 15 14 17 26 14
16 21 16 19 21 24 25 20 19 27 38 40 39 46 43 52 49 61 62 74 79 89 95 96 101 108 102 107 111 112 118 123 130 121 117 110 106 114 104 100 96 104 98 91 87 78 70 61 52 47 45 44 39 40 36 26 19 17 21 19 18 21 21 24
26 26 17 26 23 21 21 16 24 23 26 37 41 44 46 47 47 54 67 66 75 84 87 93 100 101 99 110 108 114 121 126 123 116 113 109 105 103 100 100 98 98 85 83 80 66 63 57 57 54 47 43 34 28 35 28 29 22 26 16 15 24 16 23
19 20 20 19 17 15 16 17 25 27 26 31 34 42 49 42 42 48 58 73 70 76 84 87 98 94 107 100 104 111 111 113 121 122 106 116 107 105 103 95 101 88 82 81 70 65 61 49 53 49 48 34 33 32 35 27 25 25 20 15 14 15 14 24
23 25 21 16 16 14 22 22 14 23 26 31 34 39 39 46 50 47 53 67 71 71 76 80 88 92 98 99 108 106 110 109 111 111 107 107 105 103 102 99 84 83 76 71 66 59 55 49 41 44 35 38 32 35 28 22 22 21 25 25 18 17 16 22
23 18 19 20 24 16 14 17 19 16 28 24 34 35 40 37 37 45 48 56 63 68 75 85 81 91 93 93 91 102 100 96 99 98 104 97 95 92 91 93 89 78 76 66 62 65 53 42 44 34 39 37 30 29 26 26 24 23 18 17 22 20 14 21
23 16 25 19 24 17 15 18 21 21 19 28 27 34 36 36 33 36 48 56 65 68 77 70 81 88 82 86 86 90 86 91 83 85 87 89 92 84 88 82 73 75 68 71 61 47 40 35 42 31 31 32 27 32 26 25 17 16 20 21 18 24 22 26
25 19 20 21 19 24 26 16 25 25 24 26 25 29 36 36 39 35 39 41 49 56 60 73 72 80 77 85 79 87 82 79 81 77 84 88 78 85 74 78 69 67 67 58 50 51 38 35 31 34 36 23 20 26 27 16 15 15 21 19 25 25 18 24
18 17 19 23 24 18 22 19 23 19 18 15 26 23 26 25 38 35 36 39 51 54 58 55 63 74 67 71 75 78 76 81 82 77 76 79 78 67 68 74 64 61 51 47 44 46 31 30 31 25 32 32 27 23 21 23 17 19 17 24 18 18 14 24
15 25 20 16 17 20 20 18 24 18 23 21 18 18 20 25 28 29 34 34 35 38 43 58 54 55 61 64 71 67 72 72 69 69 66 70 63 62 59 65 57 50 53 41 36 32 35 24 26 28 31 18 20 15 23 26 17 21 21 25 14 16 19 20
18 20 23 15 21 22 24 18 22 22 16 15 19 24 20 23 29 20 30 32 38 37 38 48 50 56 49 60 52 61 59 68 70 69 60 58 55 58 57 48 54 47 45 38 28 27 33 23 29 18 16 15 22 18 26 14 26 23 26 18 22 26 22 22
17 19 26 24 18 25 26 21 19 18 21 23 22 24 20 20 23 24 26 21 29 27 40 37 47 45 52 54 50 57 63 61 62 64 63 50 57 48 45 43 40 37 30 25 27 27 21 22 24 23 19 15 16 22 17 24 24 16 22 21 15 17 20 22
22 20 18 18 24 18 20 15 21 17 24 26 24 23 21 18 15 20 14 16 23 28 26 32 39 38 37 44 44 49 47 50 48 49 44 45 43 46 47 38 36 29 23 22 24 14 14 19 18 19 25 15 23 24 18 19 19 16 26 24 14 23 17 16
14 17 25 26 26 23 21 22 16 14 22 18 22 15 25 26 16 23 21 17 26 25 22 22 28 39 37 33 38 43 43 41 48 47 50 44 38 36 34 29 29 23 25 18 24 24 25 24 20 21 19 26 24 19 25 17 15 20 15 14 17 17 20 24
25 20 19 24 19 24 22 19 19 14 22 16 17 18 15 21 14 20 22 17 22 20 19 19 21 28 36 29 39 39 39 38 42 34 39 33 37 30 27 29 29 27 20 22 14 22 21 24 23 25 23 21 19 20 16 15 24 21 24 15 26 25 14 16
15 19 26 24 23 19 22 20 26 22 14 26 20 23 16 18 14 20 21 18 17 16 16 25 25 27 31 33 24 35 31 35 32 32 34 30 25 22 26 22 18 17 23 18 14 20 24 21 22 15 25 14 20 22 18 18 25 17 23 14 16 17 15 15
15 15 20 17 26 22 22 23 18 17 21 25 17 20 19 16 24 18 15 18 21 26 21 14 20 15 16 23 18 20 31 31 32 22 24 30 17 23 18 24 24 22 19 21 18 16 18 18 15 22 24 26 17 19 16 16 21 24 16 17 23 20 26 15
26 24 26 17 19 16 25 25 16 22 22 22 18 20 26 16 19 17 18 23 25 22 25 18 15 21 25 25 25 25 25 15 26 23 23 25 15 26 15 21 17 20 21 14 17 25 15 16 14 20 18 25 15 14 17 17 23 22 18 20 24 24 23 26
19 19 21 16 24 21 21 17 24 15 17 22 15 24 22 16 25 22 14 14 14 15 20 17 16 14 16 24 17 18 25 22 14 19 20 25 22 26 17 18 20 25 21 17 14 14 18 15 26 22 19 18 19 22 24 20 20 21 16 23 23 14 16 26
19 24 19 15 20 18 16 26 25 17 15 17 26 23 16 21 23 21 23 16 15 19 15 20 22 19 18 16 21 23 14 16 23 25 19 19 25 15 15 22 25 19 14 21 14 24 26 24 14 19 21 15 25 26 25 24 26 22 22 18 17 16 24 25
19 15 16 21 24 16 23 20 18 26 25 24 24 18 14 24 25 25 16 16 23 19 20 15 23 25 19 14 15 19 26 15 17 17 23 25 15 16 14 17 22 25 19 17 18 18 18 26 23 21 19 24 18 20 15 20 21 16 15 15 19 15 17 25
24 18 18 26 21 19 24 25 19 26 22 16 14 24 25 26 16 19 17 19 26 19 25 21 20 19 23 20 23 23 23 25 22 24 16 19 19 18 20 25 17 22 24 14 24 18 18 20 21 24 22 25 20 17 21 26 16 24 24 20 24 24 15 18
21 20 25 19 17 24 25 18 14 14 20 15 14 21 21 25 15 26 21 23 22 15 15 15 19 21 17 19 24 19 15 17 23 14 25 17 17 26 14 17 21 22 18 15 17 14 23 19 18 26 24 20 19 21 24 16 18 25 17 20 26 15 22 18
26 26 18 14 14 26 21 22 14 25 19 25 18 17 15 16 17 17 26 23 26 21 14 21 22 15 20 15 22 24 22 22 23 21 14 24 20 23 24 20 24 22 16 24 17 23 16 16 14 26 18 25 21 20 24 15 18 15 19 18 18 16 26 26
25 18 26 21 24 24 22 23 23 22 26 14 15 18 24 15 21 18 22 19 21 24 14 26 18 22 14 22 18 22 25 17 22 20 23 17 26 19 26 16 15 20 24 23 19 24 23 25 23 17 16 15 25 14 21 16 20 14 23 19 20 24 14 23
20 23 22 17 23 24 21 26 15 25 22 16 26 15 17 21 18 26 20 25 16 15 14 22 15 26 17 15 14 15 25 18 22 25 15 16 23 21 15 20 19 17 14 19 18 15 24 18 19 26 25 16 25 26 24 25 19 18 17 19 25 15 23 25
17 16 20 17 26 19 14 22 18 24 21 25 16 24 16 14 18 14 23 19 22 17 16 22 20 21 20 22 26 15 14 15 14 15 18 21 14 15 23 17 25 14 23 16 23 26 26 16 25 14 14 25 23 22 18 21 21 21 22 22 18 23 23 25
21 23 26 15 16 14 17 22 15 15 18 16 18 19 22 15 25 18 24 26 23 25 22 14 14 21 14 19 14 20 22 24 15 21 23 23 24 20 14 25 23 24 24 23 21 17 16 20 22 23 18 15 16 17 26 23 18 18 26 19 22 22 16 14
19 14 15 14 25 22 18 20 19 21 20 25 24 18 23 24 25 22 20 26 23 20 23 19 16 21 25 17 18 23 23 20 21 24 24 23 23 26 21 15 21 20 23 16 23 23 16 15 17 16 25 14 22 21 16 24 15 17 17 21 18 18 15 25
20 18 15 14 14 18 16 15 20 23 16 17 22 16 15 24 19 18 19 26 20 15 26 20 20 21 21 25 26 19 23 22 20 14 15 21 21 20 20 23 17 19 19 17 15 23 26 25 19 19 26 14 15 21 23 20 23 25 25 14 16 26 18 26
