P2
64 64
255
28 34 22 24 30 37 19 31 36 35 25 18 29 21 27 37 26 25 23 33 23 27 33 26 35 38 36 24 23 25 21 34 35 23 36 21 26 18 20 22 32 31 31 34 37 36 35 26 19 25 22 38 38 22 18 18 21 21 30 25 38 22 23 33
33 32 24 28 29 25 30 21 21 24 19 20 29 34 37 28 26 29 26 33 21 28 38 22 31 32 37 26 30 22 35 30 29 23 19 34 32 25 23 21 29 24 25 19 25 30 27 30 18 37 37 26 19 33 25 25 30 33 31 31 27 18 27 24
33 33 38 27 38 37 23 29 20 26 31 28 31 27 19 28 24 37 31 33 20 23 28 25 26 18 31 32 29 18 20 37 22 26 31 35 23 32 22 35 24 36 24 32 28 31 30 23 36 20 21 37 30 31 26 35 37 19 27 30 23 19 31 25
36 20 26 32 31 18 34 34 32 21 30 30 27 32 37 18 22 36 20 25 38 33 20 32 19 22 28 23 24 24 37 25 26 34 28 33 31 25 18 27 18 36 37 28 35 21 31 33 28 19 35 35 22 20 27 30 26 20 25 26 22 30 31 20
28 25 34 18 27 18 19 33 32 18 18 21 36 22 32 27 38 34 34 23 35 30 38 28 26 28 19 18 29 36 32 31 25 18 23 19 28 38 23 23 38 22 28 38 35 32 25 32 32 27 20 30 21 31 38 33 19 24 27 24 36 28 21 28
29 22 33 20 36 38 25 19 36 19 19 33 20 35 28 23 28 24 20 23 28 38 25 31 18 25 32 29 38 31 31 29 31 21 27 38 30 37 29 25 34 19 19 27 36 30 24 28 28 21 29 23 23 23 24 20 38 32 18 29 21 28 33 36
23 18 32 24 18 35 24 25 38 28 36 28 35 24 30 38 24 24 30 34 21 32 38 25 37 28 21 21 33 32 30 20 30 28 23 31 18 30 32 28 34 32 34 29 19 24 22 32 37 29 29 36 28 37 27 29 26 27 35 31 30 28 36 32
31 27 29 30 27 30 34 29 37 20 38 18 30 25 23 32 25 21 34 24 30 36 28 20 22 38 31 30 36 34 24 24 34 34 22 34 33 24 34 28 30 19 35 30 24 20 37 38 26 29 33 32 31 35 22 30 26 35 22 23 26 25 23 37
34 25 37 32 33 35 20 34 37 35 36 21 26 23 33 38 18 21 22 35 35 33 29 31 25 33 19 21 19 22 22 24 21 38 37 21 30 31 36 21 32 20 35 19 38 21 31 36 34 21 37 36 20 30 22 21 38 21 25 31 18 24 26 30
19 30 30 33 26 28 30 18 33 19 25 36 37 33 30 23 37 37 27 32 30 18 32 20 24 35 38 21 26 34 38 22 32 32 33 37 25 32 29 31 37 18 30 28 22 27 33 32 23 31 25 38 32 28 32 35 29 32 33 24 33 23 21 28
28 38 23 32 31 27 33 24 37 37 38 18 38 32 27 27 31 35 23 21 36 36 24 24 24 26 18 31 35 38 27 28 26 22 24 24 29 26 21 26 35 32 31 18 28 32 24 19 31 26 22 34 24 34 25 37 30 18 31 34 33 30 34 31
29 33 19 36 35 35 37 19 27 31 22 37 22 34 31 31 20 37 23 21 26 25 24 23 25 28 37 33 28 18 22 30 18 32 38 19 26 18 22 19 20 20 32 33 30 32 32 38 25 26 21 33 19 30 26 36 29 23 32 30 28 34 33 38
19 21 28 28 36 34 24 36 26 37 23 25 29 23 26 38 22 30 32 18 32 29 36 20 27 37 27 25 25 30 35 25 31 30 27 36 34 22 22 38 30 30 33 35 22 18 38 27 22 30 38 22 36 27 33 38 29 23 24 22 24 33 24 34
36 37 36 25 20 25 32 33 33 32 23 31 25 34 28 23 34 31 24 20 35 22 21 28 36 37 24 34 23 19 28 30 22 18 26 24 32 19 20 35 25 28 26 24 38 21 35 23 20 28 24 28 18 33 24 22 37 22 24 28 31 23 23 28
25 33 21 19 28 20 25 21 37 36 34 19 22 30 33 38 35 35 21 19 32 37 21 27 22 27 38 37 34 26 29 25 26 18 24 29 25 28 18 26 28 38 31 26 38 25 33 19 24 20 37 23 25 18 32 36 25 20 25 25 30 23 33 26
29 37 27 36 26 34 23 25 24 20 31 18 26 31 25 29 19 28 24 19 27 18 25 32 38 38 29 28 29 34 38 25 36 21 28 38 35 36 32 18 31 20 33 37 29 31 26 19 29 28 28 19 24 36 37 37 36 29 26 23 18 25 38 36
35 19 33 31 22 34 32 28 36 36 34 31 35 24 25 28 33 24 22 20 24 26 20 24 23 31 38 22 33 36 20 23 30 22 34 24 27 33 36 36 19 20 35 22 22 37 32 30 28 38 25 30 38 24 34 27 35 38 35 27 25 32 21 25
37 23 26 23 37 31 38 18 34 35 20 33 30 27 20 35 24 18 26 33 30 25 32 27 20 19 25 32 31 22 27 18 33 37 20 23 29 38 34 20 38 31 35 35 33 38 20 35 36 29 35 33 18 28 31 35 19 31 29 20 27 29 34 25
25 22 33 33 32 37 36 28 29 21 26 22 22 30 38 20 37 18 33 29 37 21 31 24 23 38 29 30 25 29 35 25 29 20 25 20 33 38 18 32 22 21 31 25 36 30 32 18 26 21 26 34 26 21 19 25 35 32 29 21 34 20 21 19
30 22 21 38 30 35 20 28 31 22 25 38 23 36 35 25 21 23 26 39 35 36 41 27 34 20 29 23 28 20 23 26 35 19 25 19 21 23 30 37 21 24 37 40 41 28 40 40 37 20 35 26 19 38 24 21 37 22 30 30 20 21 30 22
34 27 32 28 37 34 34 34 21 27 24 31 29 36 37 36 22 43 28 35 37 26 39 31 28 23 28 20 18 26 34 28 30 23 23 30 25 29 23 31 39 37 32 34 27 41 37 24 38 26 37 31 36 31 34 18 19 34 21 31 28 21 37 37
19 37 18 31 31 26 23 27 37 36 21 38 23 41 37 39 44 29 45 45 41 34 46 34 42 45 40 28 20 21 18 18 29 31 32 18 32 38 43 27 47 33 36 46 30 30 46 40 44 44 31 34 38 31 20 23 37 30 36 19 21 36 36 30
20 33 26 19 32 31 29 29 18 30 27 35 24 26 29 42 31 31 43 42 45 41 53 49 51 44 38 33 27 38 35 34 20 21 24 35 29 36 28 37 33 37 50 50 39 36 46 36 48 34 38 43 25 34 24 32 28 20 26 32 33 31 38 25
36 18 33 18 21 30 28 28 27 27 27 28 26 30 33 40 48 42 56 43 39 50 44 50 53 51 33 49 29 34 40 37 26 31 29 25 38 36 37 44 54 36 46 40 54 54 47 37 34 45 43 32 24 38 25 35 22 25 32 25 24 31 25 26
23 32 33 21 21 22 18 20 25 25 36 24 37 32 33 45 39 47 52 41 46 54 49 54 40 46 43 43 43 45 29 33 31 21 38 34 50 52 47 37 45 43 59 57 44 57 51 40 37 45 40 36 35 38 31 37 24 24 37 30 30 35 23 20
18 21 19 34 20 23 38 22 35 23 34 44 42 49 47 49 58 52 49 56 50 60 47 46 48 51 54 46 49 43 37 37 27 26 34 34 45 39 41 40 45 57 47 57 63 53 56 45 46 38 41 39 33 41 38 28 23 22 38 22 32 32 20 25
37 34 34 18 24 28 18 21 30 25 28 32 41 51 44 49 63 53 48 67 51 56 53 47 53 62 58 41 52 35 47 29 42 31 44 39 49 52 54 46 49 56 63 56 52 60 63 50 50 48 42 55 49 40 42 27 37 31 34 26 32 19 34 29
33 37 20 38 21 30 20 34 32 28 45 50 39 52 44 46 64 55 68 54 66 61 72 69 65 48 57 45 42 42 50 44 34 43 50 49 57 58 57 46 56 54 54 68 65 66 64 64 52 60 53 37 54 46 39 42 35 37 23 23 36 36 37 18
31 26 23 33 34 22 22 32 25 29 35 49 46 47 57 66 67 62 70 75 77 74 75 61 53 50 61 54 43 52 37 41 39 32 50 51 45 59 48 50 62 67 59 65 72 59 69 55 51 60 56 51 37 37 45 33 23 28 22 24 25 18 27 22
26 20 23 29 25 21 38 19 28 32 45 53 39 50 61 56 53 70 66 74 72 61 64 60 70 67 53 58 50 55 46 43 40 52 36 49 51 55 61 51 66 71 64 65 76 78 67 63 69 53 58 52 56 49 47 38 31 27 24 21 29 28 25 35
22 36 36 21 26 37 38 38 29 41 46 42 53 53 49 64 73 70 71 78 81 84 79 72 76 60 63 59 57 46 43 52 47 46 42 54 56 53 66 59 64 71 75 76 78 78 78 72 61 50 66 54 41 35 43 33 36 27 28 36 18 38 35 33
33 28 26 35 33 18 31 31 32 39 43 36 51 58 53 55 72 67 64 75 78 71 65 64 65 65 56 50 52 58 49 50 55 42 49 58 52 67 69 70 74 73 66 81 76 67 66 73 60 67 51 54 46 47 34 45 43 36 31 21 24 38 32 28
36 21 28 22 25 18 22 25 30 47 43 38 51 60 63 67 64 71 70 73 91 75 69 63 75 69 68 51 62 58 48 45 44 54 40 43 58 52 51 67 64 82 69 74 86 84 63 79 63 71 65 55 55 47 34 36 32 21 30 26 22 38 31 28
29 31 21 30 27 22 24 27 31 39 32 49 53 54 61 59 66 59 64 85 75 76 69 75 62 74 52 62 61 57 43 55 40 49 41 59 61 61 58 57 59 82 85 75 77 85 80 67 55 51 47 50 56 45 49 39 28 37 22 22 35 25 28 20
38 23 33 23 26 32 33 39 27 32 49 48 51 57 53 56 65 58 73 68 64 66 81 67 61 64 56 63 43 41 53 45 52 53 51 46 42 50 58 61 76 63 71 68 83 78 69 61 68 62 54 57 52 41 36 45 40 34 36 23 21 18 27 26
20 25 19 38 34 21 28 35 30 35 49 36 47 59 45 67 58 62 59 76 65 67 64 58 73 64 50 55 55 43 49 34 38 52 49 37 45 50 55 59 56 64 78 76 78 79 68 69 51 54 56 54 56 44 35 33 34 21 30 26 20 32 36 27
28 22 36 23 28 28 37 26 22 34 47 52 56 54 61 65 58 61 69 63 76 64 71 63 72 59 55 49 45 45 44 52 44 42 40 42 42 49 66 69 70 73 75 69 62 71 69 59 52 51 44 54 54 46 36 27 32 22 26 18 28 25 23 19
29 28 24 24 19 35 28 34 31 33 31 43 49 43 57 48 66 67 64 57 73 63 58 70 50 55 48 57 51 45 47 30 35 47 39 41 37 57 49 52 51 57 54 54 64 69 63 65 64 46 50 44 54 39 45 31 24 26 26 34 33 32 35 31
35 22 23 37 37 26 18 28 32 28 34 47 47 55 55 47 48 65 59 54 60 50 48 47 64 62 50 46 44 42 42 34 26 34 30 34 55 44 44 53 62 55 65 51 64 62 67 50 55 54 45 36 45 34 35 24 29 23 20 30 22 36 25 25
22 41 35 26 35 29 32 23 32 35 42 33 52 44 39 58 48 60 56 63 51 50 65 64 55 56 60 44 47 43 44 48 30 39 34 51 42 53 62 58 67 48 67 64 57 60 58 68 53 50 50 45 43 46 30 27 25 28 31 39 38 38 26 31
31 36 26 33 44 35 26 34 41 27 29 42 51 58 40 51 58 48 62 49 50 69 67 63 60 52 51 61 43 44 46 37 29 46 37 48 49 53 62 64 58 61 65 72 53 59 66 55 48 53 52 42 43 56 50 45 35 36 38 39 41 46 37 36
42 36 29 39 47 28 39 47 46 32 50 36 45 57 59 45 62 48 53 57 63 67 55 67 57 61 47 50 48 52 54 34 50 44 47 55 42 44 66 65 64 66 53 66 65 58 54 68 50 56 65 57 55 44 43 39 44 55 36 40 52 55 40 43
41 33 44 29 35 26 28 39 33 43 30 29 29 34 39 52 49 39 51 59 48 49 55 40 42 48 45 51 40 38 41 33 45 42 43 34 41 50 52 53 61 60 54 47 62 52 47 51 53 49 57 47 38 50 39 42 42 31 38 38 36 30 36 34
41 25 23 38 27 30 38 23 25 37 26 25 29 30 37 46 33 40 36 38 41 34 51 42 37 46 44 44 42 28 41 32 32 28 36 38 40 33 31 38 43 38 49 50 34 45 47 43 37 35 28 28 30 40 39 27 34 32 39 44 31 41 33 29
22 23 32 31 35 35 22 38 29 29 35 18 32 24 28 35 33 32 43 42 46 35 31 33 36 28 22 35 27 21 24 36 34 21 33 32 24 24 32 23 31 44 29 37 26 45 27 30 33 30 32 30 19 29 21 36 34 23 26 18 27 22 31 21
29 22 30 36 36 27 31 21 37 22 20 32 27 34 36 35 36 33 31 27 28 24 26 31 28 39 29 20 29 33 24 35 31 33 29 28 24 35 19 28 34 26 38 38 25 31 34 29 26 19 27 27 28 22 31 38 18 35 22 37 35 37 21 33
24 36 30 19 33 20 30 30 19 30 33 23 34 31 20 29 33 31 31 23 33 34 19 30 23 34 24 28 38 25 37 35 37 24 27 37 38 25 22 22 36 32 36 35 29 29 32 19 27 27 35 30 25 24 33 23 22 30 27 25 20 29 37 26
37 20 19 24 23 22 28 36 36 32 34 32 18 38 19 27 26 35 33 29 32 21 27 28 22 37 18 21 33 22 18 18 31 24 25 27 22 27 20 28 38 32 23 35 29 23 36 31 32 25 20 21 28 22 25 18 27 19 38 35 35 24 18 18
28 37 18 30 22 20 18 36 25 27 35 22 36 38 20 24 34 36 37 25 26 38 29 27 28 25 26 29 34 24 18 19 23 25 36 21 28 36 36 35 37 33 33 27 30 22 36 33 28 37 21 22 27 32 22 19 33 21 18 28 18 27 23 35
36 36 38 20 33 34 22 18 38 23 29 33 29 31 25 21 35 29 29 26 31 26 34 30 34 31 34 29 35 27 32 21 38 18 20 33 20 37 20 38 31 35 31 24 32 22 36 30 37 35 19 36 21 23 27 29 36 28 36 35 31 34 34 34
26 30 29 23 35 21 36 38 23 24 29 26 36 25 27 27 32 35 26 21 28 38 22 28 21 24 32 23 30 18 26 23 28 22 19 32 27 27 18 32 32 33 29 26 32 31 24 35 33 25 19 29 27 38 35 19 23 24 35 26 34 38 27 25
22 30 33 26 29 37 26 29 22 25 29 18 19 34 20 22 24 22 29 18 36 18 24 34 30 18 22 30 32 38 18 38 21 34 22 25 32 26 21 36 24 33 23 37 23 20 27 34 19 32 31 26 32 19 18 21 35 37 35 21 34 19 34 18
21 27 28 32 25 29 25 20 27 19 22 38 19 23 31 24 21 28 30 35 32 34 37 21 18 34 26 23 34 37 34 31 28 23 34 18 21 21 22 26 19 29 33 32 27 19 24 25 24 27 21 31 23 18 23 25 20 35 20 34 23 26 28 25
24 20 36 26 33 22 20 34 35 21 34 28 21 35 31 31 38 25 18 27 37 21 36 18 37 20 38 26 22 20 29 31 30 20 36 29 22 37 18 29 33 31 38 36 23 36 34 24 31 34 21 23 23 32 20 24 31 34 37 32 22 22 18 38
34 29 29 26 25 23 26 25 25 19 27 22 23 19 31 23 22 18 28 21 29 33 23 20 31 34 32 23 31 34 19 37 21 26 22 30 35 22 33 38 32 35 20 25 28 20 20 29 38 20 25 37 38 24 25 32 27 28 19 25 22 35 23 26
30 31 28 21 37 37 27 26 37 25 20 25 24 35 38 38 38 38 38 23 26 32 37 25 30 20 36 19 23 23 19 33 31 26 26 38 22 37 21 27 19 30 37 27 23 34 38 22 25 30 26 33 37 29 30 38 22 25 27 29 23 32 28 29
20 23 36 37 21 33 25 36 18 37 23 37 37 26 26 27 29 36 27 27 28 29 22 24 23 31 29 36 18 34 32 27 32 30 22 24 31 31 31 19 23 31 28 32 32 27 18 20 24 32 21 18 30 24 21 19 20 36 19 35 36 28 19 22
28 37 24 20 31 22 37 31 37 20 27 24 31 35 20 31 37 34 31 31 36 33 30 18 31 33 24 36 19 31 19 20 19 19 23 37 32 23 24 32 34 36 23 19 32 27 21 32 19 24 30 31 22 26 23 29 30 35 32 19 38 37 33 36
18 33 20 26 38 38 21 30 36 19 38 29 36 25 22 29 32 29 29 24 25 29 30 30 20 28 38 18 36 28 29 22 34 31 35 36 37 31 25 24 18 37 33 30 27 20 18 29 35 31 18 29 28 33 37 36 27 18 32 30 30 19 32 35
29 23 35 33 38 28 31 36 27 33 38 32 38 20 29 25 20 28 26 20 34 34 33 32 24 18 31 31 25 37 28 27 32 36 24 37 35 28 22 29 21 27 23 29 35 34 30 24 21 30 20 33 29 22 18 35 33 34 20 23 20 27 37 18
36 25 36 21 35 29 33 26 25 37 34 34 23 18 26 32 23 25 35 31 30 37 34 26 28 31 26 38 24 20 25 24 37 20 21 34 31 36 28 34 36 19 32 37 38 18 18 31 23 19 18 29 30 35 21 20 38 20 21 25 38 29 19 27
20 30 35 30 27 35 27 33 30 23 30 27 20 27 25 23 36 35 36 23 22 21 19 30 29 26 32 24 24 26 36 23 35 34 18 19 20 35 38 24 26 36 28 30 30 38 31 27 24 38 29 26 18 38 31 25 30 36 33 26 29 33 38 28
19 33 21 26 23 24 30 37 27 26 25 34 21 36 36 23 22 30 30 28 24 22 19 32 36 35 33 31 32 38 34 25 30 28 21 24 25 28 32 23 31 32 20 37 25 21 21 26 36 37 25 21 32 33 28 23 25 33 25 36 37 21 26 33
37 18 27 18 24 26 33 35 30 30 29 20 35 30 37 34 33 30 31 37 38 37 18 37 36 21 19 31 28 30 20 29 22 36 38 38 19 30 20 22 26 23 38 28 27 20 35 30 21 26 35 18 34 37 33 29 35 19 32 37 28 38 25 29
