P2
64 64
255
30 21 28 31 34 31 26 21 36 33 19 34 29 38 30 23 18 37 37 33 19 26 32 28 30 36 25 34 33 32 26 30 18 33 28 18 23 25 19 38 31 32 32 23 37 23 38 18 37 34 20 29 22 38 23 35 31 38 26 36 28 33 26 21
22 36 33 24 34 25 37 30 38 36 33 25 25 26 31 36 27 25 36 36 33 37 32 33 24 25 25 36 37 35 30 21 37 20 36 29 18 18 33 20 27 27 31 31 27 31 35 25 29 20 35 24 23 30 35 25 25 25 32 37 38 28 25 22
36 37 26 21 22 31 38 36 34 18 24 20 23 19 34 26 35 36 36 24 20 23 36 38 19 38 23 31 32 28 27 34 30 35 34 27 20 23 29 31 34 37 30 30 36 29 34 30 24 35 20 19 18 21 36 37 32 38 19 30 27 26 23 29
35 21 28 26 30 30 25 19 33 31 34 19 20 31 20 38 33 30 30 35 21 30 23 21 27 25 35 25 35 23 33 26 30 35 26 35 38 34 31 25 34 35 29 33 31 38 23 23 25 32 30 22 27 27 20 25 31 30 34 23 23 23 27 20
24 31 33 32 37 33 32 31 19 25 24 37 38 29 23 26 32 27 30 33 21 38 28 32 28 26 28 27 37 28 34 36 23 30 22 21 31 21 33 33 32 23 36 28 38 29 27 26 33 32 29 38 31 22 32 20 37 20 19 34 34 38 30 21
37 18 30 25 35 36 25 21 26 24 36 32 19 29 22 24 36 37 27 25 23 21 30 26 26 32 31 37 22 31 34 22 18 27 27 20 19 35 24 27 20 24 24 20 29 20 38 31 19 36 30 35 24 37 21 23 38 34 38 35 18 28 28 31
34 27 38 29 26 28 24 24 26 38 20 23 32 30 21 26 23 38 25 25 20 24 20 18 34 29 19 38 35 29 36 21 22 38 27 28 35 38 26 36 24 29 21 37 36 38 19 32 25 37 24 22 29 25 26 31 32 21 38 30 38 25 36 31
30 33 31 25 37 35 37 25 22 35 29 36 34 33 32 23 30 33 33 30 24 28 33 31 19 28 21 28 19 36 34 19 27 31 24 18 35 23 24 32 27 31 35 30 32 34 35 34 30 29 29 30 24 21 35 18 35 20 21 29 30 24 31 28
33 32 33 25 35 30 30 38 25 28 38 30 24 32 23 38 18 20 26 23 21 29 20 30 33 27 18 22 22 28 21 20 26 32 38 18 26 34 32 32 24 24 33 36 20 24 37 30 31 29 23 22 32 32 33 26 37 21 19 21 26 25 22 38
34 37 30 25 28 27 36 32 28 37 26 33 22 27 25 36 26 34 35 34 26 18 36 36 26 35 22 18 18 33 24 27 22 19 20 29 26 36 19 22 32 26 34 29 30 20 34 26 38 19 31 32 35 35 25 23 37 30 19 35 18 25 37 27
37 22 38 30 26 38 22 23 29 31 31 26 25 29 26 28 28 36 35 32 38 35 38 24 36 32 36 32 21 21 23 33 19 20 20 34 20 22 19 24 37 23 23 32 26 36 21 23 30 27 35 33 28 30 38 23 21 29 25 38 20 29 29 20
26 36 22 34 30 33 27 29 24 18 31 20 20 31 29 24 19 20 18 32 27 31 32 20 37 18 27 29 19 23 22 24 34 31 19 24 26 33 20 32 30 33 28 32 36 20 28 33 22 31 22 33 33 23 24 26 24 29 26 38 38 22 23 30
18 33 22 34 31 34 36 29 36 30 31 38 37 21 38 36 38 19 28 23 20 24 23 27 30 36 37 32 32 35 25 23 18 37 21 34 22 20 27 33 19 33 34 30 34 27 29 22 22 29 26 28 38 34 31 27 35 24 25 20 34 33 27 20
23 23 25 29 25 35 29 29 22 35 23 19 31 37 27 22 18 22 38 24 29 24 19 24 32 20 26 18 29 30 25 22 32 25 27 35 33 24 20 18 21 24 32 29 35 34 36 30 24 26 18 29 21 28 38 37 24 23 35 24 18 19 31 24
22 38 25 28 30 35 30 23 26 34 24 18 32 32 33 34 35 28 26 19 35 27 24 36 24 31 19 27 36 35 38 30 33 21 36 25 22 36 36 33 26 25 32 38 33 19 28 18 35 25 29 18 21 38 19 25 20 35 38 19 22 18 29 35
20 21 30 26 27 19 33 29 28 30 33 23 26 24 35 20 25 24 26 24 23 22 18 38 38 26 23 24 22 37 22 27 18 27 21 33 29 30 31 29 31 38 28 37 26 23 35 31 26 25 19 18 32 18 31 36 27 25 37 18 23 24 36 29
28 28 25 19 21 32 20 28 30 25 23 35 37 32 20 31 37 24 24 22 38 22 26 36 32 22 37 20 32 22 20 18 35 30 25 29 29 26 20 37 38 33 37 20 18 38 18 37 22 33 21 19 28 18 34 23 37 27 27 34 33 38 26 28
21 23 35 29 27 18 31 18 25 25 18 25 38 24 24 19 23 21 28 27 38 20 33 25 31 27 38 25 35 37 18 36 23 18 31 28 30 30 24 37 33 21 31 23 23 29 33 38 29 31 20 23 21 18 37 30 24 26 34 20 36 28 38 34
32 26 21 31 18 20 32 30 18 24 26 31 25 37 26 18 38 23 19 28 29 31 18 27 30 20 23 21 31 25 27 18 24 24 23 36 30 20 18 37 24 20 35 26 29 36 21 28 20 28 36 28 20 25 36 18 26 20 24 28 35 32 20 35
32 37 26 35 34 36 29 30 29 19 22 18 35 30 23 26 29 27 38 29 33 24 24 21 21 31 22 34 18 36 35 35 34 23 24 20 33 26 26 32 27 41 23 33 31 31 25 24 27 30 18 19 28 22 23 37 37 23 24 27 38 21 25 18
38 19 25 26 21 33 36 21 26 24 33 18 20 25 23 35 23 24 45 33 38 40 27 40 38 24 27 36 25 25 20 26 22 36 33 28 20 39 39 40 33 45 32 32 32 34 41 28 41 37 34 24 32 18 24 20 31 24 24 24 27 31 34 24
31 27 36 35 27 29 37 38 31 25 21 32 35 39 23 29 32 35 43 41 29 45 29 39 39 44 34 26 31 35 20 27 41 32 26 31 33 26 42 45 40 40 38 48 45 29 36 44 39 26 32 22 22 21 23 25 30 18 32 38 19 24 38 24
36 31 21 20 30 27 31 28 34 31 30 31 35 25 36 41 46 46 43 36 44 42 43 49 50 39 36 38 42 42 34 44 40 36 38 33 33 40 43 45 40 52 45 37 40 33 36 39 44 31 45 43 35 26 21 38 36 23 34 34 35 24 23 37
19 20 31 26 21 25 24 26 35 34 26 26 35 46 41 38 38 38 48 40 50 43 39 41 43 40 55 45 43 47 38 45 38 42 45 40 54 57 44 39 47 39 45 40 49 46 49 36 52 32 29 46 44 34 19 28 29 30 22 24 38 33 20 18
36 33 37 32 23 30 22 31 26 36 38 35 46 35 33 35 41 58 57 47 44 60 54 53 64 66 53 53 61 62 56 50 42 46 54 53 55 54 56 62 45 50 52 57 56 51 46 50 42 47 45 35 30 30 24 33 29 31 33 27 18 30 31 24
29 35 36 34 32 21 32 37 20 21 30 36 35 43 50 46 59 55 43 65 58 52 53 56 67 68 64 59 65 57 54 69 55 66 67 69 60 68 69 55 57 53 60 47 54 61 45 60 45 44 49 47 44 29 27 27 18 18 26 29 28 26 31 21
36 31 33 36 21 22 35 30 29 28 33 48 39 38 47 54 43 63 49 56 55 69 75 69 79 76 78 76 78 76 80 65 65 65 80 73 64 76 70 64 76 59 72 62 53 66 64 50 51 56 44 52 34 35 35 29 27 24 19 27 24 31 20 29
31 20 19 21 19 21 29 32 30 35 29 35 53 48 43 53 57 57 60 62 65 63 67 67 84 78 91 82 89 73 68 71 76 76 68 88 76 89 88 83 87 69 68 69 63 61 52 50 56 60 56 46 46 41 41 35 32 34 23 19 30 34 36 29
33 23 18 27 31 35 38 27 24 32 38 42 51 57 57 54 62 58 69 71 68 80 77 82 83 90 87 98 88 94 85 96 98 94 80 83 91 89 87 97 77 80 72 81 74 74 65 59 65 56 59 58 50 44 49 29 41 33 33 34 22 33 27 30
28 26 36 18 23 32 18 39 35 37 36 38 46 45 45 50 51 65 72 81 74 93 82 99 90 92 105 101 106 85 84 104 97 93 95 87 87 96 101 97 88 90 83 85 76 66 57 69 64 56 56 60 51 43 37 41 38 20 26 36 27 18 29 37
33 24 36 19 21 23 20 36 28 28 45 53 49 43 65 57 63 77 68 88 78 94 89 99 97 99 96 111 110 111 100 107 102 96 92 104 104 96 96 105 105 101 101 81 87 86 80 57 54 67 65 62 40 44 50 43 37 37 22 32 23 34 37 26
24 20 30 37 34 34 23 31 42 45 51 41 55 52 66 57 60 77 67 76 86 94 91 98 108 104 102 111 107 103 99 107 102 120 113 104 111 102 107 113 98 98 106 107 83 87 80 64 64 56 60 43 45 46 32 41 38 21 19 28 31 34 38 33
33 26 31 37 32 25 19 30 42 43 32 41 44 53 60 58 64 71 80 88 88 100 105 113 114 107 108 114 113 121 111 114 126 122 117 122 123 117 110 102 119 112 96 110 89 85 70 76 74 61 65 53 44 36 48 35 25 36 37 32 24 34 22 26
27 37 33 27 21 18 20 34 27 37 34 50 57 50 53 58 74 58 81 97 102 104 101 100 100 107 106 125 110 115 110 131 113 124 118 113 127 111 114 122 116 104 101 106 88 78 84 63 62 54 61 55 53 44 44 43 27 24 18 18 30 20 23 28
31 21 27 37 35 35 32 24 30 40 32 51 47 42 60 55 53 65 78 81 93 105 111 102 116 121 111 118 119 114 131 123 121 135 119 124 125 119 119 104 103 102 97 94 86 76 67 66 57 64 61 54 52 35 39 28 33 19 23 22 20 28 34 37
38 34 31 31 19 34 31 25 25 26 45 36 41 42 45 48 58 69 80 78 83 91 98 105 112 120 107 114 124 122 132 131 141 125 116 119 110 108 120 102 105 96 105 90 84 91 66 62 51 50 65 52 55 54 39 28 31 19 32 31 25 23 32 19
32 31 18 38 37 34 29 35 33 35 39 38 47 57 44 46 55 63 65 81 84 94 107 105 101 107 121 116 114 112 120 140 143 130 126 127 113 116 115 113 104 103 105 103 89 84 64 74 66 48 62 46 40 50 30 45 29 36 35 26 19 34 24 24
26 23 19 26 37 25 32 37 22 37 38 38 36 39 46 62 50 60 72 66 86 96 88 97 106 98 112 106 110 115 120 132 129 124 124 116 106 116 105 116 101 106 97 80 90 78 76 52 59 63 46 49 52 33 45 24 26 18 35 38 38 19 23 31
35 19 27 25 23 24 27 22 21 24 36 45 41 37 51 43 52 55 74 75 71 92 80 101 89 92 101 108 121 119 115 124 120 115 109 113 110 105 96 96 94 98 83 86 78 68 68 56 54 52 53 35 35 30 36 22 27 24 23 32 23 24 19 24
32 37 23 37 37 26 34 37 38 20 24 26 45 51 50 48 57 61 67 59 64 70 94 91 95 88 96 110 107 101 116 107 100 105 102 101 103 103 104 94 86 99 92 69 81 61 59 57 55 40 47 39 42 44 24 24 25 31 36 35 19 29 25 23
25 33 25 26 18 27 21 30 22 31 30 27 43 34 37 38 46 58 51 65 68 63 71 73 86 89 94 96 100 110 102 102 104 109 105 91 105 106 89 95 94 82 69 67 70 54 51 42 37 54 37 44 46 42 35 27 25 34 23 35 23 21 29 23
35 36 28 19 31 38 18 29 27 27 39 29 34 45 49 41 33 51 56 63 52 65 68 68 84 89 80 92 83 94 81 87 83 98 86 97 97 84 93 89 77 68 73 62 55 56 42 38 38 35 31 28 44 38 34 35 35 30 29 19 28 25 21 35
21 35 33 34 35 34 38 23 35 24 38 36 24 25 29 44 43 49 51 46 62 63 63 77 69 70 78 79 93 80 74 91 85 74 82 85 75 73 70 85 82 67 70 70 48 47 41 51 47 35 33 35 41 36 18 29 36 24 26 28 20 31 30 28
26 34 24 36 31 23 36 20 32 20 25 35 19 26 23 26 40 44 41 44 45 53 64 56 63 74 62 72 66 78 82 75 75 80 87 75 81 72 65 68 63 62 66 50 44 36 32 30 33 39 40 24 22 31 29 34 38 28 23 22 30 28 28 30
22 33 36 28 28 24 38 27 27 27 31 27 29 20 33 25 22 26 27 39 43 50 59 49 66 59 64 73 67 60 61 71 71 71 68 63 70 61 69 52 62 59 51 55 31 30 36 35 28 39 20 37 18 31 22 29 34 23 24 36 32 21 29 35
31 18 35 29 18 25 24 37 33 18 24 20 29 37 24 34 23 30 38 24 36 41 43 48 53 44 50 68 58 63 59 63 59 61 63 57 67 58 54 53 41 40 52 47 35 27 26 22 23 34 36 18 21 23 30 26 24 25 35 25 37 30 32 34
36 23 33 33 24 26 33 32 33 33 20 18 28 23 29 24 36 27 19 24 18 33 29 49 42 41 55 60 64 49 55 54 52 50 58 59 58 58 51 43 52 34 25 27 37 18 29 35 22 34 35 19 30 38 36 23 21 30 38 37 30 37 36 22
19 36 31 32 25 24 32 36 33 37 25 24 27 22 30 33 22 30 21 18 31 25 28 36 45 39 40 46 44 48 45 44 54 44 55 47 42 38 51 31 43 34 21 25 32 33 27 37 26 18 35 34 24 32 20 29 28 19 34 27 26 18 34 29
25 26 30 21 19 29 19 20 20 33 22 34 26 35 37 24 20 36 22 20 27 31 35 24 30 31 48 34 37 40 53 53 46 43 48 48 33 40 47 27 22 30 37 18 22 26 25 30 37 24 20 21 29 22 23 25 26 23 29 29 30 26 28 20
19 26 26 38 22 29 36 19 31 37 29 29 23 34 21 34 32 37 23 25 35 24 21 18 33 31 27 29 42 46 46 33 47 49 44 29 44 31 36 28 19 21 24 32 34 27 38 28 27 28 35 36 23 37 37 22 22 22 35 32 22 22 31 23
31 28 18 29 20 32 36 25 20 21 23 32 28 21 29 21 30 34 19 25 18 27 20 19 18 33 38 39 26 25 25 34 30 40 30 37 37 30 37 22 20 34 22 21 38 35 24 31 18 34 35 25 20 20 35 20 23 23 29 30 25 20 32 37
28 36 24 28 38 36 26 24 22 29 20 23 20 35 23 21 36 18 33 18 20 35 30 19 19 20 32 22 24 38 37 23 31 29 21 27 31 31 26 37 31 32 28 23 31 33 36 24 38 22 38 20 38 19 36 19 28 20 23 18 30 38 29 31
31 24 21 29 36 23 25 37 25 19 21 27 19 35 30 25 25 24 19 26 35 25 23 25 35 30 32 20 35 31 20 21 21 18 28 26 34 22 29 32 23 37 23 36 30 19 32 26 21 32 18 18 18 18 38 31 21 23 27 35 27 20 27 28
37 24 21 23 38 22 33 32 29 24 34 37 20 33 21 20 32 35 25 32 29 26 36 24 26 18 18 26 28 23 25 24 26 23 38 37 36 37 22 29 25 25 23 26 32 35 25 36 32 30 28 25 20 28 38 34 23 26 28 32 18 32 31 27
29 22 23 29 22 33 31 38 26 38 24 36 35 27 19 24 35 37 38 18 22 27 36 18 32 32 22 32 23 19 26 28 26 33 35 33 22 30 25 19 22 31 21 28 36 33 37 37 23 22 36 21 28 37 21 24 24 23 21 24 33 21 29 24
19 36 19 37 20 20 24 35 24 31 31 22 33 38 31 38 29 21 29 32 31 33 35 32 33 22 32 22 23 36 34 27 28 26 38 19 28 34 38 33 23 23 23 35 36 19 27 27 23 18 33 33 35 37 37 19 27 31 35 21 18 28 21 18
29 22 30 32 19 22 33 24 32 28 25 18 29 21 33 25 26 29 33 26 24 29 29 21 23 34 31 28 19 23 19 31 35 34 35 18 23 32 23 28 19 25 26 24 31 18 35 19 32 35 29 37 36 35 21 23 38 26 20 24 18 32 30 19
37 19 33 35 31 23 19 36 28 25 22 36 31 20 34 35 29 38 26 32 27 24 24 34 24 28 26 33 38 22 33 20 21 28 35 19 32 19 18 23 20 36 31 38 27 22 25 33 33 30 28 29 35 32 23 31 23 23 23 31 35 22 33 38
35 36 35 32 24 31 19 27 26 29 36 33 27 20 31 35 20 20 36 24 32 24 35 22 36 24 36 19 36 24 19 20 30 36 18 35 18 27 19 28 27 18 22 32 29 20 27 21 29 33 32 20 34 19 32 30 33 18 27 33 25 27 31 19
22 35 25 36 29 18 31 28 22 21 18 27 33 35 23 30 31 35 32 27 23 25 29 19 36 28 34 37 29 26 18 33 26 33 37 27 22 36 30 20 31 27 35 35 36 25 23 23 27 35 27 25 26 24 35 30 18 23 34 36 19 22 23 32
25 38 37 28 32 21 18 22 21 22 22 38 30 34 27 21 28 20 37 29 38 33 22 22 35 28 28 25 23 18 27 29 26 20 33 38 37 27 38 33 18 24 22 22 34 22 36 23 32 19 30 24 37 29 28 28 25 20 37 21 20 21 29 36
23 27 34 33 28 21 22 26 33 33 37 35 37 28 36 37 22 24 38 20 32 29 27 38 32 21 30 31 24 22 34 24 30 35 21 23 29 35 29 25 27 28 26 30 31 28 23 31 37 31 32 28 26 20 32 29 20 33 36 18 37 23 31 24
23 30 27 29 30 28 36 28 33 35 18 34 32 27 37 37 26 35 18 36 38 28 23 22 28 20 18 28 25 37 31 28 33 27 29 23 35 22 28 20 30 26 27 22 34 27 20 19 34 37 33 31 37 21 29 27 19 36 33 18 23 23 36 19
22 33 19 26 26 26 32 31 31 21 19 34 31 34 34 24 29 34 18 37 30 20 30 30 21 32 33 32 19 37 20 24 29 21 24 29 29 38 19 18 20 31 27 23 32 24 24 33 30 22 30 27 30 38 24 33 26 36 27 32 25 22 30 23
