P2
64 64
255
17 23 16 20 24 17 19 19 25 19 17 18 20 26 15 21 14 19 21 21 17 22 16 23 20 21 20 22 17 22 25 26 19 14 18 25 23 19 20 26 21 25 26 26 22 16 15 24 20 23 20 26 23 25 19 26 24 23 23 19 24 20 25 18
17 21 25 25 23 16 26 25 14 25 18 14 24 26 16 25 15 24 14 24 23 23 24 18 24 21 24 15 24 23 24 15 19 14 18 14 20 22 22 26 15 17 21 19 19 14 24 15 20 16 15 23 23 16 25 23 19 21 25 14 18 22 26 22
25 16 19 16 19 19 19 16 25 23 17 18 14 18 18 14 16 18 19 16 19 22 21 25 20 19 22 21 17 22 23 26 18 17 17 21 16 26 19 24 18 20 15 23 22 25 19 14 16 16 24 23 17 17 23 20 25 14 16 23 22 25 15 22
17 17 18 23 14 24 22 20 16 18 23 16 23 26 16 15 16 24 22 23 22 21 22 14 15 18 18 26 19 15 23 21 21 19 20 19 17 25 23 14 26 14 18 19 22 15 18 24 19 15 19 24 16 17 18 24 14 20 22 16 14 18 23 22
16 20 19 18 14 17 21 16 15 26 18 21 19 21 20 25 14 17 17 23 25 23 16 15 23 18 20 21 23 19 24 22 14 19 19 23 17 19 25 25 16 24 26 20 15 25 22 16 17 26 21 18 25 25 15 14 21 24 17 14 25 16 15 24
14 21 18 23 21 26 24 26 14 16 14 16 20 19 24 21 21 20 25 21 23 23 17 20 18 14 17 16 16 18 25 18 24 17 23 18 22 19 23 18 19 18 21 24 25 18 14 14 17 16 21 20 22 25 26 17 22 26 21 18 23 21 18 15
14 26 21 21 26 15 23 24 15 21 24 18 17 23 15 24 19 25 16 18 18 18 26 15 18 15 16 26 18 17 21 14 22 25 26 15 15 16 15 19 14 16 22 23 19 22 15 23 17 17 21 20 20 22 24 19 20 16 25 17 24 24 16 24
22 17 21 17 17 26 24 24 25 24 17 22 21 21 21 24 25 14 15 24 20 22 19 14 26 25 23 22 22 19 25 22 17 16 18 15 15 23 26 23 19 17 18 17 24 23 20 15 21 16 18 17 18 25 23 21 20 20 17 21 19 14 18 21
14 18 20 15 15 20 23 20 22 15 23 18 19 15 14 20 14 20 23 23 16 26 18 14 18 16 19 22 18 14 15 19 17 24 23 20 14 23 18 26 22 20 18 17 15 22 19 14 25 20 24 20 21 19 17 26 17 21 17 22 18 14 25 25
15 18 26 16 26 23 15 14 18 17 24 15 21 25 24 22 25 21 18 26 15 24 18 21 20 26 15 17 16 17 20 14 16 25 19 22 21 23 16 19 19 19 23 26 19 22 15 26 21 25 24 17 22 14 14 24 22 15 19 19 16 22 21 14
22 22 17 17 20 19 19 26 24 15 21 17 21 18 16 16 14 24 15 20 23 24 26 18 26 14 14 14 20 23 26 24 14 21 26 21 19 15 26 24 16 15 26 26 16 14 20 19 25 18 19 15 20 20 20 16 19 25 14 18 17 21 17 26
16 25 26 22 23 19 24 18 23 25 14 19 21 17 15 21 14 26 19 21 19 17 25 26 17 26 16 24 25 24 15 26 17 26 14 18 14 20 16 15 19 21 16 25 17 20 21 15 23 24 17 14 23 21 20 22 24 17 15 18 22 14 19 18
18 17 20 26 22 19 24 20 15 15 19 19 26 22 25 18 14 14 18 19 25 19 14 17 22 17 18 17 17 18 21 16 20 21 14 24 25 17 22 15 16 25 14 16 16 18 25 15 23 17 19 22 22 23 17 25 22 24 14 16 22 15 22 16
16 18 21 15 16 20 14 17 18 18 20 21 16 22 26 17 16 26 26 20 26 22 22 17 19 15 20 22 15 19 18 25 26 14 24 23 26 15 21 17 16 25 26 16 25 17 20 24 25 15 17 26 17 19 26 20 15 26 22 25 16 20 21 19
24 19 17 15 18 18 16 14 18 17 14 26 26 20 24 25 26 24 22 22 16 25 15 25 23 26 21 18 17 22 26 24 14 14 21 17 16 21 23 20 14 18 23 20 20 18 24 16 26 19 24 18 21 16 18 20 19 24 22 21 25 16 25 19
19 19 20 24 16 17 18 19 25 17 15 25 24 26 19 26 16 23 25 24 22 19 15 20 20 23 22 26 19 20 17 16 23 18 17 25 21 25 17 14 16 16 20 16 25 16 24 17 24 23 20 17 17 26 25 24 17 26 26 26 24 19 20 17
19 26 14 20 22 21 16 23 24 25 17 24 21 25 21 15 17 23 26 26 23 20 19 26 22 21 15 16 25 26 14 18 14 14 17 15 22 19 15 26 22 26 18 21 19 24 18 17 23 15 23 18 16 18 21 14 15 25 22 26 15 25 20 22
24 14 20 25 22 25 19 20 22 24 26 18 17 23 18 20 26 24 20 22 17 20 23 25 18 18 21 24 14 26 14 14 17 21 16 19 20 15 17 21 20 25 20 21 17 17 23 16 17 14 23 20 14 22 23 18 15 18 18 21 24 25 14 16
20 18 17 23 18 15 23 25 20 14 20 22 16 14 19 25 18 19 15 19 21 22 25 20 26 21 20 14 14 15 24 25 21 17 23 19 26 23 20 18 24 26 17 21 15 21 18 18 22 20 26 21 17 18 22 18 24 21 14 23 25 15 17 23
14 14 25 17 24 21 23 19 24 23 21 14 14 16 22 17 22 16 19 25 21 18 18 23 16 27 14 25 16 26 18 21 20 20 21 26 16 14 17 17 22 25 26 22 25 24 20 25 25 17 16 25 26 21 26 23 18 19 21 14 23 15 15 22
18 24 21 25 25 22 15 20 14 24 18 19 18 19 27 17 19 20 29 30 23 29 28 21 29 24 18 26 16 24 25 14 23 18 15 22 19 27 19 22 26 23 29 22 23 21 33 27 22 25 15 18 14 16 25 24 23 19 17 22 15 16 15 17
16 15 15 22 24 22 26 17 19 19 22 19 14 29 29 29 32 34 33 37 33 34 29 35 31 29 27 30 20 17 17 20 28 21 18 19 19 22 31 22 31 24 29 28 37 31 24 35 27 22 28 25 26 26 22 16 26 19 17 21 15 18 23 22
21 16 15 17 20 25 22 24 18 26 15 22 26 30 23 31 31 27 38 36 32 38 41 32 30 27 30 26 31 31 26 33 31 32 31 29 31 26 27 27 32 37 30 35 35 31 38 36 28 35 31 28 18 27 20 18 15 18 18 19 25 15 19 23
15 24 22 25 21 20 25 23 17 22 26 19 25 30 36 36 31 38 40 43 34 43 39 42 37 42 41 41 40 33 38 37 39 40 43 43 37 35 46 40 35 35 34 33 41 34 40 32 40 35 27 33 22 29 15 17 14 22 16 14 20 22 22 19
15 14 22 24 16 16 18 25 14 21 26 30 23 37 31 40 44 36 41 40 45 41 47 40 47 53 48 44 43 50 42 41 43 50 52 49 54 55 52 53 47 46 38 46 43 48 48 36 33 39 33 26 35 22 23 26 14 21 25 18 25 16 14 24
22 19 25 22 24 21 26 21 24 16 24 22 28 40 32 35 45 40 44 41 46 50 44 51 59 51 53 52 53 62 58 48 49 57 51 58 57 62 62 51 50 53 49 45 47 42 39 49 42 37 35 33 30 26 22 16 25 25 26 18 18 18 25 17
14 19 15 25 17 20 26 20 26 30 26 36 32 35 39 40 45 48 45 54 50 48 58 67 69 71 72 62 69 66 65 57 63 59 64 64 64 64 60 66 61 57 63 54 57 56 50 52 49 49 40 41 40 36 22 20 21 24 23 23 15 20 20 25
23 24 15 21 15 14 24 18 26 23 28 30 31 40 39 51 51 45 51 48 59 68 65 63 74 67 78 79 74 77 68 76 64 71 74 73 78 69 76 67 78 65 63 59 51 51 50 53 51 42 41 43 33 35 34 23 16 16 23 14 22 22 18 18
25 21 24 24 23 18 15 18 17 27 29 30 36 42 40 54 50 56 51 53 70 72 78 75 74 76 78 83 82 76 79 79 80 77 73 84 76 79 75 81 85 71 74 69 65 61 62 55 54 54 42 41 33 28 25 33 20 23 19 17 18 17 14 19
25 19 19 18 16 14 19 15 25 23 30 37 40 49 48 56 54 51 57 71 74 77 85 88 79 88 82 84 88 93 88 93 86 94 91 91 83 84 84 92 86 88 87 82 72 67 62 61 56 45 48 48 33 39 37 24 19 26 24 23 20 21 15 18
24 14 22 26 19 18 21 15 21 34 37 42 40 40 44 56 55 61 57 70 76 83 85 95 90 89 92 101 96 92 93 97 94 99 97 90 98 98 89 89 98 93 90 82 84 77 65 55 52 53 49 46 45 36 38 30 24 15 19 18 19 25 26 24
15 16 26 21 22 21 16 23 22 23 32 32 35 42 51 51 60 61 61 83 80 90 93 89 97 92 101 95 98 103 96 105 98 100 96 99 102 103 95 98 101 93 87 87 85 77 63 65 62 51 43 48 47 31 34 23 21 23 14 23 23 23 19 22
20 16 19 26 20 14 16 23 26 28 36 35 44 41 51 51 53 62 65 86 92 90 99 93 98 105 100 99 102 102 102 114 112 107 103 110 110 100 100 100 98 103 99 88 93 84 67 60 51 58 50 47 39 35 29 24 28 19 20 20 24 18 15 22
25 20 25 25 16 17 24 16 24 32 39 43 44 40 53 56 58 59 67 84 90 92 93 94 102 104 105 104 104 106 115 116 120 114 111 109 112 105 107 99 97 98 91 89 92 81 70 57 56 48 45 51 37 40 32 32 31 24 23 24 24 19 23 25
24 24 22 14 22 17 26 19 20 29 32 38 46 50 43 52 58 65 75 81 81 89 103 104 105 101 113 115 113 110 117 115 117 118 119 111 115 114 114 102 108 98 96 96 83 80 70 61 60 50 42 48 35 33 39 32 31 20 18 22 24 23 26 17
22 19 14 19 14 15 23 17 23 27 33 40 36 46 44 47 56 61 70 77 86 86 99 96 98 102 102 109 118 113 120 123 127 119 120 110 108 106 101 104 97 103 95 88 77 79 68 58 47 49 49 47 37 36 33 30 24 15 26 21 22 23 17 17
19 26 23 23 14 18 22 24 20 33 37 40 39 39 51 45 48 55 64 78 74 80 89 99 104 96 106 110 115 108 122 127 128 124 114 111 105 112 110 101 98 96 94 91 82 73 67 60 50 42 49 47 38 29 31 27 28 14 26 16 17 18 18 21
18 23 16 15 18 21 23 25 17 24 25 38 38 45 46 43 43 55 57 62 73 79 86 90 102 99 97 110 110 111 109 113 111 112 115 113 103 99 104 98 93 88 89 86 71 71 64 57 52 48 38 40 32 29 30 31 18 21 14 16 22 15 19 14
22 21 23 21 21 25 17 18 22 23 22 35 35 32 44 45 51 50 60 67 69 72 84 84 91 96 98 96 108 101 113 103 107 106 104 108 103 96 96 92 90 83 86 82 72 65 52 50 47 43 35 38 32 30 32 18 17 17 19 24 19 20 22 23
21 24 16 15 25 15 21 21 18 24 19 22 26 33 40 43 38 50 56 56 68 68 74 87 79 87 92 94 98 102 97 95 96 96 103 93 100 91 91 92 90 80 74 72 63 63 51 39 43 46 34 36 33 33 30 26 17 19 26 19 23 26 18 15
20 25 20 20 15 16 26 17 24 22 17 25 30 30 29 40 35 40 40 59 53 66 68 80 74 84 86 84 91 88 86 97 95 96 92 92 97 82 88 87 80 76 66 66 57 49 50 44 38 39 29 29 31 22 24 21 23 21 23 15 26 26 19 20
18 15 19 26 20 26 26 22 20 22 26 19 30 26 34 34 36 36 35 47 53 61 62 74 75 70 85 75 81 83 89 84 77 85 89 79 77 76 74 79 75 66 59 55 53 51 36 40 31 33 28 28 20 25 17 16 21 15 19 25 24 21 19 19
26 22 17 18 25 25 14 16 19 18 25 22 28 29 26 32 32 27 30 40 49 53 63 67 59 64 77 71 71 73 79 73 78 76 80 81 75 69 73 75 71 60 55 52 51 37 32 29 30 32 30 32 23 19 14 19 23 18 19 24 20 26 14 22
16 17 16 20 16 22 18 26 14 24 20 14 17 19 19 20 29 34 31 40 44 44 49 51 60 66 61 69 64 63 63 68 73 76 63 64 65 67 68 67 54 52 47 50 33 29 30 34 23 32 23 27 18 15 14 16 24 14 18 14 21 22 17 14
21 26 26 16 18 23 21 26 20 19 26 16 24 19 22 26 24 20 27 27 28 34 37 44 51 58 58 54 63 56 58 68 67 62 64 61 59 53 57 48 49 47 44 36 27 26 27 21 20 28 17 16 20 23 22 25 17 25 21 15 26 19 17 18
18 23 18 25 22 21 15 23 26 20 26 21 19 15 19 21 24 28 18 18 23 29 40 42 41 49 52 49 53 58 57 54 59 61 56 58 58 52 42 50 47 35 37 32 23 20 17 28 25 16 23 19 26 16 25 21 14 15 21 14 17 25 17 19
23 25 19 20 14 23 25 21 18 25 15 21 15 21 20 15 14 15 16 25 23 16 29 32 29 36 47 41 49 54 56 53 48 56 54 51 50 49 38 33 29 29 20 16 24 24 14 16 17 22 22 15 16 19 26 15 18 20 16 24 18 19 23 22
18 18 20 14 14 24 22 19 19 20 26 24 15 22 19 22 14 17 15 21 14 26 20 31 26 29 35 37 40 47 39 47 45 41 45 38 36 40 35 38 27 32 27 23 16 14 16 20 15 19 18 14 26 15 17 18 15 15 22 26 26 24 26 23
25 24 21 17 16 23 20 25 20 24 14 16 14 17 16 14 18 24 17 20 23 16 17 20 22 25 37 37 29 36 34 36 40 36 38 39 36 31 27 34 29 19 22 25 17 16 15 26 26 23 15 25 22 20 16 26 14 17 26 23 25 25 23 14
17 14 20 22 22 24 17 17 21 19 23 22 19 22 25 24 23 19 14 18 22 17 20 17 21 23 22 31 27 30 28 34 34 28 35 37 33 27 30 17 22 17 24 19 15 25 20 18 18 24 26 19 15 15 23 14 19 25 14 26 22 19 20 20
22 18 17 24 18 18 19 26 19 23 26 15 17 21 15 26 24 21 25 15 21 22 17 24 26 24 20 21 24 25 21 22 25 31 22 23 24 21 24 23 22 24 25 26 21 21 18 26 24 15 21 24 16 20 26 17 14 15 26 15 14 21 26 23
17 17 15 22 25 20 24 25 25 25 24 15 21 24 15 17 23 17 20 25 23 25 26 14 24 22 25 22 15 25 21 18 26 21 16 23 16 14 24 16 25 17 14 16 15 19 18 15 18 21 18 26 21 26 18 16 22 23 15 26 17 22 16 23
14 25 17 21 23 22 22 21 22 25 24 22 25 25 21 20 19 24 22 15 20 15 26 14 19 23 23 18 24 24 16 15 25 24 20 15 21 20 26 15 18 17 25 23 25 21 14 18 20 25 17 18 16 26 26 20 21 17 18 25 25 24 21 15
22 17 15 19 23 26 15 22 17 20 23 15 21 14 19 21 26 21 23 21 25 21 22 15 22 17 14 26 15 15 21 24 15 26 23 14 23 22 14 16 16 16 24 20 15 23 17 19 21 26 18 16 16 22 25 18 22 26 22 14 26 16 17 25
18 16 23 22 20 25 15 15 20 25 19 20 24 16 15 19 25 17 20 21 23 21 22 16 16 22 20 15 19 14 19 19 22 24 19 17 21 21 14 18 25 21 16 18 21 24 24 25 15 19 22 26 24 18 24 23 26 24 26 24 19 20 25 15
25 14 25 19 21 24 14 26 18 15 25 25 19 21 18 20 25 21 25 23 23 25 20 17 20 15 26 22 17 25 21 26 25 18 18 21 25 25 23 20 14 18 19 19 24 18 18 25 16 16 16 16 21 25 16 14 15 22 18 20 19 23 26 19
25 18 14 21 15 24 25 24 19 22 24 25 23 22 19 18 24 17 15 20 24 26 20 20 17 20 20 19 17 14 16 17 18 16 18 25 20 17 23 21 20 25 22 26 25 17 15 22 18 19 19 26 21 16 21 16 21 20 22 26 15 17 17 21
18 14 24 21 16 18 20 15 14 24 22 25 17 17 25 23 20 15 24 22 14 25 15 24 14 16 26 18 25 17 18 21 17 22 24 14 14 17 15 20 14 19 17 15 23 17 18 24 26 21 21 17 14 18 18 20 17 25 25 22 23 21 17 20
14 24 16 18 15 18 20 26 23 16 16 20 26 24 15 17 15 21 20 25 17 22 22 18 19 20 14 23 25 26 20 22 22 22 20 14 21 25 19 24 18 16 21 22 21 23 21 26 23 14 19 16 17 21 22 19 22 15 17 24 22 22 22 17
20 15 18 18 17 26 21 18 26 14 22 23 17 24 23 16 19 15 14 16 19 22 25 19 21 22 25 22 14 17 16 19 15 21 22 24 17 24 14 24 17 19 14 24 19 21 24 16 18 15 23 22 24 15 14 15 25 21 16 22 26 15 17 17
23 16 14 15 21 25 15 24 16 21 26 23 14 19 18 20 15 17 17 25 25 21 21 24 23 25 18 25 14 21 21 23 24 16 20 23 20 25 14 21 20 16 21 20 23 14 16 26 16 25 15 18 20 14 22 22 15 16 17 16 18 20 20 26
23 14 25 25 24 17 25 18 16 26 26 18 20 22 26 18 22 19 16 21 26 20 17 17 24 22 24 20 22 25 26 25 20 21 14 19 22 23 22 24 24 20 20 26 20 22 25 19 18 16 24 23 18 19 23 18 19 21 25 23 23 14 15 16
15 14 26 18 21 26 22 20 22 19 15 17 15 26 18 25 23 21 16 19 24 24 19 25 16 15 24 23 19 22 19 22 19 23 15 15 18 16 18 23 20 26 16 15 17 26 14 20 24 23 14 26 20 25 21 15 18 26 22 20 24 23 21 20
18 19 23 24 16 14 15 24 18 17 23 21 21 22 24 19 14 26 14 22 23 18 17 19 15 20 15 23 14 14 14 25 20 24 25 19 16 14 14 25 15 24 16 23 21 15 24 25 16 26 23 20 14 25 17 15 14 22 24 20 20 18 22 15
