P2
64 64
255
14 23 15 25 22 19 20 25 14 15 14 25 20 16 19 23 23 14 24 23 26 25 22 26 20 20 25 15 18 26 22 16 21 23 22 20 16 14 19 26 21 16 18 17 22 23 18 17 17 19 16 14 24 18 22 26 25 15 24 19 22 23 18 22
15 18 26 19 15 20 16 15 15 19 15 17 20 24 16 16 19 16 21 22 23 14 14 14 22 25 15 24 23 25 14 18 26 25 21 24 16 18 14 23 24 14 18 18 14 20 21 16 20 25 17 14 16 21 20 14 17 20 21 26 23 17 24 21
25 21 17 15 25 22 20 23 19 21 16 16 20 25 14 21 14 18 25 23 20 23 16 22 16 25 24 23 16 23 25 22 24 26 23 20 14 18 23 19 20 16 22 22 17 14 25 15 24 17 14 22 25 18 15 20 22 18 14 26 14 24 15 25
21 15 25 22 15 24 23 25 17 26 14 26 15 25 16 17 14 20 25 24 16 25 16 15 24 23 25 24 14 24 26 16 18 17 19 25 20 26 21 14 14 16 23 25 14 24 21 16 24 16 16 16 22 15 16 22 25 16 19 26 19 19 24 15
21 17 21 26 21 20 18 14 14 16 15 26 21 19 25 16 14 21 24 18 20 25 21 21 21 22 22 14 17 17 20 24 16 20 23 20 20 15 21 25 21 18 17 19 24 16 17 22 23 20 23 24 22 19 14 20 15 22 21 23 23 19 26 22
22 14 14 16 19 25 14 21 16 17 14 15 19 14 15 22 18 25 16 20 26 19 19 20 25 21 17 20 26 17 19 16 24 14 20 18 20 24 14 25 16 20 19 19 18 23 16 26 25 21 24 17 15 17 16 16 17 16 23 23 16 23 17 25
15 25 22 18 25 21 20 26 22 19 16 25 20 18 21 24 26 16 21 25 18 15 22 23 20 18 25 14 20 18 24 25 16 20 20 15 25 16 22 22 16 21 23 24 20 23 23 14 23 21 19 15 21 25 19 17 25 18 22 18 21 21 20 15
17 22 14 18 16 22 21 22 14 22 18 18 15 21 18 14 26 20 21 16 17 14 23 23 21 16 24 18 20 26 15 14 21 14 23 24 22 22 20 25 21 25 25 18 23 25 24 21 17 24 15 21 20 16 25 19 20 14 14 24 23 21 14 20
19 23 18 23 22 26 19 21 24 14 26 25 16 18 15 24 19 15 19 25 20 15 17 14 25 20 23 20 23 23 18 15 24 25 18 23 14 14 15 25 16 14 21 26 15 23 17 24 23 23 22 19 14 19 18 25 22 21 24 14 26 20 22 25
25 26 16 24 19 22 26 14 24 22 20 25 18 15 14 26 20 18 14 22 19 15 16 19 19 26 20 21 26 21 17 17 26 24 21 19 26 18 20 20 25 14 24 26 20 21 17 18 22 25 24 17 21 20 21 15 24 22 22 15 26 21 17 20
20 19 23 18 23 18 22 22 25 17 25 17 17 19 24 18 17 14 21 14 25 25 16 17 25 20 20 23 14 22 22 14 20 20 22 20 26 17 16 14 25 26 17 14 16 20 23 24 22 24 24 16 25 18 26 22 26 21 25 17 16 25 26 22
24 24 21 22 16 25 24 17 17 21 26 14 20 16 21 20 20 23 23 22 14 21 18 16 22 16 17 26 21 15 24 19 18 16 19 23 22 25 17 23 17 22 20 24 23 24 17 25 25 21 25 21 25 24 25 25 22 25 22 17 20 24 17 22
24 18 23 20 21 24 17 23 25 14 23 22 14 26 14 25 21 18 25 20 14 23 24 17 26 15 20 21 25 20 26 17 21 20 18 21 17 14 21 16 14 14 16 18 14 25 24 25 25 23 19 25 26 26 23 17 24 15 19 16 15 24 23 20
22 20 17 18 14 23 15 15 14 26 15 19 24 22 24 20 26 15 25 22 24 17 26 24 16 24 21 21 15 20 25 15 21 17 17 20 19 23 15 17 21 15 21 18 24 24 14 19 18 14 20 20 18 26 14 16 21 26 22 19 21 25 18 26
16 17 20 26 22 21 22 24 15 25 14 24 17 14 16 17 22 21 14 22 16 18 14 21 14 19 17 22 14 16 21 26 20 22 24 18 22 23 23 20 16 21 17 20 23 22 26 16 14 23 25 16 23 23 14 25 17 24 14 19 14 21 14 23
15 16 18 21 25 14 14 20 18 17 15 16 20 25 23 20 26 22 23 26 20 17 21 25 26 22 21 21 21 19 16 21 17 20 16 20 23 26 26 18 17 26 22 16 25 20 23 15 23 14 26 26 19 16 20 18 14 20 14 23 21 16 16 17
19 25 20 23 26 16 24 19 22 24 26 24 26 17 21 17 15 19 18 18 18 15 19 23 16 25 16 15 25 21 25 18 23 15 26 14 16 26 26 19 15 20 20 24 17 23 22 26 21 14 24 21 19 17 20 18 25 20 17 24 19 17 25 24
18 24 14 18 19 20 21 17 14 23 18 24 19 19 25 24 16 14 24 24 15 16 25 18 23 20 15 14 18 26 24 19 17 23 15 21 15 19 16 16 22 26 21 16 15 26 14 23 22 23 17 22 24 17 23 22 26 15 18 18 19 26 15 14
15 21 16 15 22 22 14 18 16 20 21 20 23 16 21 21 16 22 25 26 14 24 19 26 15 25 15 22 14 18 25 24 20 20 18 23 17 16 14 25 18 25 21 19 25 16 14 22 14 25 17 18 20 24 20 24 24 14 17 15 16 22 14 25
16 20 18 18 22 14 21 18 22 23 23 25 26 21 20 16 20 26 22 19 20 25 19 27 22 18 19 25 21 18 16 19 14 23 18 19 15 17 23 19 16 27 24 26 27 24 26 27 25 22 24 14 21 22 25 24 22 23 20 23 21 16 18 21
18 26 17 24 22 25 17 21 23 22 25 15 21 17 27 23 25 20 22 29 24 22 32 21 23 20 23 27 14 22 19 14 14 14 24 24 19 19 17 29 21 33 28 29 34 21 28 24 30 18 23 26 16 17 17 24 15 26 25 24 18 21 16 21
26 22 14 26 15 19 21 23 18 18 20 24 15 28 19 20 30 32 24 30 33 28 25 25 31 25 29 27 21 17 23 24 27 25 21 17 24 24 31 32 27 27 37 35 27 28 34 31 24 27 28 24 16 17 22 22 17 24 19 22 20 18 20 15
18 17 17 20 14 20 19 15 20 22 15 26 20 29 33 28 37 34 34 32 37 35 36 37 27 30 37 27 29 30 24 27 24 29 26 28 35 25 29 27 37 39 32 30 34 38 32 33 26 29 33 20 22 26 25 21 20 23 24 17 22 14 18 23
14 25 22 14 18 26 18 17 14 20 20 23 26 28 35 37 37 35 36 45 37 41 40 37 38 44 42 34 35 38 42 38 31 41 31 40 46 36 43 36 44 39 35 36 39 34 40 40 31 31 26 29 28 24 26 26 22 26 22 26 22 24 23 18
16 18 23 24 14 22 23 22 25 18 26 26 24 31 28 32 38 40 38 38 44 45 43 44 43 47 46 55 51 49 40 47 45 43 51 52 47 51 46 52 44 40 47 46 49 41 44 37 44 43 32 27 35 22 24 16 17 16 15 20 26 22 14 18
25 26 14 21 19 18 26 23 18 17 22 22 27 28 35 34 40 38 40 52 49 53 47 57 57 60 55 63 54 61 52 54 52 47 57 61 59 52 61 62 51 50 47 53 45 45 43 46 40 37 42 30 27 28 24 28 16 25 17 24 26 14 16 15
18 16 17 21 19 16 15 14 23 21 25 35 33 41 38 43 50 49 53 52 47 56 62 63 65 68 69 69 65 59 69 65 61 61 60 68 60 61 60 63 68 67 54 48 57 45 54 50 50 38 40 31 37 27 31 29 22 21 20 20 23 26 25 16
17 19 18 23 26 16 24 22 23 22 30 31 32 40 49 41 54 50 51 53 54 67 66 73 75 78 77 77 73 67 73 75 69 66 66 68 79 79 78 79 67 68 72 62 60 54 59 55 51 42 37 39 30 38 31 20 21 19 18 23 22 16 20 22
16 24 23 17 19 20 15 18 26 24 29 33 37 40 44 45 56 52 60 65 62 76 71 71 75 74 75 86 75 87 73 76 81 75 75 86 85 85 83 82 79 78 71 67 70 55 52 55 55 52 49 46 32 28 28 26 20 21 26 15 23 21 20 16
22 19 19 23 21 26 18 19 21 34 29 33 37 37 53 51 53 51 57 69 71 74 87 85 81 89 85 94 86 85 86 89 84 88 89 83 87 93 82 82 80 86 79 83 73 60 57 60 54 46 50 42 34 34 26 33 28 17 21 21 23 24 26 25
26 17 14 21 16 20 26 24 24 34 28 33 44 44 51 48 50 58 64 71 84 84 84 88 89 89 93 89 97 98 89 93 97 97 95 96 96 100 92 98 92 86 92 89 78 72 63 60 61 57 42 44 36 35 28 33 28 24 20 14 14 20 18 15
22 18 21 21 23 25 16 22 29 29 32 43 39 49 44 52 62 66 64 80 86 87 93 99 101 100 97 99 103 103 101 97 98 107 104 96 100 106 105 102 99 92 93 92 85 80 70 56 60 52 47 50 35 35 32 28 22 23 23 19 23 24 26 17
22 21 14 17 16 14 15 22 32 35 40 35 45 47 54 52 63 56 64 86 89 96 100 93 101 102 105 107 105 110 112 108 106 114 105 104 111 107 104 101 103 104 95 94 87 83 72 61 63 56 50 47 46 43 40 28 32 17 16 16 14 14 25 24
17 15 25 19 24 18 14 28 23 28 37 42 41 46 45 53 55 56 69 81 86 98 97 104 97 100 111 107 105 111 117 112 112 109 118 110 114 112 108 106 99 94 92 93 92 84 66 66 60 47 48 49 35 36 27 24 20 17 25 19 16 16 23 14
23 15 14 14 14 22 19 18 22 26 33 38 41 48 53 52 55 54 64 83 81 88 93 106 102 109 112 107 107 108 122 125 118 126 121 109 115 106 109 101 103 101 93 90 82 81 74 57 57 49 48 40 42 38 34 23 22 23 26 23 14 25 15 24
14 24 14 18 17 20 22 23 19 33 36 39 40 40 51 52 48 64 64 79 85 94 89 93 95 105 108 115 117 110 123 119 130 116 121 110 106 112 103 100 97 97 93 89 83 75 62 57 54 54 48 43 37 35 33 26 29 16 17 14 24 14 14 19
17 26 15 14 17 15 26 20 26 23 33 34 44 38 41 53 55 62 62 66 79 82 91 95 96 101 107 108 109 120 115 128 126 120 119 113 113 105 104 97 97 93 86 83 74 75 65 60 52 51 41 38 40 32 36 26 21 21 22 22 18 26 21 17
14 19 15 20 16 23 20 19 19 26 31 32 41 41 43 41 54 47 65 68 69 84 86 92 90 105 100 109 102 116 108 110 112 112 116 108 112 111 98 100 97 92 85 86 79 67 65 47 42 40 44 36 38 32 23 28 20 16 23 16 20 23 20 16
23 25 19 18 24 23 21 16 20 21 29 30 31 37 44 38 41 43 50 67 64 77 79 82 96 94 96 105 104 110 103 106 108 106 101 109 99 106 98 100 86 89 85 81 69 69 56 45 50 44 46 39 39 32 29 26 24 19 17 25 15 17 18 25
21 14 20 26 19 23 25 14 25 27 20 32 38 37 43 43 38 43 53 57 63 66 79 80 91 95 94 91 98 102 100 100 102 97 94 100 102 98 95 84 88 82 78 74 68 56 47 47 47 39 31 37 35 25 30 28 23 17 22 18 24 22 15 20
15 14 18 19 26 15 19 14 26 26 22 27 35 38 37 31 44 34 48 55 61 66 66 71 75 89 83 88 97 92 96 90 88 95 97 98 87 94 81 86 79 77 69 60 58 48 49 46 34 31 35 26 30 21 29 18 18 24 26 14 19 18 20 26
20 18 23 25 19 21 14 15 23 16 20 20 30 31 35 27 35 37 42 49 56 56 60 72 74 75 77 85 88 81 84 81 81 86 77 85 85 84 79 80 73 73 67 64 55 45 41 36 29 30 25 25 32 19 22 17 20 18 20 14 25 16 16 19
18 23 17 19 19 14 21 15 23 16 15 26 23 28 31 27 38 33 32 35 40 46 52 59 71 63 73 71 77 69 70 82 80 80 75 69 70 72 70 72 62 67 63 55 42 47 29 34 31 33 30 21 20 16 16 22 16 17 22 14 22 16 17 25
25 15 20 21 22 26 23 15 19 17 21 25 19 29 26 22 30 27 29 39 37 49 53 57 55 63 68 60 71 62 70 73 68 65 70 70 64 65 59 63 55 56 55 49 44 34 36 31 33 31 21 22 26 15 20 17 21 18 22 16 23 18 18 26
14 19 18 14 15 20 26 22 25 25 22 24 23 18 23 18 19 20 22 28 34 38 48 43 55 46 54 52 60 63 67 61 65 63 61 66 57 61 59 47 56 44 47 35 38 25 21 21 24 22 20 15 19 22 16 15 22 23 22 24 15 26 17 23
16 23 23 16 21 19 25 21 25 21 14 24 14 16 15 21 24 28 25 28 22 33 36 37 45 42 47 55 58 52 53 63 53 62 59 53 49 45 53 38 45 39 39 32 27 27 27 21 15 20 15 16 21 18 18 17 22 14 16 19 14 14 17 24
22 20 24 23 21 15 21 26 23 21 19 24 22 15 23 22 16 22 26 18 17 19 32 25 39 39 48 44 44 45 48 52 56 45 54 43 46 45 39 38 29 25 28 17 25 14 18 26 23 21 16 15 26 20 18 22 25 18 20 21 15 17 26 16
24 20 18 23 20 18 15 25 22 15 19 14 17 15 21 24 19 26 23 26 18 26 17 27 35 27 30 43 39 44 42 47 40 43 41 40 37 34 33 27 36 24 24 23 14 17 26 15 21 15 24 18 18 21 15 26 14 18 22 25 14 26 18 15
26 17 19 22 21 21 20 18 19 25 19 23 19 18 15 17 26 20 26 25 18 21 21 17 21 34 27 30 30 42 40 38 33 35 41 33 30 35 28 24 26 15 22 24 14 24 20 25 23 19 26 24 22 18 18 21 25 24 18 17 21 18 21 18
18 25 23 15 22 22 17 21 16 24 16 20 22 25 22 25 25 16 25 22 17 21 17 17 14 24 27 30 32 33 26 28 31 27 29 37 34 31 20 21 21 15 25 15 17 21 22 15 15 18 26 16 26 15 14 24 14 25 14 14 16 16 18 15
22 20 24 17 24 17 25 16 24 14 23 14 21 24 26 24 16 15 18 23 18 25 19 24 17 22 21 28 21 24 31 24 27 30 24 27 18 22 20 26 24 14 25 16 15 14 18 23 25 15 16 16 16 25 15 18 26 20 18 26 25 26 16 17
19 22 21 21 18 17 26 24 22 16 14 18 25 18 21 17 19 20 23 22 16 23 19 26 23 21 21 22 23 20 22 22 23 25 23 16 25 24 14 21 26 25 19 25 26 23 21 25 18 21 24 14 15 16 14 20 26 26 19 21 18 22 23 26
20 21 26 16 17 16 19 18 14 24 15 17 15 20 19 16 22 16 16 20 24 15 19 21 14 24 18 14 26 21 17 23 20 21 24 22 22 22 15 21 26 23 20 25 23 26 22 24 20 19 25 23 21 23 24 16 17 18 21 16 15 20 19 18
24 16 24 26 18 14 15 21 18 22 26 15 17 23 19 18 21 16 22 19 26 16 26 21 21 21 25 19 24 25 19 23 21 21 23 21 19 24 19 14 16 22 26 22 23 24 18 22 20 22 25 21 23 14 19 25 22 18 23 20 14 23 18 25
14 20 20 17 24 25 21 22 15 18 23 25 17 17 18 17 20 24 18 23 20 24 15 24 18 14 20 26 22 15 21 20 21 16 18 25 24 18 21 23 15 17 18 22 20 21 22 14 22 21 19 17 24 22 15 20 21 24 26 21 14 25 22 23
17 26 16 18 19 25 15 17 26 18 21 23 21 14 23 26 17 20 22 25 16 22 16 26 17 18 21 19 25 20 23 20 19 20 14 18 17 24 15 26 14 16 21 23 26 26 21 21 14 16 14 21 17 26 16 18 22 26 14 26 17 17 16 21
21 16 19 15 22 22 23 23 20 25 15 22 21 14 16 24 25 24 15 17 18 15 23 20 14 19 20 24 25 20 16 14 16 19 17 26 24 26 15 16 15 23 24 19 14 15 22 24 18 15 20 26 23 24 18 16 25 20 24 23 22 16 25 26
19 14 15 19 20 19 26 14 18 20 26 22 18 15 19 14 18 16 21 16 17 21 16 17 20 17 21 24 26 17 23 24 18 16 25 19 16 23 17 20 18 17 20 19 21 24 19 19 26 20 14 25 26 18 18 23 26 22 16 24 21 15 15 24
23 20 15 26 19 19 19 22 18 14 22 21 21 18 18 17 21 20 23 17 17 17 20 18 15 25 20 15 23 15 17 15 22 17 22 20 16 14 25 16 20 25 15 21 18 18 22 23 18 14 18 25 26 20 15 25 22 22 26 14 26 19 15 19
19 19 20 17 21 24 25 14 20 24 19 19 21 16 15 25 20 26 24 25 18 17 23 25 24 22 19 15 23 19 24 21 17 16 19 16 22 24 14 25 20 21 20 24 17 15 23 24 14 18 14 20 15 26 15 25 21 18 20 22 17 25 15 15
18 26 26 14 20 26 20 25 21 19 24 17 14 23 21 21 26 17 19 14 22 20 16 14 21 22 15 23 22 23 18 15 23 23 23 21 26 26 22 26 15 16 19 18 18 21 25 23 21 18 21 15 25 21 22 16 14 26 19 19 21 19 16 18
16 23 16 23 25 22 21 23 16 17 18 15 15 14 22 15 24 25 17 26 19 17 26 18 14 21 24 14 15 15 14 18 25 14 15 24 14 26 21 19 26 18 19 15 21 18 20 23 25 26 20 26 19 14 20 20 21 25 18 21 21 18 15 17
21 19 25 19 19 17 22 23 17 26 18 20 22 25 24 24 17 14 17 19 26 15 16 14 19 17 20 21 25 16 20 20 15 16 19 23 23 16 23 18 22 25 21 16 19 21 19 14 17 17 18 21 18 22 19 18 19 14 17 21 20 22 14 21
19 22 19 16 18 17 24 21 22 16 18 18 22 22 21 19 16 26 18 22 18 15 21 20 26 15 14 22 19 20 22 26 23 18 23 15 16 19 22 14 24 17 18 26 18 23 15 17 22 17 14 20 23 18 17 23 25 20 18 24 16 23 23 15
