P2
64 64
255
18 19 22 15 20 17 16 14 19 21 24 15 14 23 16 19 18 18 21 25 14 18 24 18 17 15 26 15 17 20 19 14 18 17 24 26 26 26 21 15 22 20 21 15 21 17 20 22 20 20 23 17 15 17 25 26 26 18 14 23 14 21 25 21
16 20 25 19 24 22 19 26 21 24 25 23 18 14 26 18 24 25 16 14 23 25 16 21 19 24 17 20 19 16 26 26 20 20 17 23 21 19 25 22 25 18 24 22 26 15 25 26 14 17 25 26 19 14 25 15 14 21 18 14 19 26 14 16
21 22 17 26 25 25 21 18 22 17 25 23 19 19 21 23 14 19 22 20 25 21 14 17 19 20 15 24 22 17 19 22 15 22 16 14 22 26 22 15 22 21 24 17 20 19 14 17 19 15 18 22 24 16 17 24 21 20 26 26 15 25 25 18
24 19 25 21 24 24 17 21 26 14 24 20 15 16 14 25 14 24 16 21 26 25 24 18 16 15 16 21 14 22 18 15 19 22 21 20 26 25 14 14 16 24 24 22 23 25 21 25 21 24 14 17 26 24 18 20 19 14 22 21 22 20 21 16
26 24 17 14 24 22 18 20 14 20 22 21 15 25 26 22 25 19 24 17 16 23 22 21 22 19 18 17 19 20 19 24 21 16 16 15 18 15 21 17 19 16 14 21 24 17 15 18 23 20 16 19 26 16 18 22 23 26 19 19 23 23 23 24
19 23 15 23 23 16 16 21 17 24 21 23 26 25 14 22 21 19 19 18 17 19 19 20 20 18 18 17 17 16 15 19 18 19 18 23 25 24 26 15 15 17 17 24 26 18 18 25 21 25 22 22 19 17 15 14 17 21 15 24 20 14 24 25
19 26 25 19 23 14 16 16 25 25 26 21 22 15 18 24 26 25 17 17 18 15 19 21 22 22 25 20 22 24 20 24 22 15 20 19 21 20 14 22 19 24 17 17 16 15 17 24 18 14 21 23 24 24 23 17 20 26 18 26 22 25 21 24
22 14 21 19 17 15 20 24 19 18 19 15 19 24 15 19 23 20 25 23 22 22 24 22 19 16 19 19 19 23 15 21 22 22 15 16 22 23 18 16 24 17 19 19 20 20 16 25 25 17 26 22 16 21 17 23 22 23 18 26 25 14 22 25
14 21 22 16 26 22 16 26 14 21 15 16 20 19 19 18 22 20 23 24 18 19 25 20 25 25 23 19 18 22 16 18 15 25 19 20 16 22 18 20 19 18 21 16 17 15 20 25 23 25 25 25 23 17 23 22 24 20 16 21 18 15 18 24
23 16 26 18 20 16 20 18 20 15 16 14 25 22 15 23 15 17 26 17 17 15 22 25 17 24 25 24 24 23 24 21 21 25 18 24 16 17 17 23 18 19 15 20 22 25 26 25 17 22 16 18 22 24 24 18 23 21 18 24 16 22 16 16
18 24 17 14 20 23 22 20 16 23 23 15 21 17 17 14 23 18 16 20 18 19 15 20 22 21 23 16 17 15 16 18 22 24 25 18 19 21 18 20 15 20 26 26 23 23 14 15 16 23 21 21 25 25 15 15 21 14 22 24 24 18 20 20
15 23 16 16 22 21 19 14 16 22 16 21 14 14 17 14 23 26 21 24 25 14 24 26 18 24 19 14 26 17 22 14 17 15 20 18 14 17 20 22 23 19 23 19 18 21 24 14 17 16 24 20 19 14 20 24 21 20 22 21 17 14 25 16
14 19 24 14 25 17 19 22 24 21 17 20 18 15 17 17 14 25 17 23 25 16 24 23 23 20 19 18 16 21 22 15 26 21 23 16 26 22 17 18 23 14 22 21 19 22 18 20 21 25 18 14 24 23 20 25 20 24 18 22 19 17 22 14
25 16 16 25 19 16 24 15 14 19 17 18 25 20 17 14 23 24 14 26 19 20 22 25 26 14 24 17 26 16 21 20 17 21 21 22 21 24 17 17 24 17 20 20 15 21 14 14 21 19 22 22 22 26 18 17 14 17 21 16 15 22 14 18
15 26 19 16 14 20 19 25 20 26 14 24 15 23 25 23 15 14 16 18 22 24 22 23 23 19 22 20 18 15 22 26 19 14 17 19 16 15 25 22 18 26 19 24 18 24 16 24 24 20 14 23 21 15 15 17 21 20 20 14 25 14 25 20
16 20 19 19 24 14 19 14 25 17 18 25 24 14 18 21 23 22 19 18 19 19 16 19 19 14 17 25 19 16 20 17 19 19 24 15 20 26 16 18 16 24 24 16 20 23 15 20 16 24 19 24 17 18 24 14 23 17 15 16 17 14 22 25
19 14 24 17 22 24 14 17 15 17 18 20 17 17 19 23 26 25 21 26 21 17 23 22 15 19 23 16 21 21 14 20 14 26 24 17 17 14 24 18 16 26 15 23 22 21 24 18 17 21 24 25 21 20 24 19 15 19 20 20 17 16 14 19
22 21 26 20 16 17 24 21 15 17 22 25 16 23 23 19 14 25 26 15 26 25 18 20 21 18 19 25 15 14 25 14 14 23 25 18 14 20 24 21 18 15 14 25 15 16 26 26 14 18 16 20 26 19 23 26 22 15 17 26 17 19 24 15
22 21 26 14 22 20 19 24 15 23 24 21 26 19 19 19 19 15 16 18 26 17 17 24 17 15 25 26 25 23 15 19 26 24 24 22 26 25 21 26 14 24 21 17 26 16 15 26 18 24 26 16 22 22 17 20 20 20 18 21 18 21 24 16
24 21 15 24 26 16 23 18 22 14 19 18 18 14 17 19 27 16 19 19 20 23 20 27 21 24 24 23 17 20 22 17 17 24 24 20 20 17 24 21 16 20 23 26 22 28 25 16 20 17 15 15 14 21 21 21 21 16 14 20 20 14 18 14
23 24 22 21 14 23 18 21 20 21 19 20 15 20 16 23 20 20 24 28 24 25 30 30 24 24 19 25 26 14 24 18 24 17 14 15 21 22 20 23 32 27 23 24 24 27 33 28 25 22 19 17 14 22 21 26 14 15 25 15 25 25 14 24
19 21 24 14 22 15 19 18 19 19 26 24 25 21 19 30 34 32 31 36 31 37 30 25 24 24 27 27 22 23 17 21 21 29 18 19 27 21 28 34 30 25 26 33 31 34 30 32 30 20 21 19 22 25 20 22 14 25 14 25 22 15 15 26
18 16 16 19 21 21 14 20 21 22 15 19 22 25 29 33 28 36 33 38 36 41 31 28 36 28 29 26 34 32 33 34 24 23 35 29 37 34 29 35 35 35 34 41 37 41 28 33 28 24 28 29 25 21 16 14 16 22 26 18 14 20 19 17
21 15 23 24 21 14 15 16 20 25 20 18 24 35 25 35 38 40 32 39 40 41 42 44 39 45 40 38 45 44 36 37 29 40 43 33 38 40 35 36 34 41 44 40 38 37 33 41 38 30 30 29 20 29 21 21 18 17 20 20 26 22 16 19
22 16 14 22 16 16 20 15 24 23 17 28 24 27 30 42 41 42 37 47 41 41 40 42 49 52 43 51 51 53 47 39 39 39 52 49 44 55 47 52 47 43 47 49 37 48 37 34 35 34 34 31 35 21 19 26 18 25 14 23 14 18 19 21
22 18 14 16 24 16 20 17 26 26 26 32 33 37 41 36 48 39 51 49 49 42 47 49 55 56 56 59 53 59 54 48 56 48 50 50 56 55 62 63 52 54 51 46 47 53 41 43 40 41 39 33 29 32 23 28 21 15 18 16 15 23 26 24
15 19 19 26 23 18 21 20 16 18 30 26 35 37 37 39 48 42 49 47 52 50 57 66 66 68 69 67 71 63 63 60 65 54 63 71 65 61 69 66 60 65 62 54 57 46 44 51 47 46 37 43 38 29 29 24 26 16 14 16 15 21 22 24
25 25 26 26 22 16 20 18 16 21 34 37 41 40 43 49 42 49 55 57 63 56 70 73 72 70 73 73 69 75 69 71 69 67 68 78 75 78 69 79 70 69 61 68 58 52 53 56 53 40 42 42 34 28 33 23 20 25 18 14 16 22 20 15
19 21 25 16 22 26 23 16 20 32 25 40 39 46 47 42 54 59 61 60 59 64 77 83 78 82 86 78 85 83 83 77 83 85 75 85 75 82 86 76 85 81 72 73 59 59 55 52 56 44 44 47 35 40 37 23 24 14 14 14 23 21 19 19
26 20 15 22 21 14 18 23 20 34 34 32 44 43 47 48 55 59 61 63 68 76 81 79 89 88 88 90 90 81 85 92 90 92 86 85 91 91 84 93 91 86 75 76 74 69 64 54 52 47 47 44 35 34 37 26 19 15 14 15 17 22 17 21
17 23 23 19 15 20 15 17 22 31 35 42 35 46 47 51 61 56 64 73 83 77 85 90 93 88 99 93 100 97 95 101 95 92 95 97 101 95 96 90 90 88 91 83 84 65 64 56 55 49 51 47 41 34 28 27 30 24 16 24 19 19 15 24
24 25 22 23 24 20 25 21 32 32 27 34 41 51 50 54 56 64 72 76 81 88 90 89 98 103 99 101 106 103 95 98 108 96 96 94 102 103 99 102 91 100 99 93 79 73 65 65 63 50 54 49 43 42 32 35 29 27 24 19 21 22 20 20
18 24 26 26 22 15 26 21 29 30 36 33 38 45 52 53 60 58 74 82 85 88 99 93 107 104 98 106 99 102 110 106 116 106 103 108 108 109 98 101 95 97 98 93 94 74 66 56 59 57 46 45 42 36 33 30 30 21 21 24 26 26 22 23
25 25 15 24 25 20 17 20 31 28 28 41 40 39 45 56 62 61 71 86 85 89 100 105 108 104 110 111 107 115 110 113 116 117 118 104 104 106 102 109 96 102 100 92 88 83 73 66 58 59 47 42 36 38 30 30 29 18 18 25 21 20 18 24
21 24 17 25 15 26 18 17 22 25 32 40 43 43 50 58 59 63 75 84 89 92 96 100 101 102 111 110 117 119 114 114 122 120 111 118 111 110 106 104 103 104 93 86 84 74 73 58 58 47 48 40 35 42 36 34 19 27 15 21 25 20 16 25
19 23 25 21 16 16 15 23 18 33 29 41 42 39 51 50 51 58 69 71 84 86 98 102 96 101 107 108 117 119 122 118 131 116 112 117 118 107 104 110 105 100 92 84 78 73 71 54 50 47 46 42 44 42 29 34 20 15 18 24 24 22 18 21
23 23 25 21 23 22 22 26 27 24 27 31 42 43 39 43 53 62 66 75 79 91 93 99 97 97 108 111 107 108 114 118 125 117 118 114 111 105 101 96 105 92 95 87 77 68 62 61 57 53 44 35 44 28 31 29 18 15 21 25 25 21 14 25
22 21 17 26 19 23 24 22 17 31 24 33 33 37 46 49 46 52 65 71 78 81 82 94 95 97 107 108 110 107 118 118 112 122 114 116 110 108 105 104 99 85 90 87 69 65 67 51 42 40 41 35 41 37 27 21 21 22 18 23 21 15 18 24
22 25 25 24 23 15 23 21 16 29 29 29 31 31 37 41 39 43 62 62 69 71 77 86 85 92 94 105 98 103 102 113 104 105 108 101 109 104 99 91 91 82 83 79 67 62 57 44 51 47 43 41 37 32 31 22 24 24 20 15 15 24 26 21
15 25 19 16 21 16 14 25 23 16 20 26 26 35 33 35 40 39 48 63 62 68 80 78 89 84 89 90 91 99 94 101 94 97 101 98 97 96 88 89 90 75 81 65 62 59 50 48 39 39 41 39 29 32 31 16 20 15 26 15 21 19 15 25
14 17 21 24 23 25 20 23 26 17 21 25 34 34 35 43 44 45 41 55 65 65 71 70 73 86 92 86 87 92 95 97 84 97 86 90 94 84 89 84 73 79 65 70 55 50 46 43 38 31 40 26 25 20 26 14 21 22 22 26 20 22 19 24
26 25 24 18 25 24 24 14 14 26 26 22 22 26 35 29 30 43 39 41 54 61 59 68 71 73 73 82 89 80 78 85 78 76 86 79 84 81 77 74 79 66 61 52 57 50 43 35 30 27 28 27 29 17 19 25 22 17 15 24 21 21 22 14
15 21 20 24 16 23 20 24 14 19 25 21 25 29 25 36 31 27 40 42 46 57 55 56 59 64 66 73 69 70 71 73 82 72 71 78 80 68 68 63 70 67 55 48 42 36 39 31 27 26 28 26 24 15 26 19 15 21 15 17 24 16 24 18
25 20 14 25 14 14 17 16 18 26 19 19 17 20 24 29 28 28 31 36 44 43 52 56 53 56 65 69 63 66 72 74 66 67 63 67 69 71 63 65 52 48 47 42 40 33 34 35 27 21 30 26 21 22 24 15 26 17 21 19 18 26 15 17
19 25 14 16 18 26 22 15 19 18 15 21 20 26 15 28 25 32 23 23 30 39 39 44 55 50 54 53 62 58 58 67 58 68 62 63 61 60 54 48 51 42 43 32 31 31 24 32 30 23 21 25 18 17 23 18 18 18 21 18 24 26 24 20
14 14 25 14 21 16 20 16 23 15 16 14 16 26 24 25 24 25 29 18 21 27 31 44 43 39 47 46 51 55 51 64 61 56 56 55 55 54 46 44 43 41 29 28 26 17 20 18 15 19 26 25 18 16 19 22 14 24 17 18 17 14 14 21
15 20 21 19 26 25 17 21 20 15 16 20 14 18 19 25 14 24 14 20 16 20 25 31 32 32 42 42 42 45 46 56 46 48 56 46 43 47 37 41 30 33 30 19 14 14 15 26 15 22 16 26 15 23 23 23 18 16 18 26 16 18 22 21
18 26 18 16 20 19 16 16 19 21 18 19 15 17 26 20 26 19 15 23 20 23 26 28 24 38 40 39 47 42 40 50 47 50 38 49 40 41 41 31 32 30 21 22 24 17 18 21 15 17 19 22 18 15 15 20 17 26 25 16 25 22 25 21
26 19 16 23 20 15 19 24 21 26 14 22 15 17 25 14 15 26 15 20 23 14 23 22 29 24 32 27 33 37 44 36 38 40 44 43 33 31 26 33 28 22 19 21 17 23 24 20 22 24 21 18 14 24 21 15 20 26 17 15 22 26 17 18
24 18 26 20 24 23 17 26 26 23 21 22 20 15 22 15 22 20 15 20 24 17 17 14 19 24 20 26 26 32 37 32 37 38 26 29 31 26 30 27 19 22 22 17 24 23 19 23 21 22 24 14 26 18 17 23 16 15 14 24 14 18 15 20
23 21 15 22 26 21 18 26 14 14 19 23 19 26 23 15 16 19 20 22 20 25 17 18 21 23 15 20 18 27 22 26 32 24 27 24 22 20 24 25 19 24 18 19 19 26 17 14 18 18 15 19 26 21 16 22 19 23 26 22 22 15 22 14
25 20 23 22 24 21 14 15 16 14 21 25 15 25 16 23 24 21 17 23 18 14 15 25 19 24 25 18 20 18 14 24 22 23 14 23 26 18 26 21 26 18 20 16 23 15 24 17 16 23 26 21 20 19 16 25 25 26 15 14 14 26 21 19
25 25 21 22 20 25 22 24 17 23 22 25 20 23 18 18 16 25 18 26 20 15 18 26 19 15 25 14 20 17 21 16 23 21 23 18 21 20 19 22 25 18 19 24 25 22 16 20 22 15 25 24 14 15 16 16 24 21 16 25 18 26 22 21
19 14 25 14 23 16 15 23 19 22 26 22 26 20 16 14 22 15 18 24 16 18 18 18 19 21 20 18 14 23 26 14 23 18 25 26 14 24 26 17 15 22 18 20 23 18 14 20 26 25 21 22 20 22 24 14 15 17 17 23 23 14 16 14
21 26 24 19 25 25 24 26 26 26 22 19 19 15 14 15 22 17 21 17 14 19 23 23 25 22 19 26 15 24 24 15 16 20 19 18 18 25 17 18 20 25 23 23 23 15 16 19 22 22 26 25 14 24 22 15 26 15 21 23 18 17 23 20
15 22 25 18 21 21 25 17 25 21 17 19 18 16 16 25 18 24 15 18 16 21 17 20 22 23 16 25 24 14 16 14 15 17 14 17 19 14 22 14 26 14 18 15 16 14 16 25 20 17 15 24 19 21 15 24 14 23 20 25 20 19 26 15
19 14 26 24 21 21 16 20 20 21 26 23 25 25 18 23 18 21 23 26 25 23 23 19 15 17 18 16 23 23 26 16 20 25 18 20 14 19 15 18 17 26 16 15 14 21 15 24 17 20 26 19 21 25 19 21 18 18 15 20 22 22 17 15
23 14 14 26 25 26 19 25 15 14 22 16 20 26 23 14 18 15 16 19 25 21 17 22 20 15 24 22 19 19 23 23 20 24 18 20 25 18 26 22 25 17 14 14 23 25 26 23 26 23 21 15 23 22 19 19 18 20 16 18 24 20 23 17
23 24 26 18 25 16 17 22 22 21 19 18 22 17 22 23 14 23 14 16 15 22 18 14 15 20 17 15 26 21 25 26 25 22 18 15 19 26 21 19 22 16 22 24 19 14 19 18 15 26 15 22 17 18 23 14 17 15 24 25 20 24 18 18
23 26 24 22 19 21 14 21 19 26 14 18 16 22 22 23 25 19 19 14 23 26 19 14 22 25 15 15 23 15 17 22 23 17 15 19 23 23 17 20 17 26 17 17 17 19 19 26 23 17 25 26 17 21 14 18 16 22 23 15 22 16 24 25
19 16 26 17 26 16 14 19 19 20 21 21 19 18 22 22 22 14 22 16 24 14 17 26 19 18 23 22 19 21 18 17 26 15 20 22 20 23 17 26 23 14 18 14 19 24 15 22 22 26 21 14 20 17 16 26 22 26 18 18 15 18 21 20
17 18 19 16 25 16 18 24 14 21 20 22 15 19 20 19 22 17 14 23 26 20 23 25 15 23 15 19 17 15 26 19 25 23 15 22 19 16 26 26 15 23 25 24 26 23 18 18 24 25 18 17 14 15 15 15 15 26 14 20 24 24 14 23
26 19 23 19 17 24 24 23 26 18 17 14 25 23 22 25 19 18 21 24 17 17 25 19 26 14 15 16 19 21 15 22 23 26 15 14 17 22 22 23 20 19 24 21 16 20 21 24 19 19 18 15 18 20 25 24 26 18 20 15 20 22 15 26
18 17 18 20 25 15 16 19 18 16 15 18 22 18 24 23 14 19 26 14 23 21 18 25 25 22 19 22 25 14 21 19 16 21 17 21 20 15 23 18 16 26 16 24 20 14 22 25 21 22 18 17 19 20 19 21 23 25 17 24 15 20 22 19
