P2
64 64
255
26 16 16 14 24 26 17 26 17 22 16 25 23 14 24 14 17 25 17 22 19 23 19 26 15 17 14 26 15 21 22 23 20 16 17 18 25 24 16 15 21 15 22 19 17 16 18 14 18 16 14 16 22 17 26 26 23 24 25 25 22 24 15 18
21 16 19 19 20 26 26 23 18 20 17 20 24 26 24 20 18 26 26 17 17 26 22 16 20 15 14 25 16 18 24 24 22 26 23 21 22 22 14 22 16 26 23 15 24 21 23 25 26 15 26 26 15 22 15 18 25 14 16 20 24 19 17 21
16 22 16 22 20 24 23 14 25 15 15 25 24 23 16 19 19 20 20 23 17 21 16 17 26 24 21 23 15 17 20 23 15 20 16 25 18 23 23 25 16 21 24 26 22 24 22 18 14 14 20 18 20 24 19 19 14 14 21 25 18 20 18 18
21 23 21 23 22 15 17 18 24 26 14 22 20 21 25 16 20 26 23 18 24 18 22 18 20 26 16 22 24 23 22 15 21 15 24 14 15 24 22 25 24 22 14 20 24 17 19 20 16 15 26 14 18 22 23 18 18 16 14 25 21 14 19 19
16 15 20 20 24 14 18 24 22 14 17 21 24 24 23 21 16 16 22 18 19 26 22 18 25 22 24 23 17 23 23 26 24 25 15 22 17 20 20 26 24 23 14 15 16 24 26 19 25 20 25 16 17 18 23 22 21 14 26 26 21 20 24 25
25 21 14 19 15 21 18 20 14 20 20 23 26 22 15 18 23 24 18 26 21 22 19 18 20 22 19 16 24 26 16 19 17 24 20 22 19 17 15 23 14 21 15 21 22 24 15 26 22 25 26 22 18 16 23 25 15 23 14 20 25 14 24 14
20 16 18 21 19 14 25 24 14 22 22 23 26 14 24 16 14 14 20 20 21 26 22 14 18 25 26 23 21 21 20 21 24 18 25 22 24 25 20 25 24 16 26 24 25 17 19 16 21 17 17 23 14 24 18 24 22 17 21 16 20 24 17 17
25 21 15 14 22 24 24 17 26 24 16 18 24 22 19 19 16 18 20 24 17 19 21 20 15 26 15 20 20 19 17 23 20 18 18 15 21 23 14 14 23 20 20 19 26 14 17 21 16 23 23 14 14 22 17 21 16 17 17 15 20 26 20 23
22 21 26 17 17 22 21 23 26 15 20 15 19 21 24 18 15 18 17 23 17 26 18 26 15 17 14 22 22 23 21 14 24 19 23 18 20 15 20 16 14 15 15 15 22 25 26 18 26 16 17 19 25 25 20 15 26 25 20 26 25 22 22 20
18 19 15 15 24 15 18 20 20 21 24 15 25 24 25 19 23 18 17 22 21 18 19 17 22 15 21 24 21 17 23 21 14 21 15 25 21 17 17 18 24 22 26 24 18 22 16 16 19 14 22 18 24 22 18 21 24 16 20 20 19 17 21 22
20 18 22 25 22 18 25 15 15 17 22 22 15 21 14 21 16 24 22 17 25 17 21 16 17 18 16 23 24 15 23 18 25 18 16 20 21 16 21 14 26 20 19 18 18 22 26 14 24 18 24 23 24 18 24 18 24 22 14 26 17 16 22 22
24 15 25 23 19 14 24 18 15 20 16 25 15 17 20 16 19 25 16 26 21 18 24 22 20 18 25 24 21 17 18 22 19 14 15 17 17 25 17 26 17 17 23 24 22 25 20 20 16 20 25 18 15 21 18 17 17 21 23 24 15 25 17 16
17 24 23 22 21 20 23 22 14 26 16 23 22 22 25 23 26 16 16 15 23 14 21 19 19 19 25 23 17 15 14 20 25 14 24 24 25 24 26 15 16 21 15 19 18 18 20 26 24 23 16 15 24 16 16 24 17 22 23 22 26 21 17 25
23 18 18 16 21 17 26 17 18 21 23 17 24 21 18 21 22 17 14 25 23 14 25 18 24 14 18 24 19 18 14 21 15 22 19 15 14 22 17 17 22 16 26 21 22 18 17 26 26 22 16 21 24 24 25 19 26 16 14 17 21 19 17 26
24 22 24 20 16 24 22 23 19 26 17 26 20 14 15 20 16 26 21 20 18 19 15 26 17 18 16 23 25 22 15 26 24 15 14 25 22 20 16 17 18 26 24 22 21 15 25 16 18 19 19 21 21 18 19 23 20 23 22 23 15 14 14 17
17 23 15 25 16 17 20 23 18 15 24 21 15 20 24 15 19 24 24 18 21 26 21 22 24 26 18 24 16 25 18 24 18 23 20 24 19 21 26 16 25 15 18 15 23 19 15 21 20 22 24 26 16 23 22 15 16 22 20 24 21 21 25 14
17 26 16 18 16 20 23 25 25 14 19 26 25 14 19 21 18 20 14 20 15 21 18 21 14 25 17 15 21 15 23 23 23 23 15 21 24 15 18 18 24 19 22 19 18 21 14 23 19 24 24 26 20 21 22 23 14 21 17 20 16 16 22 15
20 15 24 25 16 19 14 22 23 21 24 24 19 17 26 15 23 18 22 18 23 14 24 17 21 17 24 14 19 19 17 20 14 20 18 22 24 26 14 20 21 26 16 26 15 22 14 26 16 14 24 22 17 25 20 26 19 19 26 22 14 26 14 23
20 23 26 24 19 18 16 21 15 25 15 19 21 14 21 23 26 16 19 23 20 20 18 17 19 16 24 14 26 25 19 26 25 23 24 17 19 22 21 25 18 14 24 26 18 18 18 25 26 17 23 24 25 24 17 19 24 19 17 21 24 24 25 25
22 14 21 21 16 18 26 20 15 23 22 19 25 16 20 22 22 23 26 24 21 18 26 24 21 19 23 25 23 21 19 25 22 25 22 14 15 17 17 27 16 18 26 30 30 23 29 28 19 17 21 26 22 25 20 14 17 22 21 22 18 20 25 22
19 16 16 20 16 21 17 17 20 18 18 18 15 23 20 18 23 23 33 33 25 27 31 21 27 18 27 17 20 23 26 22 23 15 18 16 23 25 27 28 26 33 33 27 33 32 23 26 27 28 24 25 15 19 23 23 24 18 15 16 20 15 20 19
15 16 15 15 21 14 22 26 20 26 22 16 19 28 25 25 32 33 31 34 36 29 25 28 28 30 29 26 16 16 19 27 19 25 27 20 23 26 28 23 31 29 31 37 29 33 24 23 32 20 20 28 17 24 23 23 17 25 17 14 18 17 17 14
16 19 15 26 26 21 20 26 21 23 16 15 25 31 27 33 26 31 37 35 35 41 30 34 33 29 32 35 32 26 27 23 27 35 31 29 37 30 37 35 32 32 31 29 29 39 40 39 32 33 25 24 18 23 21 15 23 15 22 19 24 15 19 20
17 20 16 14 22 24 16 20 19 22 16 23 22 33 29 28 29 32 38 45 37 40 35 40 40 39 44 38 45 45 31 41 36 30 42 36 38 46 41 39 41 39 42 40 39 43 41 39 31 38 36 31 29 18 20 15 20 20 17 18 17 23 15 24
22 19 17 26 21 22 15 15 21 19 23 23 30 37 33 34 42 46 44 49 47 44 42 41 40 44 53 45 44 47 45 47 43 43 51 43 52 50 49 46 46 39 43 45 40 37 41 42 42 32 40 29 29 22 27 14 19 24 19 18 23 14 19 15
26 16 16 26 15 23 17 21 20 18 19 24 38 30 37 46 38 39 49 51 51 42 44 57 54 52 58 64 57 56 55 58 48 55 59 56 60 54 54 57 60 46 56 42 49 43 40 48 48 43 43 28 38 27 31 19 18 18 21 16 18 15 26 21
15 25 18 24 22 25 15 25 14 22 30 32 36 41 45 49 43 49 43 48 57 53 64 67 68 70 60 70 69 60 62 58 63 56 57 63 61 61 62 64 65 63 57 60 54 45 51 50 49 44 43 31 32 25 31 24 20 17 26 24 16 26 22 25
15 18 25 20 25 19 22 14 18 28 34 27 42 41 38 40 43 48 58 53 53 60 60 72 78 67 78 76 78 73 76 71 65 68 73 75 78 70 77 69 74 71 67 59 54 54 48 57 53 46 43 45 37 37 31 29 23 23 24 17 20 18 23 22
24 20 20 20 22 24 17 25 23 32 27 39 41 44 42 48 56 48 57 63 65 75 74 79 82 83 82 85 78 87 84 81 79 78 81 87 80 77 76 81 83 80 80 71 65 53 52 48 50 51 40 44 39 33 35 27 17 21 15 14 19 25 20 17
15 18 21 16 19 16 20 17 20 24 34 32 38 39 47 50 53 55 62 67 67 74 79 89 86 86 82 85 89 89 89 83 93 82 92 88 88 83 88 81 85 85 84 75 71 61 63 59 56 47 44 46 38 36 36 28 18 24 25 22 26 22 23 23
22 16 20 25 22 14 25 26 29 35 30 40 43 43 48 52 58 65 62 67 76 79 86 95 95 94 99 96 96 94 98 97 102 98 97 95 101 93 100 87 89 86 86 86 73 67 59 61 49 55 51 49 43 39 36 34 31 15 18 15 21 26 21 24
23 17 22 15 21 17 23 25 21 30 37 31 38 40 55 50 51 64 66 78 79 93 95 89 96 94 102 100 102 98 96 101 97 104 95 106 98 99 102 101 103 89 97 93 84 81 62 61 62 59 47 47 37 43 29 31 32 21 25 26 20 19 19 26
20 23 20 16 16 25 14 21 27 28 37 39 42 50 54 55 59 66 67 86 95 88 100 98 97 101 107 104 99 106 104 105 106 108 104 108 102 102 108 103 100 105 97 95 95 86 69 65 51 59 48 50 35 36 30 24 29 23 20 14 16 18 24 19
25 16 14 19 14 24 24 28 32 23 27 31 37 44 54 59 62 58 75 83 94 91 94 97 97 108 109 111 106 113 115 119 111 114 118 106 107 107 101 99 103 97 95 98 84 83 74 58 54 47 49 44 41 39 30 33 23 24 14 23 23 15 23 26
26 16 18 18 23 14 14 16 23 24 30 43 40 41 50 56 53 60 66 79 82 92 102 96 100 106 108 114 109 109 115 124 121 125 122 118 112 110 108 103 107 97 91 95 89 79 67 66 58 47 50 50 34 40 28 33 29 21 21 16 22 26 16 15
24 23 19 22 18 18 16 21 24 24 35 31 34 37 42 45 47 54 66 71 81 87 98 102 98 108 113 104 111 118 113 125 124 127 121 109 114 111 111 109 97 100 88 92 82 70 64 56 59 52 50 48 37 40 28 32 19 21 17 17 25 18 25 22
24 18 25 14 18 16 25 16 20 22 32 37 38 40 43 54 55 50 62 77 80 90 97 97 96 108 111 105 113 115 114 116 123 125 115 116 117 103 110 103 94 96 85 85 73 67 69 55 45 53 40 45 34 29 27 21 20 17 24 15 23 22 18 26
23 14 20 20 21 18 22 20 28 26 25 35 42 36 38 52 43 58 61 63 77 80 82 95 101 98 103 100 110 108 116 118 117 118 108 114 102 110 100 96 93 96 88 77 74 67 62 48 43 48 40 41 39 36 23 29 25 14 19 20 14 26 23 22
25 21 23 19 25 23 14 16 17 21 22 27 31 39 40 46 42 52 54 60 67 75 80 82 84 92 97 96 108 107 104 108 109 102 101 109 102 95 93 95 84 86 80 80 67 61 60 43 44 46 46 32 36 30 28 27 20 14 14 20 21 19 22 21
17 18 18 18 25 21 23 21 16 21 25 25 27 30 40 40 43 43 57 56 63 72 80 75 84 90 89 93 98 97 104 94 93 97 99 93 91 100 96 85 80 79 72 66 67 60 50 42 38 35 39 33 31 25 28 22 15 23 26 25 26 21 23 14
16 23 26 19 21 20 22 15 16 15 20 30 24 33 28 39 33 34 49 54 61 66 74 72 74 85 87 89 90 86 97 89 90 90 96 94 94 87 85 86 81 71 75 59 61 57 45 36 37 42 40 28 23 24 24 19 22 24 15 17 24 14 24 24
20 14 23 24 15 18 23 16 14 21 17 19 31 25 28 32 34 37 38 53 54 54 63 69 75 75 74 75 83 87 86 88 80 85 78 82 88 87 73 74 69 66 70 61 54 41 43 33 38 29 29 31 26 19 16 18 25 15 21 20 26 26 20 26
15 20 24 23 14 22 23 24 14 14 16 15 17 30 28 32 33 29 29 38 44 56 61 55 60 74 77 76 71 70 73 75 71 82 78 72 79 71 76 64 70 61 57 52 44 40 35 33 30 33 31 22 18 24 16 24 14 15 25 25 19 22 17 25
21 18 18 26 15 15 21 26 19 18 20 18 18 17 23 32 33 24 27 32 33 39 45 53 63 59 61 64 60 66 70 70 74 67 71 70 71 61 65 56 57 47 47 50 45 31 28 30 27 23 25 25 23 26 14 23 15 15 16 25 20 16 26 18
22 25 18 26 23 15 24 26 15 15 18 19 25 17 18 24 27 28 21 32 33 38 37 41 48 56 51 57 53 63 62 61 70 67 61 56 62 52 51 50 46 49 41 39 27 26 30 20 19 29 15 25 26 16 16 20 20 15 23 24 16 20 22 20
17 18 19 22 15 22 16 25 18 15 14 22 24 20 18 15 17 25 22 25 20 36 28 42 35 38 49 49 53 50 55 60 53 56 61 54 55 45 53 40 47 35 31 24 31 17 23 18 20 21 25 22 20 22 14 19 24 22 23 24 21 24 25 16
16 26 23 21 25 18 16 22 21 19 16 25 23 19 23 19 20 17 21 18 23 16 25 27 34 36 46 38 43 46 52 49 50 55 52 53 44 39 39 33 37 29 28 25 22 20 23 14 18 21 17 16 17 22 19 21 20 16 19 22 19 20 15 15
19 16 15 25 21 18 18 20 23 22 25 25 24 25 26 21 15 18 20 15 20 25 24 22 30 33 42 36 35 39 46 46 50 39 46 37 45 36 36 37 31 31 16 16 18 26 21 21 23 14 14 26 18 19 26 20 19 17 20 19 26 23 24 26
24 16 17 24 20 16 14 15 22 15 18 25 18 22 24 20 14 17 17 25 17 24 24 16 18 23 28 39 33 41 42 38 42 37 39 35 40 35 30 22 26 26 25 15 26 22 20 18 14 24 16 19 18 26 21 16 19 21 20 17 25 18 20 21
26 24 17 18 24 25 25 19 15 16 16 20 19 26 18 21 18 20 25 24 20 22 19 17 22 22 30 27 29 36 28 37 37 34 26 26 31 28 20 16 25 15 22 15 20 23 19 20 15 23 16 24 14 20 15 22 23 14 21 20 19 21 22 25
24 16 14 23 20 15 21 18 14 17 25 25 14 23 21 21 14 26 14 25 23 23 24 23 25 24 21 22 24 31 31 21 25 29 24 27 18 26 14 23 16 19 14 19 20 20 24 21 16 16 24 16 26 21 24 17 17 24 25 26 18 16 17 16
24 18 19 21 14 23 20 26 15 21 23 20 17 22 15 19 22 20 23 21 18 22 23 20 19 17 21 14 22 17 14 25 18 20 14 20 17 20 19 20 26 19 20 18 23 20 24 15 21 21 24 15 17 18 23 22 14 25 26 19 18 22 24 24
24 20 18 18 16 18 19 16 17 25 20 24 25 18 25 22 16 22 17 18 21 20 19 25 21 26 24 16 24 17 15 22 17 24 20 16 26 20 14 17 20 17 18 21 16 25 15 16 26 21 23 19 20 26 22 19 22 23 17 24 19 26 20 14
16 17 24 17 14 17 18 22 26 26 21 15 22 17 16 25 19 25 15 17 16 25 17 23 17 16 22 14 23 18 21 14 16 19 20 15 16 25 16 18 20 16 23 20 19 19 25 24 26 25 22 15 15 18 18 15 19 16 23 20 14 23 26 21
14 17 21 23 17 14 19 22 23 14 25 18 22 16 17 19 25 19 22 19 23 25 18 15 21 25 20 17 15 16 22 14 17 19 19 14 17 20 25 24 14 26 16 16 15 17 18 23 15 24 24 26 25 24 22 15 20 23 19 24 23 24 15 22
22 21 25 15 21 14 24 20 26 14 14 16 21 16 22 15 22 24 20 14 17 23 19 16 15 22 15 15 16 16 24 20 20 20 14 15 23 21 25 23 15 20 24 22 18 15 24 17 19 16 22 14 15 22 25 19 22 22 15 26 19 20 15 21
21 16 14 18 14 23 21 19 23 23 15 24 18 15 18 22 22 24 18 19 26 17 20 22 17 26 16 17 19 20 17 24 17 25 22 22 22 25 15 26 22 14 24 25 17 19 26 20 18 19 14 17 22 14 19 17 19 26 17 14 18 25 18 20
23 25 14 23 18 19 23 20 25 26 18 26 15 23 19 22 23 16 24 23 22 24 17 24 18 14 20 24 21 24 18 24 26 22 25 21 25 26 16 19 21 17 15 15 25 19 26 16 14 26 23 19 16 26 18 18 14 19 16 22 26 17 14 26
18 19 24 25 17 23 24 25 23 26 17 18 17 21 18 18 16 22 19 21 25 24 19 24 20 19 25 17 21 25 15 24 18 17 14 21 26 19 23 20 15 18 14 18 26 20 14 15 23 22 21 16 21 22 18 16 19 20 25 14 24 15 22 22
14 25 14 15 19 24 25 14 18 22 15 14 17 24 25 22 17 26 21 26 24 19 23 17 17 14 24 18 26 22 24 18 25 22 22 21 23 24 21 23 20 18 16 16 18 20 18 19 18 26 19 22 16 26 19 18 17 26 17 20 22 24 24 20
26 26 21 19 16 19 19 15 19 24 20 23 19 18 26 18 20 17 22 21 26 16 17 20 22 22 14 21 25 14 24 17 16 22 19 18 23 21 17 25 17 26 19 23 20 23 16 14 21 17 26 15 26 25 15 19 19 15 16 20 17 25 17 24
20 21 20 18 16 17 25 25 16 26 20 16 22 18 22 26 21 17 24 17 21 14 23 23 15 24 23 18 22 21 17 22 15 16 15 17 19 20 20 21 15 16 26 26 22 17 24 15 21 18 23 24 20 22 19 24 21 25 17 18 26 25 14 19
26 23 22 24 21 16 24 20 26 18 22 16 26 24 17 23 19 21 17 20 26 23 14 20 26 17 14 17 15 26 19 16 14 17 23 23 25 21 18 18 20 21 24 20 25 22 22 17 17 23 25 14 19 23 26 26 26 24 22 15 18 23 21 17
26 21 23 15 18 19 21 21 18 21 18 24 23 17 14 24 26 16 23 15 17 25 26 14 17 15 18 25 23 19 14 20 25 22 16 20 16 22 16 18 15 23 20 16 23 17 24 24 18 24 21 17 19 22 18 15 16 24 21 24 25 17 20 19
