P2
64 64
255
19 23 25 19 14 19 15 20 20 18 14 22 23 22 15 16 20 15 19 16 22 20 17 24 23 15 25 24 15 20 26 25 25 17 26 23 21 14 25 16 22 18 18 21 20 15 26 15 19 25 25 16 22 24 20 15 25 17 25 16 22 19 25 23
24 25 16 16 19 24 14 22 17 22 25 17 25 14 26 16 20 24 22 14 19 16 18 20 24 16 21 21 26 14 22 21 25 14 15 23 23 19 23 25 16 21 24 21 14 14 25 20 19 17 26 21 24 26 26 14 15 15 18 17 18 20 18 22
20 18 21 21 16 17 18 25 20 26 15 26 22 22 21 18 23 14 23 25 17 18 26 22 14 18 24 22 15 20 24 18 19 22 17 22 26 21 23 24 26 18 18 17 15 16 19 21 25 23 16 15 23 16 26 23 25 20 17 23 23 20 22 22
17 26 23 24 25 19 26 26 15 24 25 24 19 21 24 23 24 25 16 17 25 24 26 24 15 18 15 14 14 20 15 14 21 17 19 23 19 19 26 19 24 20 18 23 26 21 26 23 22 20 22 23 20 19 19 23 16 18 18 14 16 17 24 18
22 17 18 17 19 16 22 20 17 22 26 20 21 20 26 20 17 26 20 17 15 23 23 16 24 23 21 19 26 19 14 23 23 26 16 25 26 26 26 14 26 14 17 17 17 24 26 21 19 21 19 19 17 19 22 26 15 16 23 22 18 18 15 16
14 25 22 22 14 20 15 25 20 17 22 17 18 19 17 19 25 18 17 26 24 19 25 24 24 16 19 21 18 15 24 26 17 20 25 17 26 17 14 25 24 24 18 20 25 26 20 19 26 20 18 26 22 20 14 23 21 17 16 21 20 24 14 17
22 21 24 20 17 21 26 22 21 21 18 20 21 20 20 24 24 25 16 15 16 19 21 22 20 16 25 25 24 15 19 18 15 17 20 17 22 17 26 24 14 16 15 18 20 20 14 23 18 16 20 19 19 22 24 18 20 26 21 19 19 21 22 14
18 15 22 15 22 18 21 25 15 26 18 22 26 17 19 26 16 14 15 17 23 20 14 20 14 21 22 14 16 17 26 16 18 18 18 18 17 16 20 18 26 20 23 18 17 18 26 17 19 22 26 24 23 22 26 14 17 16 19 15 26 24 16 20
23 19 14 25 23 25 15 20 20 19 23 24 20 22 25 21 19 17 25 14 21 21 19 19 24 21 18 26 14 15 16 23 17 14 14 16 15 19 22 26 21 25 17 14 23 22 21 17 25 17 14 26 18 24 19 23 25 21 14 15 21 15 19 25
19 14 18 21 24 26 25 18 16 14 16 19 20 23 25 15 20 23 21 17 26 16 18 14 16 17 22 23 17 17 21 25 16 20 17 18 21 14 18 16 26 25 16 21 23 17 22 20 25 23 19 17 20 14 18 24 19 18 20 15 24 26 23 25
14 16 14 22 24 19 14 21 18 21 25 24 26 14 19 15 23 26 16 17 23 24 18 14 22 18 14 15 20 21 14 20 15 16 26 22 14 26 26 21 24 20 17 21 16 26 26 15 15 23 21 19 16 21 26 21 22 15 22 24 15 22 21 26
16 15 16 14 25 25 18 15 24 14 17 14 14 19 14 24 15 16 18 25 23 23 20 25 16 21 20 19 23 17 22 17 18 14 14 23 25 25 16 17 22 23 16 26 14 23 21 25 14 24 17 23 22 18 22 15 14 24 23 19 23 26 16 23
18 15 15 19 20 22 23 20 25 26 24 15 18 24 21 16 19 26 17 26 15 20 21 14 26 23 16 17 19 20 18 15 16 21 24 18 23 26 25 16 14 25 22 14 16 22 14 16 18 14 16 15 17 23 19 25 14 24 22 15 24 22 24 20
25 26 19 18 16 22 23 26 15 16 26 18 16 19 23 23 22 21 14 19 20 15 17 16 16 18 19 20 21 17 15 14 18 21 24 19 16 17 20 22 24 15 20 20 21 21 23 22 20 14 15 20 17 14 21 16 26 14 26 25 16 15 19 22
26 14 15 16 23 15 26 15 20 22 20 15 15 18 21 19 24 14 23 26 25 24 25 26 19 24 23 26 18 21 15 19 22 18 24 16 14 20 19 21 18 21 17 14 17 14 23 22 16 15 19 21 16 17 22 14 21 24 25 18 16 19 26 14
16 25 16 14 24 25 17 18 16 14 26 24 25 22 18 26 20 24 16 16 15 14 24 22 14 14 14 14 17 17 15 19 19 20 21 23 16 25 25 23 20 23 21 20 19 23 16 19 24 26 21 26 22 18 20 22 19 26 20 15 23 18 21 25
15 25 25 16 23 22 18 14 24 22 18 25 14 26 18 16 22 18 15 15 26 23 16 20 22 26 19 17 15 14 23 16 26 14 21 16 14 19 24 18 24 19 18 17 22 19 18 16 17 23 21 18 25 25 18 18 14 22 20 15 17 24 22 20
21 22 25 18 26 26 14 25 25 17 22 15 19 25 22 17 19 20 26 26 18 26 16 25 20 19 17 19 23 18 22 24 25 21 15 24 14 17 15 18 23 18 25 14 14 18 19 22 26 17 16 16 15 21 18 14 23 16 20 19 21 20 18 25
18 15 15 15 17 18 23 20 14 22 22 24 21 26 20 24 25 14 24 15 14 23 21 18 14 16 22 24 18 15 26 14 21 26 24 26 17 21 24 26 18 23 25 15 21 20 24 21 15 19 23 18 22 18 14 19 25 24 25 17 14 24 19 20
18 23 14 23 24 20 24 18 22 16 22 23 15 16 16 14 19 17 24 22 29 21 29 17 20 18 25 18 26 21 16 24 21 19 20 15 26 14 16 16 17 24 26 27 28 22 26 26 25 24 21 23 14 19 17 23 21 17 17 21 18 20 21 16
17 22 20 16 20 19 15 26 22 18 16 19 26 14 18 28 28 26 21 30 24 25 23 25 29 28 27 18 25 26 24 24 19 19 25 19 21 17 24 23 32 25 29 26 25 21 33 23 28 29 23 24 21 18 16 25 24 20 24 26 24 15 25 23
16 22 21 22 15 22 15 20 19 17 20 17 17 20 20 30 25 31 26 31 25 32 27 34 33 32 20 24 25 22 15 17 25 21 19 22 18 26 24 32 28 31 29 35 37 25 31 27 23 22 23 20 22 21 21 24 18 23 15 22 14 18 23 16
16 23 19 24 18 24 26 26 26 17 22 16 26 22 32 24 37 39 35 36 32 33 40 36 38 27 27 34 30 18 26 25 17 24 22 22 22 24 33 34 30 28 36 33 41 38 29 36 33 30 34 29 19 24 18 20 15 14 21 16 21 21 17 22
22 15 20 21 18 18 23 14 15 16 19 25 20 32 28 37 33 40 36 40 45 37 42 43 31 37 34 31 26 28 23 16 16 15 19 28 29 37 29 32 41 32 34 33 37 39 33 37 31 28 32 28 23 22 18 14 24 16 19 17 18 14 23 23
22 25 25 14 15 25 21 21 14 23 21 30 27 30 38 33 35 43 46 43 40 38 37 48 35 34 32 30 26 29 32 26 16 27 21 31 27 39 39 42 42 44 45 44 46 46 39 46 44 36 28 30 25 24 19 23 17 17 25 21 16 23 20 22
24 22 16 16 23 16 20 26 25 23 25 31 34 32 43 34 45 48 49 41 47 48 53 39 42 48 35 32 36 34 33 27 19 26 31 29 38 37 42 38 46 44 46 49 49 41 46 44 44 43 36 30 27 29 29 26 24 26 21 16 20 20 26 23
15 23 26 24 21 17 15 17 25 25 31 25 33 41 37 46 39 41 55 56 55 46 53 50 43 41 48 44 36 34 25 33 28 29 31 37 33 43 49 40 48 51 44 47 51 52 54 41 44 40 41 33 37 26 21 20 16 26 26 23 24 20 22 15
16 20 22 16 15 16 14 19 18 24 34 29 41 43 48 46 50 50 56 50 59 57 48 58 45 42 43 40 43 34 35 32 27 27 26 35 36 45 39 51 49 50 60 57 57 48 48 47 50 51 42 35 38 37 24 22 21 21 21 22 23 19 16 14
22 14 20 18 16 24 21 16 18 31 26 28 33 45 40 44 46 49 61 57 59 55 63 52 50 46 44 43 46 41 28 28 31 28 28 38 43 42 48 54 48 59 60 56 65 52 52 55 46 46 47 40 39 40 36 31 19 25 16 18 16 18 24 14
15 15 20 17 20 23 22 22 24 29 37 30 44 47 53 52 51 53 62 56 68 67 61 64 51 56 55 50 40 37 32 33 40 38 32 34 43 41 46 57 52 63 61 69 60 64 65 53 58 52 44 40 38 40 30 32 25 17 16 24 14 25 25 20
22 23 16 25 25 25 14 17 26 23 32 40 46 48 54 51 61 56 58 63 72 62 71 62 58 60 47 45 42 44 35 32 43 42 34 37 44 45 55 49 58 60 65 70 70 68 68 59 58 49 43 40 40 43 37 35 21 22 22 26 25 24 22 18
21 15 24 17 16 20 15 20 31 35 28 31 40 39 52 47 56 66 67 69 65 67 72 67 55 54 56 49 39 44 43 36 37 34 36 38 42 44 53 54 55 66 72 72 74 66 65 59 60 58 53 45 42 35 36 25 29 16 26 22 15 20 21 18
23 23 20 21 22 15 22 19 29 31 40 41 39 41 43 54 54 58 64 75 77 73 68 60 63 53 48 43 45 46 44 44 44 35 35 39 39 44 52 62 66 63 64 69 67 73 71 65 60 50 51 44 38 42 28 25 25 19 20 21 22 15 24 18
16 24 19 26 21 20 20 26 31 30 27 38 38 47 54 52 61 54 61 66 73 69 63 67 56 51 48 54 45 40 36 36 40 39 45 35 43 51 50 53 63 69 69 75 65 71 62 57 59 54 47 50 47 31 37 28 20 24 25 26 20 21 16 15
22 14 18 18 19 25 21 15 22 28 38 31 40 44 53 52 49 54 62 59 60 69 65 63 57 58 48 49 46 36 36 42 33 39 37 36 39 44 56 52 54 58 61 68 60 64 67 57 55 50 47 45 38 37 38 33 24 27 19 18 18 21 19 25
15 19 26 17 25 15 18 16 27 23 28 35 33 44 47 54 50 52 64 63 65 57 56 59 60 51 48 41 45 45 37 33 34 34 39 37 45 44 52 59 62 62 67 60 61 61 62 63 47 56 53 47 44 42 31 24 24 19 17 17 17 17 21 19
20 22 22 22 18 23 24 18 23 21 34 31 34 39 41 50 54 51 51 64 57 58 63 61 56 55 54 47 36 40 30 39 40 37 28 37 40 40 42 51 50 60 52 58 55 62 56 57 57 49 41 40 34 30 33 25 25 26 14 25 22 24 16 22
20 15 19 24 20 17 19 19 24 21 24 30 32 41 48 44 54 46 50 55 54 58 53 56 52 52 43 48 38 41 36 28 34 25 34 38 44 37 42 49 52 53 56 57 59 53 51 49 52 50 46 43 42 37 29 26 18 21 24 14 19 14 26 16
17 20 20 18 16 20 26 21 21 28 22 29 29 40 36 38 47 52 52 51 55 56 50 52 47 50 37 39 36 31 26 30 27 26 27 30 36 38 39 40 45 46 50 56 55 49 44 45 50 49 37 43 40 30 21 19 22 14 24 16 20 21 21 18
29 27 20 23 22 24 26 18 20 23 25 37 31 44 47 46 50 54 55 54 51 50 50 55 46 45 39 39 34 30 28 32 30 25 33 40 41 41 41 47 46 51 57 51 47 53 47 54 46 52 39 40 32 38 31 25 25 31 30 22 23 30 30 28
22 28 31 23 27 32 29 28 25 28 36 34 36 40 44 47 41 53 46 54 54 55 58 47 49 43 41 48 46 34 39 36 26 29 34 40 39 40 46 49 50 55 49 57 49 58 53 55 52 48 40 47 41 32 31 30 29 34 32 29 28 35 28 38
32 28 24 35 25 25 30 29 34 28 38 39 33 46 43 39 53 54 44 57 52 57 47 47 46 43 49 48 48 42 43 40 31 33 43 44 43 48 45 53 57 53 51 57 57 50 58 55 46 52 47 43 37 39 37 35 38 32 40 34 41 45 39 37
30 23 24 21 21 23 32 23 31 29 28 30 36 39 31 43 39 35 47 37 39 46 46 37 42 43 33 40 33 28 32 24 35 24 29 30 31 43 34 38 44 44 49 39 44 48 41 38 37 38 45 35 32 37 26 27 28 27 37 31 35 34 37 27
22 28 25 18 21 19 19 24 23 24 20 29 21 28 22 24 31 37 40 36 29 36 38 39 33 33 29 33 29 19 23 25 18 23 24 24 29 26 29 28 40 40 33 38 40 42 35 34 36 30 31 31 24 20 24 23 24 28 29 27 23 22 23 25
15 23 20 24 18 17 17 17 22 26 24 24 15 16 23 29 21 24 25 27 31 27 22 30 22 30 18 24 22 21 25 16 18 21 26 24 18 17 19 23 22 27 32 24 27 29 32 25 22 28 25 23 16 20 17 24 14 16 26 23 15 24 16 26
14 21 15 26 20 26 26 16 25 14 14 24 26 25 18 16 23 21 29 28 26 18 18 25 21 19 15 22 20 24 17 17 20 23 16 22 15 19 16 18 18 18 21 21 21 20 19 22 18 17 17 25 21 17 24 16 20 15 16 26 26 25 26 22
17 16 15 24 26 26 18 26 22 23 25 16 17 21 21 17 26 15 23 24 20 24 20 16 18 14 15 18 20 22 23 26 26 24 20 14 23 15 16 18 17 21 21 19 21 16 22 18 26 20 19 17 15 17 24 16 26 26 25 16 22 25 14 21
19 21 20 15 18 25 18 19 21 25 22 22 18 25 14 23 18 18 15 20 23 26 25 17 16 17 23 14 17 17 25 14 14 24 20 24 23 17 24 24 17 23 20 22 25 17 19 16 15 19 25 25 18 17 18 21 24 25 15 25 18 20 25 19
16 21 18 23 19 26 26 18 23 18 24 14 23 20 23 16 20 18 20 23 26 18 16 16 23 18 26 15 19 14 18 22 17 24 23 16 22 20 14 24 25 17 14 19 24 22 18 18 20 19 18 20 22 24 25 19 24 14 24 15 19 20 17 26
17 14 20 20 15 19 23 25 17 14 14 18 15 14 15 24 22 26 22 19 20 18 20 21 16 22 25 23 25 24 21 22 15 22 25 23 24 23 21 21 25 23 25 14 22 20 19 15 26 19 18 24 17 18 18 20 23 26 16 15 16 25 24 15
15 26 18 16 15 20 15 20 15 18 15 18 14 25 22 19 18 14 25 26 20 24 18 22 21 17 20 21 22 18 14 18 20 22 22 14 17 18 24 23 23 20 25 24 23 21 22 23 16 17 15 17 20 17 15 22 21 25 18 14 18 22 14 19
20 24 20 25 20 19 15 15 18 21 14 24 19 20 24 25 23 15 22 18 22 21 26 25 25 16 18 24 15 23 21 25 14 18 16 24 17 23 21 24 19 22 16 21 25 21 16 26 14 25 19 14 17 25 19 21 14 16 25 21 26 15 22 26
23 15 23 23 15 22 24 22 19 18 26 21 15 15 18 21 26 16 16 17 17 15 18 19 24 25 24 23 23 17 18 14 19 26 15 21 22 20 25 16 26 23 22 20 14 19 20 16 16 15 15 22 22 26 24 26 17 15 17 26 24 24 21 20
14 26 14 14 24 14 26 26 21 23 24 21 19 22 25 15 24 21 20 17 22 19 21 21 17 15 19 25 17 23 20 26 16 15 18 26 26 26 16 16 22 16 15 15 21 15 15 20 15 20 24 21 15 23 21 20 22 26 21 25 26 20 26 14
17 15 14 24 19 22 16 24 14 16 19 26 24 22 14 14 17 19 23 19 25 16 16 25 20 25 19 23 22 17 25 23 23 26 24 24 14 26 25 22 14 14 26 18 23 18 23 22 15 20 23 25 15 14 21 18 16 14 18 22 14 26 26 25
26 19 14 25 18 21 14 14 18 15 22 23 25 19 18 20 20 16 23 18 15 24 21 14 23 21 19 17 16 14 21 18 14 16 21 17 24 18 18 18 17 18 22 22 24 26 17 19 15 14 26 21 23 25 14 20 20 21 25 17 24 19 16 23
14 19 20 18 18 25 15 24 17 21 26 14 17 20 14 26 15 21 25 16 20 19 21 17 19 21 21 26 23 23 23 21 20 25 14 26 24 21 17 15 19 22 19 23 16 22 25 23 19 17 21 14 14 21 23 14 26 20 26 14 16 24 22 17
26 19 19 17 16 22 24 18 21 20 17 25 15 19 20 26 20 19 26 23 26 14 25 22 23 21 19 20 17 18 18 17 15 26 25 17 20 20 21 17 20 20 17 26 25 23 26 26 25 21 17 14 19 24 15 17 25 14 19 24 20 18 20 18
22 24 24 21 17 15 23 16 17 23 18 23 26 16 18 22 18 24 26 14 26 22 24 24 24 17 21 16 19 23 18 22 20 25 18 19 24 15 17 16 18 14 20 24 17 17 16 23 14 15 18 23 14 15 15 26 21 20 24 20 26 26 14 24
18 18 23 22 17 26 26 16 14 18 18 17 15 26 20 14 26 17 23 17 25 16 14 25 16 22 16 18 18 22 17 18 24 18 21 18 14 24 14 17 22 26 20 16 16 26 26 20 21 23 17 16 19 24 21 20 26 15 25 19 23 26 18 20
20 25 23 16 15 22 25 21 18 15 17 23 20 14 26 26 21 21 25 17 26 14 22 16 14 20 17 19 23 22 18 16 24 26 22 22 15 16 22 20 25 19 24 21 21 21 17 26 24 17 26 25 25 24 14 19 17 16 20 14 20 20 18 24
19 24 23 22 20 14 23 20 18 21 23 15 14 20 17 26 24 18 20 23 19 19 24 26 15 14 22 14 20 23 25 14 21 18 19 23 17 14 23 19 26 18 17 22 23 25 25 15 26 22 21 18 24 24 25 17 16 18 23 19 26 23 26 17
15 14 17 22 20 17 20 16 14 26 16 26 14 23 20 17 25 25 23 22 16 19 25 25 15 26 23 22 24 15 26 22 23 21 25 20 23 24 15 24 25 24 22 26 18 17 18 16 21 22 18 18 17 26 23 19 23 15 26 14 22 16 15 15
17 21 14 20 18 14 23 19 20 20 20 24 15 14 16 17 26 19 15 17 19 24 24 17 21 26 17 15 16 25 18 18 26 20 18 17 25 16 15 25 15 14 18 21 15 18 22 25 26 24 18 15 24 15 22 26 22 23 21 14 20 15 19 24
