P2
64 64
255
36 31 31 25 30 29 29 29 18 26 19 35 37 29 26 20 34 19 32 28 32 23 19 33 22 34 28 20 20 23 22 19 25 36 32 18 32 30 29 24 24 31 38 27 31 20 36 29 36 26 18 28 19 38 26 19 35 27 27 27 32 23 22 29
20 33 36 22 18 37 35 23 30 29 20 23 21 28 34 35 38 37 31 25 26 32 28 33 29 20 34 22 21 34 26 21 29 38 30 29 33 26 21 31 19 23 29 30 18 22 21 23 38 33 35 36 33 18 27 35 27 24 23 20 35 30 31 20
21 23 33 31 21 29 37 33 19 36 33 35 37 25 30 32 23 31 36 23 34 35 29 33 32 25 37 38 22 25 31 21 35 24 26 34 38 34 31 34 28 30 36 27 24 38 22 23 19 32 37 25 35 25 33 28 29 23 36 21 26 29 18 38
22 32 20 24 25 36 21 30 35 29 28 24 37 20 29 25 30 33 21 29 30 33 26 25 28 38 37 38 35 30 27 33 23 30 24 36 28 28 18 38 24 25 29 37 27 29 18 28 37 36 18 37 34 35 25 34 30 34 24 19 23 31 25 24
30 21 37 24 26 34 19 26 38 31 33 38 28 34 32 23 18 20 18 21 34 27 30 26 37 19 27 24 27 20 29 20 32 29 37 32 35 38 21 31 34 27 28 21 27 29 38 29 28 34 32 23 25 32 22 26 29 37 25 21 33 38 35 31
21 23 20 21 18 33 23 30 30 26 30 25 18 32 35 31 32 35 37 33 19 34 24 35 19 28 19 27 21 18 29 25 30 38 36 34 27 27 19 22 36 22 36 38 21 30 20 25 27 34 37 22 28 23 22 21 30 28 25 23 21 25 24 34
33 37 19 27 35 20 19 19 32 37 37 29 21 31 30 31 31 36 25 20 24 18 31 20 27 38 32 34 18 29 37 19 26 28 28 22 25 26 23 32 18 30 37 31 32 24 32 34 32 26 29 37 27 24 20 27 31 25 24 29 26 27 29 32
32 22 37 28 28 18 34 30 21 36 33 19 27 34 26 20 23 34 22 33 22 19 37 28 30 18 21 21 35 36 28 33 33 37 29 21 36 22 30 20 27 20 19 36 22 20 22 35 27 36 29 24 33 23 22 22 25 24 26 27 20 23 25 20
35 27 30 34 37 18 21 35 36 29 27 29 36 25 35 25 26 33 29 19 18 18 29 32 20 20 35 38 32 27 24 37 26 37 31 33 18 25 20 33 26 18 24 32 27 30 31 19 18 32 29 29 34 35 32 32 34 33 20 27 36 26 31 30
24 21 37 20 19 38 22 22 25 38 28 24 30 21 24 21 24 29 38 31 34 26 37 37 21 36 31 29 37 18 27 35 22 31 20 25 32 31 28 18 20 31 25 36 36 32 21 21 32 31 32 31 37 27 22 27 25 36 18 26 35 33 22 37
27 24 19 24 35 18 28 32 24 23 32 25 21 21 28 35 18 36 31 26 33 25 38 19 19 20 25 24 22 22 22 19 23 24 35 37 23 27 33 27 26 32 20 28 33 33 18 24 32 37 27 28 19 30 19 22 36 37 25 33 31 24 19 38
36 26 21 27 28 32 34 24 31 20 30 36 34 38 38 37 34 30 19 23 27 31 19 36 23 32 22 20 20 21 25 30 18 26 23 20 21 18 36 27 38 18 24 31 36 27 35 18 33 21 36 23 36 25 19 33 24 31 18 21 19 34 31 29
37 20 38 35 23 22 33 28 22 28 35 34 29 20 29 34 37 21 32 18 18 28 25 18 32 24 25 25 18 37 28 25 20 18 21 24 37 23 38 21 34 37 20 20 18 33 38 28 37 21 19 26 23 31 25 38 30 21 24 36 26 30 37 18
32 20 24 19 25 25 31 21 29 36 21 33 31 37 33 25 21 19 18 19 38 24 24 27 25 25 26 29 30 29 25 30 26 21 23 32 18 26 19 21 31 37 37 22 30 25 29 29 21 31 19 20 18 19 19 28 35 38 22 31 23 26 19 29
19 23 33 26 37 33 19 27 22 21 35 30 36 34 24 22 27 23 38 33 29 24 19 25 36 38 29 18 22 34 33 33 33 23 37 19 21 32 31 20 28 30 26 38 22 26 35 31 35 23 32 25 32 23 19 34 35 20 18 34 18 30 34 33
28 30 18 28 37 24 31 32 23 33 30 24 37 38 38 19 31 23 27 32 36 35 20 31 22 29 22 35 32 32 38 33 38 37 38 28 25 23 38 20 27 19 19 31 23 24 35 36 35 34 38 31 31 37 27 23 38 23 38 30 33 28 29 36
25 34 28 35 35 29 18 22 21 33 24 25 30 25 22 38 24 35 27 20 30 21 38 18 29 22 37 34 28 32 31 25 22 34 21 27 33 18 23 34 36 37 23 33 38 28 34 23 36 19 33 30 36 26 22 20 27 23 26 36 19 27 18 19
18 38 37 36 24 29 27 18 24 36 29 22 22 35 30 31 33 26 36 35 29 20 37 36 32 35 20 31 21 34 36 29 35 23 25 30 34 32 20 19 19 31 21 32 24 35 34 31 32 22 22 35 27 33 31 26 37 25 29 27 30 21 24 26
22 27 21 26 34 23 28 22 20 26 18 22 19 22 27 22 34 20 28 34 27 22 30 31 26 33 22 21 24 18 35 31 35 33 36 33 26 35 29 35 37 30 38 38 25 21 21 24 21 30 31 31 20 26 31 37 21 35 38 34 35 38 33 24
36 20 30 25 18 28 22 25 34 29 21 22 35 37 18 18 24 40 23 31 41 27 35 40 37 30 25 34 28 36 22 25 27 30 26 23 30 19 20 29 20 29 23 23 39 25 40 30 32 24 34 33 31 24 21 31 35 26 23 31 22 19 38 25
34 18 22 21 34 35 33 19 30 27 23 20 25 38 35 38 29 41 30 33 44 38 39 44 37 33 26 23 22 37 33 27 18 34 19 25 28 22 23 24 25 35 28 30 28 43 36 41 41 25 31 37 33 30 21 23 27 32 19 24 24 28 26 32
24 28 28 33 22 38 23 33 21 34 36 22 35 40 27 41 46 27 37 31 42 44 47 34 35 38 38 34 29 108 35 36 32 23 26 28 36 27 38 46 36 39 43 40 35 45 32 44 43 39 26 36 20 27 37 38 19 23 38 26 34 36 19 30
21 35 22 32 28 23 22 20 34 27 36 34 31 32 45 41 32 38 38 34 33 52 33 32 34 37 38 27 36 39 118 20 34 21 37 34 25 39 32 46 39 39 34 42 53 44 47 34 42 32 41 27 39 28 31 21 34 33 37 31 25 34 23 30
20 31 38 24 26 23 32 34 36 24 30 37 32 38 49 51 46 48 38 51 49 47 54 41 46 51 42 30 47 117 116 27 30 31 35 25 44 31 45 47 42 51 48 52 45 53 40 35 40 51 48 33 39 29 20 26 28 23 37 26 20 38 29 32
19 25 24 32 34 21 37 25 28 28 32 32 36 35 43 54 48 48 49 48 47 47 52 60 57 43 54 45 41 112 33 107 27 29 26 46 38 43 55 43 44 59 48 42 43 61 57 46 42 49 47 36 28 39 35 32 21 20 28 25 30 24 34 27
21 33 18 31 23 33 19 33 22 33 43 27 32 36 40 54 49 58 48 57 62 57 57 63 57 48 44 41 124 118 30 32 119 33 26 30 46 53 39 60 59 58 53 45 50 61 43 47 40 45 40 38 44 43 23 33 21 25 33 18 18 29 26 27
38 35 19 30 29 23 29 20 23 39 33 38 48 50 41 47 52 64 65 60 65 60 59 50 59 57 49 53 55 135 123 113 34 37 36 50 37 42 53 47 57 58 52 58 50 60 49 54 55 59 43 35 40 36 43 35 38 20 38 29 31 33 27 19
22 35 34 22 20 23 38 35 31 27 45 40 40 40 56 58 50 60 53 56 69 57 66 52 51 57 58 57 50 127 216 119 41 29 42 36 53 59 60 52 69 61 69 61 54 57 67 67 64 58 51 46 54 46 38 33 22 19 24 23 24 24 25 36
32 23 19 37 31 32 18 18 35 31 38 43 37 46 53 55 57 62 55 64 62 64 62 74 67 62 66 46 59 219 123 125 45 37 51 53 45 43 63 56 63 58 74 70 69 62 58 53 67 49 50 43 40 43 45 34 28 29 38 38 33 38 29 29
28 19 38 38 27 35 19 30 34 29 34 41 51 45 63 66 52 71 65 70 81 64 59 64 64 68 67 62 134 45 134 216 136 53 53 45 41 64 60 60 63 67 65 64 67 79 68 61 64 62 63 60 38 44 43 30 40 28 23 27 19 26 34 24
32 35 29 36 26 31 30 21 32 47 43 40 49 50 55 58 59 59 62 76 72 79 66 61 76 61 50 66 133 52 122 126 206 39 55 54 59 66 67 58 59 72 77 75 67 80 76 65 63 54 63 47 48 46 46 42 36 24 23 38 24 33 28 34
29 18 35 24 33 36 30 37 36 45 34 40 40 53 58 60 59 72 63 83 71 70 65 68 61 62 67 66 56 215 130 52 137 139 55 50 52 52 68 63 66 64 77 73 84 67 67 63 73 67 65 47 58 47 51 32 27 20 35 31 30 24 22 25
31 23 22 30 27 25 25 22 31 31 43 38 49 43 50 69 59 73 79 86 88 76 74 69 70 74 62 56 144 58 224 57 130 52 128 48 51 47 54 70 63 71 84 83 82 86 75 75 58 55 49 63 57 53 34 47 26 22 32 38 28 26 35 29
37 25 21 33 18 36 38 22 31 36 35 43 39 50 65 61 56 63 76 83 88 78 81 75 78 58 65 48 133 59 43 209 48 223 50 45 45 58 51 62 67 68 84 85 77 68 63 60 70 60 56 54 54 50 44 41 25 33 36 19 24 30 29 29
27 31 27 41 42 37 30 39 33 35 42 53 51 61 69 64 64 70 71 69 83 80 71 75 79 60 62 142 69 50 146 57 231 45 142 61 60 61 67 72 68 69 91 76 88 75 73 82 81 70 70 53 51 57 48 51 49 39 44 45 44 46 30 42
39 40 28 38 33 29 49 30 43 50 46 51 49 60 76 79 68 84 81 77 81 87 93 84 85 73 82 60 160 70 149 136 69 154 137 65 63 61 76 74 72 92 80 97 89 93 95 75 78 77 82 66 59 59 61 63 45 40 56 42 57 50 54 48
50 45 43 35 55 42 40 43 59 48 52 62 68 71 62 71 70 74 77 77 94 82 95 83 86 75 85 75 65 161 245 63 146 61 57 153 67 71 73 81 88 98 92 84 97 99 100 92 92 76 73 71 69 75 72 61 54 48 48 60 69 63 63 69
55 57 50 55 43 49 41 47 46 50 66 74 61 72 86 89 77 93 90 86 100 89 88 88 97 84 84 91 159 69 74 255 75 75 74 75 161 75 80 100 90 92 104 95 107 97 105 105 86 93 90 95 88 75 79 64 63 60 70 70 71 67 61 67
51 36 44 43 47 52 55 47 46 48 51 51 61 56 65 69 73 72 84 84 77 73 71 75 83 71 72 75 159 66 148 239 60 54 61 160 74 82 78 73 79 79 85 95 79 86 95 79 86 85 79 70 83 65 60 57 63 57 51 62 60 66 65 54
30 41 39 44 30 47 33 32 42 35 39 53 54 57 49 52 68 73 60 70 80 79 68 62 63 56 62 61 154 54 140 134 133 56 131 53 69 53 71 66 61 72 72 83 82 84 73 64 75 63 65 62 62 56 44 43 43 48 47 52 56 44 59 58
34 34 27 33 44 25 33 38 34 39 35 48 35 37 54 42 48 48 53 57 61 53 50 56 60 51 47 51 45 134 128 207 46 49 36 122 51 49 56 51 63 66 54 55 68 59 56 60 48 54 43 58 53 55 47 47 45 49 39 39 47 43 34 40
20 38 33 23 22 20 28 25 26 21 27 30 38 45 47 51 52 49 54 52 42 43 41 44 43 49 37 49 41 126 202 120 28 33 124 31 34 44 40 35 39 45 58 52 56 45 53 41 44 51 37 30 40 35 27 37 24 22 31 21 27 30 30 19
25 18 25 19 30 30 38 26 23 38 18 26 30 24 42 37 41 49 44 43 49 33 51 33 51 45 29 46 33 121 255 37 28 26 22 112 37 41 39 35 50 44 52 44 34 36 43 38 30 33 33 25 39 28 28 24 31 21 35 31 23 38 33 30
20 27 26 24 27 24 29 27 30 25 29 35 26 31 43 43 30 39 31 35 43 35 36 44 33 46 33 26 125 118 113 106 19 22 29 34 118 25 29 45 35 28 31 49 44 36 33 46 42 38 41 35 30 38 18 22 34 30 26 21 26 23 35 31
24 28 29 37 18 30 21 18 33 35 33 34 18 21 19 30 36 28 31 33 29 36 35 27 43 33 29 33 118 111 121 122 18 38 26 115 29 37 38 42 43 42 33 34 31 36 28 39 38 29 30 27 24 25 34 27 19 32 30 38 28 31 27 23
18 21 33 35 25 25 26 37 38 21 18 29 23 33 18 31 25 26 39 29 26 35 37 23 36 28 38 115 29 33 246 26 29 31 26 34 107 33 38 34 32 27 24 41 26 23 32 21 39 29 32 31 24 37 32 38 23 25 29 33 19 32 28 21
27 33 34 26 19 18 35 31 21 33 24 36 33 34 32 19 19 32 23 37 26 25 25 32 33 21 106 35 21 27 200 104 27 23 19 19 31 112 27 28 18 28 18 24 36 32 28 35 23 26 29 36 29 21 28 21 31 32 33 24 35 28 36 35
23 36 28 36 37 33 25 30 36 26 18 32 20 36 37 30 31 25 18 18 21 32 27 36 37 23 33 109 24 33 196 111 33 30 30 38 117 18 29 37 28 25 37 25 27 18 21 19 19 20 22 33 27 27 29 20 21 31 19 37 37 24 30 33
20 36 27 20 23 21 35 22 34 26 21 23 28 32 30 35 37 18 20 35 38 27 19 34 23 27 24 107 20 26 103 109 112 21 19 23 37 118 31 28 25 19 18 21 33 20 18 34 26 35 38 27 25 19 30 22 24 32 26 36 27 34 31 22
28 18 22 24 27 31 27 20 35 18 25 20 29 28 28 22 36 36 23 36 31 22 25 30 31 18 22 29 110 119 103 34 18 104 33 38 110 18 35 23 33 25 37 25 38 29 23 37 34 32 37 27 36 37 18 26 27 20 25 28 37 18 37 27
19 21 35 28 23 29 19 37 22 30 19 19 29 23 36 30 23 30 34 29 22 27 38 33 19 38 36 20 31 118 207 20 32 117 23 24 19 122 26 19 24 33 19 31 28 34 19 33 25 30 19 19 28 18 31 29 33 27 33 19 28 18 37 36
29 35 32 30 28 24 34 20 26 38 30 30 22 20 21 36 24 27 24 30 32 33 25 30 36 30 30 24 21 110 115 120 123 19 35 33 31 28 113 31 31 24 22 25 26 36 21 36 21 22 18 22 32 33 25 25 32 21 38 27 25 24 20 35
30 19 32 36 27 35 20 32 34 23 18 30 31 38 32 29 36 24 36 23 33 26 29 26 35 37 36 27 24 27 193 118 28 117 26 37 25 24 38 103 31 19 29 29 34 19 18 38 35 33 21 32 36 21 26 36 28 24 27 22 32 19 27 34
29 32 35 30 32 24 36 32 22 32 34 38 24 24 28 25 19 24 23 34 20 19 32 31 35 21 21 33 26 121 26 122 30 30 105 22 37 27 108 19 33 26 32 27 21 34 31 29 31 19 31 22 22 18 31 34 20 20 26 26 25 20 37 19
21 34 36 27 34 22 20 28 31 38 29 24 37 38 22 29 30 22 19 38 33 18 37 26 26 19 21 29 114 18 20 33 117 31 113 22 26 110 19 33 33 33 22 18 33 25 18 25 25 38 36 36 23 33 22 18 38 31 32 35 37 23 22 28
22 25 36 31 24 37 21 27 35 37 31 22 27 28 22 32 38 28 26 31 37 27 21 19 20 20 22 110 30 35 32 27 31 114 32 18 114 20 19 23 33 22 24 21 26 19 31 27 20 35 32 30 20 25 29 19 34 27 27 29 35 28 29 30
18 18 38 37 23 35 30 26 22 31 26 36 29 33 34 25 38 30 35 18 23 29 20 34 22 34 117 26 18 20 19 24 21 111 31 24 119 37 19 27 25 26 26 35 31 28 18 20 36 24 37 31 29 35 34 18 34 20 21 34 24 37 31 20
27 21 26 20 30 31 24 25 37 24 37 22 30 24 18 32 24 26 32 18 18 34 30 24 25 21 24 21 29 23 18 20 28 110 30 122 22 24 31 29 33 21 26 36 23 28 33 22 35 23 18 25 28 37 32 30 22 20 22 30 34 20 33 22
34 19 36 33 33 38 23 38 29 38 22 34 33 36 22 25 23 19 18 19 26 35 38 18 23 31 24 31 35 37 21 26 30 111 33 116 25 25 27 33 19 31 33 21 21 23 26 20 37 29 35 35 28 35 25 18 22 33 35 21 32 26 21 30
25 30 31 33 37 20 29 26 36 24 35 27 31 22 34 27 28 21 36 22 36 29 21 18 36 29 37 20 38 23 25 37 20 30 38 19 105 38 37 37 32 36 27 26 23 22 32 20 18 29 32 35 37 31 29 28 25 19 37 22 18 38 20 37
31 24 28 33 36 36 18 21 29 35 30 21 23 37 24 36 23 18 35 20 23 28 27 30 18 32 36 27 30 21 22 31 36 24 22 33 116 24 23 27 36 36 32 32 34 31 38 24 23 25 21 32 24 33 34 37 23 28 32 31 38 26 38 33
23 29 22 36 37 29 18 23 30 38 19 26 27 24 24 38 36 34 26 31 37 21 30 19 34 30 30 37 28 19 31 18 21 35 23 36 33 20 35 28 19 24 19 19 21 21 38 21 25 22 30 19 23 21 32 38 25 32 18 23 19 23 18 34
32 25 30 29 30 35 36 37 27 29 33 37 19 38 25 19 30 23 28 36 37 36 31 35 22 25 19 27 28 32 36 37 21 19 20 31 20 21 20 34 25 18 31 23 33 24 23 33 38 29 23 27 35 38 35 20 30 26 28 22 29 25 20 30
19 19 20 21 20 36 37 34 18 24 35 27 30 29 30 38 31 28 31 19 26 31 25 32 19 21 36 24 36 23 27 24 19 35 27 35 25 25 31 28 25 30 19 21 18 30 31 18 23 22 29 38 31 37 18 26 29 18 29 20 35 38 20 34
