P2
64 64
255
37 36 37 29 26 35 34 38 29 24 36 30 32 21 36 32 21 30 34 28 28 33 18 31 18 20 20 27 30 19 27 28 38 38 34 34 37 36 29 37 22 22 22 19 27 31 18 37 37 22 29 21 27 34 31 27 37 18 30 27 35 35 23 38
32 36 38 34 26 28 19 30 25 29 37 21 36 28 18 38 26 21 36 23 34 37 33 27 36 36 37 28 25 34 33 26 29 21 34 34 29 21 24 20 37 24 18 34 18 27 36 20 32 33 33 34 37 36 21 36 25 20 26 32 18 25 37 35
23 21 20 20 21 28 25 37 23 26 19 26 20 34 25 28 36 22 27 28 20 22 32 25 18 20 36 29 25 22 23 34 33 24 20 26 23 37 22 21 23 20 33 26 22 32 36 23 38 25 19 38 33 18 29 18 28 36 18 28 32 28 19 20
26 31 31 38 34 20 29 19 26 28 28 28 32 21 21 19 37 32 20 19 28 28 30 32 33 30 22 21 37 31 34 27 30 37 27 19 24 34 20 27 36 27 27 29 25 32 26 25 28 31 34 34 23 22 38 34 36 33 38 22 22 36 28 31
30 29 30 29 31 25 23 32 28 29 25 18 34 24 36 28 34 35 30 37 33 18 26 35 33 35 29 25 22 26 18 21 34 21 34 36 18 21 27 37 25 38 18 20 19 24 23 28 27 22 26 22 30 38 37 23 22 36 19 18 21 18 34 29
22 36 20 25 22 32 25 19 37 18 31 28 18 38 23 18 26 23 37 34 28 18 28 23 25 25 32 27 20 33 34 30 23 29 27 36 19 27 18 25 35 27 34 21 33 32 34 37 28 24 25 20 34 18 24 20 38 23 18 18 30 29 26 31
27 23 20 30 35 22 35 28 25 27 28 19 25 19 25 36 27 19 30 35 27 23 22 31 35 28 30 28 18 35 24 26 21 22 23 33 33 31 34 28 26 24 30 38 33 19 21 24 28 23 19 21 19 35 26 23 37 26 32 34 37 24 32 32
35 35 27 35 19 20 20 35 20 28 27 30 31 23 18 27 26 34 22 27 19 30 35 21 29 32 18 23 28 35 21 31 22 26 29 36 33 20 20 37 38 24 33 35 18 27 37 18 29 36 31 29 32 28 25 29 24 23 21 19 32 35 34 27
23 29 18 20 38 23 19 32 19 27 26 30 29 32 21 33 25 19 22 37 21 32 30 20 38 32 37 35 20 18 18 29 30 36 36 26 26 25 23 26 21 33 23 20 26 33 29 24 34 24 23 30 24 18 22 21 28 20 29 26 27 32 19 35
33 22 38 23 25 35 33 32 22 22 33 33 24 19 35 32 26 33 36 37 32 22 27 32 31 19 25 37 25 31 23 20 19 19 23 23 24 38 19 18 21 22 26 25 30 25 18 36 31 38 34 34 25 24 19 22 37 28 37 24 19 31 38 30
26 24 36 20 35 20 33 28 33 36 36 28 18 21 28 34 29 26 35 19 31 29 32 26 37 24 21 38 21 38 22 19 22 27 26 28 35 35 23 38 29 32 26 22 32 26 28 34 38 18 37 19 37 24 30 20 18 34 19 33 23 28 34 33
37 20 22 34 18 21 24 22 28 34 31 21 33 19 32 26 26 29 37 28 33 35 27 21 38 27 34 23 27 21 27 27 23 37 25 31 30 28 32 24 32 25 31 38 21 21 38 20 38 23 26 25 23 30 24 38 20 32 19 30 34 18 32 18
28 26 34 28 23 19 37 26 22 31 19 21 18 27 28 22 24 36 24 19 21 32 24 34 26 30 32 23 37 29 24 35 37 25 29 34 34 30 37 31 27 34 20 29 25 23 28 24 32 19 19 32 20 27 24 36 33 21 19 31 32 23 35 21
37 19 24 35 19 27 19 26 36 24 34 23 27 38 31 30 24 38 20 27 32 18 18 23 24 24 29 28 18 20 24 21 33 23 20 18 33 22 33 24 31 36 29 25 21 37 27 26 35 31 25 29 28 35 38 38 36 28 22 25 35 18 23 35
24 25 36 24 21 31 32 24 35 19 25 31 29 25 31 29 34 29 36 23 19 32 21 18 37 22 23 22 30 27 34 36 19 25 27 24 36 31 27 29 21 34 19 22 35 28 18 37 29 36 20 37 38 25 37 22 36 27 25 26 28 20 35 20
28 19 24 21 29 21 24 29 19 25 26 33 30 32 24 19 21 23 34 26 23 31 26 34 36 35 37 19 26 36 38 35 22 35 36 22 22 22 38 35 31 24 18 25 21 18 29 31 24 31 22 31 20 29 35 36 25 20 24 26 18 25 38 36
29 24 38 24 31 37 23 30 33 29 22 23 22 18 27 35 27 24 34 25 33 25 19 34 24 35 34 29 24 22 27 29 35 38 20 28 20 34 32 34 25 36 32 35 18 32 21 32 30 22 29 20 18 19 23 26 30 36 28 19 38 35 32 20
20 26 32 34 25 34 32 36 25 18 31 36 20 28 34 38 18 33 19 24 33 33 30 31 30 19 32 26 23 25 29 29 22 33 34 37 31 18 24 28 26 19 37 26 26 18 22 35 28 20 27 19 19 28 20 36 34 18 33 23 23 31 32 34
35 30 29 21 25 34 20 34 30 31 29 23 24 20 21 22 34 20 19 29 27 29 30 28 21 20 19 31 21 32 33 34 21 31 26 32 28 29 20 29 30 19 23 36 32 21 21 35 26 28 32 34 32 35 36 34 24 22 31 33 26 31 20 19
30 27 30 26 18 18 19 27 35 24 24 33 18 23 24 27 32 35 29 37 24 39 37 29 33 31 21 38 21 35 19 32 34 24 18 18 24 33 18 21 26 31 39 35 29 28 25 40 24 24 21 25 19 30 35 29 35 18 30 29 35 32 19 24
18 25 36 30 23 25 25 18 30 25 34 22 31 28 39 36 24 39 38 32 43 33 32 44 27 36 37 22 34 28 38 33 30 33 31 35 34 24 22 32 25 36 27 27 36 33 36 40 25 21 32 34 24 25 27 31 22 26 34 25 25 28 26 33
20 27 34 37 22 34 19 24 24 37 37 27 34 22 30 34 42 42 28 38 43 47 36 45 28 34 42 31 22 20 31 25 19 24 35 38 29 33 40 31 35 43 49 45 44 41 28 32 37 24 30 27 23 18 37 35 24 38 20 34 28 26 36 22
20 29 36 26 26 36 20 31 19 34 32 24 22 37 46 47 32 48 51 52 44 45 41 46 34 31 30 33 43 31 28 32 37 26 37 32 40 45 47 45 34 34 47 36 42 42 41 35 34 28 32 33 33 25 29 18 25 29 28 33 37 38 33 34
18 27 22 21 23 19 29 28 20 35 26 37 44 47 40 39 52 55 55 56 56 43 42 54 46 49 51 41 42 36 40 35 32 29 38 24 41 44 38 36 55 44 44 46 41 42 36 35 52 41 31 44 25 36 33 36 19 28 25 28 38 30 33 32
31 22 36 31 34 38 23 30 23 33 31 37 47 40 40 37 53 43 46 58 52 47 55 57 44 55 51 44 37 47 29 23 27 33 36 45 42 49 40 48 56 51 43 61 50 51 45 50 46 43 48 33 32 35 33 26 35 24 37 32 19 29 22 26
38 23 21 27 25 38 34 20 18 23 43 28 49 39 47 53 58 52 51 54 50 58 52 57 48 55 58 52 34 48 29 36 27 38 44 36 42 42 47 47 48 53 58 45 64 65 49 51 50 44 50 36 50 33 33 24 31 20 18 25 23 24 32 18
24 29 37 23 33 37 23 23 31 24 35 46 40 50 50 45 46 45 52 65 53 68 62 61 59 54 54 57 53 36 46 37 33 39 30 32 48 42 57 58 50 67 64 58 58 48 50 64 48 41 51 54 38 46 37 27 31 37 30 26 31 23 20 28
37 35 29 33 37 32 37 20 24 44 34 51 36 48 51 57 66 56 71 70 69 61 72 57 64 46 45 56 38 36 48 42 31 34 50 43 37 60 54 62 53 67 53 63 61 61 63 49 60 53 51 42 35 34 30 30 25 19 29 31 35 36 19 38
24 24 28 29 36 21 35 34 24 29 44 50 42 59 53 59 49 57 67 65 74 59 63 62 68 62 63 63 40 51 48 39 35 43 47 53 56 60 59 65 63 65 58 60 70 59 62 59 56 61 49 42 51 45 38 28 38 37 35 32 33 34 18 35
24 21 20 23 30 21 33 37 39 32 34 52 49 54 46 61 52 57 65 60 70 67 66 68 72 70 58 52 42 52 43 54 43 50 38 43 55 48 48 58 60 63 70 68 71 65 64 61 66 68 61 52 41 35 36 29 34 30 21 29 27 30 34 37
24 29 18 19 35 25 28 32 32 29 39 54 49 46 58 67 72 75 65 64 84 65 72 77 59 58 57 59 53 38 54 55 42 46 41 51 50 66 53 72 65 62 63 78 80 64 66 64 61 67 66 46 52 36 34 46 39 31 21 30 21 32 35 30
28 18 31 32 27 31 33 20 26 45 51 43 51 61 54 70 65 61 71 79 68 75 69 62 61 71 54 63 63 49 38 37 44 44 55 42 53 60 66 57 61 81 65 88 68 82 71 68 59 54 54 44 55 54 33 46 41 27 19 34 20 22 37 20
30 29 21 28 31 37 18 35 28 47 33 52 59 47 49 68 71 64 64 72 80 87 81 63 65 63 56 56 45 45 43 37 46 54 45 45 55 62 58 62 69 83 84 75 74 74 80 76 58 51 50 63 57 41 36 32 36 40 38 28 27 36 28 20
25 27 18 25 34 24 37 28 42 36 31 40 40 57 57 66 75 59 75 80 80 83 76 73 76 60 68 47 63 39 38 50 54 37 47 51 52 63 61 68 66 78 79 85 76 81 80 69 65 59 63 51 39 55 45 46 30 22 20 20 38 18 29 20
29 26 34 29 24 34 20 23 31 37 38 54 45 57 61 62 61 68 68 71 73 78 77 68 58 68 65 59 55 51 43 41 56 56 44 39 54 57 56 65 64 78 64 72 78 78 60 73 56 70 55 58 45 52 44 34 43 36 20 31 26 28 34 26
18 31 34 38 24 29 19 19 42 29 50 41 42 43 63 58 53 63 59 79 79 70 69 75 64 71 51 59 46 57 46 35 47 41 44 42 57 54 57 58 62 58 69 61 74 69 76 55 61 61 56 44 47 47 46 44 27 20 30 20 33 34 37 24
25 32 19 35 30 26 18 38 40 35 29 39 44 52 56 48 49 55 70 67 64 71 60 56 69 63 48 46 41 46 49 32 34 36 44 42 44 57 54 58 61 66 61 73 71 67 55 57 52 46 52 45 41 40 31 42 23 30 28 20 23 21 27 33
22 34 33 20 22 36 22 21 20 25 41 45 51 42 60 44 47 61 69 61 56 55 53 61 61 49 52 57 57 46 45 34 34 43 43 34 49 46 57 47 50 58 65 57 69 53 58 54 66 51 46 53 42 37 47 26 38 33 35 36 29 20 30 29
19 36 22 29 20 22 28 18 27 30 28 38 49 49 53 57 53 64 66 49 55 58 64 50 47 48 47 52 53 44 46 35 26 30 40 45 36 40 60 51 52 50 59 56 60 66 60 48 55 57 48 52 50 35 26 32 24 21 21 26 30 25 28 26
24 38 29 25 32 35 36 28 35 37 45 49 35 42 51 59 63 61 67 49 69 49 58 60 53 62 62 51 48 34 46 40 43 43 43 38 46 47 61 45 49 53 54 63 67 64 57 49 59 63 45 50 55 48 34 42 44 30 37 38 44 38 28 29
37 31 39 33 28 32 29 35 44 36 35 43 48 47 46 60 55 61 62 50 55 70 67 62 65 54 56 42 53 50 45 51 40 40 48 39 52 48 65 67 68 69 72 72 72 62 65 69 68 53 63 62 57 49 42 50 30 44 47 42 39 39 42 51
36 45 28 41 34 30 36 42 41 43 43 38 37 40 55 62 50 57 63 56 49 64 64 64 50 66 49 56 57 58 49 41 36 38 56 39 44 52 64 65 61 64 59 68 59 62 56 66 62 56 50 50 53 45 44 48 49 55 56 40 49 56 53 57
34 28 42 36 39 30 35 29 41 28 45 29 36 36 45 36 53 50 55 51 42 44 45 58 52 48 45 51 44 49 38 40 34 33 29 44 35 38 51 60 53 61 58 56 52 55 48 46 45 58 41 52 44 37 47 35 30 35 40 49 40 33 36 49
34 25 30 25 37 38 41 32 28 27 33 32 32 29 29 39 44 51 50 34 42 34 51 42 42 41 47 38 26 28 25 22 37 42 24 37 41 35 36 42 51 42 38 51 46 45 47 32 31 35 39 39 24 33 35 30 25 31 39 29 33 28 41 43
31 26 32 25 28 33 25 28 23 35 25 21 22 32 19 41 31 41 31 29 29 42 40 35 33 28 31 24 27 18 27 35 22 26 19 30 23 31 41 31 30 41 27 28 27 37 28 32 38 22 32 34 32 18 24 31 30 29 23 37 27 23 38 25
22 24 31 32 38 37 35 25 21 32 30 21 30 32 20 38 35 27 36 27 42 32 38 27 25 30 38 23 29 31 29 21 23 35 27 26 26 33 30 30 28 37 29 31 22 34 41 34 33 22 35 31 23 19 20 28 31 29 30 38 20 24 31 23
29 23 28 33 19 20 30 32 24 29 34 31 22 23 20 29 19 31 32 27 35 33 37 22 25 19 20 28 35 28 37 32 35 23 22 18 27 20 30 33 25 19 24 18 37 31 26 25 33 27 33 18 18 21 32 36 18 24 19 19 32 20 19 21
32 28 26 21 35 37 36 18 38 32 31 31 32 27 23 20 29 31 24 28 37 35 25 20 22 20 20 30 34 24 21 34 31 25 25 20 38 35 29 19 35 25 21 29 21 24 25 35 25 25 26 27 19 27 19 19 22 30 26 22 33 18 36 18
29 25 35 32 34 24 21 30 26 27 28 36 37 26 22 35 26 23 23 30 22 37 31 37 31 35 30 23 27 24 18 30 33 26 27 37 18 36 19 37 31 31 36 31 29 20 36 22 32 27 18 26 20 20 33 18 26 38 28 26 33 27 30 22
23 36 38 19 30 22 23 27 29 28 19 27 27 22 31 26 36 36 29 18 29 33 37 38 34 29 22 30 35 31 24 31 19 34 35 36 33 19 32 36 23 32 19 27 36 28 24 24 31 35 18 37 34 19 37 30 30 31 21 28 31 34 32 34
36 35 34 34 36 34 24 22 20 25 24 24 20 27 23 25 28 26 35 30 19 24 22 25 32 18 34 38 37 30 33 18 19 29 19 20 24 38 21 29 22 25 34 18 31 20 37 38 24 30 35 21 24 21 19 25 27 19 22 38 33 25 20 35
29 37 21 36 28 26 32 35 24 22 31 20 25 20 31 23 33 32 18 34 37 38 22 27 18 22 36 26 21 27 31 18 27 31 19 24 26 35 29 18 18 22 20 21 23 21 25 28 23 37 20 31 20 28 30 30 29 20 20 20 20 38 23 21
21 27 26 23 18 31 32 29 37 29 29 22 33 19 35 26 29 23 19 31 27 24 32 31 38 35 35 22 25 19 38 34 25 33 31 34 20 38 18 22 29 20 18 24 37 31 37 38 27 30 24 19 28 20 23 36 31 31 28 23 22 31 22 19
18 33 33 37 32 25 24 29 35 31 29 22 36 25 29 30 30 34 34 21 19 23 35 28 31 28 32 26 33 26 33 35 28 25 26 26 32 26 22 29 33 36 28 22 35 37 26 19 30 24 29 34 38 33 21 27 23 22 18 24 26 23 26 30
29 32 25 19 18 35 31 18 38 21 28 38 25 25 33 33 24 22 23 28 32 20 33 33 37 26 31 37 20 25 27 25 31 37 33 37 21 33 25 31 34 23 25 35 19 19 31 36 37 20 23 38 24 25 32 23 21 26 18 20 22 21 26 20
29 22 37 32 25 30 32 35 32 36 28 20 32 26 21 26 19 20 28 26 20 36 33 19 35 20 37 23 31 20 38 18 27 18 21 28 26 25 21 18 21 18 33 35 33 32 31 28 38 30 29 38 32 23 22 30 19 37 32 34 32 21 26 38
23 34 27 38 36 20 28 28 33 30 30 19 25 29 32 18 35 26 18 34 32 27 30 35 33 38 33 31 34 24 37 21 33 21 18 25 26 29 23 32 24 36 32 20 36 18 30 38 22 23 25 18 28 35 35 34 24 31 22 32 37 37 32 28
20 32 36 27 19 34 28 23 29 29 32 30 23 21 31 27 38 36 30 37 22 24 36 34 25 34 21 25 26 37 22 33 18 38 24 32 33 33 19 20 25 20 25 33 38 29 38 18 34 18 38 31 18 21 32 37 31 38 27 36 26 24 36 29
21 23 33 24 24 22 35 36 36 29 33 33 32 26 26 24 33 34 34 28 19 28 23 30 18 33 25 25 30 26 33 31 35 33 30 19 18 27 35 28 36 21 34 19 38 33 25 28 23 28 36 32 25 19 22 36 29 31 30 34 34 18 19 26
25 34 24 28 25 29 33 38 34 38 35 38 35 27 26 18 19 25 27 19 28 25 19 38 33 32 18 29 33 25 25 22 30 32 22 24 34 22 37 18 36 33 20 34 31 27 18 24 24 38 36 26 28 34 35 33 32 37 34 33 38 30 35 38
21 35 35 22 26 24 19 35 32 26 30 32 31 27 33 20 19 26 25 31 27 36 38 26 22 35 28 21 23 23 34 24 26 38 26 26 25 28 23 32 31 23 19 19 25 31 25 26 28 24 34 20 38 34 28 29 20 24 34 22 27 20 34 38
29 34 30 18 27 26 27 19 22 35 37 21 27 38 32 22 32 22 24 37 26 30 25 22 28 33 24 18 18 37 22 22 38 28 30 25 32 27 38 29 38 35 26 30 21 29 34 18 21 24 25 24 25 27 33 29 34 23 29 34 28 27 28 34
21 24 29 34 32 23 23 23 37 21 34 19 29 34 29 36 18 18 27 20 37 28 19 18 36 37 34 29 18 27 27 23 24 34 23 33 20 26 38 18 33 36 21 23 26 32 36 35 28 23 22 34 37 24 28 29 22 31 23 22 31 29 35 27
36 32 18 37 21 22 30 23 23 35 28 18 28 36 34 38 22 32 21 26 28 37 21 32 18 19 20 33 36 37 25 28 22 29 37 23 22 32 25 29 28 26 28 38 36 31 22 29 37 37 22 35 30 27 31 38 38 21 35 19 38 27 35 35
