P2
64 64
255
22 27 31 36 33 30 32 29 31 36 26 24 18 19 32 35 32 21 27 25 38 34 37 31 29 29 18 32 30 29 32 21 38 28 20 32 25 36 29 25 32 37 33 28 28 21 23 29 33 27 21 33 32 19 22 20 34 36 33 38 30 33 35 29
38 35 36 27 25 35 34 25 38 31 25 34 38 19 35 38 31 32 27 25 34 19 26 19 33 30 35 18 29 35 31 19 38 33 25 37 35 27 33 22 29 22 34 18 37 27 33 37 21 26 34 31 38 20 34 31 28 23 22 20 33 23 18 25
22 33 25 24 28 18 22 31 18 18 24 23 37 18 27 34 22 24 37 32 32 19 36 31 33 23 24 27 29 18 21 34 20 20 26 22 25 19 38 19 23 27 34 35 24 38 22 37 25 27 26 22 18 32 28 20 23 20 29 36 27 25 24 23
31 30 22 22 19 29 31 38 20 34 23 30 20 36 19 35 35 32 31 23 18 35 20 34 23 32 29 30 33 22 32 24 33 21 20 20 27 25 36 22 30 18 31 27 35 24 36 38 26 23 28 21 38 21 30 24 20 31 23 24 29 19 38 18
27 26 29 22 35 29 27 18 27 38 26 26 35 38 22 19 26 37 27 18 28 23 30 27 31 37 30 18 21 21 33 23 24 35 34 38 18 28 31 35 26 32 33 31 19 18 19 29 36 36 21 20 22 26 30 20 23 38 30 33 20 31 19 35
31 27 31 26 35 19 26 33 26 24 19 20 26 31 27 25 18 22 36 22 27 30 21 23 20 18 33 36 33 18 23 29 23 21 30 23 29 38 32 19 25 32 25 30 37 27 32 21 30 23 32 21 36 29 32 27 24 21 29 34 22 23 23 21
31 22 30 33 29 27 32 18 22 19 25 19 34 27 18 25 29 22 24 22 28 26 30 30 21 21 20 36 26 35 22 18 30 19 31 30 19 27 34 38 19 29 26 24 28 28 26 31 38 36 37 21 30 27 24 28 38 32 23 23 32 25 18 38
31 22 25 32 19 19 19 25 21 31 37 34 20 22 28 32 30 31 19 18 38 35 32 33 18 25 25 34 28 18 34 32 35 19 20 34 26 24 33 30 34 33 38 19 28 23 25 28 31 19 25 28 38 38 26 33 35 38 37 24 38 20 32 27
35 31 26 26 38 25 20 38 36 34 22 18 32 23 36 26 23 29 24 21 26 19 25 35 36 29 19 31 37 30 27 36 21 34 30 31 29 33 18 23 37 34 32 18 24 19 31 31 20 26 31 21 37 29 23 27 30 25 19 26 23 28 38 32
38 27 28 23 21 30 37 25 30 30 19 26 36 19 21 32 34 34 25 26 38 28 24 29 30 27 19 37 31 33 24 35 38 31 34 22 25 36 36 21 21 34 23 38 35 28 20 31 33 36 21 24 19 26 33 22 32 27 18 33 19 32 30 29
32 19 31 36 31 28 20 26 29 34 24 32 26 20 28 26 25 32 25 26 29 30 28 34 38 38 34 22 35 26 33 33 28 26 27 36 21 29 37 34 24 19 24 36 25 28 35 24 36 32 33 34 23 21 22 20 23 26 34 33 27 36 24 21
38 22 25 27 21 34 34 38 34 36 27 25 29 19 35 21 32 37 25 35 18 34 27 18 27 29 32 24 20 30 34 32 31 21 29 27 32 33 21 37 30 34 19 25 33 20 20 22 33 31 25 35 28 30 28 38 23 30 30 36 29 22 23 38
28 24 26 24 21 22 19 38 28 20 22 22 23 35 35 34 26 30 35 36 22 18 19 31 19 20 37 30 18 29 19 20 35 28 18 37 18 27 26 30 33 30 21 28 37 21 35 27 34 24 30 31 36 38 23 30 21 37 37 33 21 25 33 35
26 19 35 28 22 34 36 33 22 27 22 35 26 20 27 19 21 20 27 37 32 27 19 18 18 38 24 27 28 32 29 26 36 27 32 34 36 21 38 20 33 20 31 25 26 38 19 25 21 32 35 23 21 25 28 32 36 21 25 30 29 38 29 21
25 35 27 38 32 37 38 20 22 22 34 36 33 27 23 36 37 32 34 31 24 25 31 25 32 31 38 27 20 36 30 23 26 21 38 18 34 24 21 36 23 33 32 30 24 23 26 31 31 26 34 19 20 26 23 31 36 19 32 19 23 25 30 36
20 31 28 36 33 38 21 31 21 23 32 38 21 27 24 33 30 30 35 38 19 22 38 26 25 20 21 34 34 22 29 36 21 36 29 22 38 23 38 32 29 27 37 22 26 26 19 21 34 37 20 18 21 19 34 26 34 22 23 18 36 30 36 33
37 24 25 35 35 32 30 25 20 18 20 20 29 33 23 35 24 27 33 35 26 32 34 21 28 26 29 37 25 38 21 37 25 20 29 31 29 38 25 37 27 26 20 31 26 33 35 33 29 35 22 31 29 29 25 19 30 24 33 25 38 25 30 24
27 26 28 37 20 25 27 35 34 22 31 29 35 30 23 21 35 30 26 30 27 32 30 29 33 24 37 28 24 30 29 29 18 33 29 18 23 32 33 25 31 27 37 21 30 26 20 26 38 33 25 29 27 27 23 33 23 38 38 24 26 28 30 18
35 29 23 20 22 38 26 26 22 38 38 21 18 36 29 35 29 35 19 25 29 25 20 26 34 38 29 34 35 24 24 26 24 36 38 27 18 20 29 24 38 20 18 38 18 34 29 37 26 32 24 21 24 25 33 20 32 25 25 31 25 30 32 32
34 38 23 31 23 36 28 35 21 23 38 18 23 26 21 34 26 23 21 36 30 33 24 23 25 28 30 22 25 24 23 18 21 31 38 30 33 24 31 35 28 38 34 35 22 35 31 20 25 27 29 24 33 26 24 30 35 35 35 20 32 19 37 23
25 36 22 20 33 27 29 27 25 30 22 27 35 19 37 32 22 40 38 44 46 26 39 28 28 34 33 28 23 24 26 37 19 23 31 31 28 23 32 28 40 35 42 40 27 29 44 26 31 25 28 20 33 36 35 23 28 19 19 19 38 32 28 27
19 23 27 29 33 18 23 22 19 25 27 18 22 32 40 35 35 41 30 36 45 31 44 40 31 29 44 42 22 21 27 18 23 29 37 110 28 24 36 38 38 47 33 41 36 49 28 31 46 31 26 40 18 27 23 23 29 26 27 29 19 29 30 29
33 30 38 37 34 29 26 22 34 33 20 28 36 26 42 40 37 43 34 52 45 40 37 42 45 32 42 46 24 33 35 22 20 30 35 126 41 33 37 48 34 39 49 42 52 53 45 43 44 32 30 44 31 28 31 18 20 32 30 37 20 34 22 37
32 38 34 37 30 29 25 35 34 18 39 41 42 36 32 32 35 55 42 48 47 41 56 43 40 48 35 43 43 25 125 26 34 38 34 44 119 33 41 39 41 48 50 50 45 38 39 38 45 39 45 34 28 26 37 32 31 30 35 19 37 18 28 38
26 29 33 20 35 25 34 36 34 21 39 40 42 46 46 43 43 52 44 46 52 50 47 42 54 53 44 33 46 129 32 30 27 33 32 45 38 133 47 46 52 41 52 41 51 51 45 47 39 36 49 49 36 24 21 36 22 25 18 31 21 36 34 28
18 19 23 27 20 18 35 19 21 24 25 39 48 49 39 46 53 62 45 53 50 62 56 48 55 46 45 41 32 45 131 42 115 38 32 38 42 48 138 43 47 61 58 48 51 51 47 59 41 43 42 46 32 30 42 27 36 27 38 28 38 22 30 20
27 23 36 26 31 31 26 27 29 25 39 42 38 53 42 43 43 52 62 64 51 62 59 56 51 52 58 48 50 33 33 119 130 35 41 37 48 42 61 145 59 57 55 63 53 56 67 59 52 49 58 46 32 48 38 32 31 27 21 33 22 30 24 25
24 26 38 26 19 29 27 30 27 33 43 36 39 37 46 44 64 63 51 52 66 63 72 71 69 65 45 58 51 125 40 115 116 40 37 53 45 44 56 149 56 65 60 62 62 58 54 61 52 55 48 42 44 41 30 30 27 22 35 30 31 18 35 33
34 34 24 35 27 20 33 32 23 33 46 32 44 43 49 54 53 57 58 61 77 64 72 57 55 64 52 48 48 48 203 32 33 137 52 54 53 43 136 50 66 55 69 67 73 71 54 66 52 61 51 50 40 52 38 41 22 25 38 18 20 32 25 35
38 29 18 20 27 26 23 22 31 31 35 38 38 60 61 66 71 67 75 79 68 72 75 72 57 51 51 62 44 217 40 45 43 138 120 57 44 147 68 60 54 57 67 75 61 77 65 59 69 51 63 52 39 40 44 43 36 34 30 23 27 20 25 18
22 29 27 33 34 29 18 35 30 27 32 44 48 54 58 65 67 69 77 76 73 72 74 70 65 73 66 57 51 142 127 49 132 42 54 138 62 57 152 56 60 65 73 78 78 69 73 68 57 61 63 49 51 54 33 42 27 37 25 25 35 21 29 28
38 20 32 32 23 20 36 31 42 28 37 45 40 51 56 55 69 77 70 81 77 68 77 62 73 72 57 47 47 132 142 55 41 124 56 124 50 143 58 54 72 67 83 86 84 77 81 59 57 53 59 55 48 43 43 32 31 20 24 21 19 21 29 29
25 22 36 26 38 21 19 20 33 40 44 39 48 46 49 56 63 73 74 73 74 89 72 78 71 68 71 67 61 132 134 46 136 44 39 138 50 148 51 66 62 72 75 89 84 67 68 62 67 52 60 51 44 44 36 46 44 38 26 27 31 28 37 27
38 21 30 30 26 26 38 36 24 44 47 53 41 52 62 68 64 71 74 75 68 86 76 67 66 61 53 57 50 51 139 138 56 136 44 55 224 53 52 56 61 78 67 87 84 78 82 75 72 66 67 51 52 36 45 45 40 31 34 32 37 28 23 23
27 27 29 40 28 34 43 41 44 49 55 51 61 49 62 71 78 83 78 73 86 75 86 75 69 61 72 73 59 139 44 46 138 130 62 52 150 151 64 79 67 86 71 78 79 80 75 76 61 61 69 58 50 55 41 36 37 37 29 41 37 39 36 28
37 41 41 40 36 39 35 48 43 53 46 57 69 72 57 72 83 74 72 85 88 87 78 73 76 75 79 67 75 54 151 64 141 62 140 59 151 61 166 76 78 79 82 83 89 94 87 87 88 74 67 74 58 55 68 58 45 58 57 42 39 51 55 48
48 36 43 42 49 42 43 47 41 53 62 59 73 70 66 78 89 83 79 86 91 90 87 93 80 85 82 85 62 79 58 154 156 150 73 153 77 75 170 93 82 84 95 88 86 94 90 88 85 80 91 78 78 66 65 73 53 60 56 65 64 54 50 55
54 48 58 48 54 59 55 61 51 50 56 74 59 79 70 73 77 88 85 83 83 84 95 81 98 84 88 83 74 67 68 66 147 156 153 153 83 88 174 96 95 104 91 92 105 91 95 106 96 85 94 89 80 73 87 67 73 78 65 59 67 70 78 71
42 50 50 40 41 36 56 52 45 44 46 57 57 71 74 66 84 77 80 82 83 81 84 90 81 87 68 66 79 69 72 151 57 142 240 77 67 162 80 82 73 95 85 98 83 89 89 94 81 88 83 76 78 65 71 59 52 59 62 60 57 69 70 67
48 33 41 44 48 41 31 43 41 42 37 46 55 66 49 61 62 58 69 75 79 71 70 74 58 64 66 54 58 53 48 50 125 230 148 66 55 61 146 78 65 70 76 70 83 72 63 64 65 61 60 71 71 50 49 55 47 46 45 47 46 51 42 50
28 39 26 43 27 39 25 34 29 43 47 48 46 44 48 52 44 48 59 65 50 62 62 49 57 50 46 44 51 43 50 32 37 207 209 48 56 51 137 58 66 53 69 57 61 60 65 59 65 50 55 56 39 38 42 38 29 40 49 33 42 31 49 34
38 35 33 23 27 24 24 21 38 18 22 27 27 42 33 49 41 49 38 39 53 46 56 49 48 51 39 42 39 34 24 31 104 120 207 41 29 37 38 138 55 52 53 42 39 54 48 50 54 33 35 41 42 35 33 29 22 23 24 34 32 39 24 34
18 35 36 29 30 30 27 31 18 18 28 32 33 25 29 28 43 49 37 34 45 35 33 46 38 34 44 45 29 37 25 104 19 208 109 31 28 41 34 45 126 35 43 38 35 46 52 44 42 29 44 42 29 23 37 24 24 33 35 30 26 18 20 32
18 31 20 25 18 21 29 21 38 36 33 26 28 31 27 41 27 32 34 40 38 36 31 31 41 39 29 24 35 21 21 24 119 255 37 20 34 26 40 129 35 37 49 42 47 41 43 40 39 43 41 26 37 23 29 35 36 30 27 28 33 21 34 31
27 24 38 26 26 30 23 35 27 19 26 21 22 38 27 35 39 29 33 25 43 33 37 42 35 30 24 35 37 32 32 108 19 255 24 38 23 25 23 111 40 31 41 30 30 27 32 29 34 23 28 23 20 33 29 18 38 36 32 22 23 19 36 31
21 31 37 30 20 32 21 38 18 25 29 29 29 29 19 36 23 26 40 21 35 38 25 32 29 29 28 30 20 34 109 31 202 24 114 27 38 38 22 111 36 39 23 40 35 38 29 26 36 18 22 37 38 31 27 38 23 28 25 25 18 27 22 29
37 29 21 37 26 25 21 32 36 33 35 36 20 22 23 38 34 20 24 20 28 38 38 29 24 37 36 31 36 106 36 105 29 112 34 112 21 22 26 25 121 34 36 32 30 36 21 20 23 21 32 25 33 27 38 18 28 33 31 32 34 31 26 19
35 34 29 22 23 31 30 31 33 22 29 32 35 29 36 27 35 38 22 18 32 25 38 28 24 37 37 22 27 121 115 38 123 23 18 104 33 34 29 29 113 30 32 28 18 18 35 24 22 20 19 33 34 22 38 21 35 37 31 27 19 31 38 37
35 35 23 35 31 22 22 19 28 25 24 37 31 32 36 38 36 30 24 32 36 31 33 35 22 27 38 27 19 106 117 27 29 113 37 112 26 34 26 18 30 117 22 30 20 20 36 22 23 22 22 35 34 27 29 28 25 34 30 18 20 34 23 28
20 37 28 33 32 19 33 28 38 19 38 34 24 34 20 21 36 34 37 37 19 24 25 18 28 37 19 22 108 25 115 38 113 21 109 33 36 24 25 32 24 26 107 19 19 32 32 25 26 28 22 22 25 30 25 31 22 34 18 20 20 37 33 33
20 25 28 33 26 35 29 36 22 36 26 31 19 18 31 30 35 23 28 31 19 34 34 27 20 32 20 18 105 23 119 38 105 38 114 27 28 27 37 33 33 34 19 121 19 20 18 21 22 21 30 23 35 26 21 33 37 30 31 22 25 27 30 31
27 36 24 26 33 35 18 33 23 36 23 33 23 28 21 31 38 36 21 27 36 25 28 28 21 23 38 38 110 19 31 108 21 122 108 34 21 31 22 28 23 37 32 38 110 28 38 33 27 25 38 31 38 29 26 31 27 20 22 30 35 18 33 35
28 24 20 28 34 21 19 29 20 21 33 38 25 38 25 23 38 22 20 37 25 31 20 34 33 35 18 35 118 21 31 108 103 121 35 21 25 24 32 21 23 36 21 34 119 27 18 20 22 29 38 29 38 31 38 25 35 37 27 21 23 23 38 20
21 27 25 29 35 25 29 19 33 25 31 31 20 29 20 27 34 35 27 29 21 32 24 18 35 22 35 116 37 21 119 36 196 20 18 22 29 18 23 28 31 25 34 21 22 34 24 24 29 25 35 26 32 29 30 27 24 31 27 24 19 19 21 23
26 19 20 30 32 34 38 30 32 37 31 22 19 33 29 21 33 22 37 36 31 25 21 30 24 37 25 108 23 107 29 27 113 103 18 33 24 33 38 26 22 27 25 34 32 23 21 36 37 23 29 37 34 24 25 24 34 36 28 34 30 38 32 32
23 33 36 32 33 28 23 26 21 38 31 30 37 22 28 21 26 18 31 32 35 22 37 34 27 18 115 35 29 105 29 21 33 38 118 28 29 29 23 29 38 31 24 24 29 33 28 29 34 34 32 32 18 18 30 36 19 27 25 28 36 19 30 28
27 27 30 18 28 31 34 18 29 24 38 34 20 33 37 25 19 19 35 32 31 35 18 37 37 37 29 118 28 27 122 25 19 33 26 119 21 37 33 25 18 19 38 37 29 38 18 24 36 26 24 24 38 23 19 26 26 20 29 21 23 32 26 30
37 27 30 30 36 24 38 32 34 24 27 25 28 37 31 25 35 24 25 38 18 30 31 29 25 38 29 108 22 28 104 19 21 25 25 30 31 22 20 33 24 24 18 26 31 24 38 22 30 28 24 20 33 33 23 33 36 27 37 20 30 32 27 25
28 32 36 38 20 34 24 33 38 22 18 34 34 30 26 18 18 25 30 26 35 38 21 37 24 34 30 109 30 20 22 104 26 34 33 27 19 36 31 29 29 34 33 35 33 31 28 27 25 38 24 21 33 33 20 33 19 33 22 22 25 28 31 37
31 38 29 24 20 20 30 34 33 38 21 27 30 29 36 32 25 27 23 20 19 28 24 33 30 21 27 32 109 20 18 38 22 35 38 36 32 34 36 30 32 34 30 30 32 31 28 26 37 38 20 35 36 22 33 24 24 25 35 32 30 25 23 23
31 19 24 25 23 26 35 26 33 25 21 30 27 30 37 19 21 34 25 35 38 35 33 20 27 36 26 24 112 24 18 23 23 29 18 35 37 30 34 23 28 20 24 38 23 34 31 25 32 26 33 35 38 27 31 28 37 38 35 20 29 21 24 34
28 32 28 30 36 21 35 34 22 27 37 35 30 20 25 20 20 32 26 24 18 21 26 30 19 22 34 23 36 27 29 27 37 30 38 30 35 36 29 23 22 37 22 24 37 32 30 27 24 33 34 25 32 18 27 22 20 33 32 30 24 36 26 28
25 36 29 33 30 37 23 35 33 37 34 34 30 27 38 18 32 32 37 36 27 35 25 25 32 33 26 18 25 29 35 30 33 36 34 28 35 38 26 33 32 30 38 27 28 35 18 22 19 18 29 18 24 19 28 31 27 30 20 29 29 36 26 18
25 20 29 21 29 37 18 35 34 18 29 33 23 21 24 25 36 18 22 32 30 32 31 31 25 36 20 27 18 22 31 27 19 38 35 18 30 34 38 21 32 37 22 34 28 30 31 37 38 37 38 35 30 22 33 38 24 22 25 21 28 31 33 28
