P2
64 64
255
25 20 33 24 36 34 38 38 24 19 24 18 22 19 27 28 22 35 20 32 31 25 23 34 20 22 20 25 34 37 27 27 33 34 38 24 32 24 21 19 22 26 35 20 22 37 24 24 25 20 24 35 20 32 22 35 24 36 34 26 22 24 30 25
25 27 27 25 38 18 18 28 25 38 34 23 26 36 20 20 38 29 27 21 18 24 32 22 37 23 20 35 22 25 35 20 21 19 23 20 38 37 26 35 30 32 23 31 28 28 30 29 18 26 20 37 34 36 30 36 35 23 20 20 38 32 32 36
30 21 22 34 27 34 30 32 22 32 18 38 22 30 18 28 29 21 27 26 21 25 28 33 21 29 19 21 34 25 33 37 31 28 23 20 29 30 37 20 36 23 38 27 25 37 21 33 38 34 35 26 24 21 23 22 33 28 34 36 21 21 18 38
29 21 28 22 31 34 28 23 26 25 34 20 19 23 23 24 19 25 34 38 24 38 18 33 24 30 38 29 24 25 30 28 18 21 26 33 23 18 23 26 36 32 28 35 19 27 18 28 25 28 31 33 21 35 25 36 26 25 31 22 19 27 28 23
27 19 22 26 21 30 34 20 33 21 30 37 33 35 37 37 33 34 36 27 31 35 31 38 33 37 30 35 37 28 35 28 33 25 30 25 27 22 24 25 31 23 30 37 20 36 19 18 26 18 31 38 18 36 24 34 22 26 36 19 25 19 18 27
30 33 21 21 32 24 28 20 33 37 23 29 36 38 29 25 27 29 37 18 31 33 24 37 30 18 32 21 28 35 28 27 30 30 21 20 25 21 22 22 22 33 33 20 33 26 22 33 22 22 30 35 37 21 37 38 34 26 24 32 32 35 20 38
19 37 18 30 22 35 36 27 31 25 34 22 28 20 26 27 27 33 25 29 31 33 18 38 23 37 28 27 27 31 23 21 37 30 33 32 26 19 21 23 27 26 19 30 19 35 28 37 25 30 18 27 23 22 24 28 36 38 18 21 23 28 35 28
35 22 22 19 34 36 20 30 35 33 33 22 25 38 26 30 38 38 38 37 33 22 31 23 34 27 21 24 23 33 36 22 21 30 23 24 20 24 25 30 35 36 26 29 27 24 35 25 28 33 27 34 32 30 22 26 21 19 36 28 36 20 31 28
18 20 21 24 26 33 20 27 30 35 19 18 28 29 24 29 26 30 23 37 26 21 31 33 23 30 32 35 24 33 36 27 19 26 31 29 26 28 22 24 23 23 24 35 33 20 23 19 32 31 27 25 33 22 22 32 19 27 27 19 35 34 34 28
35 23 28 19 28 19 21 20 36 26 20 30 32 20 37 36 32 30 37 24 28 21 22 32 22 34 33 32 31 32 33 26 38 29 27 35 21 31 35 26 21 32 32 37 37 37 33 38 31 22 27 23 31 29 35 33 20 30 38 37 33 27 38 35
36 36 18 38 25 29 18 18 38 25 36 29 37 22 35 29 33 30 24 20 25 33 20 30 27 23 28 31 28 24 22 21 24 18 29 33 31 30 30 32 21 33 38 25 24 31 18 24 24 31 33 34 34 30 22 30 35 34 32 27 35 38 34 32
36 24 25 30 36 37 34 33 31 29 18 30 26 20 25 34 29 30 35 22 35 38 26 30 37 31 38 35 26 35 30 24 26 27 22 30 29 23 34 18 29 31 34 37 23 35 35 33 38 32 24 23 28 21 28 27 36 32 38 27 25 22 24 19
37 21 30 29 18 35 24 30 36 31 28 38 21 20 26 27 31 26 29 31 31 23 31 19 21 30 27 29 20 20 21 34 22 18 29 27 34 19 21 30 22 28 36 24 19 36 19 38 25 24 33 22 30 18 28 37 18 25 18 38 34 34 37 27
24 22 26 20 37 21 22 30 35 30 22 26 20 22 24 37 35 28 27 29 23 23 22 34 37 26 33 33 34 36 34 22 31 28 20 25 31 23 29 28 18 21 28 23 22 26 30 26 22 36 19 36 24 37 23 28 23 21 24 37 19 22 35 35
23 36 28 20 26 22 23 37 26 24 19 38 29 24 21 20 24 18 21 28 22 18 18 38 33 20 20 35 24 28 27 33 27 21 36 33 25 24 37 19 21 25 28 18 24 24 35 26 34 23 22 35 31 23 32 37 23 35 35 38 25 24 18 28
18 24 38 23 22 18 29 38 34 25 37 24 30 35 21 19 19 23 34 20 18 31 31 31 38 34 21 34 29 37 25 37 20 27 32 25 32 38 25 28 34 31 38 21 25 19 35 33 26 36 20 21 32 33 23 26 22 30 20 36 25 27 30 27
36 22 24 19 37 18 37 25 29 35 34 26 25 30 18 29 25 22 25 24 20 26 29 23 23 28 36 30 26 30 37 18 32 22 38 24 29 34 35 24 27 33 29 38 26 36 33 25 36 20 25 37 19 26 26 32 21 21 28 23 18 37 27 26
18 30 22 19 22 24 29 28 32 35 29 22 38 27 24 22 31 30 34 24 28 34 27 19 31 38 31 28 21 18 29 29 33 28 28 37 27 24 35 21 35 35 22 37 30 20 30 24 18 30 38 32 25 26 31 33 29 34 35 19 30 22 21 32
26 32 21 35 34 31 36 20 30 23 24 33 22 30 28 35 35 20 38 37 31 27 36 28 31 23 33 38 18 30 32 20 24 23 20 25 23 19 21 32 33 35 27 36 19 35 26 32 24 27 35 32 30 30 20 19 24 19 33 18 22 22 18 32
23 30 32 26 34 35 22 26 34 20 35 25 20 38 34 31 33 39 30 40 39 23 32 30 32 38 18 38 19 33 30 25 22 23 30 28 30 19 22 21 26 34 23 35 40 40 23 35 31 27 34 36 20 35 29 34 30 22 29 21 29 27 21 19
33 34 38 20 26 34 19 37 25 33 19 35 26 32 28 34 27 44 38 42 44 46 28 43 24 29 43 30 33 43 41 36 20 35 32 24 21 38 31 35 25 25 32 45 46 29 35 41 24 39 25 19 32 36 31 25 35 24 20 33 26 34 35 26
33 37 23 27 26 37 28 25 36 18 31 26 34 31 33 25 44 30 46 41 33 38 47 31 30 45 55 49 67 55 66 46 51 29 28 22 36 23 30 41 43 47 30 30 29 48 33 38 32 36 32 21 19 32 27 26 19 21 29 30 32 36 28 19
29 23 30 22 31 31 34 20 27 27 20 22 26 38 43 47 38 42 35 33 38 45 36 42 41 55 77 85 78 91 74 72 56 41 36 41 25 31 37 37 42 38 47 40 44 39 34 46 35 40 37 30 31 32 30 33 32 35 38 29 32 29 28 37
29 22 34 28 23 34 20 29 29 33 34 28 33 45 45 37 49 55 37 40 39 39 48 50 56 60 78 88 94 97 107 94 78 53 38 39 45 46 35 52 47 44 47 38 49 49 44 37 43 36 49 35 40 34 24 30 20 32 18 23 37 23 28 24
29 37 22 31 20 20 24 33 38 21 21 24 36 33 49 46 50 57 56 57 42 51 54 51 73 84 100 109 114 135 117 117 104 92 66 39 34 33 46 55 50 56 51 58 47 49 60 48 40 52 44 46 33 25 38 23 29 28 26 20 36 29 23 28
33 26 38 27 25 20 29 19 34 33 40 29 40 51 35 43 53 52 61 57 56 49 55 47 61 79 104 108 142 168 150 138 126 92 84 60 48 37 52 55 60 54 53 53 46 49 49 58 58 50 48 42 49 35 35 32 34 20 18 35 25 37 30 33
18 23 19 26 34 27 38 33 38 42 31 45 45 52 38 59 60 53 64 55 56 57 52 50 66 81 90 108 147 155 152 141 125 98 83 62 54 49 54 54 59 50 53 54 65 67 56 57 62 41 55 38 52 48 45 25 36 20 21 31 19 37 22 21
30 27 19 22 29 26 19 18 21 43 34 34 49 50 51 56 65 65 66 70 64 68 62 71 79 91 92 108 120 133 140 150 136 111 97 78 66 64 53 51 57 63 63 64 61 60 68 64 63 49 44 54 45 44 28 42 37 29 38 20 35 32 19 21
37 28 20 21 29 24 34 28 37 37 31 32 42 44 52 47 60 64 64 63 59 75 59 64 55 73 93 101 108 136 131 133 132 108 89 81 67 55 46 59 53 63 71 58 77 66 74 68 59 56 53 41 40 43 44 41 37 36 38 21 26 23 32 26
22 26 37 33 22 31 18 28 27 31 31 41 39 46 48 64 53 73 57 74 61 63 78 66 74 58 80 95 109 105 127 127 111 107 95 83 69 64 61 56 57 63 68 73 78 73 70 73 59 63 48 47 46 40 42 31 28 21 23 19 31 22 35 32
36 31 23 24 24 26 28 32 37 47 31 51 54 47 60 52 72 74 68 68 79 64 81 60 57 62 55 64 77 92 98 107 99 81 73 74 76 53 59 62 58 60 65 68 72 82 62 77 73 51 61 44 44 46 31 37 29 37 21 33 22 24 35 28
32 33 20 27 22 27 18 30 28 39 32 44 43 61 61 55 68 67 70 67 86 77 72 81 65 61 57 61 72 76 71 68 78 71 77 67 70 68 65 58 69 62 68 73 81 83 66 73 63 70 52 59 41 35 48 37 37 22 31 38 28 28 30 33
23 30 28 35 26 32 22 26 29 42 47 41 53 43 51 52 71 77 83 73 77 71 83 81 60 63 69 52 57 68 56 78 66 58 66 50 63 48 61 64 75 64 80 79 81 87 75 66 69 56 52 63 59 40 45 38 29 39 27 19 31 36 31 28
38 37 21 25 33 21 36 37 41 43 40 42 50 59 51 60 70 78 62 72 86 88 84 76 62 67 61 71 62 55 64 62 61 51 63 40 54 59 67 70 71 74 68 79 71 73 66 62 62 70 60 47 52 43 40 29 37 30 31 19 24 27 38 30
18 34 35 18 32 36 37 28 29 34 50 38 49 46 64 56 53 74 67 74 73 79 77 60 59 65 60 79 74 65 71 75 76 62 61 58 56 53 62 55 71 79 67 78 71 76 62 64 72 52 49 58 55 50 43 32 31 35 30 29 38 25 21 37
24 37 24 20 38 28 19 21 23 38 30 41 48 46 54 53 61 61 64 66 64 63 63 67 65 76 75 79 78 92 79 82 80 77 61 57 56 49 66 54 56 77 61 77 67 67 76 65 56 54 61 60 49 52 46 34 30 25 27 22 20 23 29 24
30 22 26 22 26 19 33 24 24 39 39 34 41 53 44 49 50 52 68 67 57 58 76 59 73 86 81 101 92 92 85 88 92 76 69 58 69 45 54 62 53 74 70 67 68 59 54 55 56 50 52 48 55 40 40 30 33 19 34 23 30 24 20 32
34 19 38 32 28 31 25 34 25 35 34 48 47 43 60 54 47 54 53 56 54 71 60 61 82 91 85 108 106 106 110 102 96 82 86 71 64 60 49 58 67 57 64 73 59 60 65 69 66 51 57 39 41 50 30 38 35 31 34 35 33 35 33 21
30 19 24 24 23 18 35 36 32 35 29 46 34 38 42 47 43 64 67 64 54 59 59 63 70 96 95 97 115 110 112 114 97 89 85 73 60 58 47 58 65 52 51 69 64 55 60 60 44 57 58 47 33 42 36 39 34 29 33 28 23 20 36 31
37 31 36 20 31 27 29 26 23 36 24 41 45 33 46 49 50 59 63 46 51 59 48 72 84 78 105 113 119 117 130 121 113 93 81 86 63 63 46 56 57 45 47 64 46 60 59 56 59 42 37 51 47 35 36 33 34 28 19 24 28 33 34 31
35 27 23 38 27 18 32 38 38 29 27 26 39 31 41 46 47 53 48 53 61 47 41 54 75 83 92 116 115 129 133 116 108 87 88 68 58 65 55 42 45 45 45 43 61 56 41 53 40 49 48 35 36 40 32 37 24 31 38 25 28 32 31 22
23 35 29 18 19 36 31 32 35 22 33 40 31 35 33 48 39 54 50 37 55 57 53 61 71 77 88 103 111 122 127 125 102 97 80 66 71 43 49 39 42 37 37 57 51 38 50 41 38 48 35 41 41 21 39 29 34 36 18 21 18 22 20 21
19 25 20 20 25 21 31 33 30 33 20 29 27 32 36 46 40 45 50 40 43 48 45 42 73 64 74 98 94 110 117 107 98 85 72 68 54 51 30 47 36 52 39 35 36 49 36 49 48 29 40 29 41 32 21 36 21 24 21 28 28 34 32 24
23 34 30 21 22 37 35 24 24 30 27 33 30 25 35 42 36 34 30 34 43 33 29 49 63 69 70 84 94 98 102 83 77 69 67 53 47 40 34 45 47 47 45 48 37 35 46 37 44 26 26 24 21 32 23 23 26 20 37 21 21 35 26 19
33 28 26 34 19 27 23 19 22 35 32 26 21 30 36 40 30 32 30 34 30 35 34 27 47 52 60 73 84 83 91 74 64 71 56 47 40 34 40 32 27 35 45 37 39 34 43 29 28 32 23 28 33 30 25 33 35 34 33 34 29 36 23 33
34 31 37 26 27 18 36 31 18 24 38 20 18 35 18 22 31 37 24 21 36 22 37 24 40 45 52 63 66 60 74 65 64 61 54 32 26 29 35 36 30 21 37 42 33 41 27 27 35 34 25 24 28 27 19 34 19 30 29 30 26 35 35 26
33 32 35 18 33 35 38 21 29 20 25 33 25 34 27 29 38 36 27 35 21 31 38 38 30 31 43 35 52 48 55 50 60 40 35 24 18 31 30 29 37 38 36 30 34 19 30 20 21 31 33 27 31 28 22 32 20 35 33 29 32 36 19 29
34 28 37 25 22 21 19 20 33 19 27 27 28 19 20 26 25 26 38 32 32 18 18 35 31 20 24 25 42 36 48 34 39 28 18 20 20 21 27 36 37 20 24 26 18 22 26 24 29 32 18 21 32 27 24 24 37 22 20 34 28 30 27 31
26 20 38 21 34 22 28 21 33 38 27 28 19 26 25 27 21 32 36 31 20 25 34 38 27 29 33 27 19 37 27 34 24 32 26 35 21 29 33 30 35 32 36 29 36 20 32 18 34 21 27 22 23 38 24 25 19 27 24 31 32 24 31 29
29 25 37 18 32 21 22 20 33 37 18 35 35 25 31 31 22 21 35 25 21 22 22 32 24 25 27 27 28 32 19 25 19 25 34 31 37 31 22 32 20 25 27 32 34 38 36 31 20 23 34 21 37 30 31 38 20 35 18 33 18 18 27 24
27 35 26 19 34 33 36 27 32 38 28 31 22 25 32 21 18 36 18 35 30 21 35 26 24 22 37 21 25 36 34 32 35 31 18 19 33 19 28 27 31 32 30 36 25 31 34 32 37 33 25 36 20 25 22 29 29 21 24 32 29 21 37 36
28 24 24 19 37 25 25 21 29 35 31 21 37 29 31 33 36 23 21 20 28 23 34 19 24 22 28 30 32 38 21 33 24 21 25 38 26 28 21 20 19 18 23 33 30 27 18 19 27 23 38 26 35 33 36 34 28 36 29 38 25 25 35 37
20 35 26 38 29 38 25 30 22 26 20 22 29 35 32 23 25 29 19 26 21 38 28 37 20 27 26 24 21 33 21 21 34 38 25 22 24 35 20 21 20 30 19 25 23 33 37 25 33 29 32 38 34 37 20 22 25 32 30 33 30 35 38 31
38 27 37 25 35 20 26 24 37 26 21 36 20 33 34 21 20 34 29 24 19 35 31 33 27 34 35 36 38 30 35 22 26 21 25 31 36 21 34 30 30 29 34 20 24 28 26 38 27 25 28 32 31 26 32 19 38 18 23 25 18 22 24 29
24 24 19 23 38 30 23 31 24 33 38 32 32 26 38 21 21 24 24 21 35 34 28 29 29 19 24 29 24 21 27 35 26 21 26 18 21 18 28 23 38 21 24 26 19 34 24 29 19 19 29 19 31 20 23 24 20 35 35 19 22 37 24 29
27 33 31 37 30 23 30 23 21 34 27 29 35 26 36 26 21 29 31 38 36 33 20 37 36 21 25 18 21 31 35 29 33 23 35 24 25 30 25 37 20 38 37 23 21 24 37 25 26 18 30 19 36 31 38 33 24 34 28 21 31 34 38 34
25 18 18 20 18 31 38 20 22 34 36 28 26 36 20 24 33 31 19 34 28 28 32 18 37 26 21 19 38 18 31 37 35 32 36 29 29 18 22 19 23 24 36 34 24 28 36 22 28 37 26 25 32 19 20 36 22 36 37 27 31 32 23 27
27 36 21 22 30 28 24 29 19 30 33 28 36 32 22 27 28 27 25 32 37 19 25 19 35 38 22 35 24 25 33 32 19 20 29 35 20 22 29 37 31 36 24 36 36 22 32 35 31 30 23 31 22 29 30 19 36 36 20 18 26 22 20 32
20 27 35 36 27 35 20 27 37 30 26 32 22 25 20 34 25 22 21 37 21 18 28 26 37 25 24 34 35 21 28 26 31 25 27 23 30 19 32 25 38 28 29 24 36 23 33 18 32 26 22 25 35 24 22 18 30 24 19 28 19 33 31 30
22 33 35 28 31 22 35 20 32 28 25 24 26 27 24 22 33 24 21 22 19 27 25 31 23 27 18 22 24 27 23 37 37 21 20 38 26 21 24 36 20 27 23 25 28 31 32 28 20 33 26 32 19 22 36 32 32 31 18 27 28 34 38 32
33 35 27 24 33 32 28 20 21 29 33 29 35 24 23 25 37 35 29 19 24 22 19 31 28 25 28 33 28 31 20 20 25 25 19 24 21 32 19 38 31 37 20 23 20 22 18 33 38 37 29 27 24 18 21 29 22 20 23 28 20 31 29 37
23 28 23 36 38 35 24 27 21 23 29 28 24 27 36 37 32 19 36 34 20 35 26 28 32 38 25 35 20 31 37 38 30 33 27 38 33 31 28 29 38 36 18 33 33 20 30 21 38 38 22 29 26 18 32 30 29 31 26 22 18 23 22 32
34 22 29 30 28 32 19 23 26 21 23 30 19 23 24 33 28 22 23 23 22 34 25 19 26 23 29 27 22 32 33 25 19 23 35 37 25 25 38 29 28 34 29 36 38 27 35 35 21 28 20 35 34 33 18 37 20 20 30 38 37 20 26 23
36 33 26 31 24 37 25 23 29 33 33 28 20 19 34 18 27 36 25 26 30 36 32 34 35 25 20 35 37 37 19 33 34 32 37 25 18 35 34 29 19 26 21 36 19 30 30 32 22 19 28 19 22 36 32 19 30 24 22 27 21 26 20 18
