P2
64 64
255
18 17 23 15 23 14 24 17 18 17 21 22 17 20 18 17 16 14 23 26 14 25 26 16 25 21 26 25 25 22 17 23 17 14 21 17 24 16 22 23 14 26 25 19 21 20 26 21 22 18 17 24 17 17 22 20 19 15 21 14 19 26 25 26
21 21 22 16 25 21 23 14 19 26 14 19 17 19 16 22 17 25 15 26 19 21 22 21 21 18 16 23 25 20 19 17 15 20 24 16 23 17 21 26 21 20 25 15 20 18 14 19 16 17 24 19 18 21 24 22 24 19 23 18 14 24 25 23
24 24 23 24 22 20 14 19 25 21 17 24 21 18 26 23 21 17 15 22 16 21 26 18 21 20 23 26 14 26 21 18 21 26 19 25 23 21 21 25 22 26 25 15 20 26 20 21 18 14 22 20 14 21 17 14 21 17 16 26 15 20 16 21
16 22 21 19 14 20 25 15 14 16 26 14 14 25 25 24 25 24 25 15 22 20 21 26 18 18 24 18 16 25 16 18 17 16 21 18 17 17 17 16 24 22 14 18 21 22 19 23 26 16 20 24 21 14 18 14 22 14 18 22 23 25 16 16
19 17 16 16 16 23 18 21 26 22 19 21 24 24 26 26 16 15 16 24 26 20 18 14 16 25 17 16 15 21 26 24 19 15 25 26 24 18 14 14 17 18 17 22 15 22 19 17 15 25 17 23 23 21 23 17 23 24 16 23 26 16 26 16
24 16 23 25 26 20 14 18 25 22 23 24 19 14 24 22 17 15 16 21 17 19 22 22 24 24 26 20 17 15 21 21 21 25 17 17 22 21 19 16 25 16 22 24 23 16 25 14 23 19 21 17 18 23 24 24 18 20 14 17 22 26 26 22
21 14 14 15 17 23 24 17 26 24 25 21 25 16 26 20 16 16 23 23 14 22 16 15 23 15 20 24 17 18 14 25 23 23 17 22 19 17 20 22 24 24 16 24 26 23 21 18 16 15 16 24 21 26 15 19 24 23 17 18 19 17 14 16
24 15 20 19 17 23 16 24 25 23 21 25 20 14 24 22 19 24 17 24 23 14 15 23 17 20 24 14 16 24 22 19 15 22 19 26 14 16 20 15 24 18 14 15 15 14 15 17 21 18 14 21 20 26 21 15 18 24 16 23 18 14 24 22
22 15 16 26 19 24 26 17 21 24 26 26 26 22 18 22 25 25 15 15 14 24 17 18 17 25 20 19 18 24 25 24 14 25 15 21 14 15 17 14 16 25 18 18 15 24 19 23 22 24 21 16 20 15 16 16 19 25 16 21 18 18 25 21
25 26 24 15 25 14 21 26 25 14 20 17 14 19 18 26 21 14 26 23 26 22 18 25 23 18 16 25 18 19 15 24 17 23 20 22 17 15 23 21 18 18 22 23 23 23 22 23 17 19 16 24 15 16 24 15 21 24 26 15 17 19 19 23
26 20 23 23 19 18 18 20 26 14 20 17 19 20 17 26 25 20 18 25 22 26 20 15 15 16 16 20 15 15 25 15 17 20 15 21 25 21 25 16 26 26 21 26 15 18 16 15 22 25 24 14 20 24 14 14 22 15 20 24 19 16 20 18
26 23 24 19 23 20 22 26 20 21 15 18 18 16 24 19 24 26 17 23 16 18 26 19 19 21 17 17 16 25 23 14 16 15 21 17 22 26 18 18 19 18 23 18 24 17 16 17 26 14 18 21 19 25 21 19 22 16 15 18 16 16 25 25
17 22 22 20 25 19 24 26 23 15 19 18 23 18 19 15 19 24 21 21 26 14 26 14 24 20 19 19 18 18 25 23 17 23 16 26 15 14 15 20 17 23 26 24 15 14 20 17 25 23 26 16 15 15 23 19 14 19 15 16 26 26 24 23
22 14 17 16 26 17 21 22 16 25 14 22 19 18 26 18 26 15 18 19 17 23 20 22 18 19 19 16 14 20 18 19 14 18 14 24 19 18 25 24 19 21 14 14 15 20 18 21 18 19 17 26 14 20 24 21 17 17 23 22 19 19 18 17
18 24 16 17 24 18 20 18 17 23 19 14 16 25 24 25 26 14 15 25 26 25 24 16 16 14 17 15 15 26 15 21 14 16 15 23 21 22 14 16 20 20 15 18 26 21 18 14 14 20 14 19 23 21 19 15 19 26 16 24 17 25 25 15
14 18 17 21 24 25 17 19 15 21 19 17 22 23 19 18 19 16 23 20 18 26 24 15 26 23 25 19 19 15 15 22 22 26 21 18 17 15 17 14 14 18 22 20 23 20 21 23 19 26 22 21 17 14 24 25 22 22 22 18 25 16 14 25
24 16 22 24 20 17 20 24 19 26 20 21 24 25 24 25 17 15 23 19 23 15 15 22 16 26 17 15 14 15 20 18 25 14 19 22 26 26 15 14 17 25 16 24 26 17 23 17 26 22 20 25 21 16 22 19 14 15 23 24 24 22 22 17
15 22 24 17 16 19 14 20 26 16 20 17 26 24 22 25 24 15 18 25 20 20 14 24 19 17 19 24 14 18 17 15 14 23 23 16 24 17 26 22 25 19 23 14 21 18 24 15 18 25 18 25 25 16 25 24 19 21 18 25 14 25 14 18
22 23 15 16 22 26 20 14 15 26 22 22 26 25 15 17 26 15 16 25 19 16 25 18 26 23 23 15 18 26 25 14 26 17 25 14 20 23 15 23 20 16 26 16 14 25 25 14 20 25 18 15 20 15 21 21 21 22 23 26 24 25 15 26
23 24 17 20 20 20 16 14 18 16 15 21 24 20 15 24 19 28 19 20 18 24 17 17 18 15 20 20 16 20 25 17 15 17 14 25 22 22 22 16 24 20 25 23 26 17 29 24 25 22 24 19 21 18 14 22 23 17 25 24 20 22 26 24
19 20 21 25 23 19 25 16 18 19 19 18 16 23 21 21 27 30 32 31 30 23 31 21 31 24 29 21 24 26 21 21 24 25 24 23 23 24 18 25 32 31 26 28 32 23 29 27 29 22 25 26 22 17 19 26 24 18 18 21 19 18 26 15
25 26 24 23 14 21 25 23 18 18 15 14 20 23 31 25 26 28 30 30 36 25 27 30 24 27 32 19 17 26 19 21 21 17 28 25 16 20 21 28 29 25 27 27 30 33 27 33 32 29 19 29 14 21 14 17 22 21 22 22 15 23 18 15
20 18 15 14 22 24 17 21 25 26 26 21 25 26 23 32 37 34 31 34 31 36 36 33 30 36 36 26 31 33 35 31 28 31 34 29 32 35 37 35 27 39 33 30 41 41 35 39 34 28 24 28 28 17 18 16 23 21 14 19 15 19 20 22
23 20 21 21 21 19 14 17 17 26 16 29 23 25 25 34 35 36 37 34 38 41 42 36 32 42 38 34 39 42 38 32 41 31 41 38 35 40 34 45 40 33 43 34 45 40 36 35 33 36 29 28 30 26 21 20 24 18 25 26 21 15 14 16
22 19 25 15 21 26 25 22 14 24 20 32 28 31 35 39 43 37 39 48 37 41 38 44 41 53 51 53 51 44 42 38 45 49 48 44 54 51 55 42 41 39 43 40 37 45 46 43 40 36 34 32 29 24 29 23 15 19 24 18 25 15 23 18
25 23 25 19 21 18 20 26 21 28 26 24 27 40 33 40 47 46 50 43 48 47 48 49 49 58 52 53 63 60 54 48 52 48 57 55 60 63 52 52 58 48 51 52 41 52 44 43 44 43 34 40 30 32 19 21 23 24 16 24 23 22 25 18
19 24 18 18 17 16 21 19 14 29 32 27 37 42 45 39 50 41 47 49 53 53 54 66 57 65 61 67 65 68 64 66 61 54 69 62 70 66 68 66 67 65 61 59 47 53 45 51 44 45 46 31 29 27 28 24 22 25 25 18 24 21 24 23
14 21 23 20 19 14 15 26 16 25 25 34 35 43 41 40 54 53 47 52 59 65 61 64 74 78 67 73 78 73 73 75 73 68 64 74 74 68 74 74 66 64 70 57 63 48 54 54 48 43 47 45 36 37 24 28 17 25 20 26 15 26 20 18
18 18 26 15 24 21 20 17 22 33 26 39 34 42 47 44 52 48 52 56 71 73 74 74 77 79 84 81 77 83 77 74 80 81 73 79 85 88 77 82 81 82 75 68 66 57 56 50 56 51 39 45 43 30 30 33 25 18 25 17 22 16 26 19
23 19 17 14 17 23 16 20 22 33 35 33 40 38 52 56 49 57 58 65 68 73 85 81 87 90 89 88 86 83 89 93 84 87 84 88 93 86 91 92 80 84 84 81 69 70 58 54 52 52 51 47 40 30 36 33 30 18 25 14 20 26 17 23
16 23 24 14 26 21 25 25 30 30 32 32 42 46 43 58 59 55 68 76 80 85 82 90 90 92 93 95 100 96 93 102 94 99 89 99 99 94 94 95 86 92 82 89 73 71 63 58 50 51 49 47 39 31 33 26 20 22 20 20 20 14 16 18
14 26 19 15 26 20 17 28 24 30 33 43 36 42 48 53 59 66 69 77 84 91 94 98 95 98 102 99 98 102 105 102 102 105 106 95 102 100 99 100 93 90 92 96 88 80 66 59 62 49 45 48 45 35 29 28 29 27 20 17 23 26 17 20
17 21 16 23 25 14 14 20 20 30 29 42 37 39 48 59 56 58 71 75 93 98 91 93 95 104 102 101 99 111 107 104 105 113 110 106 109 107 108 108 96 99 99 90 85 78 66 55 52 58 48 43 46 40 28 30 28 18 22 20 21 23 21 17
16 20 14 25 16 14 23 21 28 27 31 39 38 45 47 47 51 64 68 85 91 95 100 94 103 98 103 107 113 113 109 118 119 119 117 104 107 111 103 98 105 97 92 95 82 80 66 62 63 51 55 42 39 43 37 35 20 20 25 26 20 25 18 26
20 25 17 21 19 26 25 18 24 32 34 40 45 42 54 49 61 56 63 83 91 98 102 104 99 107 104 110 111 108 120 125 125 122 110 114 116 114 109 111 107 104 94 94 80 73 75 64 49 51 54 50 42 39 32 24 21 18 14 19 17 14 21 16
17 14 18 21 17 14 25 19 23 27 28 40 42 42 51 47 54 61 68 70 78 86 92 103 99 102 106 112 118 112 115 116 131 126 117 110 114 104 111 110 98 102 87 87 86 69 62 57 58 49 47 37 44 35 28 32 30 25 20 16 20 20 14 25
24 23 20 22 22 17 17 26 27 30 36 29 44 47 50 52 52 60 60 69 80 82 87 94 102 103 99 111 116 111 121 120 126 126 121 108 113 107 102 99 97 95 88 90 77 72 63 54 56 42 46 47 42 35 32 27 25 22 25 25 14 26 23 24
20 17 25 17 17 22 26 19 24 29 27 29 33 44 44 43 49 47 61 69 77 87 82 97 90 94 108 106 112 115 106 114 112 111 112 116 103 100 104 105 98 89 87 79 81 66 60 56 47 40 37 45 38 29 33 24 25 22 15 14 15 25 16 18
15 24 21 15 23 15 26 23 26 30 25 36 38 32 45 47 43 51 59 66 64 72 86 92 91 93 104 103 109 106 111 103 109 108 105 112 109 105 98 94 84 91 76 75 74 64 57 48 40 44 42 42 35 33 22 27 21 23 26 21 22 23 16 24
23 24 19 17 22 22 17 26 20 23 28 23 26 28 42 40 41 42 47 59 59 66 77 84 81 91 92 91 93 99 94 103 104 94 98 98 92 95 97 83 82 81 82 70 60 58 53 45 37 38 40 37 35 29 27 24 24 15 15 16 15 15 15 21
19 19 15 22 16 20 16 14 17 17 26 29 26 27 28 35 34 44 41 52 60 62 71 78 77 77 88 93 87 91 97 86 92 91 95 89 89 91 84 87 76 74 71 67 55 53 41 38 42 39 35 36 29 25 19 16 21 17 14 14 21 19 24 24
14 20 15 16 22 22 21 16 15 24 16 21 25 29 27 28 35 40 37 45 52 54 59 71 69 76 81 75 77 85 85 81 82 80 85 81 80 82 85 71 78 66 70 64 58 42 38 32 36 36 29 29 29 28 17 21 14 23 19 26 26 19 25 26
19 23 19 23 19 14 15 16 18 14 25 15 24 27 24 30 29 38 33 36 42 47 59 57 70 63 67 76 69 72 70 70 79 82 78 75 73 76 65 75 63 63 56 57 51 42 39 30 30 24 22 28 28 20 23 19 22 21 18 16 23 25 14 23
17 21 25 23 18 15 16 17 15 17 23 18 25 17 21 26 31 32 27 33 36 46 47 55 59 63 67 59 69 69 66 69 76 72 68 65 60 69 63 62 56 53 44 50 38 32 28 26 23 27 23 29 20 23 24 14 19 26 14 14 20 17 16 18
24 20 18 14 14 24 14 25 23 16 17 19 14 16 27 19 30 22 22 28 33 36 39 45 46 54 60 61 53 62 60 67 61 64 62 59 54 52 56 47 46 51 42 37 37 24 32 24 27 26 20 25 20 25 20 17 26 21 24 17 19 14 21 24
22 16 26 16 19 23 16 17 19 24 22 23 16 22 19 25 24 22 20 28 30 35 35 44 47 46 45 51 51 56 63 61 54 64 63 56 47 54 48 45 35 39 31 36 30 22 25 17 15 21 25 14 23 18 26 15 18 23 17 24 15 23 22 14
17 18 22 18 17 19 25 20 26 14 24 16 26 24 16 22 25 14 23 14 16 21 24 27 37 43 46 47 49 43 44 55 58 45 48 49 50 44 36 43 40 27 32 27 16 22 21 14 26 15 19 14 21 21 18 25 15 16 14 18 17 25 26 25
23 25 16 17 17 26 22 14 24 22 19 25 15 24 24 19 20 18 21 16 18 16 16 23 33 31 32 33 43 38 45 48 41 48 40 49 42 37 42 27 34 24 24 23 25 18 17 20 25 24 21 19 23 26 14 21 25 21 21 16 23 25 16 23
21 21 15 18 16 23 26 19 23 25 23 17 18 25 20 20 14 24 15 21 16 26 15 15 29 34 33 35 29 31 41 42 40 36 38 34 30 33 36 28 28 19 20 19 23 21 14 14 18 25 23 14 26 18 20 19 20 22 25 23 18 21 15 19
25 20 14 14 15 23 23 26 18 21 14 25 15 19 26 23 23 26 21 22 20 16 19 24 25 27 23 26 31 25 26 31 39 35 35 31 31 31 25 22 14 23 16 14 23 18 20 14 21 24 19 26 14 20 21 26 22 20 17 14 15 18 20 20
15 25 26 17 18 21 26 24 16 20 20 14 17 17 17 26 26 20 19 15 15 24 25 22 26 16 25 21 24 28 29 27 27 29 24 28 19 23 22 22 23 22 23 22 20 15 17 18 19 22 21 17 26 17 16 16 15 21 18 17 15 19 26 19
25 14 25 23 25 17 23 18 25 22 25 21 26 15 25 15 14 19 21 17 14 21 18 24 16 22 14 24 21 22 24 24 21 25 26 17 17 17 14 20 21 14 24 23 20 22 15 25 18 21 24 17 14 18 26 19 14 16 26 17 21 22 19 19
16 19 16 16 20 17 20 24 23 26 23 17 14 23 23 24 21 22 22 26 14 18 20 14 19 19 26 17 21 19 26 24 22 24 23 16 26 24 15 22 20 16 14 20 22 25 23 20 20 18 20 14 22 16 14 24 20 26 19 26 21 25 19 22
17 24 18 24 19 21 24 14 22 22 15 20 16 17 19 14 14 23 23 23 14 26 21 21 14 21 18 26 14 20 17 21 15 15 18 18 23 16 14 17 21 26 18 24 22 26 22 25 23 14 18 21 24 24 14 15 15 14 14 22 21 17 23 24
17 22 16 18 24 14 19 16 17 17 18 26 19 14 14 22 22 16 17 17 23 26 17 18 23 23 24 14 23 15 22 18 24 19 18 20 23 15 14 22 18 26 24 25 16 14 20 15 18 16 23 21 15 20 26 21 25 14 20 16 15 21 21 14
24 23 25 25 23 25 14 24 22 16 18 14 18 20 21 16 15 19 18 23 16 16 26 17 25 23 14 22 26 18 16 16 17 19 19 18 22 18 22 23 24 14 20 15 16 21 14 16 19 23 25 17 17 26 21 15 16 25 22 18 21 21 16 19
24 25 15 25 23 25 22 16 20 22 20 22 23 14 19 24 20 17 14 26 18 26 16 21 18 25 15 17 25 26 21 15 17 20 22 23 17 16 18 18 17 23 21 20 15 15 25 17 14 23 15 24 18 17 26 26 20 14 19 23 21 14 14 21
21 23 15 17 26 19 18 24 26 21 18 21 25 18 26 25 22 20 22 15 23 23 24 26 21 15 22 17 26 18 25 19 25 20 16 16 17 16 17 17 15 21 22 22 26 15 26 26 15 23 24 19 18 19 18 24 18 22 26 23 20 21 15 19
14 16 24 20 23 25 24 25 18 26 23 23 21 16 24 23 15 26 25 23 18 20 20 16 14 16 22 17 25 21 19 18 20 14 16 23 14 18 25 26 14 18 17 16 24 26 14 17 21 22 18 22 15 21 25 22 24 22 24 14 14 20 17 23
18 21 24 14 22 20 21 20 19 21 15 25 18 21 19 22 15 15 22 24 19 14 15 26 25 21 23 25 19 24 16 23 16 21 23 20 25 19 21 17 15 22 21 24 20 24 18 25 18 16 16 26 14 15 15 14 15 15 22 21 18 25 21 16
21 17 21 17 23 24 18 14 24 20 23 21 25 18 14 26 18 21 26 23 15 18 25 21 14 21 20 18 25 25 21 24 26 14 19 18 22 24 22 18 20 19 16 20 15 24 24 26 16 26 24 18 17 15 25 21 19 22 20 25 18 25 22 24
17 20 22 24 14 25 20 25 19 19 16 19 16 14 18 21 23 15 17 18 22 23 20 18 26 26 20 21 15 15 19 26 24 20 26 20 22 22 20 14 22 19 21 15 22 23 18 14 18 21 20 16 18 17 19 23 24 17 22 15 24 20 18 25
20 17 23 18 19 19 16 16 26 22 23 21 18 17 18 23 25 26 15 15 17 17 19 16 19 26 24 15 18 24 25 22 23 23 17 21 15 18 14 19 16 16 21 26 24 18 17 16 22 21 23 22 24 14 16 26 25 18 15 26 25 16 22 16
24 23 22 17 15 23 26 17 21 19 22 16 21 18 20 15 24 16 18 20 25 16 22 21 18 17 24 23 21 24 19 17 19 19 20 18 24 18 17 14 21 21 16 18 19 22 20 21 24 25 18 14 18 16 16 18 18 22 25 26 24 16 22 15
