P2
64 64
255
18 34 31 34 23 26 29 23 33 27 31 38 24 27 31 35 24 35 32 35 27 20 31 29 18 30 30 34 18 34 22 36 34 22 33 32 31 36 27 34 20 31 38 20 27 29 29 22 23 18 24 19 37 29 31 29 21 28 23 18 35 23 38 26
24 38 26 26 36 24 23 22 38 27 25 23 38 31 18 34 25 36 20 37 33 24 19 18 30 37 18 29 30 24 28 21 34 28 32 32 28 20 35 35 20 23 30 37 28 18 30 32 24 23 19 37 37 31 34 21 34 30 22 23 28 23 26 27
24 27 23 20 19 33 21 32 25 35 34 27 34 37 35 32 35 19 31 30 22 25 29 25 35 24 24 28 36 34 31 37 36 36 20 27 21 37 22 20 18 38 24 34 33 26 26 38 31 20 26 23 27 30 19 27 34 34 36 18 29 26 35 28
20 25 23 36 37 21 32 28 30 32 20 19 38 31 18 33 22 19 27 24 38 33 20 31 23 19 18 19 22 37 24 24 38 35 30 37 35 27 18 20 21 27 25 21 37 25 30 28 30 33 32 18 23 28 22 25 34 20 19 30 28 38 30 30
20 28 23 33 36 28 34 26 36 38 19 34 21 22 31 36 35 25 22 36 18 26 18 33 28 22 38 20 18 27 20 31 25 18 32 38 34 30 36 37 35 19 31 32 33 26 19 28 30 33 31 28 19 34 31 27 25 32 18 25 30 33 30 23
33 31 27 30 33 22 37 23 25 19 37 20 22 30 36 34 26 28 29 19 28 21 21 19 20 24 36 27 36 23 23 22 22 18 38 35 38 18 38 37 24 32 27 24 32 30 29 23 24 34 25 35 29 20 27 31 22 32 25 34 27 26 20 26
34 24 23 36 32 31 24 23 24 31 38 19 19 36 20 29 20 21 24 34 29 36 24 32 20 23 37 33 27 20 26 22 35 24 34 23 26 20 28 23 34 19 26 24 38 22 35 28 35 29 35 29 32 21 31 22 30 28 34 38 28 26 31 30
29 28 37 33 21 24 24 33 24 32 30 36 22 27 30 25 23 36 34 37 33 31 28 22 26 27 27 29 18 29 21 20 24 24 31 25 26 30 22 34 37 22 21 31 28 22 18 37 23 22 23 33 30 23 18 20 31 25 25 27 20 20 21 36
20 33 21 22 25 23 28 37 26 23 29 24 26 29 21 20 25 22 26 27 38 36 19 22 22 20 36 34 18 38 31 22 34 36 37 20 21 23 27 34 31 34 20 34 30 24 37 28 21 18 24 25 35 22 37 28 29 38 33 37 27 36 30 28
31 32 28 25 33 38 21 20 37 26 37 28 21 21 19 33 36 19 26 34 23 33 31 21 27 29 24 26 20 23 22 26 34 36 25 38 37 18 33 21 29 24 21 30 19 20 33 27 29 22 35 23 30 33 24 24 35 35 18 36 18 24 21 34
28 26 30 26 27 37 38 28 28 31 27 37 30 18 22 23 19 21 24 29 32 19 34 18 30 36 19 21 32 35 31 33 38 29 28 23 35 37 24 20 21 35 26 19 26 36 23 26 21 35 34 30 19 30 21 27 25 32 37 23 18 22 30 37
36 25 31 38 38 20 32 19 31 24 38 34 37 21 38 28 33 29 19 33 29 19 30 21 25 30 38 25 31 29 24 19 32 25 36 26 31 27 34 22 38 23 38 36 35 23 22 18 18 25 20 19 26 33 27 27 22 27 25 23 24 26 29 36
19 26 28 35 25 31 33 36 30 23 35 25 22 35 30 31 30 29 28 21 20 31 36 28 19 30 18 26 31 18 38 32 28 19 22 32 31 21 24 19 37 19 35 29 27 22 18 38 23 37 21 29 27 27 28 36 34 19 18 36 31 20 20 34
25 29 38 38 32 32 20 29 25 27 33 20 25 20 37 25 21 36 31 24 26 18 31 21 27 35 25 26 28 38 31 35 30 29 20 26 38 35 28 30 36 21 37 28 23 30 26 20 26 21 28 19 30 25 19 19 18 22 27 23 18 21 32 31
35 36 30 38 24 25 18 33 29 29 21 27 33 30 32 28 26 23 24 25 29 37 35 21 27 34 29 32 28 29 29 31 29 24 23 29 19 32 21 38 24 22 23 37 21 30 29 19 38 34 36 37 27 28 28 25 22 21 23 19 18 20 28 31
18 29 38 18 19 34 25 28 37 29 31 28 35 21 30 22 28 25 26 38 30 22 25 23 21 24 26 24 18 21 18 20 20 33 37 18 34 22 22 26 31 23 33 22 38 27 26 32 24 23 20 38 22 27 22 38 34 29 34 37 38 37 25 38
26 38 26 29 25 18 19 33 36 38 22 36 31 25 24 38 18 25 23 23 23 24 23 21 19 34 36 28 19 21 37 28 33 32 28 20 19 36 34 35 31 35 23 30 21 29 18 19 32 29 31 31 33 24 27 29 33 25 28 34 36 35 27 19
32 26 21 34 26 34 28 30 24 29 18 24 18 21 22 21 28 30 36 30 26 19 31 38 23 32 21 30 35 28 33 32 19 35 27 26 24 36 36 37 18 21 18 22 28 37 35 33 29 36 18 34 27 22 27 35 32 38 27 30 36 36 29 29
29 28 32 29 38 30 18 28 23 18 22 19 29 20 33 36 29 23 36 26 28 29 24 19 25 23 34 35 23 38 29 23 19 28 36 32 26 26 38 28 18 26 32 26 22 23 36 33 20 37 34 28 31 27 32 32 19 34 27 24 29 19 35 31
23 30 27 28 20 29 27 21 33 33 28 36 38 19 23 34 22 23 29 37 33 30 36 31 35 27 24 38 37 35 36 25 37 24 29 20 37 34 37 20 34 32 32 27 38 24 33 27 31 32 37 37 31 28 27 36 30 22 26 20 35 31 26 31
37 33 37 33 33 34 35 25 37 36 31 25 33 23 31 39 34 37 38 37 34 31 34 30 30 35 22 27 26 27 36 28 32 25 37 30 22 21 22 31 40 34 28 29 39 37 36 32 23 26 24 32 34 35 29 30 19 26 32 31 38 35 35 29
20 32 28 21 35 26 38 27 20 22 32 33 29 34 32 38 32 47 37 39 35 48 40 47 40 30 41 25 37 27 28 35 27 119 25 38 30 39 44 39 41 31 32 39 43 36 31 28 32 41 35 39 18 22 22 28 33 23 25 38 31 19 36 29
30 33 37 29 34 18 24 23 27 19 21 37 26 44 45 37 47 50 33 48 51 52 34 49 40 50 37 27 29 26 38 26 30 22 108 35 35 30 29 46 32 43 34 37 35 39 45 37 41 30 35 31 24 34 29 35 24 36 29 27 19 25 28 32
28 25 28 38 33 32 27 25 38 29 27 38 30 38 34 34 41 38 55 56 50 43 51 48 53 51 32 43 38 36 117 19 29 121 35 43 32 36 43 43 49 46 43 53 48 42 49 41 51 50 44 29 44 30 30 31 21 21 31 22 18 32 25 26
23 25 27 25 28 31 29 25 24 37 21 35 38 37 47 47 40 49 56 42 52 61 43 45 39 38 55 44 35 113 33 33 31 117 29 46 32 49 36 56 42 54 59 55 51 56 59 47 57 40 49 39 29 42 21 26 29 36 22 21 19 34 31 23
34 37 26 25 22 34 27 38 28 22 28 26 37 49 44 53 41 57 45 54 61 58 57 62 43 52 52 41 41 117 34 34 108 122 34 29 49 41 56 44 54 52 50 62 51 53 43 43 59 45 35 48 33 34 33 34 38 28 35 21 19 22 25 19
28 33 35 32 25 37 33 31 19 24 30 37 35 42 48 53 44 56 62 50 55 68 66 65 53 50 51 49 132 34 37 126 45 127 47 50 45 46 61 48 51 67 64 49 65 64 49 50 61 61 41 37 44 46 29 23 23 38 35 25 33 18 38 25
24 24 18 18 35 21 27 29 28 30 34 49 54 42 44 49 53 60 64 59 59 60 72 67 55 57 46 53 56 138 42 122 128 124 40 39 38 42 45 62 67 52 57 73 54 62 52 49 52 45 59 40 44 40 37 26 33 25 31 19 22 18 38 26
27 33 24 26 21 28 32 35 29 40 45 37 48 45 44 65 52 53 62 63 63 59 70 66 63 67 47 58 136 49 52 202 36 126 33 38 51 49 53 51 63 66 76 69 64 60 67 66 66 47 58 57 52 33 47 43 39 20 31 23 32 36 29 28
27 38 34 33 37 32 29 35 27 37 36 44 47 51 51 49 60 62 77 77 73 75 72 67 63 53 55 130 48 136 54 44 205 34 138 45 43 47 63 66 73 73 75 77 80 61 70 60 51 66 63 59 38 44 40 36 29 33 21 30 23 18 20 27
30 18 27 32 20 38 35 25 37 37 33 55 38 57 47 57 61 67 62 71 73 73 65 73 71 59 138 49 137 41 39 130 41 121 38 130 43 49 67 61 64 65 73 66 75 80 77 72 73 59 50 46 50 48 47 31 30 29 21 24 27 24 35 21
25 30 32 35 21 38 33 26 38 45 31 48 52 54 49 59 65 77 66 72 74 75 68 79 77 64 149 146 46 57 128 43 46 36 208 51 47 49 55 68 59 76 85 78 78 78 63 72 58 56 53 43 42 51 35 37 43 40 35 34 37 31 19 33
33 37 24 19 21 38 29 35 27 35 51 40 52 50 54 62 57 61 70 87 72 86 68 73 78 149 61 139 58 128 46 52 45 40 209 59 44 67 58 75 67 70 75 73 75 67 81 65 71 64 54 49 43 42 44 48 28 20 36 29 30 20 22 38
28 22 31 18 18 28 37 22 30 27 49 51 46 56 66 56 67 77 69 77 72 76 75 62 67 62 139 151 43 54 124 43 41 44 210 42 61 50 52 64 60 62 77 69 78 71 68 68 70 64 49 58 53 55 43 33 28 39 28 24 23 37 33 28
31 31 33 24 24 23 40 35 48 35 46 57 60 61 72 60 63 67 79 76 83 82 87 68 66 76 153 142 62 47 135 45 62 45 227 49 51 64 74 64 70 87 71 86 80 86 69 82 74 59 60 58 48 58 43 48 52 32 45 30 29 47 38 34
29 29 43 38 48 44 44 49 40 41 52 47 51 73 66 63 68 75 73 79 87 81 86 76 78 67 163 65 159 140 54 57 60 69 137 156 58 74 77 69 88 91 92 94 83 80 91 75 73 76 63 70 71 57 65 63 50 56 45 56 38 47 54 53
52 45 42 39 51 46 44 44 53 46 47 64 57 77 71 85 79 91 94 86 87 83 85 81 93 165 70 160 167 60 72 63 68 149 66 150 73 80 71 92 87 94 92 94 97 85 90 88 90 79 87 75 72 75 61 56 71 51 50 67 52 53 59 60
42 57 59 47 59 43 45 57 64 61 69 72 77 72 83 76 92 81 80 94 89 84 101 98 85 172 79 160 74 162 77 79 157 71 72 74 160 93 77 90 86 89 88 100 96 89 100 101 91 99 88 94 86 84 71 67 79 76 77 67 63 64 62 76
40 40 45 40 55 54 38 41 53 55 64 61 64 63 76 73 82 79 71 84 72 75 81 75 83 163 73 150 69 63 147 65 155 66 56 163 68 73 85 74 91 90 80 95 78 89 85 84 91 85 76 74 80 61 73 60 61 68 63 52 61 70 69 72
41 33 50 49 50 49 36 32 50 42 44 54 56 62 55 69 56 59 67 72 63 65 72 73 59 59 154 139 55 65 46 137 130 52 47 51 146 61 63 75 76 78 81 79 67 69 63 66 77 75 72 64 67 66 61 58 54 46 40 58 49 45 54 48
28 26 40 24 41 25 42 36 36 42 40 46 38 56 54 55 53 61 50 60 49 49 51 59 66 55 48 145 137 46 36 32 199 35 51 55 125 60 48 56 54 69 66 58 69 55 68 65 64 66 44 48 49 54 48 45 29 34 33 45 37 48 45 50
36 32 24 38 36 31 18 18 29 18 20 40 32 30 40 46 52 55 43 56 47 53 42 37 55 38 33 130 127 27 28 28 189 34 35 34 48 123 33 38 56 40 52 42 51 48 45 38 38 43 49 38 31 28 30 39 28 22 39 31 32 26 27 20
29 33 33 30 32 37 32 38 35 20 38 27 33 40 26 48 31 31 49 40 37 38 44 47 46 32 33 31 110 121 31 32 205 23 19 27 110 46 40 31 41 46 46 33 40 38 52 46 35 30 30 41 23 19 34 34 33 20 28 35 34 30 33 32
18 19 26 30 19 33 21 33 27 33 37 18 34 28 31 38 34 39 40 41 44 33 49 42 39 30 42 120 33 107 24 22 199 18 38 113 26 34 27 34 35 39 40 41 29 39 38 29 41 43 23 35 26 31 19 27 27 24 26 31 18 35 30 29
18 28 19 21 19 32 35 30 28 32 21 25 27 25 34 33 36 30 27 29 28 36 35 39 33 28 24 32 205 23 33 36 117 107 28 108 36 26 32 33 40 31 32 36 38 26 39 24 29 36 27 36 30 31 34 21 33 37 33 29 19 38 26 28
34 36 30 26 33 22 32 31 31 29 33 35 31 22 37 25 33 22 37 22 22 35 37 30 27 33 34 27 105 108 25 24 207 25 104 31 26 30 30 29 23 26 40 30 41 37 28 39 31 28 24 22 18 31 36 24 21 36 23 37 31 38 38 22
36 24 24 18 30 28 21 37 33 36 22 38 21 28 29 21 18 18 20 28 21 30 36 27 19 22 22 20 121 35 112 117 20 188 21 38 21 24 18 23 31 34 32 32 24 24 24 28 35 37 32 29 28 30 35 38 37 38 20 38 22 34 38 38
28 28 31 28 33 38 26 34 23 24 26 32 24 31 27 34 28 27 32 22 33 28 28 23 24 31 35 37 116 106 18 110 121 105 23 38 22 23 27 18 20 35 26 31 36 33 19 18 22 34 29 28 18 34 38 18 36 29 25 25 19 22 27 33
35 31 29 21 22 20 25 32 23 35 25 23 29 23 22 24 19 21 21 36 30 29 21 20 35 32 27 24 103 109 111 32 29 195 22 37 21 38 28 23 24 18 37 24 34 27 19 18 33 20 32 33 26 31 19 22 38 34 24 28 23 25 18 30
34 20 29 29 19 27 35 18 28 33 31 23 28 23 34 35 37 22 33 18 25 21 23 25 34 20 18 118 35 116 19 106 104 105 33 32 36 18 18 32 35 26 33 28 22 27 25 32 37 25 37 20 22 21 36 25 27 33 19 20 36 28 36 19
18 33 37 22 32 27 31 33 37 25 32 25 22 29 37 23 24 31 18 24 24 32 21 32 30 23 36 112 38 19 207 27 196 25 26 18 35 24 31 34 23 31 32 22 27 38 19 38 22 34 33 32 36 37 29 20 27 21 28 19 28 24 32 31
37 28 23 32 29 34 25 28 28 24 22 19 37 21 25 33 24 33 35 28 20 37 20 31 36 31 123 19 22 112 36 114 103 116 37 29 32 24 25 24 21 28 28 38 36 31 28 38 30 23 18 37 19 21 22 21 27 38 31 34 18 18 36 22
30 24 33 38 26 25 28 30 25 18 22 37 21 29 37 27 22 36 25 37 25 19 21 30 28 25 20 105 22 22 117 112 110 117 25 29 27 24 19 33 23 37 34 27 21 28 25 32 35 37 37 38 34 23 34 19 19 25 20 34 29 21 27 21
22 20 24 37 22 37 25 20 22 37 33 33 32 38 22 24 28 33 19 21 27 29 28 20 22 28 32 105 29 120 117 21 36 105 26 23 29 28 32 37 38 33 22 20 34 26 25 29 26 28 30 22 22 29 24 27 30 33 33 35 20 37 37 22
36 38 25 23 24 31 38 21 34 24 28 21 23 27 24 24 34 35 23 26 22 23 30 22 32 25 31 116 18 27 105 111 29 38 121 28 19 19 32 21 24 23 30 26 31 18 21 20 21 30 30 37 35 19 18 27 36 34 25 27 23 35 19 37
38 30 33 34 26 28 19 21 23 30 25 18 37 31 19 31 28 20 32 19 26 19 28 29 32 28 119 38 36 36 113 36 119 18 35 26 21 25 19 23 31 29 35 27 30 20 20 35 25 29 35 19 34 36 21 25 29 37 26 23 36 36 29 27
20 37 31 32 27 36 19 34 30 20 21 35 31 33 22 32 25 21 26 35 31 30 32 33 27 22 34 117 28 18 107 32 106 26 37 26 19 19 31 18 33 32 21 32 37 23 18 21 34 23 19 22 21 28 26 23 27 25 36 22 24 20 36 26
29 37 21 23 29 25 18 33 34 38 19 23 33 18 34 35 23 38 32 28 26 22 37 30 35 27 114 28 32 35 23 120 23 30 27 33 36 20 29 27 19 28 19 24 22 31 24 22 33 26 38 32 28 22 34 18 24 32 31 34 23 29 18 23
26 30 25 28 27 30 27 25 19 29 19 30 35 38 30 35 36 31 31 27 31 38 34 31 30 123 33 25 24 22 38 25 114 35 18 26 30 26 27 37 20 23 18 29 34 36 31 26 37 23 37 31 27 34 31 36 33 30 20 36 28 31 33 20
19 28 36 25 27 18 32 32 36 34 37 26 20 26 31 28 21 36 18 25 20 36 19 22 30 38 119 27 33 37 23 35 18 33 24 20 31 34 28 26 37 27 31 19 31 18 30 21 24 33 22 31 27 30 18 25 26 24 27 35 25 29 31 26
27 24 37 38 24 19 21 31 28 27 30 19 36 30 31 18 28 32 35 25 24 34 20 27 21 28 25 106 30 24 26 24 38 34 38 21 19 31 26 36 21 36 25 34 36 29 24 23 27 27 30 27 31 27 19 27 26 19 25 28 36 33 24 30
25 22 30 37 27 30 33 25 26 26 38 35 36 35 21 34 26 25 35 24 31 28 38 33 18 19 22 18 35 34 34 20 30 29 36 25 26 30 29 21 26 23 18 20 31 21 26 38 22 21 34 24 32 20 37 30 24 35 26 29 19 37 18 24
26 23 26 37 22 25 38 38 25 34 20 30 26 28 36 21 29 33 20 31 36 32 32 24 18 33 27 21 29 19 32 21 25 35 21 33 34 35 38 31 19 26 31 30 28 22 37 20 34 23 25 34 27 33 20 25 25 24 20 31 30 29 18 23
35 36 25 28 19 35 26 31 33 34 34 34 30 22 34 31 32 28 30 27 26 20 19 29 36 27 29 25 35 27 31 19 36 27 18 26 20 32 31 18 19 25 31 28 37 38 20 31 32 35 38 27 30 30 35 24 33 22 21 31 30 21 28 30
