P2
64 64
255
19 37 38 38 28 20 32 30 36 36 21 30 20 31 32 35 34 32 19 37 38 22 38 19 25 28 26 31 33 24 26 36 30 26 34 26 30 32 19 36 20 26 26 38 24 26 35 23 34 34 32 25 28 21 38 23 37 31 38 36 20 26 20 31
25 28 35 26 19 22 24 26 21 20 28 37 18 28 19 25 28 19 30 29 38 26 34 31 26 38 35 29 28 20 35 25 34 34 23 27 37 29 19 26 20 30 20 31 33 38 33 22 18 21 20 22 31 32 18 28 20 36 22 27 20 30 35 29
38 37 18 26 35 38 28 20 23 30 22 24 27 31 26 32 28 30 22 34 25 33 22 38 21 21 34 34 37 24 28 33 38 29 34 37 23 24 18 19 20 31 32 33 23 36 31 19 23 35 28 19 38 30 23 31 33 36 30 23 38 32 25 29
37 30 31 26 23 26 34 19 28 37 21 24 34 28 28 18 28 32 26 34 38 38 35 37 28 21 31 23 35 20 37 31 28 28 38 32 32 35 33 24 24 24 32 19 24 28 36 35 30 23 35 22 33 34 34 32 35 22 34 18 22 31 35 36
23 23 20 26 33 33 34 34 35 30 23 26 25 33 37 38 34 25 26 21 22 22 31 19 36 34 20 18 33 25 22 18 25 21 37 29 36 37 25 37 27 34 27 22 33 38 35 32 23 18 22 36 30 38 37 33 36 36 35 34 36 31 31 28
35 30 20 32 38 23 29 20 23 23 34 35 36 33 18 38 35 30 35 28 34 34 33 38 26 28 36 38 23 18 37 34 24 37 29 23 28 36 38 31 30 29 36 21 37 29 28 32 31 24 37 38 36 28 34 27 35 20 20 33 35 34 36 38
19 18 29 26 25 36 23 23 32 18 18 20 36 30 27 25 38 33 29 38 26 35 29 21 20 25 38 34 36 33 18 23 37 18 33 35 34 33 19 21 21 38 27 25 30 31 33 18 35 36 34 33 38 30 20 25 21 37 18 24 35 21 26 30
25 38 26 33 34 21 38 18 29 25 20 38 29 22 29 28 19 27 36 18 19 32 32 26 35 34 29 29 37 23 31 35 19 31 18 19 38 35 26 26 29 37 30 36 23 20 23 36 26 30 26 30 33 28 29 24 24 22 32 26 36 27 32 35
23 25 36 18 35 25 24 18 27 19 24 34 36 22 27 34 29 31 22 28 25 33 24 18 19 30 32 29 23 33 18 23 26 18 30 32 24 20 25 18 32 18 21 32 38 37 38 31 21 31 19 34 27 37 25 18 23 23 29 21 35 29 31 33
27 36 36 31 29 37 20 30 25 26 27 30 20 37 33 21 32 18 19 33 29 27 23 26 31 33 31 24 18 20 38 33 29 37 28 25 28 21 25 21 31 29 27 32 23 20 18 31 22 19 33 33 25 19 37 38 38 20 38 27 26 18 24 21
38 26 19 34 34 34 27 21 35 35 28 22 28 31 21 30 36 31 26 29 37 18 29 29 29 34 27 20 37 23 28 34 22 36 24 34 32 37 26 37 35 28 38 35 38 18 24 21 23 20 23 34 26 37 24 26 21 23 30 18 33 30 38 30
20 30 37 18 21 23 25 34 30 28 31 33 38 29 37 26 38 29 26 36 30 20 20 22 38 38 25 30 33 23 19 38 31 28 20 31 30 29 36 33 35 27 37 26 36 35 28 32 18 25 36 27 34 22 20 30 21 32 29 30 20 32 23 36
21 35 19 37 32 38 33 37 31 18 28 31 24 25 23 35 30 32 23 36 32 25 36 30 23 19 37 33 27 26 25 35 36 20 30 30 34 30 26 32 36 38 33 19 20 32 27 36 34 24 24 30 37 30 20 35 33 26 32 24 38 32 28 36
37 23 35 37 22 24 30 24 38 33 22 27 28 24 29 31 27 30 19 26 19 28 30 27 34 33 20 18 28 34 20 19 36 26 27 34 22 18 32 31 35 31 34 21 36 34 25 23 36 34 36 35 18 19 31 25 25 25 36 28 19 27 26 29
23 23 22 33 19 21 20 22 36 26 37 32 18 31 24 38 35 28 38 28 19 31 38 33 35 20 26 29 21 22 24 30 24 30 24 38 25 29 20 24 36 23 34 29 33 29 28 24 21 21 25 25 23 25 32 30 30 30 20 37 30 21 32 33
24 36 32 34 27 34 30 24 35 26 33 30 23 23 32 31 34 28 30 20 27 29 23 26 31 30 23 33 38 22 38 38 35 24 25 31 24 31 25 32 21 22 19 30 22 23 32 38 36 28 28 22 34 23 21 36 30 37 19 30 36 18 38 21
30 28 29 34 32 19 23 29 33 33 25 19 28 25 31 29 29 25 23 22 29 19 22 28 18 38 24 18 20 29 32 23 36 35 29 32 22 34 25 31 32 36 31 31 22 37 19 28 33 29 26 32 21 37 23 27 29 33 28 31 22 33 26 31
23 35 28 30 26 29 24 24 27 35 21 27 36 19 26 29 29 22 25 21 31 25 38 32 36 37 20 37 20 30 36 31 29 20 31 20 37 36 34 33 33 30 22 20 32 28 33 29 34 29 28 34 35 18 26 32 37 27 28 25 37 29 25 38
35 38 19 36 33 24 36 38 21 30 32 18 32 28 36 18 19 27 21 38 18 27 22 24 22 28 28 21 24 25 22 25 18 18 36 19 25 29 33 24 21 21 21 38 38 32 36 29 26 21 25 38 38 35 32 36 21 20 30 26 25 20 31 19
25 32 29 34 31 30 38 30 24 29 21 28 36 25 35 27 32 25 32 35 29 39 31 25 31 31 19 21 25 32 19 19 28 33 18 37 32 18 24 23 40 25 39 36 23 33 35 36 34 29 19 27 20 19 37 35 28 28 27 34 33 25 25 28
34 27 20 35 33 24 34 34 24 32 37 37 29 18 37 22 37 25 31 33 29 32 35 43 43 36 32 35 24 33 25 28 32 30 27 35 25 35 23 28 44 28 37 34 28 32 31 43 28 25 38 22 38 38 30 25 23 29 21 35 25 18 37 28
21 23 19 28 32 31 26 22 30 19 20 22 36 35 30 40 42 40 48 34 36 34 47 32 46 30 39 26 25 38 30 34 29 30 24 34 35 39 42 45 35 29 40 33 49 34 29 30 26 33 25 39 37 19 18 36 28 20 34 37 35 28 21 27
38 25 28 18 34 28 31 20 31 24 32 38 35 42 41 46 50 35 48 46 52 49 50 40 49 32 36 44 29 29 42 39 37 46 31 34 41 38 38 48 48 42 52 37 35 37 51 46 44 32 41 26 34 28 28 33 20 25 38 30 33 23 21 25
24 32 26 23 19 19 28 38 27 36 27 41 27 36 48 51 42 37 46 52 49 48 46 43 53 43 38 51 48 41 39 35 40 47 39 44 46 50 48 53 44 53 43 37 47 57 45 53 41 35 40 38 42 34 21 32 25 27 22 21 33 36 29 28
29 22 35 24 23 28 31 28 37 34 24 32 33 44 38 44 49 41 46 59 44 45 43 45 63 65 66 50 50 52 49 45 47 50 44 56 63 54 65 46 59 59 60 51 59 53 53 41 50 40 39 32 44 40 34 20 33 32 35 26 28 18 35 32
37 25 27 18 24 30 18 21 23 27 24 29 39 41 45 39 46 60 56 45 51 47 52 55 59 56 59 61 71 61 69 52 67 59 54 70 57 75 61 74 66 64 66 48 52 45 53 51 40 48 40 43 31 35 30 29 21 19 30 37 30 38 38 38
30 27 38 27 19 20 26 29 21 30 27 31 52 47 43 58 57 48 62 66 54 54 58 66 74 76 66 76 83 77 70 74 79 74 67 73 68 70 79 73 67 70 72 58 54 65 49 62 59 48 41 36 33 46 40 24 19 26 20 21 22 18 33 34
19 21 32 23 28 20 30 23 24 36 30 31 45 48 44 54 57 64 62 68 75 69 72 86 86 75 90 75 83 91 72 73 69 87 76 77 80 74 80 91 74 80 70 66 65 66 58 53 47 60 61 47 49 50 41 27 25 34 18 22 18 23 22 29
34 29 36 31 24 34 28 36 30 34 38 49 40 49 50 61 51 56 71 70 69 68 91 92 85 86 84 100 84 91 79 84 83 91 76 99 92 95 95 95 89 87 77 75 71 72 62 72 51 59 58 47 54 36 31 43 31 33 21 28 27 27 24 28
35 38 22 33 24 20 25 29 29 32 40 39 56 52 53 65 70 65 77 83 84 77 91 83 86 87 93 89 102 90 97 98 95 100 87 92 100 102 87 97 97 93 99 76 90 80 75 65 70 64 46 51 51 37 50 44 28 25 31 19 28 37 23 26
22 21 33 19 37 37 37 20 42 32 46 48 53 44 50 57 65 59 77 87 96 83 91 94 110 100 104 106 102 105 95 95 109 112 101 106 97 109 99 95 103 97 101 85 94 71 72 58 58 61 52 47 46 36 47 47 40 21 33 21 35 27 20 33
38 26 27 21 24 22 35 22 28 32 36 52 40 45 59 66 63 70 69 88 92 95 97 98 112 97 100 102 106 102 107 100 115 101 107 107 115 107 112 99 113 110 95 95 99 84 73 65 74 62 61 59 43 47 32 34 43 22 20 38 37 30 38 37
30 37 33 18 30 31 24 38 34 29 35 45 53 61 65 70 73 71 71 78 96 106 104 109 111 120 114 112 103 110 109 113 119 107 125 107 123 105 110 115 105 97 109 94 103 78 74 59 75 56 66 59 43 35 36 29 24 38 32 34 36 33 29 35
28 21 26 18 35 28 20 22 40 47 33 53 50 55 49 62 56 60 81 85 87 102 111 108 111 114 118 122 119 113 123 122 118 129 129 123 127 106 114 104 114 112 110 96 94 96 79 69 69 57 54 46 52 42 47 38 38 37 35 21 36 23 23 23
26 25 33 28 31 20 26 25 42 47 36 44 58 44 47 51 60 69 83 86 84 99 114 108 104 120 115 125 114 122 131 132 121 119 133 120 121 126 120 123 117 115 107 106 95 79 70 61 63 52 64 50 41 36 40 43 43 19 30 33 32 34 38 18
19 22 22 34 31 20 24 39 37 35 50 34 53 50 59 48 68 60 74 87 91 100 103 108 106 116 115 114 120 116 130 130 123 129 128 124 122 115 112 115 107 113 110 102 93 83 79 77 65 58 49 49 56 41 32 34 34 32 31 28 29 33 21 27
38 24 19 34 29 36 29 35 35 42 42 41 41 45 48 66 59 60 67 85 94 99 106 110 98 112 103 115 117 125 114 135 135 124 127 114 109 109 114 109 105 110 99 91 85 70 66 69 54 59 51 51 49 47 37 40 24 24 27 24 35 38 33 32
18 21 37 37 38 27 37 29 20 43 39 50 41 47 52 63 52 65 68 73 76 80 90 101 96 98 108 106 116 127 125 123 132 126 129 127 114 116 106 108 113 100 100 85 73 77 63 63 46 59 53 56 46 35 28 44 27 19 38 27 36 30 38 26
38 18 30 32 30 32 22 21 18 38 36 30 38 50 48 57 55 52 73 73 80 91 99 85 91 96 98 109 106 108 113 124 126 116 125 109 106 102 98 101 89 95 84 85 71 67 57 58 44 54 51 36 39 40 31 38 29 23 29 36 18 27 37 24
26 27 31 18 26 31 32 23 27 38 27 45 50 49 55 46 41 53 50 75 69 69 75 85 85 92 109 101 108 114 117 105 103 101 99 107 98 99 97 105 89 91 87 85 77 67 54 56 51 46 36 37 47 34 28 21 23 22 30 20 18 23 29 20
24 24 21 34 33 38 23 27 24 38 24 24 44 49 35 50 41 38 60 70 68 72 77 74 93 100 88 103 100 100 106 94 105 97 90 103 102 95 100 97 77 74 81 83 61 64 44 47 48 41 47 31 33 28 29 38 21 29 22 35 20 21 18 38
28 38 29 23 35 19 18 29 28 34 33 28 30 47 31 41 41 35 48 64 58 76 66 78 78 75 90 91 101 91 98 87 87 84 96 92 91 80 90 78 81 77 81 56 67 50 42 49 53 51 44 33 33 34 22 23 19 38 25 25 37 19 36 28
33 26 36 20 32 36 26 22 37 31 19 39 34 31 36 33 43 33 48 45 49 67 62 76 69 83 73 88 75 88 91 89 83 93 79 81 77 72 72 74 76 75 67 60 48 47 48 32 41 42 29 28 26 30 37 30 22 38 32 22 20 26 38 36
38 23 36 24 27 19 18 38 24 34 34 28 27 33 39 33 46 46 44 35 49 45 49 63 57 62 68 66 68 77 85 73 83 69 84 77 83 82 72 72 67 60 58 46 54 43 48 28 40 28 37 28 28 23 21 27 33 23 27 20 37 31 25 23
29 36 21 35 26 21 22 22 32 36 30 33 31 27 21 38 23 38 29 25 48 50 53 59 64 65 56 55 61 60 77 72 73 72 79 69 70 61 57 66 54 64 56 37 50 37 36 42 25 28 26 32 25 19 33 21 23 25 18 36 27 26 37 32
27 24 21 28 19 19 30 37 29 32 26 31 20 28 24 38 36 30 31 41 29 30 47 39 49 46 53 66 51 71 67 65 66 71 58 53 71 51 47 51 44 47 51 34 37 39 37 21 35 24 23 19 33 34 27 18 31 29 38 22 21 29 29 37
29 35 24 25 22 31 25 18 35 28 24 23 29 37 34 38 33 29 37 18 32 36 27 44 34 52 43 49 62 58 57 53 54 53 67 64 48 61 40 39 36 45 26 25 18 35 26 34 28 27 21 33 18 37 18 36 27 30 19 35 30 25 20 33
29 20 29 20 32 30 32 18 34 28 19 32 35 30 27 30 24 33 27 27 27 28 29 36 38 44 41 51 43 52 52 56 51 52 57 47 47 43 38 40 41 33 35 28 25 38 21 30 26 34 37 19 24 30 37 28 37 26 20 25 33 19 32 38
37 36 32 30 23 18 18 38 31 18 24 23 27 32 18 23 28 29 22 30 33 28 36 36 40 28 29 48 41 44 55 43 52 43 51 43 41 46 40 37 33 28 26 21 34 35 30 31 31 25 24 29 18 19 30 36 37 22 37 25 28 35 26 22
18 35 37 18 18 25 26 28 28 24 21 26 25 22 38 24 27 25 33 24 37 24 23 34 28 28 25 41 36 36 34 50 35 46 32 41 35 38 28 24 18 30 23 25 35 38 27 26 24 22 22 35 18 23 32 24 23 34 27 18 24 36 22 28
18 35 22 36 32 24 32 30 30 29 34 36 37 26 37 23 33 21 21 35 26 31 23 20 21 37 18 37 39 28 33 26 45 35 24 26 38 30 29 18 34 27 23 18 18 34 23 26 22 19 37 27 19 20 36 37 35 35 19 34 26 29 33 18
18 22 19 28 38 30 29 32 23 36 33 32 20 21 36 26 29 28 31 18 34 31 20 36 34 33 23 27 25 18 38 24 34 33 26 31 25 29 36 23 29 38 19 29 28 18 33 33 32 30 28 38 38 36 19 35 19 22 33 31 35 25 27 23
18 22 31 26 20 20 24 27 19 36 33 25 31 18 38 19 36 29 33 25 20 19 27 19 33 24 36 31 26 30 24 38 23 22 38 24 25 36 32 25 28 38 25 35 21 26 18 24 22 22 25 19 21 28 24 37 28 18 22 20 28 35 33 31
29 22 18 21 21 38 26 28 33 26 38 33 25 26 35 26 23 36 19 25 31 24 30 18 19 32 19 31 20 22 34 29 30 36 21 35 18 26 38 23 29 33 36 20 21 33 36 18 24 19 27 18 27 34 24 37 21 22 30 19 19 33 22 19
35 30 32 36 18 18 21 22 37 22 36 22 21 38 20 18 36 33 35 19 24 34 35 20 34 26 20 35 20 33 35 35 27 38 32 28 25 29 34 18 19 20 24 36 31 26 38 37 25 22 28 37 25 20 19 34 34 18 35 25 35 25 29 20
34 29 22 36 19 28 37 24 21 23 25 27 34 32 35 24 34 31 27 25 29 27 25 32 28 33 32 19 29 28 36 37 29 36 35 28 24 30 20 37 20 30 18 31 21 31 22 19 36 38 36 32 21 22 34 36 35 28 34 21 28 35 26 20
21 38 19 33 20 37 35 21 35 22 38 20 20 22 31 28 32 29 21 20 28 34 27 26 36 24 35 32 31 29 19 23 21 33 32 30 25 35 37 24 35 32 24 36 18 28 31 21 25 37 31 29 35 21 27 29 19 38 38 28 22 36 20 21
19 24 35 18 33 36 23 33 38 33 38 38 18 25 24 28 29 33 19 22 26 37 27 33 27 22 18 22 22 24 31 23 38 19 34 26 29 19 26 19 21 30 35 25 22 32 32 38 35 38 35 32 24 28 28 34 23 27 27 30 20 24 34 20
29 18 38 18 26 28 36 20 22 36 19 34 18 33 30 38 22 28 36 34 29 37 19 19 33 36 25 28 21 32 29 24 23 26 34 31 19 24 34 24 33 23 30 32 36 27 21 23 26 33 23 21 36 34 20 32 27 33 22 29 21 33 35 19
20 23 26 32 33 23 37 32 32 35 18 26 37 19 37 32 34 29 33 29 35 30 23 35 27 22 30 19 32 19 32 29 24 38 18 35 20 18 21 37 20 25 20 23 29 34 22 37 29 35 29 38 29 19 30 30 26 30 30 25 30 35 34 20
21 31 36 33 35 26 30 31 24 34 35 23 22 27 33 38 30 30 23 20 29 26 20 22 35 32 34 34 26 29 23 18 30 34 24 35 33 35 28 22 37 21 20 26 34 23 28 21 30 23 24 32 27 29 26 33 19 36 33 21 27 32 25 35
32 33 21 26 31 34 25 27 22 19 33 33 30 25 31 30 19 31 38 33 37 28 33 27 35 28 35 21 35 36 33 31 37 29 27 25 28 36 18 23 36 28 19 18 37 18 35 38 35 31 28 38 19 34 24 23 33 29 18 36 32 38 24 38
26 20 20 37 28 29 18 25 27 37 23 38 21 27 35 21 26 29 36 37 18 21 37 30 37 19 38 19 29 23 22 21 32 32 19 21 18 24 26 24 18 21 31 24 28 25 33 30 38 19 35 28 27 31 27 28 22 30 21 32 34 20 31 26
24 38 38 27 34 33 24 33 25 31 22 20 24 21 27 38 25 24 25 37 30 26 29 23 26 35 37 23 21 18 19 30 19 35 32 27 22 24 34 34 26 36 18 27 38 23 37 37 32 34 33 30 20 37 37 37 31 22 29 34 26 34 38 30
