P2
64 64
255
23 26 29 35 22 36 28 37 19 23 34 23 24 25 21 27 28 27 38 18 38 38 22 25 38 23 18 21 19 30 23 22 23 21 38 19 25 33 31 30 30 26 38 20 37 18 29 33 24 38 38 38 24 37 37 22 23 31 35 25 22 21 23 30
19 18 23 28 19 24 28 30 26 36 37 21 35 19 28 19 21 23 18 30 32 27 32 20 22 37 29 22 27 26 33 29 34 31 35 20 34 28 23 38 20 19 29 19 21 19 22 31 22 33 23 35 27 33 22 34 19 21 31 37 29 36 30 31
37 32 23 27 19 24 33 32 21 27 23 31 23 21 26 22 28 35 26 28 19 35 34 34 21 25 26 28 21 22 34 18 37 34 31 18 30 31 32 35 33 28 32 30 24 30 24 20 38 31 37 35 33 32 37 26 23 27 38 38 24 19 27 28
19 29 20 22 23 21 18 21 35 20 34 19 29 25 30 19 20 19 31 21 19 24 36 36 19 18 19 24 20 31 29 18 25 22 33 23 29 20 31 20 31 27 26 24 21 33 34 36 38 31 26 33 23 28 38 21 31 19 29 36 30 29 24 30
36 31 38 24 30 23 26 25 21 36 31 38 27 28 18 31 35 25 37 32 37 26 35 35 22 32 25 33 29 27 20 36 35 32 32 37 20 27 33 23 38 21 20 23 37 34 21 22 37 27 33 33 29 18 21 33 24 27 29 27 33 23 27 34
20 30 27 35 33 34 29 30 35 34 36 30 23 32 19 35 18 31 32 35 20 32 23 38 37 19 20 21 26 21 29 20 31 21 37 18 24 38 31 37 20 32 31 33 27 31 25 38 29 24 30 33 30 38 26 34 36 24 29 33 35 26 19 26
23 20 33 29 19 32 22 23 37 34 25 36 34 27 22 33 23 35 36 26 33 32 32 30 34 30 26 25 19 18 32 24 24 37 18 37 18 32 25 35 23 20 29 18 31 24 19 22 21 31 19 37 19 31 32 23 18 30 26 24 32 22 19 34
30 38 21 30 30 29 18 27 33 36 19 32 19 30 28 21 32 32 36 20 20 18 25 28 27 18 25 33 26 26 21 22 26 25 23 32 37 34 18 24 19 36 30 37 32 36 38 27 24 32 24 32 34 18 38 22 28 33 18 34 24 18 24 23
28 20 27 33 28 23 30 36 21 36 35 31 38 33 35 21 37 26 24 25 35 37 21 37 37 24 31 35 35 26 35 32 21 34 18 23 19 20 28 36 36 37 36 31 27 26 32 37 24 20 29 36 31 33 24 33 32 27 24 25 34 18 34 37
28 21 33 29 22 29 28 37 23 22 32 34 26 22 22 27 21 22 26 25 18 31 20 32 31 25 18 21 35 33 18 20 24 19 31 31 35 32 37 35 32 35 21 38 30 19 36 33 38 24 22 18 21 35 24 37 21 31 30 31 21 30 33 27
34 23 28 33 31 30 26 23 36 21 32 27 27 36 35 35 20 29 27 28 23 38 28 34 37 30 30 33 22 19 27 25 18 29 34 32 28 19 31 18 32 28 21 38 30 37 21 35 20 36 26 37 35 19 32 37 37 29 29 26 22 24 27 19
37 37 23 20 27 38 32 37 34 22 37 28 34 33 19 20 31 27 30 27 25 36 36 28 26 34 31 22 35 22 32 18 32 19 36 32 18 25 37 31 25 26 18 33 19 33 29 35 19 37 24 38 23 23 31 26 25 35 33 37 28 22 30 22
38 28 29 20 21 22 28 34 38 19 26 20 25 24 25 35 33 28 28 37 36 34 36 18 35 29 26 35 37 25 26 35 27 28 26 33 23 36 32 28 25 29 19 36 28 28 24 33 32 37 32 24 36 36 35 38 24 38 28 32 24 36 25 36
36 22 37 23 32 23 32 37 21 38 23 31 20 20 29 27 35 31 18 38 27 20 20 26 21 27 36 24 25 33 23 35 38 33 24 32 21 26 23 24 29 24 35 29 37 36 20 22 37 26 27 36 28 30 19 38 25 29 35 37 31 33 31 19
35 25 18 22 22 30 35 25 34 30 28 30 37 28 31 26 36 24 24 20 34 28 26 30 24 22 31 33 20 33 26 20 32 23 26 37 30 33 37 25 38 28 32 28 19 29 24 33 32 25 29 23 29 23 25 38 26 26 37 25 22 36 38 29
28 22 30 24 37 21 31 37 30 34 21 21 27 27 19 27 25 35 19 19 25 27 31 28 37 28 25 38 26 38 37 32 21 29 37 18 20 30 20 29 23 25 21 21 29 28 25 36 38 32 29 18 30 21 26 31 33 29 23 26 23 18 32 36
38 25 23 21 19 23 30 29 25 30 27 20 29 36 20 22 35 20 25 31 18 31 25 24 34 32 24 24 35 26 20 30 38 32 29 21 36 28 24 28 27 31 36 33 26 24 36 25 38 23 25 29 31 30 24 18 33 33 29 34 34 19 37 27
19 21 28 25 23 22 26 36 37 18 23 23 29 20 31 20 24 30 35 31 29 25 23 26 38 19 23 28 20 23 34 28 26 28 21 30 26 20 20 19 20 26 35 21 35 21 29 29 24 22 34 33 20 30 26 22 35 33 37 36 28 27 19 36
34 36 33 36 19 32 21 27 36 34 33 24 33 29 20 25 26 36 25 29 26 29 25 18 33 18 35 22 32 22 35 33 26 28 31 27 27 27 32 27 36 18 30 32 21 24 33 30 38 27 25 25 29 23 38 33 23 26 24 25 25 34 37 29
22 22 29 35 35 30 20 31 20 34 31 33 21 37 31 34 23 28 30 27 22 42 30 28 34 23 25 38 26 23 35 35 37 31 35 20 31 34 31 29 24 28 33 32 32 41 30 36 20 32 37 33 35 25 25 36 31 25 33 22 30 22 21 31
24 19 31 26 32 20 25 33 31 25 26 26 26 21 33 30 26 42 35 31 35 42 43 27 43 36 29 29 33 31 21 21 23 37 37 31 36 28 31 39 35 41 42 30 45 40 27 24 41 37 26 28 34 23 28 34 27 30 36 36 22 29 33 22
33 29 38 22 22 21 34 25 29 21 28 18 22 40 28 43 38 35 30 46 40 44 43 39 34 43 42 30 26 20 26 36 19 24 27 28 21 28 28 31 33 43 44 40 44 29 30 35 34 28 26 40 35 22 37 35 19 23 23 19 31 37 28 22
35 33 31 27 18 32 35 29 32 34 23 27 37 41 34 46 46 43 41 53 41 39 53 41 32 45 35 43 40 22 30 25 24 28 39 21 34 28 46 37 47 45 51 41 39 35 43 45 35 30 31 34 36 33 22 20 31 28 18 22 26 19 33 27
35 25 31 31 18 32 28 24 21 26 30 30 37 41 42 46 53 37 55 51 54 57 55 56 53 44 33 46 42 31 37 22 29 32 32 41 43 29 44 42 44 55 43 42 40 45 40 53 40 32 32 33 44 41 32 25 26 27 38 18 33 29 26 25
27 25 22 32 22 36 18 24 30 29 33 41 31 42 50 51 54 44 53 50 48 60 42 55 41 38 40 37 47 38 44 31 32 41 48 55 40 44 61 47 47 52 61 53 60 57 54 40 54 48 50 34 33 39 27 24 31 30 26 32 38 30 30 34
27 32 24 24 29 29 37 28 19 27 43 27 35 46 42 58 48 43 54 49 52 47 65 52 58 55 55 49 49 35 41 48 45 37 43 56 67 58 68 69 51 57 62 48 54 46 62 61 50 42 41 44 46 41 30 36 18 35 30 24 26 27 37 19
28 22 18 27 37 22 19 38 24 35 37 48 49 52 54 59 59 57 59 48 50 56 52 56 54 45 45 41 42 51 52 54 45 46 54 68 69 75 85 78 86 89 74 57 75 69 62 65 57 52 58 42 48 34 34 26 19 36 30 30 33 21 18 30
20 22 31 28 38 23 25 32 37 43 28 50 46 54 51 49 51 67 55 60 65 61 56 52 56 59 63 52 44 56 55 48 71 73 78 90 89 96 112 127 110 115 98 93 70 63 60 55 54 45 51 50 48 36 45 30 34 34 26 34 35 22 23 33
37 20 35 23 32 20 25 29 27 30 45 51 42 54 55 60 57 62 71 75 57 58 60 69 68 64 58 58 49 56 57 59 75 70 88 110 106 124 131 155 144 138 129 108 89 93 85 76 62 54 47 49 41 39 41 35 36 18 23 29 24 28 24 20
25 32 22 22 20 29 38 38 37 31 49 54 43 60 55 59 70 74 70 74 75 63 73 67 69 66 68 60 61 64 64 81 90 82 99 125 147 156 161 175 176 162 146 145 114 102 96 73 71 52 54 50 47 49 47 32 24 37 20 20 29 31 26 35
29 36 20 38 18 29 22 35 26 40 51 36 46 48 52 62 72 72 65 72 83 66 73 67 69 56 60 59 71 71 80 85 98 97 108 138 162 187 192 200 208 186 165 163 124 102 92 78 82 60 53 52 55 55 49 29 43 23 31 18 24 36 22 26
37 18 30 38 28 35 18 32 41 42 50 51 59 50 47 60 56 62 73 75 87 78 83 75 60 65 71 54 73 81 70 77 104 109 123 151 168 193 212 219 211 209 198 177 151 118 96 82 83 64 60 62 56 43 39 27 34 37 21 38 27 31 20 30
32 36 36 25 36 23 28 20 29 30 42 41 42 48 59 70 60 72 72 77 74 72 84 71 65 57 55 55 69 82 88 98 111 115 130 160 178 203 205 224 218 216 208 179 148 116 108 86 84 71 52 60 51 51 47 37 35 29 25 33 29 31 37 34
18 22 21 36 32 21 38 24 27 37 44 51 48 52 58 58 70 61 63 81 69 72 82 78 65 65 61 69 78 77 89 89 107 103 127 161 180 192 211 203 218 204 204 172 155 124 101 87 80 79 63 59 41 49 33 30 30 32 27 31 28 36 25 37
33 19 25 38 38 31 26 32 43 39 42 38 49 51 54 52 72 69 76 68 66 75 69 66 69 69 60 54 68 64 79 82 95 98 107 151 163 182 185 188 209 205 182 164 139 117 102 90 70 59 49 48 58 39 35 36 30 20 33 28 37 29 18 34
27 27 27 21 28 27 27 34 23 42 34 49 45 54 56 66 56 55 58 74 71 76 75 74 60 62 56 52 66 70 72 94 104 92 110 129 151 160 174 180 186 171 154 141 136 113 106 95 69 60 52 49 54 34 49 43 22 34 26 38 37 35 18 29
18 29 28 27 38 36 23 29 29 42 45 49 42 56 58 60 64 70 64 71 72 76 66 73 58 55 65 61 54 66 64 80 95 96 103 109 127 138 140 151 156 149 129 123 118 109 90 76 73 51 57 51 55 52 33 29 31 25 37 20 29 20 22 31
27 38 28 25 29 19 20 23 34 42 42 36 41 46 45 45 65 50 71 52 65 70 68 65 53 61 54 50 58 53 73 75 71 84 90 92 117 115 114 134 135 124 119 122 93 97 76 69 62 55 41 57 49 49 34 32 20 25 18 36 38 38 35 34
38 21 22 35 19 33 22 38 20 25 44 40 48 53 43 56 53 49 47 68 53 54 58 59 63 61 58 57 57 53 61 57 71 69 80 78 93 101 113 100 99 114 112 103 87 79 76 64 64 45 53 42 47 36 42 42 18 36 24 26 24 37 18 23
23 26 26 25 34 32 20 34 35 40 23 37 40 47 36 49 53 42 48 50 52 61 55 47 42 50 53 37 45 52 56 44 53 56 67 76 88 79 92 88 84 86 76 68 60 61 68 43 55 45 35 33 46 28 23 34 19 29 38 32 36 19 37 34
20 34 19 25 19 25 27 29 25 25 41 25 31 44 42 36 43 48 49 49 58 58 58 53 47 57 36 33 48 44 47 51 43 48 48 67 74 59 66 66 61 61 67 59 60 56 52 56 38 49 32 41 46 37 29 31 24 35 28 23 31 38 33 32
35 27 29 38 22 29 32 32 35 36 35 35 28 38 40 43 44 49 51 46 50 55 38 52 35 43 46 33 47 30 28 31 31 31 44 57 45 63 53 62 44 51 56 45 44 48 44 41 33 39 49 33 41 38 23 30 35 23 18 38 23 29 22 23
32 37 26 35 28 38 32 29 37 21 18 20 28 37 40 36 33 44 52 38 51 51 53 34 38 41 40 44 36 41 39 34 28 28 39 31 36 53 39 38 52 38 38 52 47 50 34 38 38 47 42 24 27 25 26 34 28 21 22 30 26 34 26 22
29 30 35 37 26 19 21 28 29 33 18 24 38 34 37 32 32 35 33 39 35 41 37 29 28 37 24 32 32 33 32 18 31 18 31 31 28 38 35 28 33 30 46 30 34 47 34 47 43 28 29 21 36 29 18 38 38 26 38 21 22 29 30 20
33 29 25 32 34 35 28 25 37 26 24 34 28 37 39 32 23 35 36 34 31 39 45 31 31 31 27 19 22 33 37 18 21 32 29 28 26 27 31 24 41 27 44 33 30 33 32 29 32 37 28 36 34 19 23 21 32 30 35 24 36 24 33 21
24 19 31 20 29 27 29 31 23 22 19 28 25 31 21 19 38 20 27 34 26 41 38 39 21 33 25 37 22 21 22 34 22 28 24 37 28 20 31 34 26 32 22 34 42 27 25 37 36 37 35 24 26 30 27 35 30 20 29 35 36 34 25 21
19 26 24 37 31 38 32 33 18 37 18 38 35 22 32 25 18 23 30 28 38 31 34 32 19 26 25 21 31 24 27 20 35 36 33 22 23 32 26 38 21 25 29 26 21 37 31 23 35 36 20 22 35 31 19 32 21 35 18 37 28 31 38 31
28 19 28 30 31 21 21 20 19 28 32 30 27 32 36 31 22 19 32 36 22 33 22 33 31 32 23 37 36 35 25 25 23 37 18 32 28 25 36 29 25 24 29 26 28 27 36 37 34 27 23 21 22 29 24 27 33 36 36 22 19 28 31 24
18 25 26 36 38 34 36 28 29 19 36 18 23 26 30 33 26 36 29 32 19 29 31 35 19 24 26 30 34 32 28 29 35 30 36 27 29 21 36 33 20 38 35 18 34 25 23 33 19 36 36 29 20 29 22 32 33 19 35 18 25 28 24 35
34 35 29 31 31 22 28 38 26 26 32 38 34 30 22 20 36 29 30 36 25 18 35 21 27 19 18 34 19 18 25 36 30 32 20 21 28 35 29 25 24 19 37 37 24 27 32 34 34 19 23 21 32 33 25 33 32 19 36 21 22 26 22 26
21 31 27 25 29 25 30 24 20 26 33 34 22 22 19 34 38 27 32 31 29 32 18 32 21 19 29 32 22 22 22 30 24 33 19 36 26 23 37 30 30 26 31 26 29 29 24 24 26 35 23 35 24 37 29 25 23 18 29 25 25 26 21 25
23 29 36 28 29 38 26 24 22 21 30 38 24 24 21 19 29 27 24 21 36 23 21 22 37 28 23 22 33 37 20 21 25 33 20 19 36 35 26 35 23 25 20 32 26 32 33 24 18 19 33 36 18 30 37 26 20 26 26 18 23 26 23 20
31 26 38 20 29 28 30 28 22 28 31 27 28 25 26 34 33 26 23 21 28 18 35 21 22 21 35 36 22 18 25 28 34 37 31 21 21 20 27 24 34 23 27 29 32 30 30 22 23 34 23 36 18 32 29 18 20 18 36 37 33 28 36 34
26 23 18 27 22 21 22 22 31 23 38 25 19 36 28 18 35 36 19 36 22 33 20 20 27 36 38 22 37 29 36 24 31 31 18 21 18 36 18 37 37 37 19 23 35 19 25 20 21 31 33 37 34 31 25 32 31 28 36 22 27 36 27 30
18 21 23 32 31 23 36 28 26 19 33 34 24 36 28 33 33 26 20 27 26 27 20 26 36 28 18 26 26 19 22 28 34 32 22 21 35 29 21 27 22 26 25 25 24 32 37 34 23 27 32 37 37 25 32 31 28 29 26 35 18 35 24 34
23 32 25 21 30 35 36 34 26 26 29 35 38 24 34 31 31 30 28 24 20 25 18 29 31 18 28 19 33 36 33 25 22 22 24 35 25 23 36 35 25 38 20 31 32 32 33 24 32 20 21 32 30 31 34 22 38 31 26 36 23 22 36 29
37 24 22 27 20 36 37 27 20 21 37 18 36 21 28 33 18 31 22 29 34 24 28 20 34 24 26 34 31 35 22 24 21 22 22 35 22 37 35 38 18 22 19 29 25 18 30 19 29 18 24 29 30 27 18 18 26 22 22 31 25 19 38 22
32 20 31 31 36 20 30 27 31 20 36 33 31 21 32 31 23 22 29 38 24 22 22 24 30 37 18 34 32 22 36 34 28 38 34 29 21 18 33 37 20 26 21 30 26 27 31 28 36 31 24 22 32 23 30 33 19 34 23 19 25 19 24 29
21 32 30 35 26 24 34 37 30 37 23 29 28 30 23 19 21 28 30 25 32 33 21 34 20 27 19 23 21 22 21 34 21 23 25 33 23 28 37 28 26 33 29 28 37 31 24 35 37 18 32 25 38 27 37 18 26 26 19 32 37 35 18 35
20 25 36 32 33 19 19 20 19 27 24 37 31 24 20 25 31 34 24 19 28 26 30 33 19 23 19 19 26 27 18 24 27 32 38 29 27 18 21 28 34 22 21 31 21 19 33 23 19 33 27 32 28 36 26 27 26 26 29 35 21 21 18 26
21 38 21 36 25 18 38 18 18 28 21 27 31 28 37 24 19 33 36 33 34 31 32 28 33 33 24 22 37 27 30 32 37 38 21 29 27 36 32 34 33 29 32 26 32 34 32 18 37 34 18 36 22 29 27 27 22 33 38 28 37 23 36 27
31 18 27 34 20 24 32 36 37 28 18 28 27 29 37 29 27 35 26 25 23 23 35 30 21 34 23 28 22 37 35 24 34 33 34 34 27 35 22 34 37 34 31 22 30 26 19 21 34 34 38 36 21 32 35 25 26 22 37 30 38 18 36 38
33 31 37 37 34 24 29 34 20 36 32 26 22 35 36 31 24 19 26 30 31 18 29 33 37 22 34 21 32 21 22 26 19 38 28 30 22 30 34 34 23 36 24 28 28 34 22 28 32 34 28 29 31 29 32 21 34 31 21 29 23 28 27 25
29 20 18 30 28 28 31 18 31 26 29 22 21 30 20 20 23 31 23 22 26 32 21 22 36 29 38 37 33 24 22 34 28 21 24 30 24 27 36 18 18 29 36 37 23 37 21 29 30 18 29 19 26 32 20 20 30 19 28 30 38 30 29 38
