P2
64 64
255
32 34 28 33 20 25 29 29 31 18 28 38 37 23 32 32 20 24 25 36 24 21 31 23 18 19 21 27 31 31 37 26 19 34 30 33 26 23 27 35 29 37 29 29 29 23 36 20 22 24 20 35 38 38 27 22 23 32 33 32 24 24 19 30
37 19 33 35 24 25 20 27 33 38 22 23 26 38 33 24 34 26 36 35 28 28 35 24 28 26 24 22 30 36 38 34 20 37 28 18 32 23 37 23 19 38 34 20 19 38 29 35 27 28 32 25 32 19 24 32 30 19 20 36 26 32 22 18
37 32 19 23 20 29 29 31 37 28 29 29 32 25 36 29 38 30 25 20 28 21 24 38 36 18 35 24 32 28 24 22 21 18 27 29 36 29 24 18 27 36 28 24 26 30 18 37 29 36 22 26 37 19 30 21 22 36 35 18 26 26 33 32
38 33 34 26 37 18 21 22 34 35 31 19 21 25 27 25 28 32 37 18 18 34 22 26 37 30 19 27 18 30 27 26 26 37 37 22 26 35 23 34 36 36 36 27 26 22 33 32 20 24 30 29 21 30 19 19 31 31 19 26 21 29 37 29
18 32 18 21 35 26 29 31 27 27 37 18 34 27 19 19 32 37 24 25 36 29 22 32 24 25 31 34 29 38 35 18 25 28 23 29 32 23 35 31 24 31 28 35 18 27 30 21 35 26 30 19 20 27 25 32 24 18 30 21 30 31 36 25
36 32 23 38 23 37 29 29 33 19 37 24 25 19 30 18 34 22 26 22 32 34 30 24 33 38 37 24 28 23 27 25 27 33 37 26 37 34 38 26 21 21 29 22 34 32 32 31 23 31 19 22 31 35 21 20 34 36 28 37 21 21 37 25
21 21 20 22 26 32 27 32 36 23 37 29 20 31 19 22 37 33 34 38 27 35 34 20 38 23 18 26 29 31 32 32 38 24 29 20 33 37 31 31 22 38 31 37 37 20 24 19 36 29 25 21 22 34 23 23 23 22 27 38 35 19 18 20
36 28 37 34 26 21 38 27 23 30 18 18 38 23 20 26 27 20 31 35 31 34 23 34 25 24 38 27 20 18 30 29 29 32 29 26 19 36 28 30 25 28 33 24 27 33 26 38 27 27 24 38 34 24 33 24 24 36 38 23 31 24 38 24
34 33 29 27 31 19 28 33 26 25 37 38 24 33 36 37 31 32 19 25 21 34 18 36 31 30 34 31 29 27 31 33 25 35 33 18 22 24 21 23 26 22 34 24 23 19 18 19 21 23 33 20 38 37 38 37 25 28 26 35 23 29 18 27
22 35 29 23 30 34 24 37 26 37 28 33 38 32 24 21 22 33 28 34 33 38 26 35 35 24 27 23 23 38 35 21 22 19 36 18 20 24 26 38 28 23 24 36 26 30 34 33 33 18 18 18 38 26 23 29 22 32 35 18 29 23 18 36
37 32 24 28 33 33 27 31 20 33 32 19 18 26 34 34 28 22 27 22 33 38 27 36 29 38 26 22 37 27 31 32 34 30 36 19 26 28 27 22 30 23 35 18 28 26 37 25 22 34 33 29 38 34 21 35 28 18 34 23 30 36 26 36
23 19 26 33 32 23 24 23 34 36 25 38 34 23 34 36 38 23 20 28 27 22 19 23 30 19 33 29 35 36 25 35 23 31 24 36 33 25 34 24 28 23 34 31 25 30 28 28 21 21 36 23 18 34 24 32 31 26 25 34 38 32 33 30
37 25 35 26 38 36 19 33 28 25 25 38 32 35 34 35 29 34 33 30 22 26 22 38 33 29 36 29 28 28 28 25 28 18 24 22 26 18 23 19 27 33 19 20 28 30 29 20 34 22 24 30 37 24 26 21 23 19 30 29 22 24 27 28
31 25 24 19 30 21 20 34 36 24 27 38 24 25 34 37 38 25 37 29 36 30 27 32 19 32 37 26 21 29 20 28 38 34 25 35 22 35 22 25 21 34 24 31 36 35 22 37 24 18 22 24 38 35 24 20 32 38 26 28 33 37 30 31
21 31 24 36 35 20 31 24 20 33 23 38 33 29 34 21 26 36 29 23 22 27 22 37 36 24 27 27 19 27 27 37 20 20 27 29 28 30 22 29 24 34 33 23 24 37 32 19 38 26 20 27 26 29 35 20 18 33 26 28 32 24 31 22
25 36 20 35 30 19 32 22 31 29 18 35 32 34 24 32 37 33 36 35 22 35 37 26 33 24 35 33 35 33 22 36 23 21 23 28 19 32 33 26 30 21 29 37 20 19 25 25 29 34 32 28 30 21 23 29 32 24 24 33 26 31 33 19
32 24 38 32 21 19 37 23 35 19 32 31 32 28 22 24 31 21 34 19 32 26 34 18 18 23 35 26 23 29 26 28 26 34 31 21 26 26 25 34 34 20 18 18 34 20 21 28 23 37 36 23 36 38 34 23 31 25 34 26 32 29 29 36
25 35 33 29 20 32 33 30 37 36 20 27 26 19 21 31 24 37 26 30 20 35 36 21 24 32 28 32 27 26 26 29 18 19 38 34 33 21 29 32 29 33 32 27 23 23 37 36 30 30 37 29 38 26 21 35 19 34 28 30 30 23 20 37
38 38 23 35 21 34 19 33 22 31 37 22 31 26 27 28 35 28 19 20 21 27 26 26 18 29 38 32 32 25 18 27 21 34 22 28 36 18 25 35 33 19 34 27 36 34 27 24 26 33 38 34 36 29 21 26 35 23 30 31 37 33 34 24
19 23 36 26 23 28 20 28 27 18 34 36 36 27 19 38 31 25 37 41 31 25 38 36 28 28 31 27 36 34 22 23 18 24 30 28 29 26 38 30 32 40 30 32 24 22 32 22 36 25 28 25 27 18 20 24 32 25 28 27 23 37 32 28
29 29 31 34 31 18 22 29 28 24 35 29 26 30 38 23 29 37 27 40 37 36 27 36 38 26 30 33 28 37 27 26 28 35 32 31 28 20 33 27 37 44 25 46 37 45 25 44 35 33 34 38 21 23 20 37 36 30 22 20 37 26 26 27
32 36 37 19 21 20 30 22 28 32 34 20 23 38 32 38 28 31 38 44 42 46 46 47 46 32 32 26 36 23 39 30 36 24 31 23 22 32 30 34 36 32 48 48 42 44 37 46 32 39 36 41 30 23 33 38 34 24 25 20 21 21 20 30
37 20 29 18 19 34 34 38 36 22 26 23 29 43 27 45 40 40 48 52 52 45 50 40 46 30 44 30 37 35 34 44 37 28 31 41 48 36 36 38 45 39 45 53 40 41 44 48 39 35 46 32 34 34 35 22 30 19 20 33 30 36 27 30
20 32 37 28 36 25 18 31 25 32 39 31 35 43 49 35 50 39 41 55 54 50 41 55 50 40 47 58 51 46 53 37 38 49 51 53 49 58 57 57 56 47 41 48 50 57 38 42 46 43 32 47 44 40 22 33 26 27 29 38 25 28 31 30
38 22 34 37 18 32 23 32 24 26 24 33 29 50 50 52 38 46 58 59 46 55 42 45 51 62 60 63 55 66 51 52 46 42 63 57 60 56 63 60 55 59 51 50 56 47 60 50 55 36 35 43 36 34 29 35 33 38 20 28 23 28 22 28
18 25 31 28 34 30 31 31 29 25 41 36 48 32 55 41 49 52 61 55 65 61 53 56 60 65 62 63 61 64 58 68 56 60 66 73 62 56 69 59 66 68 48 45 63 62 55 62 44 55 42 35 38 33 28 21 31 20 27 25 27 31 36 32
26 28 30 34 26 18 26 34 24 24 34 33 48 49 39 54 46 56 63 55 69 59 76 68 64 74 79 75 70 76 74 72 75 64 77 64 64 74 82 69 71 62 74 68 59 49 49 64 58 46 49 52 42 43 36 29 33 23 22 34 22 22 24 19
22 30 26 24 34 30 27 38 27 28 47 40 45 55 54 52 65 51 68 65 55 65 64 83 89 88 87 74 80 79 75 68 80 84 86 88 77 82 81 86 73 79 68 61 57 70 70 63 66 47 49 49 53 32 27 39 29 38 38 26 24 32 28 31
19 37 20 36 18 30 30 36 34 43 30 40 36 48 61 61 64 60 61 58 63 81 76 77 92 89 86 82 83 92 77 95 92 93 78 87 92 89 94 86 97 90 82 87 68 59 57 54 62 63 50 44 51 36 40 37 33 24 21 24 29 33 27 19
21 32 33 28 34 34 37 21 32 40 40 40 42 51 61 50 58 57 57 72 70 77 90 83 91 96 105 101 86 98 100 101 97 105 86 103 101 89 93 91 96 92 98 82 84 66 63 58 61 50 65 53 53 51 36 41 30 22 38 31 25 19 27 37
35 20 20 30 38 34 24 29 26 43 48 36 42 61 47 64 73 70 72 82 94 95 103 101 91 97 98 109 112 102 111 98 95 113 109 109 105 105 93 103 109 107 96 97 83 77 74 58 54 58 54 43 44 38 49 46 31 24 32 19 24 22 35 33
26 38 34 19 18 34 29 40 36 42 45 48 45 63 48 63 64 64 74 86 91 108 102 102 100 108 116 111 111 115 109 100 104 101 101 103 106 107 115 102 104 108 97 99 85 78 83 64 65 60 60 57 43 51 38 38 29 23 19 21 18 18 34 36
19 30 29 35 30 31 24 34 32 47 35 42 41 55 53 65 60 66 84 89 99 95 95 115 112 116 102 109 108 104 111 111 129 116 108 105 104 106 109 111 114 114 112 101 97 79 84 63 73 53 49 46 58 46 34 31 33 22 32 18 26 38 34 33
28 33 25 27 36 20 30 23 27 32 43 50 46 49 51 62 65 74 81 89 89 102 107 118 101 105 112 107 111 115 129 128 116 120 121 119 120 111 115 118 120 107 101 102 99 82 82 74 58 69 48 46 54 42 49 33 24 37 24 24 38 37 30 36
22 30 25 38 30 21 27 39 35 31 35 55 49 53 53 57 59 70 82 79 93 90 95 115 110 116 116 108 115 117 115 122 120 132 134 123 120 114 116 122 107 116 106 91 103 94 74 63 68 61 64 59 38 53 39 42 23 35 30 24 32 27 27 24
21 33 22 20 36 34 38 32 25 32 42 36 46 50 60 63 54 71 79 75 100 106 110 116 103 116 124 114 130 130 118 135 137 136 134 119 117 112 111 107 105 100 104 99 95 75 73 61 67 48 45 46 52 44 39 37 24 27 37 26 35 38 37 36
32 25 18 27 26 22 23 31 25 27 45 48 37 39 61 52 56 71 63 89 89 95 106 112 98 115 114 120 109 128 131 135 130 125 122 119 112 121 110 103 100 112 103 85 86 87 63 59 62 57 43 50 52 32 47 36 34 25 26 24 33 32 28 25
29 29 20 28 30 31 30 19 37 31 29 34 40 39 46 64 51 70 70 86 87 87 100 102 99 98 111 114 108 118 115 130 135 120 128 126 108 120 109 115 96 106 93 92 78 71 60 67 53 51 56 38 45 45 38 42 22 34 22 24 34 29 19 21
21 38 27 25 31 32 19 22 27 38 32 37 48 48 42 56 46 61 68 70 75 90 79 103 88 103 108 106 121 108 106 113 107 113 106 122 109 113 97 110 88 85 98 88 86 73 55 54 58 54 44 54 50 48 26 28 33 35 20 32 28 32 19 25
34 37 37 24 28 32 20 24 32 20 32 45 41 40 46 42 52 59 68 60 75 86 79 86 98 89 108 94 108 105 116 105 107 117 116 112 109 111 103 96 100 86 83 86 72 76 67 47 40 47 47 46 35 42 35 22 30 28 28 18 35 22 20 37
31 26 38 24 25 18 37 24 26 21 30 43 37 38 38 40 52 50 44 68 70 80 70 89 96 99 89 89 100 106 92 104 105 101 92 103 100 98 104 89 88 73 74 70 57 69 45 56 57 39 44 30 35 27 29 36 32 21 20 18 22 35 35 31
37 20 20 22 19 18 18 38 30 27 36 22 32 29 30 41 52 51 41 51 63 70 68 84 73 75 79 79 94 85 93 82 100 84 81 95 87 90 88 83 82 78 75 59 69 60 39 49 41 35 45 35 25 23 30 19 33 28 23 34 38 38 34 30
22 24 37 19 28 31 32 38 25 34 36 22 37 25 35 39 46 37 44 45 57 67 68 77 80 71 85 72 77 77 75 89 81 76 77 87 75 76 76 86 82 66 56 60 54 47 49 46 32 33 46 27 27 33 26 35 23 27 19 30 34 26 30 28
31 29 22 29 19 29 18 36 37 18 28 28 30 33 41 28 37 44 31 51 52 58 61 56 63 66 68 69 81 68 73 75 77 75 76 67 74 68 81 78 67 52 55 58 37 36 33 42 42 25 42 28 28 22 33 35 21 22 38 29 25 36 28 24
21 38 31 37 18 19 21 23 24 30 20 18 30 18 30 40 42 28 26 33 33 38 49 59 63 64 53 66 65 68 76 66 68 71 68 65 75 59 64 53 56 46 46 45 35 44 28 26 38 26 32 22 33 20 32 18 19 19 18 21 30 34 18 28
32 37 18 25 18 31 27 36 19 37 37 21 38 20 21 20 34 31 30 34 34 45 41 54 59 48 50 63 56 58 69 58 68 63 66 70 55 64 65 48 39 51 35 48 35 24 39 26 35 32 23 23 31 24 28 26 31 20 26 36 26 23 38 18
35 19 30 37 29 36 22 22 30 35 29 25 24 26 21 22 32 20 36 31 32 30 42 40 51 37 49 42 57 65 68 69 60 56 64 57 59 53 43 50 34 44 44 34 28 35 22 33 35 18 28 30 31 33 27 24 34 31 28 32 28 18 23 32
36 30 19 21 37 29 30 33 26 26 35 30 27 23 19 27 35 32 33 33 26 25 36 30 43 41 43 44 50 54 46 43 45 53 51 42 42 42 49 49 48 31 23 25 18 23 28 35 28 37 31 28 37 21 26 19 28 38 24 31 36 20 27 19
21 20 22 27 18 27 25 22 37 26 35 30 36 23 22 34 20 37 35 30 26 36 32 27 28 29 35 43 33 47 54 38 57 55 41 55 43 47 29 33 26 29 34 34 31 33 32 22 32 24 31 30 23 20 19 35 27 18 23 19 27 24 33 33
34 36 29 22 31 29 31 18 22 29 24 29 27 34 28 34 27 27 25 26 24 35 21 35 38 33 32 33 30 38 46 33 40 45 42 40 43 33 23 31 33 38 31 19 32 37 23 28 33 27 19 33 22 34 35 28 38 19 25 23 32 30 25 27
24 35 32 28 27 27 29 26 35 20 29 29 33 29 21 33 22 19 18 28 22 35 23 34 28 19 32 34 31 25 37 28 25 31 30 25 39 27 28 36 28 27 35 24 33 23 36 18 38 34 29 26 36 37 25 33 26 19 34 30 20 18 24 37
25 18 31 35 33 19 18 35 32 21 34 23 36 22 32 29 31 28 30 38 28 38 33 28 20 32 23 21 26 24 21 38 39 20 29 25 31 28 37 25 30 27 35 29 28 31 31 32 19 29 38 33 34 38 20 25 33 29 24 22 21 25 34 24
27 18 22 25 32 34 26 21 21 34 26 21 37 36 29 27 37 34 23 18 30 28 25 22 34 27 20 32 23 27 33 19 37 19 33 29 23 22 30 18 32 35 21 38 24 23 31 37 22 23 25 25 26 20 22 26 32 20 30 21 34 22 22 23
35 31 31 25 33 24 20 30 22 26 33 29 35 34 22 23 27 32 34 30 21 34 32 19 26 26 20 20 34 23 30 27 18 32 35 22 29 19 37 33 27 19 21 26 27 32 36 18 38 22 34 37 23 33 36 31 27 32 37 25 21 19 33 34
30 34 18 19 33 20 23 35 30 33 38 26 27 32 25 22 34 33 19 33 37 31 28 18 35 35 34 30 37 27 18 33 29 23 29 19 24 33 35 19 27 37 28 35 24 26 26 37 19 33 33 26 20 19 38 31 36 38 27 19 36 30 33 36
20 20 24 32 20 29 36 27 22 24 38 24 20 27 24 26 35 25 23 24 29 37 32 38 21 18 24 20 19 38 23 31 23 20 19 22 37 33 18 25 22 18 30 25 22 27 24 18 21 27 32 35 27 38 37 38 33 29 30 34 23 29 24 32
27 27 36 31 33 36 30 23 38 22 38 38 25 30 27 37 23 36 26 24 37 31 27 18 29 21 22 25 28 26 19 18 35 30 38 18 30 37 20 24 35 23 18 31 22 38 37 29 35 23 25 19 27 22 23 23 27 27 34 30 25 35 28 27
21 29 35 34 28 28 38 34 25 33 25 25 24 32 32 28 36 26 28 28 38 32 31 31 27 38 38 22 28 24 24 32 23 25 32 28 29 32 20 30 22 29 22 24 34 22 24 19 20 28 24 20 22 25 30 34 31 18 38 28 29 23 35 36
33 33 35 27 19 23 24 34 30 27 26 28 30 35 37 22 37 34 22 22 32 38 33 38 31 32 22 27 24 36 28 37 27 25 23 18 36 26 37 31 30 35 26 34 29 35 32 20 27 32 18 19 21 28 19 19 18 20 26 35 22 36 34 28
34 22 18 30 22 36 29 25 19 36 38 23 26 25 28 34 30 34 24 35 22 35 38 34 37 23 34 28 20 30 19 37 24 23 31 31 27 23 25 37 38 33 25 37 28 30 36 24 25 27 38 19 29 32 38 21 30 37 29 19 33 37 35 29
29 19 25 35 20 21 19 33 21 18 30 27 30 28 28 35 26 30 26 22 23 36 36 19 34 34 33 20 19 37 33 24 32 37 26 29 26 32 20 38 27 23 21 36 33 27 35 26 23 20 20 35 33 36 20 31 33 35 38 31 34 28 30 30
30 32 26 26 20 38 37 38 25 30 32 21 19 37 29 37 19 23 18 37 32 23 26 26 34 34 21 27 36 28 24 37 30 33 37 19 25 23 33 37 35 25 35 31 26 22 21 20 29 26 34 25 30 21 36 22 23 25 22 28 23 36 30 25
19 35 33 34 36 20 28 34 34 30 32 20 23 28 26 38 31 18 32 28 20 24 19 26 22 21 22 19 25 33 22 20 22 27 37 33 28 30 34 36 27 29 37 18 28 24 36 35 34 18 32 24 27 20 33 22 34 20 32 21 22 22 34 21
34 27 30 23 36 22 35 31 32 20 20 20 24 38 25 36 19 28 19 22 36 28 18 33 34 37 25 25 30 38 29 33 25 22 21 24 34 32 27 27 27 23 25 31 33 19 36 19 21 27 26 32 20 30 34 28 35 24 20 29 22 38 18 34
