P2
64 64
255
25 17 19 14 21 22 16 21 19 16 25 24 14 25 26 23 23 18 21 19 17 19 20 26 25 22 22 21 23 14 17 26 22 15 25 15 22 22 17 25 15 25 26 24 24 16 20 14 14 24 15 20 16 22 19 20 19 17 23 22 20 15 14 18
24 18 20 26 19 26 14 19 21 25 14 23 21 19 16 19 23 14 20 17 26 20 17 17 21 21 16 26 22 22 17 22 16 15 24 20 19 16 16 23 22 22 19 20 16 22 15 26 19 18 24 25 19 17 23 20 21 24 25 14 19 24 18 17
19 17 20 25 18 15 14 15 17 17 24 25 17 20 20 26 22 19 15 25 19 14 24 24 24 25 16 21 18 17 18 19 25 20 16 24 24 25 24 23 22 24 15 15 22 14 20 23 20 24 23 15 19 14 17 18 15 22 25 18 14 16 26 14
20 21 15 21 16 23 14 21 24 19 18 21 14 14 23 21 20 23 17 16 24 22 25 18 24 26 23 24 26 17 22 26 16 24 17 24 20 25 19 15 17 16 14 15 21 16 22 23 23 20 26 25 17 15 25 21 25 23 14 19 17 25 26 22
24 16 21 24 18 24 14 21 21 22 22 26 23 17 18 17 19 23 25 23 17 17 26 19 18 21 25 26 20 14 16 22 19 26 18 22 18 16 16 21 18 24 25 19 25 20 17 23 17 25 14 22 18 14 20 24 23 18 18 22 21 26 18 17
18 22 15 16 22 19 26 15 18 21 18 21 22 21 24 21 20 26 18 17 16 21 17 20 18 24 21 23 21 24 25 26 19 14 23 22 15 17 24 15 18 26 22 14 15 18 17 18 20 23 23 19 26 17 19 24 24 26 19 23 22 15 19 17
22 20 21 22 20 19 24 18 26 14 17 22 17 24 15 18 24 20 21 24 20 21 22 21 23 16 25 14 18 26 22 18 16 15 20 19 20 24 18 24 24 26 21 17 22 22 18 23 26 20 14 21 19 24 20 17 15 21 17 18 14 15 21 24
19 23 20 17 26 18 21 26 24 15 20 25 14 19 24 22 26 25 20 20 24 24 14 19 17 25 23 24 18 18 18 19 21 19 17 21 16 20 24 16 22 18 23 20 22 15 20 24 24 20 17 16 17 23 14 23 26 19 22 24 14 16 15 16
17 15 21 21 23 25 14 22 16 18 23 17 17 18 20 23 23 22 25 14 22 17 23 21 16 25 18 25 19 20 18 16 26 22 24 19 15 24 22 26 25 22 19 26 22 17 19 15 16 23 17 25 20 19 23 20 21 25 16 26 22 18 17 22
26 26 21 18 23 19 14 19 21 14 18 17 17 25 16 14 25 25 20 16 26 21 14 23 14 21 24 17 15 25 17 25 16 22 19 16 21 25 15 18 15 24 18 18 21 24 20 16 19 25 25 20 25 14 23 20 15 25 22 14 24 26 26 25
19 21 14 16 22 25 24 22 24 24 20 22 20 23 15 18 19 15 26 20 22 16 23 20 22 16 23 14 19 18 26 20 17 25 15 25 25 20 22 25 16 19 16 14 23 23 24 21 20 17 20 21 20 17 17 22 20 22 24 21 16 19 15 15
20 21 14 23 24 20 18 19 20 19 23 20 15 19 26 19 17 16 19 24 14 17 16 18 22 14 24 22 25 25 22 17 16 19 14 22 15 15 14 26 14 25 16 26 25 23 24 18 15 20 24 14 15 21 21 26 21 15 16 17 21 23 14 24
18 26 20 20 21 17 23 19 19 19 15 14 16 24 22 22 21 20 26 21 26 14 26 16 19 21 24 24 22 14 14 16 21 25 24 14 24 22 22 16 23 14 23 18 15 23 17 21 16 22 14 26 22 22 21 23 16 19 19 18 25 20 23 21
15 23 17 21 19 17 17 23 25 17 26 17 19 22 24 22 23 23 16 19 25 21 18 25 26 23 14 18 17 19 20 23 21 25 16 20 18 17 24 22 18 20 21 20 23 22 18 21 25 14 16 22 18 16 21 20 14 25 15 23 21 24 25 19
21 22 19 23 18 26 21 15 25 16 15 21 24 26 24 26 19 22 26 18 17 18 23 14 26 21 19 25 24 16 19 17 18 19 14 25 24 25 26 18 20 19 24 15 20 26 26 23 18 22 20 18 23 26 18 22 26 21 20 25 16 19 26 16
20 18 22 20 21 19 24 22 23 20 23 21 23 26 15 19 26 23 26 15 23 22 17 26 23 23 18 16 17 25 22 24 25 18 15 25 24 21 23 25 14 25 24 26 21 22 26 19 23 18 22 25 26 17 18 21 18 24 20 15 21 24 25 22
16 23 15 25 15 19 22 19 24 23 22 26 16 15 23 23 26 23 24 26 24 22 25 18 26 18 25 20 18 21 23 14 21 24 18 14 25 26 16 19 21 25 23 18 19 16 24 26 14 26 19 16 20 24 18 15 26 26 24 15 23 25 24 22
18 21 18 15 17 14 22 21 26 14 23 24 26 26 25 26 18 22 23 16 18 25 16 24 25 26 25 24 14 16 18 25 24 15 24 17 24 20 18 24 14 23 17 22 26 17 17 19 19 14 15 26 20 16 19 16 18 25 25 20 19 26 21 21
20 22 21 22 18 18 19 19 24 25 16 25 15 16 22 17 14 14 18 14 14 18 14 26 26 23 16 16 22 23 14 22 23 25 19 16 26 25 26 20 25 17 16 19 26 25 22 26 26 18 25 19 26 20 20 26 26 25 23 14 22 21 15 15
18 25 17 14 15 14 26 23 19 19 15 24 14 24 18 26 24 25 29 29 18 25 28 18 28 16 19 26 24 23 23 22 26 24 22 16 16 20 26 17 17 21 29 29 20 24 29 16 15 22 24 15 15 16 23 26 16 22 14 16 16 23 21 18
21 25 18 20 26 21 22 26 21 20 15 25 15 21 27 20 19 24 32 25 27 29 25 25 26 19 25 25 23 20 18 20 26 24 22 23 19 16 26 19 28 31 23 31 25 31 22 23 27 20 24 14 17 14 26 19 24 24 24 22 17 23 16 26
22 23 22 18 14 19 18 26 26 22 14 17 24 18 26 27 31 31 28 32 33 35 27 29 24 28 32 30 27 19 23 29 25 21 24 17 27 30 31 25 23 32 29 32 32 30 29 24 27 23 31 24 25 25 19 25 22 17 21 17 24 18 19 18
15 17 23 22 26 15 18 17 26 21 24 27 28 20 25 34 32 35 39 38 38 38 29 36 32 38 27 33 28 36 24 26 29 27 30 29 27 26 36 26 29 30 30 35 29 31 39 27 37 32 31 24 26 26 21 15 16 18 24 22 21 21 24 26
23 26 18 22 18 14 21 21 19 25 15 24 28 28 33 27 38 39 37 45 36 45 45 37 34 45 38 43 39 37 32 39 32 31 32 40 40 36 44 37 32 33 43 35 43 43 41 33 38 30 31 35 20 23 22 25 21 22 18 26 19 22 25 22
23 15 16 14 24 20 25 16 19 18 25 22 30 34 31 33 40 40 37 48 42 49 45 39 44 42 55 50 53 46 48 46 36 40 41 43 51 46 44 49 48 40 42 42 49 42 40 38 43 34 34 31 26 25 21 26 23 18 23 14 17 21 25 20
17 25 23 26 22 20 18 21 25 25 24 24 36 34 37 34 47 50 44 50 47 49 52 51 53 51 57 54 60 54 58 57 47 48 57 57 54 59 52 53 57 46 48 50 47 43 50 38 44 42 34 30 31 28 24 27 23 17 18 14 17 23 19 22
14 20 17 19 24 24 16 21 17 20 25 32 29 38 40 39 47 51 51 55 57 56 61 59 58 70 66 66 61 61 67 64 59 63 67 71 65 72 66 62 62 55 52 58 55 48 54 50 43 43 46 39 28 37 26 25 24 19 20 16 18 18 24 19
25 21 24 22 23 19 22 20 25 21 25 27 41 41 41 46 53 55 59 49 61 62 70 71 77 69 77 79 79 68 67 69 73 65 66 77 69 75 75 79 66 65 60 61 60 58 57 52 53 47 41 45 33 29 28 26 18 22 17 14 17 26 15 25
18 20 17 17 26 25 18 23 26 31 37 32 32 44 45 48 56 59 60 64 62 73 76 78 85 83 86 77 85 81 79 77 85 80 82 84 86 85 75 84 75 81 78 69 62 58 60 58 54 43 46 43 35 32 37 24 19 26 15 23 19 18 15 19
19 14 21 26 15 19 25 19 22 26 34 33 41 49 41 51 58 62 58 65 75 76 79 78 83 81 84 89 83 89 92 92 84 89 92 84 82 84 94 86 80 81 78 72 78 65 60 60 59 56 45 40 43 41 38 31 18 21 15 20 26 20 15 15
20 21 15 18 22 19 20 23 25 30 28 38 35 46 45 55 60 54 57 67 72 86 93 84 86 90 95 99 91 92 98 93 101 97 92 98 92 96 89 97 89 95 93 81 79 70 62 53 59 57 48 44 46 39 39 28 25 23 20 26 23 21 20 15
24 15 26 20 19 24 26 17 22 25 27 37 44 45 45 57 56 62 67 82 90 91 87 90 92 94 104 105 101 102 97 96 105 96 95 102 106 94 96 100 92 91 96 91 78 76 68 66 60 56 49 41 35 34 31 35 30 21 18 20 20 17 14 23
15 18 20 14 18 14 26 23 31 24 29 36 39 44 55 56 59 55 72 83 88 98 98 97 99 105 109 109 105 100 106 114 107 103 108 105 100 108 109 97 96 103 94 93 92 85 75 60 58 49 51 47 45 39 33 28 32 25 15 17 24 15 26 14
15 14 19 18 15 25 15 18 32 23 39 31 36 44 50 51 63 54 66 86 93 92 94 105 103 107 104 106 107 108 106 119 118 111 116 112 113 103 110 100 102 104 95 94 87 74 72 61 51 52 47 51 36 37 27 30 30 23 22 26 17 16 15 16
26 15 21 24 23 24 18 22 19 26 38 33 36 41 45 50 51 65 71 73 90 93 94 97 101 111 114 104 107 109 117 123 121 124 116 115 115 107 106 101 109 98 97 92 82 74 74 65 56 46 46 38 46 35 35 25 20 24 20 22 17 23 14 22
21 15 25 20 16 23 14 24 25 33 28 37 33 44 52 52 57 56 61 72 89 91 91 98 104 103 101 114 115 115 116 118 123 128 114 114 114 103 102 103 100 98 90 88 88 80 70 60 58 48 43 44 35 40 38 23 30 25 24 15 25 21 22 26
16 22 18 14 21 26 23 25 19 22 29 30 44 38 49 45 45 53 59 78 82 84 93 101 94 103 100 105 107 118 122 128 124 120 111 111 114 107 108 99 105 101 85 80 80 69 60 57 57 50 48 46 37 40 28 21 18 18 21 17 19 25 20 17
24 14 21 22 16 20 19 19 17 31 28 39 32 39 46 52 52 52 61 68 70 87 86 89 102 97 102 99 106 115 112 119 123 120 110 105 103 111 101 95 94 97 85 81 78 70 64 50 53 52 38 43 40 33 30 25 17 22 14 20 24 17 15 23
14 26 15 21 17 24 15 21 26 26 27 27 38 42 34 49 44 42 50 64 76 75 87 84 92 91 94 100 100 108 102 108 105 101 105 106 105 95 97 91 95 92 76 80 70 62 62 47 40 39 35 33 38 33 31 22 14 21 21 21 25 18 23 14
15 25 25 20 17 22 14 16 18 22 23 29 35 35 34 37 48 49 54 62 61 71 76 76 84 94 91 96 95 103 95 100 101 99 97 94 99 97 89 95 83 80 74 66 65 53 52 42 38 44 42 39 28 31 26 18 14 16 22 21 23 17 17 22
21 21 20 21 23 19 26 19 18 25 20 30 34 35 31 40 39 38 49 47 53 71 74 81 84 81 82 88 85 97 87 85 95 93 95 96 96 87 80 85 84 69 75 60 65 49 42 43 45 39 38 27 26 26 28 14 15 25 23 19 26 17 19 14
20 19 21 19 16 15 15 20 14 24 19 24 27 35 25 33 35 38 44 42 52 58 65 68 68 73 83 80 77 83 78 84 88 76 89 83 88 78 74 70 72 62 66 62 51 48 46 35 33 32 36 23 28 24 17 23 24 24 18 21 24 14 16 20
15 18 15 18 18 16 19 24 26 26 14 18 29 23 29 35 31 27 28 47 50 51 54 67 59 67 77 70 72 78 76 79 71 79 76 72 72 72 75 65 64 63 56 56 47 41 34 27 34 27 23 22 27 20 26 21 18 18 24 26 22 26 17 24
24 22 20 23 20 21 19 14 18 24 20 15 18 21 22 20 28 32 24 30 44 39 44 54 51 61 62 65 64 70 69 73 70 71 66 60 71 65 66 60 58 58 47 44 38 28 31 25 28 30 30 21 15 23 20 22 17 25 16 14 24 18 14 25
15 24 19 19 26 17 26 14 25 19 22 21 25 26 23 27 24 24 32 26 37 39 36 51 52 46 54 57 57 56 61 58 69 66 67 66 59 53 61 53 51 50 47 43 32 27 29 27 21 28 21 22 20 17 17 26 20 14 22 14 19 19 18 14
17 23 23 16 15 24 19 17 25 16 16 26 18 23 14 20 26 26 26 29 26 34 30 43 47 42 44 47 56 59 60 53 63 57 58 53 50 51 45 50 35 34 28 31 26 26 26 19 27 23 19 17 25 22 18 20 22 25 26 25 15 16 18 19
16 17 23 22 24 25 16 20 25 14 16 26 18 23 24 25 16 17 26 15 20 24 22 30 37 44 40 39 52 44 54 48 49 49 49 51 41 45 41 32 30 28 31 23 23 22 17 24 15 26 26 24 16 14 19 16 16 25 22 15 23 15 24 18
25 17 26 15 21 20 24 26 14 16 16 16 15 24 20 24 14 22 20 20 21 25 20 20 34 27 39 35 40 49 44 43 46 45 49 46 47 43 38 29 28 31 17 22 25 26 18 21 23 20 20 24 26 15 16 24 22 17 18 24 15 26 22 19
18 25 15 18 15 19 19 16 22 16 21 16 23 22 26 14 26 16 23 19 20 17 25 25 28 22 35 38 32 31 41 39 34 36 44 37 32 35 32 22 26 21 20 20 16 26 17 21 25 23 17 21 18 20 23 19 16 21 17 16 15 15 22 25
19 17 14 19 16 17 26 22 21 21 18 15 21 22 16 19 19 26 17 23 15 14 15 19 17 25 20 30 23 36 35 29 37 28 26 31 31 21 19 16 16 23 20 16 18 15 22 23 15 21 17 21 16 25 25 26 20 22 16 26 24 24 19 16
26 26 24 26 21 20 26 20 23 18 18 22 26 20 21 24 25 22 26 21 21 25 23 22 19 21 20 21 18 29 31 27 28 24 22 27 27 27 17 26 18 25 16 23 16 19 23 16 23 14 14 17 16 18 19 16 17 22 16 17 15 26 21 26
15 16 26 19 23 14 20 26 14 20 16 23 14 21 24 16 24 18 16 16 17 22 25 24 18 20 24 22 16 24 16 21 26 26 18 14 19 20 18 15 23 25 19 17 19 23 17 23 22 18 24 19 18 22 18 20 26 17 15 22 15 26 25 16
14 17 20 18 19 17 14 22 18 21 14 16 16 19 14 25 21 18 24 25 20 16 20 14 23 21 14 15 23 26 15 23 19 26 21 17 21 26 25 25 19 25 23 25 16 18 15 24 18 19 21 24 25 18 26 15 18 20 21 24 16 25 19 17
25 18 15 20 20 20 15 23 16 16 22 25 22 24 15 20 26 23 22 17 26 20 15 22 16 22 20 24 19 14 15 16 15 20 25 20 15 23 19 21 18 18 22 21 20 14 26 24 18 15 17 17 25 22 24 21 17 19 16 25 21 20 24 23
19 19 26 18 20 18 24 14 23 16 26 20 22 21 23 21 17 18 19 24 14 19 23 25 21 25 16 17 15 24 18 16 25 22 15 26 21 17 26 24 18 15 21 21 25 22 23 25 24 24 24 26 17 15 16 26 24 22 14 25 16 15 23 26
20 23 14 19 16 25 16 25 23 19 26 23 22 25 14 14 25 23 21 17 15 20 18 14 24 19 21 20 15 14 14 26 23 21 23 16 15 18 25 21 15 23 14 16 26 18 23 26 21 15 16 14 23 16 26 20 26 15 16 26 15 19 14 23
14 21 18 18 15 15 16 18 23 26 15 14 14 16 15 19 19 20 22 21 17 22 20 15 17 17 26 16 20 24 19 15 23 20 17 18 15 14 15 21 24 15 14 18 20 17 16 20 15 17 25 25 15 18 14 17 20 22 21 22 26 20 17 14
24 26 15 23 20 20 14 21 26 14 20 18 20 18 25 15 19 14 26 26 14 21 17 23 16 16 20 24 25 17 15 14 16 15 18 14 25 15 22 14 14 26 26 23 17 24 18 19 22 16 16 24 15 18 24 19 19 20 23 16 20 16 14 21
22 18 16 20 25 17 24 25 14 15 19 21 25 26 17 15 24 16 21 18 26 17 20 24 15 17 26 19 25 15 21 15 25 14 19 15 15 20 15 16 14 15 20 14 16 19 25 17 23 19 21 16 21 23 16 20 25 15 21 25 23 18 24 21
21 20 17 17 15 17 24 26 15 16 18 25 21 15 15 26 25 21 22 21 16 16 18 20 24 19 15 17 15 26 23 22 24 23 22 21 21 21 15 19 16 24 14 22 16 26 24 15 19 23 18 19 16 20 16 18 16 24 21 15 22 22 20 21
26 24 20 25 15 21 23 19 21 25 25 24 14 24 23 25 24 17 15 26 15 14 24 20 15 16 21 17 23 15 25 20 24 17 26 22 19 16 26 14 20 20 26 19 20 22 25 20 26 18 23 16 24 20 17 21 19 18 23 26 26 26 23 14
14 21 25 14 22 16 16 17 18 20 17 24 15 22 22 19 19 14 25 17 23 24 21 22 25 18 14 23 21 21 19 18 24 18 25 26 15 22 16 22 20 14 20 22 26 15 24 25 23 22 26 20 23 14 17 23 18 17 15 19 16 24 16 17
26 19 24 14 15 14 24 21 18 18 22 24 16 14 26 17 14 17 15 16 24 19 24 15 22 17 18 26 16 18 20 25 26 23 20 19 16 15 15 20 24 15 14 25 25 24 19 21 24 21 21 21 26 25 14 18 19 21 18 15 25 19 14 26
24 16 17 14 14 18 16 16 16 26 15 15 18 23 17 24 26 25 25 14 14 26 19 14 26 17 20 22 16 21 26 18 20 23 23 21 21 16 19 16 22 18 24 18 16 19 22 20 14 17 16 21 21 20 20 22 26 20 15 16 19 25 18 18
