P2
64 64
255
21 17 14 24 19 19 15 23 20 16 23 25 23 26 19 26 24 14 14 19 25 21 26 23 16 18 20 23 17 20 15 16 14 18 24 17 17 19 26 22 22 26 17 26 25 14 17 22 25 22 16 15 14 18 19 22 24 26 26 21 18 24 26 15
19 23 25 14 25 17 18 18 22 14 24 22 19 16 23 15 17 24 23 26 15 25 23 25 21 23 18 23 18 15 14 22 16 25 22 14 18 25 26 20 18 26 24 16 14 15 24 22 26 17 24 24 18 14 25 21 23 22 16 22 20 17 25 14
21 23 15 25 25 14 16 16 15 15 20 16 22 15 22 25 23 19 16 16 16 18 19 21 14 16 23 23 17 18 25 16 21 17 22 18 18 24 22 14 16 25 19 24 24 14 14 17 25 24 22 19 14 21 17 14 23 26 18 24 21 14 22 16
17 17 26 18 26 24 26 25 18 20 16 15 16 25 24 26 18 23 17 15 25 15 22 16 20 14 18 14 14 24 22 22 26 22 22 14 26 17 17 20 14 16 20 23 15 16 21 26 20 14 25 21 15 22 19 24 17 17 16 18 14 23 24 24
15 24 16 19 18 15 17 18 17 17 22 16 20 18 26 16 14 20 19 16 26 15 21 24 23 16 14 24 23 17 19 26 23 21 20 19 24 14 18 17 24 21 19 25 23 24 21 24 23 18 19 16 25 14 20 26 20 26 14 18 20 17 21 15
20 25 21 20 20 17 21 21 15 16 25 23 25 24 24 16 16 19 23 24 21 21 23 19 26 19 20 19 16 17 16 16 26 20 17 16 26 19 23 17 22 24 17 22 23 22 20 23 17 21 17 21 19 26 26 16 18 14 16 14 23 25 15 25
16 19 17 16 17 15 18 23 15 15 20 14 21 15 20 26 26 26 21 15 16 17 14 14 20 16 25 18 24 14 17 18 24 21 26 18 16 14 15 26 17 15 15 26 26 20 17 16 21 26 19 14 17 21 14 15 21 21 16 17 26 22 26 23
25 16 14 14 23 16 26 15 26 17 15 15 18 25 14 20 14 20 15 16 18 14 19 24 20 18 19 26 17 16 16 25 15 16 23 23 26 25 14 17 19 18 14 16 16 17 15 14 18 16 16 17 21 19 17 15 20 18 24 20 16 19 15 21
26 25 19 19 17 24 20 19 22 26 21 17 17 24 23 17 20 21 25 21 16 17 19 14 15 16 16 23 19 19 20 23 26 16 18 21 16 16 26 22 14 19 22 22 15 20 23 23 18 23 17 14 24 15 14 17 23 15 23 15 22 16 23 25
19 25 18 19 21 16 17 22 14 20 16 24 18 24 16 25 21 25 17 24 26 17 23 19 15 21 25 18 21 14 19 18 26 15 24 22 24 25 22 22 14 15 21 20 16 15 23 19 15 23 26 19 23 22 26 20 17 24 25 19 24 24 26 25
15 22 14 21 21 26 18 17 19 24 17 23 17 20 21 25 15 16 23 25 21 21 21 19 23 23 25 22 20 14 14 16 26 16 17 17 20 24 16 26 22 20 17 23 26 15 22 21 23 18 18 17 21 21 26 17 21 18 19 14 16 24 21 25
17 22 18 14 25 20 25 25 21 15 20 21 23 19 19 24 26 20 16 25 20 18 20 24 14 22 18 15 23 18 14 17 24 20 20 14 17 16 14 20 24 22 23 14 19 23 14 21 23 18 18 21 18 16 20 25 18 22 14 17 23 20 18 25
18 20 25 26 24 21 16 23 15 26 20 26 24 26 25 26 15 21 22 16 15 19 20 23 16 15 17 19 15 24 15 24 18 14 15 20 19 14 19 25 25 26 15 24 17 26 19 19 19 14 18 14 17 19 23 18 14 22 23 20 16 16 20 22
25 20 24 26 22 21 24 26 17 22 18 23 20 21 18 15 21 23 18 16 17 19 23 25 26 17 24 20 22 15 21 20 16 19 21 19 23 20 19 18 25 22 16 15 14 17 21 25 23 15 23 21 17 18 25 21 24 17 22 21 15 19 14 14
21 17 23 18 23 21 20 22 17 15 18 16 26 21 23 20 16 20 17 24 17 24 18 22 19 19 25 26 21 15 18 20 22 19 15 26 21 22 20 23 21 22 25 23 23 19 18 23 23 18 26 23 16 23 17 23 23 14 24 22 24 20 24 25
23 16 15 20 18 16 23 15 19 15 26 23 25 14 26 26 19 15 24 21 26 24 21 22 15 14 21 15 14 19 20 20 23 18 19 18 21 25 25 17 22 16 20 20 26 24 20 15 26 15 16 25 14 15 21 25 26 14 22 15 19 16 14 24
19 24 16 20 16 16 15 21 21 26 20 25 20 14 15 22 24 20 20 17 15 15 14 26 14 25 19 19 14 20 22 15 20 16 25 19 18 22 26 17 15 22 18 26 24 26 25 20 14 19 23 19 21 15 21 23 20 14 22 15 24 19 25 19
22 23 19 22 26 18 23 14 18 20 23 18 15 19 19 14 14 24 22 17 24 20 24 15 22 26 14 25 16 26 18 17 17 23 25 25 25 16 14 17 25 14 19 22 22 19 15 18 26 18 15 26 15 16 21 16 26 21 26 18 14 19 21 22
19 14 16 18 24 25 17 24 20 25 16 15 25 22 25 26 15 18 24 23 24 24 24 23 17 19 16 20 21 17 22 21 25 26 24 22 19 20 18 23 17 20 17 18 24 16 23 19 17 18 20 26 23 22 21 24 14 20 16 19 21 14 18 24
18 22 25 26 24 26 25 20 24 24 19 20 23 25 23 24 21 21 23 22 30 19 23 20 16 25 18 14 23 17 14 25 18 22 18 21 24 19 23 26 24 23 29 22 30 20 19 19 22 26 22 15 22 21 18 16 14 22 17 24 16 16 20 15
20 23 21 19 17 19 21 25 19 15 19 24 22 18 18 20 21 22 25 23 31 28 32 23 27 18 19 20 17 19 26 18 17 24 26 19 24 21 17 21 23 22 26 33 23 33 29 23 22 29 18 19 25 19 26 25 19 21 18 17 14 20 16 20
19 23 17 23 14 19 24 24 20 15 20 24 26 22 22 22 27 31 30 34 34 26 33 27 28 34 29 21 21 22 17 25 21 16 21 14 22 23 29 22 29 25 30 34 33 35 27 26 30 24 26 23 18 25 19 17 20 18 26 19 24 26 17 15
17 14 17 15 20 16 22 20 23 26 19 27 27 22 29 33 31 30 36 38 40 39 34 38 31 27 26 26 31 23 16 25 22 25 21 23 22 32 36 37 39 30 33 38 30 33 34 31 33 35 31 29 28 16 24 23 25 23 18 24 23 15 17 24
20 17 19 20 17 18 14 15 24 18 23 20 26 26 35 39 39 35 39 39 41 44 43 33 36 33 32 32 31 28 17 25 18 22 17 20 27 36 31 40 43 43 39 41 43 44 35 35 39 36 36 33 26 18 16 17 24 17 23 23 23 21 16 20
18 19 16 26 18 25 25 21 24 20 18 26 24 35 39 33 33 39 36 46 37 37 46 37 40 34 39 39 34 34 24 29 18 19 31 23 35 28 32 35 37 41 43 41 38 43 41 38 37 31 37 31 34 23 27 14 22 25 22 14 25 20 15 22
23 26 20 19 21 23 21 21 22 26 27 32 28 35 35 36 48 46 51 46 42 44 43 42 41 36 36 36 36 31 27 24 27 24 26 37 32 36 34 36 49 50 50 51 43 44 42 49 47 41 31 40 38 25 22 23 17 25 26 26 19 16 17 16
19 18 17 21 16 21 25 17 16 28 21 35 38 35 38 47 49 41 52 53 46 46 44 49 47 44 48 45 35 39 29 33 33 23 32 30 32 42 47 50 44 46 53 54 49 50 43 45 48 41 46 41 39 26 24 30 20 15 14 15 15 18 21 14
18 25 14 16 18 17 22 16 24 25 23 39 34 41 47 46 45 52 47 58 61 58 55 58 45 53 45 39 45 34 28 27 28 29 33 33 41 36 45 42 45 55 48 54 53 60 47 56 43 43 48 33 36 32 24 29 20 18 25 15 26 14 20 18
21 25 23 20 23 18 26 18 26 22 29 34 37 44 50 46 49 54 60 58 64 54 58 50 59 49 46 46 45 44 38 28 29 39 30 44 42 43 44 54 54 51 58 59 61 57 62 48 57 52 40 47 39 39 33 30 23 15 25 19 18 15 18 19
15 18 15 26 24 18 17 26 25 28 26 31 33 40 49 46 57 61 56 61 67 59 65 61 58 59 56 51 42 37 30 42 36 36 38 41 47 43 53 49 56 63 56 60 59 66 62 59 55 53 41 40 45 36 37 30 19 16 18 17 18 21 15 16
16 22 15 18 23 26 20 22 30 32 33 42 43 44 52 57 54 55 66 65 65 70 61 63 62 60 55 53 47 43 37 38 41 35 35 44 44 49 52 58 57 64 61 70 69 60 67 53 61 48 51 41 36 34 35 28 24 21 22 19 21 25 26 15
17 19 22 20 23 21 15 23 29 26 32 35 43 49 45 49 52 62 66 67 76 72 68 64 66 58 49 55 47 36 36 37 43 32 39 35 44 43 51 60 62 60 69 74 65 71 67 56 56 51 51 43 41 42 30 29 26 16 18 18 25 20 21 21
18 26 24 18 20 21 26 25 20 30 37 36 39 45 53 48 55 58 68 63 77 74 63 62 60 62 58 44 41 42 41 42 39 45 35 35 48 51 53 63 57 61 65 73 68 69 63 64 53 57 53 43 44 31 40 35 20 28 16 21 16 15 23 18
14 18 18 14 23 15 20 19 23 28 37 42 39 46 55 54 57 57 67 71 66 74 69 61 63 55 49 52 40 40 38 32 43 38 37 42 48 45 53 53 62 64 63 66 68 71 67 57 54 58 44 43 35 35 28 34 21 25 15 25 18 16 26 19
22 18 20 24 23 19 25 27 22 35 35 39 34 43 50 56 58 59 65 61 71 71 62 67 59 53 50 45 39 34 36 42 41 41 43 36 41 46 46 60 55 62 63 71 64 68 57 55 50 58 49 47 44 33 35 28 19 22 25 21 24 24 21 18
15 22 21 16 18 26 25 20 19 23 26 36 45 49 47 46 57 53 64 63 67 59 61 59 59 58 48 47 43 38 42 31 30 37 38 42 40 51 44 54 50 57 64 58 65 59 53 51 58 45 46 41 41 33 32 33 23 21 22 18 21 26 16 25
14 21 17 23 14 21 18 17 29 24 27 36 43 45 43 45 57 57 54 56 61 62 54 50 56 47 42 40 41 41 32 34 35 39 39 39 42 45 54 46 60 52 56 55 56 63 52 53 48 52 43 45 43 33 31 24 23 25 20 19 19 15 20 17
18 23 21 21 16 22 18 20 21 24 33 32 36 42 37 44 51 54 59 59 59 50 59 47 53 51 40 36 38 37 31 35 29 34 30 40 41 40 50 50 48 56 55 57 52 49 57 51 45 42 44 33 37 28 29 22 25 17 22 19 16 17 15 20
24 14 15 18 21 14 17 24 15 30 32 28 34 33 41 41 44 51 46 47 51 49 54 55 46 44 49 46 35 39 32 30 22 26 26 39 39 41 44 44 43 44 53 51 49 45 51 41 42 45 34 31 33 37 29 18 20 21 26 17 14 17 14 26
21 18 23 26 27 29 19 21 23 24 30 35 40 43 46 43 49 51 55 49 52 54 57 50 51 52 46 43 37 36 38 35 30 28 31 41 40 47 49 46 49 47 48 50 57 56 45 56 52 49 38 34 42 34 27 28 30 28 26 31 25 31 26 28
21 31 33 21 22 30 22 33 31 27 36 27 36 41 41 51 50 48 56 55 53 56 56 52 47 51 40 40 43 37 30 39 34 35 42 41 45 49 48 45 52 47 57 50 56 56 58 48 54 43 50 43 35 41 39 35 31 27 37 38 31 36 31 27
31 25 35 26 33 28 30 30 31 34 36 33 41 44 43 40 51 49 56 45 56 47 46 45 50 44 46 51 38 38 38 31 38 34 34 45 42 43 51 53 58 48 50 56 59 61 60 53 49 54 47 44 49 41 41 40 37 41 32 43 36 43 44 42
23 23 30 32 28 27 21 28 27 33 22 28 33 38 41 37 39 40 36 49 42 43 37 47 35 35 33 35 41 29 31 33 32 23 29 29 41 42 43 48 42 48 41 39 40 44 50 50 40 46 34 34 37 27 32 36 26 33 34 28 33 30 35 27
24 28 27 25 24 24 28 20 18 26 19 21 17 23 31 32 36 32 29 29 34 35 32 32 38 34 34 34 23 18 21 21 25 25 25 18 28 29 35 30 34 29 40 33 38 31 29 32 28 28 30 28 25 23 28 30 22 25 31 26 30 31 31 29
25 14 18 14 18 14 22 14 26 20 23 19 24 17 16 26 25 28 26 24 29 34 21 32 32 18 29 19 23 25 24 19 18 19 14 25 16 19 25 18 20 22 29 22 24 25 22 27 28 27 16 24 18 21 17 23 25 23 21 14 22 26 14 14
18 21 15 18 16 25 17 16 25 18 16 26 15 23 23 26 15 23 27 19 20 21 28 23 23 24 18 21 20 19 21 16 20 26 23 25 18 19 20 16 19 18 28 28 22 26 20 17 23 26 15 14 21 17 14 26 14 18 21 16 19 16 17 26
20 15 22 17 15 26 25 20 18 23 23 25 24 20 21 26 21 20 23 16 14 14 20 22 24 22 21 16 22 21 24 17 20 20 24 21 14 20 24 20 26 15 14 16 22 16 21 17 19 22 21 23 17 16 20 20 26 26 23 24 14 17 22 20
14 14 26 17 20 17 23 14 25 19 26 24 15 15 16 24 14 22 22 23 24 15 19 14 19 20 17 24 14 18 24 14 25 16 18 16 22 23 25 25 19 26 24 20 19 22 23 23 21 25 22 23 22 14 16 14 17 22 15 15 16 22 22 15
23 23 26 15 15 21 16 14 19 16 21 14 15 22 22 16 14 22 25 21 22 17 25 15 20 17 16 24 15 18 18 26 19 25 26 18 22 25 19 14 18 22 22 21 25 26 25 19 20 26 19 19 21 22 18 21 20 16 21 16 26 20 17 20
24 22 20 16 25 24 23 19 21 25 17 19 18 20 21 24 17 17 15 17 22 16 24 26 23 22 21 16 20 25 26 22 20 22 17 23 14 16 22 26 16 26 14 14 20 20 20 14 14 22 17 26 18 19 24 17 20 19 21 16 26 17 14 19
23 22 18 22 20 26 24 20 20 26 15 17 14 21 21 22 18 22 15 16 19 26 19 18 24 25 17 26 16 20 21 17 14 18 23 15 25 24 16 15 16 17 15 16 17 21 18 25 16 22 17 24 17 21 21 20 14 21 14 23 26 21 14 25
19 26 15 25 24 15 16 16 23 24 15 22 23 17 21 22 16 25 15 19 20 26 22 22 22 21 16 23 26 26 18 15 24 20 25 26 20 19 21 25 21 16 14 26 14 17 14 20 19 16 14 14 23 21 20 22 23 20 17 23 19 16 17 15
16 17 24 21 23 22 25 19 19 14 21 18 23 15 19 21 25 26 19 24 17 20 25 16 21 15 20 14 17 18 15 18 24 21 15 25 19 24 17 26 26 18 22 20 15 21 16 14 14 26 23 18 17 20 20 16 22 17 22 22 24 15 20 20
23 23 26 18 15 19 26 25 19 17 26 23 19 22 14 22 25 16 21 22 18 21 15 21 26 16 24 25 20 22 18 23 14 22 25 25 19 16 19 17 20 26 19 21 18 15 21 15 19 17 26 22 25 17 20 23 22 23 15 19 17 24 16 18
24 20 24 24 20 21 22 14 19 26 16 25 21 25 24 15 20 25 17 14 16 15 25 18 19 17 15 25 19 14 14 22 15 22 19 26 15 17 15 19 22 19 22 20 18 26 25 19 15 25 20 19 16 14 25 15 18 20 25 17 15 22 18 17
14 14 25 18 19 20 17 18 26 14 14 19 21 15 17 25 17 15 21 17 18 22 17 26 22 17 16 25 21 26 14 22 16 25 23 19 18 21 23 19 15 16 25 14 24 23 15 18 21 16 17 16 23 14 15 26 25 25 25 26 16 21 24 18
18 26 26 26 22 22 16 14 16 18 20 20 19 21 14 19 14 22 23 21 19 25 22 14 23 22 14 18 17 21 17 14 18 15 22 20 14 22 26 18 22 16 26 26 14 15 25 15 24 21 21 20 16 22 17 16 16 14 15 20 25 18 18 23
23 17 25 23 26 16 20 20 22 17 20 15 22 20 15 22 24 14 24 24 24 21 19 26 20 26 23 17 25 17 24 17 26 24 16 24 14 22 17 23 15 22 15 20 23 26 17 23 25 23 15 18 18 19 25 26 18 26 22 21 19 16 25 14
26 15 21 22 15 15 26 26 20 18 15 25 16 18 24 26 25 20 25 24 17 25 16 22 15 17 17 21 20 17 20 25 21 19 22 26 22 20 16 14 20 18 15 17 24 19 20 19 25 17 18 15 17 18 15 18 24 21 23 23 16 17 26 22
23 19 23 15 26 20 23 20 23 14 24 19 22 22 21 20 14 14 18 15 26 23 23 21 26 21 25 21 26 20 21 21 23 22 14 17 26 20 20 24 22 17 17 24 25 14 24 15 20 20 26 16 26 20 20 26 19 19 24 14 23 16 16 17
21 26 18 14 18 17 17 23 23 22 23 18 24 15 15 26 18 21 25 25 14 17 25 22 21 25 20 25 24 24 20 18 24 16 23 26 20 24 23 17 14 21 24 20 15 20 24 19 21 14 14 23 23 21 26 20 15 24 14 18 20 26 16 20
23 22 26 22 15 24 20 16 14 24 24 17 26 22 17 24 14 19 23 14 26 22 25 25 24 23 20 23 22 18 22 19 18 19 25 19 17 23 16 20 20 22 21 23 15 14 22 25 23 21 23 23 26 26 23 23 19 17 19 26 24 21 17 25
26 23 22 22 18 14 24 16 26 23 23 14 18 21 23 18 18 19 17 20 18 26 15 23 26 15 14 22 23 14 20 18 19 21 20 23 20 20 25 14 17 18 21 21 21 14 18 26 17 21 25 16 24 17 14 17 25 19 25 17 24 22 23 19
25 23 22 26 14 15 23 19 15 24 18 14 21 23 24 16 17 19 20 19 23 23 17 15 20 16 16 14 14 19 26 15 18 22 15 14 17 22 18 17 19 21 19 22 17 20 18 14 23 21 14 20 26 22 23 19 24 19 21 15 26 14 26 15
