P2
64 64
255
14 22 26 15 16 15 16 26 22 25 21 19 20 16 16 21 16 20 18 15 22 16 21 20 21 20 16 16 24 22 21 23 20 18 20 25 26 24 15 23 20 18 25 25 21 21 19 14 17 15 16 19 19 26 25 15 18 25 15 19 19 19 26 24
20 15 21 16 26 21 14 17 24 25 16 26 16 20 16 20 15 14 18 19 21 25 14 21 26 25 18 16 26 16 25 21 15 17 20 20 26 17 14 21 15 19 18 17 20 26 16 26 22 26 23 26 20 16 19 15 25 17 23 25 16 18 22 25
19 17 18 16 16 19 21 26 16 17 14 21 15 26 21 16 23 18 22 21 25 22 14 24 14 23 16 15 19 23 26 19 21 26 15 24 22 22 18 20 23 23 22 25 26 25 25 22 16 21 25 17 17 24 23 15 26 15 15 24 18 24 23 22
14 23 24 22 19 24 25 25 14 17 25 23 21 15 16 25 16 23 23 23 26 24 17 16 23 19 14 25 25 22 20 23 21 23 19 24 18 24 17 17 21 23 19 26 26 25 23 22 21 20 17 19 21 17 21 19 21 19 25 23 15 19 26 16
23 19 16 18 17 14 25 14 16 25 22 14 20 20 15 15 26 16 14 24 14 18 20 17 26 15 22 18 19 14 23 19 25 26 23 22 17 16 20 19 14 15 18 17 26 19 21 21 25 17 14 18 20 23 20 23 21 20 14 16 26 19 14 20
22 15 24 15 16 21 16 19 24 19 22 15 18 18 17 23 16 22 18 17 17 21 23 21 16 23 20 24 16 14 20 25 24 26 21 25 15 17 17 17 26 25 26 17 24 25 18 14 25 24 19 17 25 17 19 17 18 21 17 22 26 14 22 18
22 25 24 19 14 26 17 14 24 25 20 22 17 18 14 24 15 19 22 14 20 17 24 24 23 25 24 19 25 22 14 19 21 22 23 21 21 22 15 22 25 16 14 21 19 15 22 18 20 23 24 18 18 19 19 19 19 21 21 25 25 20 22 17
24 25 21 18 26 20 15 24 20 18 15 25 23 16 23 21 25 21 25 14 15 17 21 25 26 25 15 18 19 16 18 24 20 23 20 21 20 24 23 25 24 14 19 25 25 18 21 18 22 23 20 23 24 17 15 26 20 21 21 25 26 23 15 18
20 26 17 19 16 20 15 16 26 17 21 25 23 18 20 26 24 23 20 25 14 21 17 20 25 24 18 19 26 24 21 18 25 17 25 25 14 22 19 21 25 25 17 21 23 23 18 22 22 24 17 20 17 23 25 21 17 14 20 25 26 26 22 23
16 14 26 24 15 20 22 14 21 24 16 22 19 19 20 25 15 19 25 22 20 17 16 24 14 26 20 22 19 18 25 23 15 14 19 15 15 25 14 19 23 14 14 18 16 21 17 14 14 21 14 14 19 21 25 21 19 14 22 16 24 18 26 17
25 20 18 15 16 23 16 15 24 22 22 21 18 23 15 18 24 24 23 17 23 14 22 15 14 17 14 14 14 20 20 14 21 25 25 24 21 14 25 26 14 26 16 15 18 17 14 22 19 18 14 15 25 23 17 16 15 17 16 26 26 23 24 15
14 22 21 20 24 21 16 17 18 24 23 22 21 17 18 17 26 24 18 21 25 14 18 24 26 24 15 20 26 26 18 18 17 18 23 20 14 15 22 22 14 15 23 26 20 26 26 19 18 24 22 18 16 26 21 16 17 20 21 19 14 19 14 16
16 22 20 24 18 22 18 24 18 25 21 26 24 22 25 20 18 25 26 19 16 20 15 14 18 24 20 20 22 26 18 22 20 20 18 18 24 25 23 16 16 16 20 24 23 22 23 21 19 20 20 14 19 18 19 17 26 17 22 18 17 25 17 19
16 19 18 26 19 14 17 16 15 24 24 24 26 24 21 23 25 18 24 14 20 20 16 20 26 16 26 19 20 20 20 26 20 23 25 24 20 20 17 25 26 19 25 20 18 21 25 21 23 19 22 20 23 16 24 24 14 21 19 21 20 22 17 24
23 26 25 23 16 21 18 16 14 20 20 20 19 14 19 17 26 17 22 23 22 16 18 18 26 14 22 26 25 14 24 23 14 15 16 21 26 15 22 15 26 25 18 22 15 15 17 19 20 16 16 24 25 21 15 14 23 14 19 24 19 26 26 18
23 24 20 26 16 26 16 18 26 21 17 14 16 16 21 23 23 23 22 19 20 23 21 16 19 22 17 20 23 22 14 18 16 19 18 24 21 16 17 16 25 14 14 24 26 23 20 16 15 24 22 21 20 15 22 20 14 19 15 18 20 22 24 14
14 21 19 26 24 24 14 19 23 18 15 20 20 17 15 20 14 21 24 26 17 16 16 21 21 24 24 22 15 24 22 23 17 22 14 16 15 18 18 16 25 18 24 25 24 15 14 25 24 25 17 17 18 22 16 24 21 18 21 26 22 18 18 15
16 21 22 23 17 23 26 26 26 20 19 19 21 23 16 19 14 18 26 24 21 15 16 19 20 18 24 17 17 26 22 21 24 15 21 20 23 23 26 19 23 20 25 20 25 17 26 25 14 17 19 23 17 26 23 19 17 22 19 25 14 22 23 26
24 25 19 23 15 21 14 14 19 19 21 24 25 16 14 16 23 20 24 15 21 25 22 22 18 25 20 17 17 23 26 14 16 22 26 24 15 21 14 26 16 23 23 24 20 15 15 20 20 15 17 24 25 19 18 16 17 24 23 25 21 14 18 24
18 21 14 14 19 16 18 20 15 19 14 21 19 24 21 20 22 27 25 19 20 19 20 29 20 17 23 15 22 26 14 15 24 22 16 23 14 17 23 21 18 29 17 28 24 24 19 24 23 15 14 16 23 15 17 21 19 14 23 26 23 19 25 23
14 16 23 26 23 18 21 26 19 21 18 21 19 25 25 22 20 22 21 32 26 25 22 21 28 26 22 17 15 14 21 20 25 16 26 24 25 20 21 25 30 31 29 22 32 21 30 23 19 29 17 22 21 19 22 24 25 18 18 23 18 25 23 24
18 15 24 15 16 22 22 22 15 25 18 26 26 18 29 25 34 28 26 25 36 36 29 32 35 24 32 24 22 25 16 14 15 16 25 23 22 21 22 24 27 33 32 34 25 31 32 27 25 30 29 17 26 19 17 18 22 17 24 14 14 14 18 14
17 22 21 19 22 22 22 25 25 15 20 25 24 31 29 30 37 29 39 33 36 38 37 37 37 28 33 34 32 29 16 16 18 18 21 18 32 29 29 37 34 29 40 38 40 30 36 33 35 25 33 29 23 25 23 15 19 17 22 20 16 15 24 26
15 17 14 26 15 20 18 24 24 24 25 20 27 24 37 32 32 37 41 43 38 34 38 33 33 40 37 25 24 29 25 17 25 15 27 29 35 27 39 35 34 42 41 45 38 39 40 36 31 32 28 35 21 17 22 24 23 17 19 17 16 20 26 22
21 22 21 25 26 18 16 20 20 17 28 21 30 26 38 41 45 40 38 40 43 44 45 42 45 43 39 40 31 27 24 21 15 23 22 34 32 37 38 40 34 44 46 47 48 49 37 39 33 41 34 34 26 22 23 22 25 17 20 18 14 16 17 19
24 20 23 15 22 23 15 24 24 21 23 25 29 40 37 39 44 39 44 44 46 52 41 43 46 46 35 39 38 31 34 23 19 23 33 29 28 42 35 47 41 46 41 42 48 50 43 43 39 40 39 29 31 31 19 17 22 15 19 21 14 18 21 17
20 25 15 16 23 14 25 19 17 29 23 37 37 34 43 38 51 48 48 51 48 45 51 47 47 45 42 45 37 34 37 25 27 21 26 39 38 40 43 48 50 45 53 53 47 54 43 43 48 39 43 35 29 37 29 26 21 24 24 17 18 19 26 17
24 26 25 15 24 24 19 17 16 20 28 37 42 42 43 50 45 51 59 57 60 59 51 54 51 52 39 40 43 36 28 34 26 26 32 30 44 43 45 50 50 49 57 52 51 49 49 56 50 51 40 39 34 39 35 26 24 14 20 23 25 26 17 18
23 26 25 26 19 18 21 26 22 22 35 28 40 47 43 48 51 58 58 61 56 62 62 58 56 46 45 42 35 32 38 32 33 28 39 39 43 42 54 52 51 61 56 54 62 60 61 50 48 42 44 42 36 28 36 33 19 17 18 14 15 26 14 18
19 20 25 19 19 18 25 26 27 32 36 33 44 41 41 52 51 62 59 66 59 60 57 56 56 59 53 43 48 42 41 31 36 38 34 43 39 51 53 48 56 57 57 65 66 66 61 57 52 47 48 42 39 33 34 26 21 26 26 26 24 19 18 24
20 19 15 26 16 16 24 18 20 25 36 43 36 45 48 46 49 61 63 60 67 64 64 61 60 54 48 50 45 45 40 40 32 39 42 45 39 43 57 53 64 61 66 71 64 62 67 53 61 56 45 44 34 39 28 25 22 24 21 17 19 15 18 19
15 21 23 15 15 22 14 20 26 34 28 40 44 39 54 58 51 65 68 62 68 76 73 67 59 60 52 49 48 44 39 42 33 34 37 36 43 44 52 58 66 59 72 65 72 71 70 64 54 53 52 51 35 43 37 31 25 23 18 15 15 22 21 25
25 15 16 19 22 22 24 20 32 33 30 33 37 45 45 49 56 65 60 75 71 68 69 68 57 56 58 48 41 37 43 43 37 44 34 41 44 52 51 55 63 69 70 67 70 69 67 63 53 57 53 47 37 43 40 26 23 21 18 17 14 23 24 14
18 25 23 15 25 14 21 16 28 30 39 40 42 51 46 49 53 54 70 67 65 65 73 65 57 52 58 48 51 38 42 38 44 40 40 38 47 52 47 60 62 59 71 66 67 65 64 60 56 59 47 47 42 40 33 34 21 24 24 16 26 23 16 18
16 25 17 18 20 20 22 22 19 29 36 38 34 43 51 49 49 59 62 60 66 70 71 57 62 57 57 46 42 43 41 35 42 35 39 39 39 47 50 50 55 62 64 71 63 71 57 61 53 55 48 42 36 37 30 28 23 20 17 21 14 14 22 18
24 18 21 21 21 14 19 25 22 31 38 40 45 37 49 45 57 62 53 63 58 58 62 59 53 59 54 42 38 33 36 36 39 32 40 39 40 46 51 51 51 53 58 61 63 65 64 56 53 46 53 45 45 33 28 31 25 21 20 17 18 25 15 23
24 23 24 20 23 14 21 15 29 27 28 33 37 44 47 46 53 53 53 55 59 61 62 58 53 46 45 48 44 42 28 38 40 35 30 43 35 41 46 50 56 50 61 58 61 52 57 59 57 50 46 38 42 39 32 27 18 26 15 23 21 23 22 24
19 23 26 17 15 15 17 25 20 22 35 34 39 39 48 52 45 50 50 48 57 60 58 48 53 51 41 43 36 34 28 26 24 31 38 40 44 44 47 44 54 54 54 52 56 48 48 47 49 40 43 39 39 37 28 20 28 15 20 16 17 20 15 25
21 22 15 16 14 20 20 24 25 28 29 34 29 33 36 39 49 47 43 55 55 45 48 46 45 48 47 45 37 32 36 27 31 24 27 40 34 46 38 47 52 45 56 51 51 51 48 41 39 47 46 34 35 30 30 18 21 23 25 23 20 25 24 22
21 23 26 17 26 21 24 19 25 19 28 34 34 43 39 48 44 46 44 52 49 57 53 47 51 52 47 39 41 30 29 36 25 29 35 38 37 39 51 46 53 49 47 47 53 53 49 55 48 49 49 37 36 38 25 31 29 23 23 23 25 25 24 27
29 27 28 21 33 25 31 29 33 26 25 36 40 43 45 50 41 46 47 57 51 54 57 57 44 49 47 41 47 34 37 27 33 36 39 34 36 38 47 50 47 55 53 52 53 55 48 56 44 47 42 42 35 37 40 32 27 29 33 33 30 39 31 33
23 36 31 28 32 26 27 24 29 37 31 34 31 34 48 49 53 45 48 46 48 46 57 55 46 49 49 49 47 36 43 34 28 35 39 43 50 40 50 52 56 52 59 50 54 52 54 58 54 56 49 51 44 38 38 44 42 42 40 36 35 41 34 44
26 24 30 25 21 21 22 23 26 28 33 30 27 37 35 33 46 47 40 38 44 43 49 47 46 35 42 35 37 38 34 28 28 34 30 35 40 38 36 43 38 44 50 45 49 47 47 39 46 41 38 38 37 27 33 36 38 30 35 35 29 34 38 30
29 23 20 28 23 17 29 28 24 17 17 22 29 29 32 30 26 34 39 36 41 38 41 31 37 29 35 30 27 18 18 18 27 24 26 28 28 28 37 29 37 40 31 38 39 38 34 37 27 31 34 33 24 19 27 23 25 29 32 23 23 21 29 30
23 26 26 17 20 21 24 26 14 16 22 15 14 17 26 27 27 23 28 28 24 25 31 29 29 30 27 20 22 18 23 19 23 23 19 24 16 22 29 26 20 24 31 34 33 23 24 22 19 28 15 20 18 19 23 19 19 23 20 16 25 24 23 22
20 25 15 16 24 26 18 17 24 20 25 19 18 24 26 21 27 27 23 22 29 27 25 28 17 20 15 17 23 16 22 26 22 25 21 20 25 21 23 17 26 29 17 28 28 27 24 28 22 16 15 23 26 14 26 21 15 26 17 17 21 15 19 16
21 21 26 20 21 24 25 17 17 24 17 23 23 17 20 21 14 17 15 22 17 26 18 21 21 14 14 18 21 15 24 16 25 18 23 24 21 23 26 25 26 20 18 24 22 17 22 23 21 26 19 24 25 18 22 25 14 15 19 23 22 14 25 23
26 15 14 15 19 24 14 22 25 15 20 21 16 14 18 24 25 15 22 15 16 14 21 18 18 21 15 24 16 15 20 26 24 23 17 17 25 17 24 18 26 17 16 23 24 19 26 14 20 14 16 25 14 24 22 17 25 18 24 22 16 24 14 22
15 15 18 21 22 22 14 18 19 18 26 25 14 19 20 22 24 26 20 21 18 17 26 25 14 17 22 17 14 22 23 20 22 23 22 15 17 18 17 19 18 21 16 20 25 18 24 15 26 23 19 23 24 19 15 17 26 24 16 23 23 19 23 16
26 20 25 22 21 14 18 16 20 26 24 25 16 14 23 18 17 24 24 15 14 26 15 24 26 14 18 18 18 18 23 25 21 23 19 23 16 16 23 18 15 20 15 15 17 25 20 26 23 22 23 14 15 23 18 26 19 17 23 23 23 16 15 16
21 17 25 26 15 14 20 18 26 16 25 22 14 26 17 16 17 21 24 24 14 25 16 26 20 16 22 16 17 21 17 26 15 23 20 15 26 24 16 24 21 16 19 23 21 23 15 15 20 16 14 21 21 24 18 23 21 15 14 15 26 19 21 17
17 14 16 17 17 16 25 14 14 26 20 22 15 19 19 26 18 22 18 18 14 17 18 19 24 19 22 26 26 20 14 23 23 16 15 16 17 15 19 21 16 24 14 22 24 20 22 21 15 24 15 20 20 21 25 17 16 17 21 17 23 16 15 22
23 23 20 23 21 21 15 18 17 17 18 20 14 20 17 14 20 20 17 23 20 15 23 15 21 21 25 20 19 26 24 20 20 22 22 16 15 16 26 14 23 19 20 21 16 21 26 15 20 16 23 20 21 19 15 25 25 15 15 19 18 19 23 21
22 15 18 17 24 22 23 26 24 24 17 16 15 14 19 15 16 17 18 19 16 20 19 14 19 20 20 20 17 24 16 26 23 18 17 14 18 18 17 16 19 20 17 16 14 26 18 19 24 17 17 18 20 25 24 14 20 17 15 26 25 16 26 14
20 19 22 19 23 24 16 19 18 15 16 25 25 19 21 26 20 15 19 26 26 20 18 24 16 16 18 19 24 24 19 20 22 19 25 19 20 23 15 15 15 19 19 25 22 16 22 15 24 23 26 17 14 26 24 25 24 26 17 23 22 20 22 22
14 21 22 24 21 19 17 22 14 21 18 14 24 20 23 18 23 22 24 18 20 19 25 17 26 21 14 15 24 17 21 21 18 14 26 15 25 16 16 16 15 18 14 16 24 26 26 19 17 16 24 26 25 16 16 21 23 26 23 16 26 14 16 18
17 23 25 16 25 25 23 21 15 23 24 24 23 21 18 24 26 22 22 18 15 21 14 25 25 19 16 23 19 18 22 18 25 19 20 24 20 18 25 14 18 23 16 25 23 24 23 23 15 15 16 17 18 26 22 22 22 20 22 19 15 24 15 16
14 15 16 24 24 24 14 24 26 17 24 23 18 17 16 19 24 22 16 16 20 20 23 24 14 14 17 22 22 19 23 14 20 20 17 15 21 20 15 22 23 15 24 17 26 15 17 21 22 14 18 19 18 22 18 25 24 26 19 26 26 18 24 19
19 20 14 18 15 18 25 18 22 18 23 15 18 26 24 14 14 19 26 21 17 24 21 25 24 14 22 17 20 22 17 26 15 19 19 22 14 23 25 24 23 25 22 23 23 24 25 16 15 24 15 26 21 25 20 17 16 25 21 22 18 19 15 25
18 14 23 18 16 20 24 19 23 23 20 24 15 23 26 15 24 15 25 22 16 24 25 15 19 15 15 17 20 16 17 21 15 21 16 14 15 17 21 19 19 14 25 22 22 17 16 19 21 25 23 15 14 22 14 24 16 15 16 15 24 16 15 25
16 20 20 18 19 26 24 22 22 20 24 25 21 25 21 15 22 22 15 21 26 23 26 25 14 18 14 20 15 17 24 24 26 25 23 20 15 15 22 15 23 18 24 25 19 20 23 15 14 15 23 24 26 16 25 26 17 22 20 18 21 18 15 20
24 19 26 19 23 19 14 26 20 17 14 23 19 25 26 15 22 16 24 22 16 26 17 17 14 14 24 19 20 18 15 25 22 20 14 23 20 24 16 14 16 22 24 16 20 24 16 18 15 21 25 21 19 22 23 15 24 26 17 15 19 17 15 25
16 15 22 21 15 25 19 18 20 17 18 26 17 15 14 15 15 26 20 21 26 15 20 18 17 24 17 20 24 26 22 19 23 18 16 23 26 19 22 22 18 20 16 25 24 25 20 16 23 19 24 16 23 22 14 24 24 23 25 20 14 15 26 15
20 16 23 18 24 19 20 22 22 25 25 15 15 23 22 20 26 21 18 22 25 23 20 24 24 16 17 14 15 24 15 21 25 24 22 19 24 24 18 24 16 24 23 14 19 14 20 22 19 17 17 15 24 23 21 19 17 17 17 24 16 21 15 17
