P2
64 64
255
26 23 21 38 38 23 24 25 31 38 31 20 27 38 20 35 21 22 20 26 33 24 24 38 32 31 27 38 21 29 35 35 37 28 28 30 35 20 25 36 26 28 36 32 32 33 36 37 34 36 23 21 19 24 18 37 25 29 28 22 34 20 31 37
38 32 32 23 31 22 35 32 33 31 18 33 37 20 24 31 18 25 33 33 33 30 37 18 37 36 22 27 35 25 22 33 29 35 31 32 38 36 30 20 31 27 19 35 26 18 30 30 22 22 24 30 18 23 21 26 24 19 19 37 19 21 31 27
36 28 32 30 38 20 26 35 18 26 27 34 37 35 34 29 24 30 26 18 33 35 24 38 29 24 26 36 36 37 38 36 19 27 30 32 28 32 35 27 27 25 28 21 22 33 18 21 34 20 29 34 22 33 27 23 34 25 20 37 32 34 35 29
21 28 36 28 24 34 38 30 38 29 24 35 34 20 25 28 19 37 18 34 19 29 32 20 24 19 27 30 34 31 20 31 31 38 26 38 37 22 33 38 22 23 37 20 35 35 18 28 25 28 32 19 24 23 21 27 35 28 34 27 38 37 27 23
36 32 38 30 18 34 33 18 21 19 25 24 22 30 34 34 30 25 34 34 36 31 25 26 32 36 24 21 27 34 29 18 25 28 33 21 22 18 25 19 28 30 22 35 21 27 19 34 26 37 31 28 32 22 32 29 37 19 31 32 30 34 19 23
31 23 28 37 30 38 31 27 23 29 27 37 25 27 29 38 25 26 32 24 25 24 25 20 36 18 35 23 32 28 24 33 18 38 18 29 23 29 26 25 31 29 22 21 22 20 27 19 20 28 31 37 20 24 23 29 34 19 19 34 22 27 24 26
37 25 38 35 28 22 27 36 35 21 27 27 36 25 38 22 21 28 36 35 23 26 25 37 37 34 30 37 38 27 20 24 30 23 36 20 20 24 28 20 28 27 20 21 37 35 22 29 34 19 26 23 19 24 18 29 32 30 24 30 24 29 19 26
25 29 23 25 25 28 30 31 22 30 21 30 30 28 32 33 35 30 18 18 18 24 29 38 36 20 29 32 28 18 22 25 23 25 27 18 36 37 23 38 27 27 34 22 22 32 37 30 18 22 19 22 33 33 35 26 18 30 23 18 34 34 19 26
28 21 26 25 18 28 25 36 31 19 26 27 33 30 18 23 26 28 28 25 32 29 26 28 35 27 18 27 32 22 19 28 36 31 21 18 31 25 18 24 20 34 27 23 29 18 38 38 31 34 27 30 38 34 20 29 26 31 26 25 31 24 30 34
24 38 34 31 35 35 27 35 19 22 37 27 18 24 28 35 38 22 26 18 21 32 19 31 31 38 28 19 30 38 22 25 31 32 24 33 23 34 25 28 20 19 27 23 18 28 25 23 23 25 38 21 31 23 19 28 23 28 30 21 20 30 36 27
38 19 37 26 25 22 38 23 19 34 30 21 37 34 20 33 30 23 33 37 24 37 34 34 26 24 26 32 19 28 24 32 21 32 34 30 33 22 32 22 23 24 28 23 18 22 19 28 27 34 38 33 33 35 27 27 29 28 37 22 28 38 35 34
26 21 28 22 31 24 35 30 28 36 37 36 19 34 32 18 34 32 33 34 23 23 34 24 18 27 38 37 22 34 26 38 21 29 22 27 22 27 21 27 18 38 26 29 35 23 21 33 32 23 37 32 28 37 38 31 21 36 23 26 32 25 22 19
36 24 38 19 25 36 32 25 36 35 35 38 24 29 23 28 34 36 18 22 20 24 30 35 19 19 30 18 23 27 32 23 30 24 22 25 29 37 19 29 38 27 27 32 37 21 37 20 18 18 21 33 34 28 28 20 20 22 26 23 34 21 23 37
26 18 26 32 19 23 33 22 21 34 33 36 21 22 29 20 29 30 24 32 24 21 27 22 27 22 33 38 18 34 33 27 29 29 24 32 26 32 30 32 30 23 20 37 36 27 37 26 34 27 25 24 25 28 25 27 33 25 30 28 20 29 33 38
23 29 24 20 27 18 33 27 27 33 19 22 25 23 28 27 33 30 24 29 38 36 28 35 36 30 32 25 37 30 26 38 25 37 36 24 29 35 24 28 18 23 37 32 26 26 34 23 32 19 18 26 25 38 27 26 29 22 18 35 28 27 26 37
25 28 34 37 30 28 33 34 30 26 22 25 26 18 36 18 20 20 27 29 22 19 30 20 36 23 18 23 23 32 37 18 32 33 30 32 29 19 35 18 30 27 37 26 20 37 31 24 35 37 28 18 38 33 27 38 20 32 38 26 32 29 23 36
25 26 23 37 29 26 33 30 26 20 25 37 24 29 18 29 34 35 22 21 24 29 20 19 33 34 30 18 20 25 37 23 38 25 21 28 21 28 36 33 22 32 26 32 28 37 25 30 20 34 36 34 33 38 22 36 25 20 34 37 35 27 35 26
18 20 22 19 20 19 24 37 37 28 18 32 24 25 21 29 27 25 27 22 31 20 22 35 28 19 18 37 38 31 18 21 28 19 36 26 23 34 33 32 27 27 37 38 35 25 26 27 30 21 34 21 37 26 21 31 22 34 20 38 34 38 37 22
19 27 21 21 18 20 31 27 19 20 25 37 34 20 37 27 29 34 36 23 22 38 27 28 31 26 32 25 27 38 28 36 23 21 31 25 24 32 31 33 33 25 35 38 38 33 25 19 33 19 37 31 31 38 29 20 27 35 24 28 36 23 32 19
35 20 35 37 25 27 36 34 29 36 25 33 35 18 23 31 30 28 24 39 37 42 23 41 20 34 33 19 26 37 22 23 20 18 33 38 38 36 34 38 33 37 32 38 24 24 37 33 34 24 33 18 34 37 23 24 35 22 22 18 20 31 20 31
29 35 22 23 29 37 31 20 29 33 31 26 36 20 21 33 30 31 37 37 38 33 45 27 34 34 21 37 38 32 29 21 32 19 31 30 31 37 35 23 31 44 45 46 34 29 25 43 42 36 27 38 38 36 35 37 23 27 33 34 33 31 30 37
24 20 30 28 30 23 31 24 36 34 22 27 25 40 34 26 26 34 40 36 33 32 41 44 30 31 28 31 30 20 25 27 36 32 27 30 29 28 32 32 41 41 30 39 49 48 36 38 40 34 40 36 20 36 29 31 35 30 19 38 28 19 26 22
21 38 35 38 19 27 26 36 18 28 18 35 39 34 30 32 42 45 38 43 48 35 34 45 46 45 35 33 35 40 24 36 27 34 30 26 29 45 43 41 44 34 49 37 46 44 50 36 44 33 41 29 35 38 34 33 18 35 25 31 21 27 28 24
31 32 20 23 29 21 31 20 21 20 38 27 38 37 41 39 43 55 36 43 47 39 48 37 43 51 34 35 45 34 22 28 24 28 29 39 37 47 46 46 36 52 44 45 52 37 42 54 47 35 35 47 31 24 35 37 30 21 18 35 28 31 32 28
29 29 27 36 28 36 37 20 28 21 27 43 29 46 42 39 46 46 58 45 61 51 54 57 50 52 53 40 46 29 30 28 23 38 40 43 42 43 48 46 49 57 47 42 45 44 41 55 38 44 38 36 45 28 31 26 31 35 36 37 24 18 20 24
24 32 38 22 34 26 37 34 33 29 26 37 34 43 54 54 44 50 46 47 63 46 45 60 44 41 38 54 44 32 28 28 34 30 29 47 33 40 55 40 56 47 59 52 46 62 61 50 49 50 41 42 39 28 36 22 26 37 33 37 26 19 23 35
31 24 31 30 29 28 37 23 18 34 32 38 40 38 39 57 52 59 50 51 61 56 56 64 50 57 56 39 50 45 30 36 28 28 48 32 52 58 60 57 64 54 54 63 57 65 56 63 58 42 42 36 34 31 41 31 37 38 28 37 18 33 21 33
29 30 22 30 18 31 36 32 34 30 28 38 35 38 58 45 53 59 70 56 70 62 53 58 59 63 60 60 39 39 43 46 42 46 35 36 45 53 43 48 59 59 71 70 67 72 71 50 53 56 44 50 44 50 44 29 28 26 24 26 36 21 34 36
35 34 19 27 20 22 36 25 39 37 41 44 40 52 58 63 50 61 74 74 63 65 75 64 53 69 50 49 54 42 41 36 43 44 35 54 55 46 56 60 62 74 62 77 74 71 64 68 68 54 57 49 55 48 29 28 34 19 33 22 22 18 31 28
29 24 30 22 20 28 22 22 38 44 45 39 52 44 53 53 55 61 61 76 70 73 73 65 60 63 55 55 46 40 45 37 39 42 39 45 56 53 61 60 73 75 78 64 73 75 65 75 55 53 61 56 43 44 41 39 28 33 22 23 18 30 18 30
23 33 27 21 32 36 29 35 24 28 36 49 52 59 64 58 68 63 74 76 84 82 63 67 66 62 56 49 56 58 50 52 50 50 42 57 43 65 63 64 60 62 78 68 67 74 60 67 69 53 48 58 49 45 31 38 24 39 35 37 32 27 36 25
26 29 18 23 27 22 32 32 44 35 38 40 55 50 50 66 73 64 75 85 88 82 83 68 78 73 63 54 50 39 56 51 37 55 39 55 57 65 66 66 64 80 75 78 73 80 63 74 63 71 53 45 52 49 39 45 26 26 22 31 37 37 23 20
29 19 31 34 23 27 36 32 32 45 32 41 59 46 64 54 73 59 69 77 81 73 87 77 64 57 66 57 45 46 39 42 41 51 51 56 56 64 65 66 62 75 84 72 71 69 82 69 68 68 60 51 56 45 35 45 33 39 33 33 37 36 22 19
35 19 37 32 34 25 21 20 33 30 48 45 52 58 58 53 75 69 69 75 71 71 78 62 76 57 61 55 54 45 51 48 42 38 44 58 45 53 62 73 62 63 65 88 83 81 78 77 69 51 53 46 39 39 42 30 36 34 30 29 28 18 24 29
24 30 32 27 26 34 18 24 25 31 49 36 48 55 66 67 68 60 79 73 71 83 77 65 72 66 51 57 61 47 47 43 37 53 38 48 53 62 52 58 71 64 68 76 76 70 64 77 53 58 57 51 48 55 43 35 39 19 23 30 38 33 27 30
33 34 24 25 26 30 35 20 30 29 48 35 44 58 50 61 63 62 66 68 78 63 78 76 56 69 62 55 50 49 44 46 49 34 49 51 49 54 62 71 63 70 79 79 81 74 62 65 59 63 46 41 43 53 40 30 37 25 27 38 25 23 19 35
33 34 18 26 20 28 21 31 32 45 29 52 41 50 56 65 61 71 73 72 75 68 65 56 61 55 60 52 46 51 48 33 38 44 43 43 47 50 49 62 53 65 67 77 74 75 72 65 61 62 53 45 55 37 30 44 22 24 23 20 30 21 34 38
25 37 38 30 22 35 33 34 39 38 42 51 35 52 47 56 65 69 55 65 67 68 66 71 59 58 47 59 47 46 46 49 34 37 49 35 56 41 56 49 52 52 59 57 70 70 68 50 52 53 57 42 50 36 46 34 23 31 20 32 38 24 26 35
23 29 22 25 37 34 28 24 27 41 31 40 35 41 51 45 51 52 56 68 54 50 63 47 65 59 41 47 43 38 34 35 45 43 38 52 43 54 60 44 63 58 54 61 51 48 47 46 43 55 54 39 44 48 42 24 21 20 25 38 19 18 28 24
41 39 31 30 29 30 23 22 30 35 33 31 38 43 59 56 48 50 63 63 63 58 52 60 55 54 45 52 49 40 31 38 35 32 37 37 52 57 62 48 67 55 60 52 70 59 48 62 49 47 49 49 55 41 39 29 27 24 40 42 40 44 29 34
24 31 27 39 26 39 44 44 25 36 41 41 51 51 56 45 57 51 53 56 58 66 55 53 51 48 47 56 55 47 48 43 36 51 46 48 49 42 54 58 65 71 69 67 62 66 69 56 62 49 53 48 56 38 37 46 36 36 50 51 43 46 38 44
46 38 35 34 37 47 33 42 29 46 46 42 55 52 52 43 47 47 60 55 63 52 50 52 68 56 51 61 56 50 43 52 33 48 54 49 47 55 61 62 59 71 73 72 65 54 55 53 69 64 63 48 54 45 51 54 49 51 50 45 42 57 44 38
42 25 41 44 25 35 26 26 36 28 30 39 28 44 35 38 38 53 40 48 55 60 53 56 44 53 37 55 39 30 31 38 39 36 29 33 45 45 43 50 52 55 54 58 59 60 59 55 42 45 43 43 32 50 34 45 47 44 46 46 46 43 48 42
37 34 36 24 25 31 34 31 21 23 35 32 40 25 38 38 48 44 33 47 36 34 34 35 49 44 33 30 40 31 35 30 34 37 23 37 33 34 31 33 47 48 48 53 46 37 41 45 39 43 35 28 26 34 31 37 39 24 36 27 27 36 40 42
26 30 28 32 30 22 22 23 31 23 38 36 35 38 21 35 24 33 41 39 45 33 40 41 34 24 33 24 24 35 34 27 27 26 38 31 29 19 41 32 44 29 30 33 37 45 35 35 26 28 38 25 25 20 30 37 22 28 34 33 25 28 35 28
34 30 32 37 33 29 30 26 36 22 22 30 34 31 36 29 25 40 30 21 30 31 34 38 39 31 24 19 23 23 29 28 18 30 35 19 20 38 37 32 24 39 34 38 26 36 40 26 39 36 30 34 37 25 38 31 31 22 32 20 35 35 36 18
19 29 22 21 32 35 35 24 20 27 38 28 26 36 37 35 27 22 25 26 29 34 34 29 37 28 28 32 34 34 28 28 30 22 28 28 23 27 36 31 27 30 19 23 25 33 36 19 32 29 34 23 37 22 28 19 26 23 37 20 27 27 33 28
28 37 30 19 29 30 37 22 23 29 36 23 22 34 24 32 24 24 19 28 25 23 20 24 19 32 19 38 18 20 19 28 27 20 18 38 23 21 36 35 21 26 27 25 20 22 22 23 30 20 18 21 21 20 37 24 34 32 18 26 27 26 32 18
28 36 31 35 20 29 33 32 27 20 27 29 29 33 26 20 20 24 26 26 28 20 29 38 32 31 35 36 38 37 26 23 34 20 28 33 22 25 30 38 31 33 35 37 23 19 22 34 30 30 23 24 35 32 23 31 24 23 27 21 33 38 36 33
36 34 35 21 26 29 30 38 22 21 23 20 31 27 28 20 19 35 27 38 29 37 29 25 24 33 31 25 19 23 22 27 27 19 22 38 28 21 18 20 27 25 32 27 32 36 25 34 24 25 30 35 18 37 35 20 36 27 38 23 26 19 36 32
21 18 26 24 24 19 23 31 33 26 27 32 26 32 37 25 20 19 38 23 38 24 20 30 24 28 19 36 31 37 18 25 21 30 30 35 37 30 25 34 22 33 29 34 30 20 35 22 26 35 20 38 33 32 24 29 36 32 28 20 33 18 34 26
24 34 22 36 21 27 24 37 31 29 32 29 32 20 18 35 37 28 35 27 25 22 24 36 20 25 21 29 21 31 26 33 37 35 18 36 26 18 23 30 19 29 23 25 18 22 30 20 30 21 31 34 20 31 18 23 24 34 20 24 27 34 29 22
25 24 29 25 36 31 20 33 21 19 24 22 29 37 30 33 21 33 29 18 23 30 34 38 37 36 31 23 31 20 21 27 18 32 35 24 18 34 37 26 36 38 25 31 26 25 22 36 26 24 20 25 30 25 20 30 34 35 33 24 33 36 25 33
22 32 28 21 21 38 28 18 23 29 24 27 20 33 24 19 35 20 36 19 21 34 37 31 25 25 31 24 18 19 27 31 35 31 29 19 32 37 37 29 24 21 22 38 27 35 38 22 24 30 37 20 26 18 29 29 37 22 21 37 30 28 27 19
24 38 38 36 33 34 24 32 31 20 28 18 37 32 21 32 36 19 38 19 21 24 27 36 35 38 32 19 24 21 36 38 31 20 32 20 29 22 23 38 30 29 35 29 31 30 32 31 21 25 38 28 30 36 34 27 37 29 32 21 36 28 20 34
19 22 20 31 38 24 25 26 27 31 24 22 34 21 28 26 25 29 26 21 22 32 30 36 28 27 22 22 32 24 23 24 30 38 38 28 36 21 29 23 34 24 28 19 25 20 31 22 31 30 30 21 21 26 23 24 35 20 23 19 24 37 18 24
31 22 28 34 27 22 19 29 34 29 22 24 24 24 26 36 20 19 31 22 38 27 27 22 20 35 28 23 25 19 34 26 23 31 29 32 20 18 30 28 18 18 24 26 35 35 38 38 36 37 32 32 26 35 22 27 38 37 28 22 28 32 21 25
37 32 36 22 37 36 27 29 18 31 27 28 27 25 24 21 27 30 37 20 26 28 37 33 24 27 36 21 31 18 25 28 19 24 26 23 36 37 34 22 32 19 20 31 19 21 32 26 27 19 32 32 31 20 33 26 38 31 20 19 27 23 23 35
21 26 38 20 28 28 32 37 32 33 38 19 33 34 30 23 25 27 26 18 25 30 31 36 34 23 26 19 27 27 27 19 30 19 25 21 22 37 33 35 29 19 34 18 37 25 29 27 35 26 36 34 28 29 25 33 29 37 36 35 30 26 22 20
33 18 22 37 21 23 38 28 36 38 22 27 20 30 24 27 21 37 22 29 26 26 27 22 31 28 25 18 32 34 20 26 36 24 33 28 22 26 32 23 20 27 36 37 31 27 32 31 29 19 29 35 21 37 18 18 37 21 33 22 23 25 37 23
21 22 23 33 35 27 21 19 19 24 35 22 29 24 24 34 26 25 32 32 20 33 21 23 25 21 26 37 20 18 27 34 34 18 26 38 24 29 37 37 28 24 36 32 32 34 25 26 27 31 33 38 18 19 35 35 19 20 25 21 24 33 34 34
30 24 35 35 24 19 24 32 29 20 24 38 20 37 20 27 21 25 32 26 31 27 29 37 35 33 34 30 37 26 24 18 38 24 35 24 27 24 32 32 25 26 23 21 23 23 37 38 19 26 32 31 24 19 29 18 21 31 29 28 24 36 29 18
24 27 26 28 38 33 35 36 19 29 26 35 34 18 25 29 28 34 38 32 29 33 22 35 25 26 24 24 38 34 24 34 28 18 19 28 36 27 33 34 36 19 27 28 38 29 34 24 25 25 35 29 26 27 27 38 29 34 27 23 33 20 30 34
21 23 19 37 29 31 32 32 25 33 25 19 31 38 38 26 22 34 22 35 18 34 26 22 26 20 33 35 29 36 32 32 25 34 26 29 27 26 21 33 32 30 20 19 38 36 18 28 20 24 22 36 19 21 18 22 23 37 30 34 19 27 25 35
