P2
64 64
255
30 38 32 29 19 31 29 21 20 37 27 31 21 22 22 18 38 36 32 35 21 23 34 19 24 35 31 25 25 36 23 26 32 26 37 36 34 26 21 23 36 28 20 27 24 30 24 26 25 23 26 29 25 29 19 21 28 36 27 38 22 28 30 31
25 22 27 34 25 35 27 33 24 26 21 20 25 19 18 20 30 22 38 18 38 20 24 33 22 21 31 25 37 20 35 25 18 30 22 36 26 29 33 26 25 26 23 24 22 23 38 32 35 33 35 23 22 36 24 35 18 32 23 19 32 25 19 35
29 18 24 37 26 25 24 31 27 30 32 27 25 33 27 27 38 31 31 28 31 36 34 19 26 29 18 24 34 19 26 31 22 38 24 28 36 32 24 34 38 28 28 26 27 20 35 32 20 33 24 30 19 38 27 37 35 27 25 23 23 23 36 20
21 27 28 20 38 25 31 27 20 30 22 18 33 18 37 23 23 28 24 18 35 27 38 31 20 23 36 37 30 19 30 38 21 36 22 28 30 29 35 33 37 37 28 23 19 32 34 28 31 18 35 26 30 38 37 29 27 26 28 36 30 27 21 27
25 21 23 29 30 20 26 22 33 25 20 33 32 36 30 24 27 30 18 37 32 35 32 24 25 27 38 35 25 37 24 38 20 22 36 22 19 23 29 18 37 24 20 23 21 20 33 18 28 34 25 24 35 35 18 20 35 36 25 36 27 19 24 26
23 26 26 30 34 31 18 22 37 18 30 26 30 33 28 19 22 34 35 21 28 24 24 34 32 23 36 22 24 31 37 24 18 37 38 33 34 18 27 30 32 25 37 19 37 23 34 32 25 23 36 35 30 24 24 31 29 26 31 37 22 33 36 29
25 33 35 23 31 31 23 30 29 36 34 24 22 33 35 31 34 18 30 33 38 31 19 21 31 36 32 19 27 20 27 31 30 19 21 35 21 22 28 22 24 23 33 28 20 26 28 20 24 19 34 22 36 36 24 33 18 34 33 24 28 36 37 33
23 37 33 34 20 20 25 20 34 31 30 37 27 26 26 25 33 35 29 20 33 29 20 32 28 21 34 23 28 34 27 38 23 34 19 36 20 27 34 28 26 32 37 29 18 26 21 19 25 29 38 28 21 30 37 23 38 35 26 25 37 23 18 31
37 19 35 22 23 27 29 36 38 29 33 33 29 38 31 21 30 20 36 28 30 20 23 30 21 18 28 19 32 25 35 27 19 31 24 28 33 30 32 28 37 32 18 36 26 22 37 24 20 37 35 37 25 19 32 33 19 26 30 28 36 24 23 19
23 20 20 31 23 19 18 35 37 27 19 29 36 37 22 29 23 18 20 30 36 26 30 25 35 20 26 35 28 29 30 26 36 23 27 27 28 32 26 31 36 34 34 32 27 28 32 36 24 19 22 25 38 28 30 22 25 21 20 31 23 38 24 31
23 28 31 36 28 18 23 28 31 33 27 36 34 28 26 38 37 37 25 18 27 36 19 26 33 20 36 21 23 29 27 38 19 37 35 27 28 28 36 18 25 29 19 32 19 24 27 33 26 20 32 24 37 31 30 38 27 24 21 27 18 35 25 33
36 24 30 32 25 38 29 31 19 34 20 24 33 29 34 29 22 22 21 23 20 32 19 19 31 31 23 26 25 29 18 18 18 28 20 18 30 21 24 24 29 29 21 30 21 24 36 21 21 28 37 37 34 25 37 35 36 27 38 18 26 32 28 27
19 23 29 31 32 20 38 23 25 30 23 38 30 33 24 28 20 27 34 35 34 21 26 18 33 24 22 36 21 21 26 28 35 28 21 19 35 27 35 34 38 33 23 27 27 19 33 25 30 23 36 21 18 38 38 34 38 36 28 28 27 32 19 18
31 26 20 21 35 38 28 27 25 27 20 29 37 25 30 26 29 37 38 22 27 23 29 33 18 32 23 21 30 31 20 20 19 38 26 38 38 25 29 18 35 37 28 18 21 34 34 28 30 22 38 19 29 29 27 35 38 36 29 27 29 34 27 32
33 28 22 25 34 27 33 29 21 37 27 28 29 31 34 38 34 28 18 32 37 25 23 20 35 23 36 27 29 20 26 25 21 30 33 30 22 37 19 18 23 34 31 28 26 32 19 37 21 28 25 28 37 19 37 37 26 34 21 19 30 37 33 32
29 24 22 29 24 37 22 33 38 23 18 34 25 36 27 19 28 24 38 22 36 29 33 23 25 37 23 21 37 28 18 30 29 21 31 33 38 29 25 30 29 20 29 30 28 37 31 21 19 29 29 23 25 34 38 29 22 33 28 35 29 22 27 30
20 33 28 29 30 30 38 26 30 31 31 37 25 37 20 35 24 28 32 21 27 26 21 27 22 22 28 33 36 18 18 35 18 34 35 20 38 28 26 31 34 27 36 23 22 35 20 32 34 23 32 34 28 24 28 34 18 29 24 38 20 24 31 28
32 32 21 22 28 19 26 21 38 25 31 35 31 36 26 37 38 30 30 37 30 37 35 31 30 37 29 22 18 22 28 35 23 36 31 29 21 28 28 25 21 30 29 36 38 38 22 32 35 30 23 24 20 24 24 28 35 27 35 22 19 21 29 31
37 25 26 33 37 26 25 28 28 20 22 25 27 35 23 28 26 18 29 26 31 18 25 36 34 22 20 37 35 20 27 21 37 24 23 27 30 19 25 23 22 24 29 20 23 24 27 18 23 21 25 18 36 31 36 22 29 29 34 32 37 37 28 26
23 36 20 28 28 26 28 34 34 24 34 18 23 25 33 22 32 24 23 21 33 40 37 35 36 28 20 27 34 30 26 22 27 25 24 20 34 29 21 29 28 27 26 31 25 28 35 30 39 30 26 24 32 32 27 22 22 35 21 31 20 29 19 21
22 37 36 18 20 20 34 31 27 36 31 32 34 33 32 37 32 27 39 45 32 28 42 36 34 41 22 39 38 23 24 20 31 19 35 22 32 39 39 34 30 26 32 29 37 33 31 38 32 25 37 19 28 24 24 27 21 34 37 28 22 34 34 33
32 23 37 35 36 31 28 19 28 37 21 33 29 26 43 33 38 44 33 46 47 47 46 35 45 40 28 35 40 32 29 25 28 34 26 29 22 35 40 33 37 37 30 43 34 32 41 34 27 28 39 23 31 34 21 18 18 31 28 22 22 23 26 30
32 25 27 26 30 30 36 37 22 34 25 23 38 44 26 34 37 34 49 36 37 44 53 51 46 39 28 31 35 36 38 33 35 31 19 36 35 42 36 41 39 35 53 34 47 51 46 40 47 41 32 37 23 36 24 29 35 25 37 35 28 38 27 19
18 30 20 29 20 20 31 24 21 22 33 34 37 29 39 34 49 55 45 45 42 42 49 42 51 34 37 32 41 40 36 31 23 32 31 42 35 31 51 41 41 52 52 47 48 43 42 42 37 40 33 35 34 28 38 36 20 23 34 23 19 32 23 36
26 33 38 21 28 30 24 38 19 26 38 42 40 50 34 37 55 45 48 47 45 47 61 54 38 40 41 34 47 37 38 23 33 31 40 39 42 48 39 53 43 53 61 50 45 60 54 48 40 43 37 49 33 44 39 27 24 18 36 34 29 37 25 35
33 31 29 20 18 29 22 32 31 21 27 36 50 40 42 58 55 61 47 49 48 48 48 63 58 46 42 43 42 31 34 27 40 24 34 36 46 36 44 54 46 56 54 57 64 45 51 57 45 54 44 39 43 39 30 22 34 26 35 25 35 31 32 29
23 31 31 25 30 21 34 20 38 40 43 37 33 39 45 59 62 54 64 54 56 54 62 62 54 49 60 39 41 44 48 44 29 39 45 42 52 48 46 60 46 56 60 57 61 49 49 58 63 52 38 45 41 37 44 29 30 23 22 29 22 34 31 37
32 35 19 31 38 21 33 32 30 35 35 33 43 45 50 47 53 59 53 71 71 57 70 56 55 47 48 54 50 50 33 40 43 32 30 52 54 56 63 50 62 53 55 58 65 55 62 63 64 49 53 55 48 35 38 39 20 20 26 21 21 18 18 33
27 21 28 35 37 27 27 30 33 28 37 41 49 40 51 58 51 59 71 58 59 70 69 62 58 66 53 56 45 49 35 39 38 48 33 55 57 43 46 60 64 65 70 59 69 67 63 59 65 60 53 53 53 51 49 31 40 26 28 21 26 18 20 23
26 36 33 23 30 32 20 27 35 44 37 39 56 41 51 56 68 73 67 70 69 77 71 60 68 61 58 51 54 50 42 52 54 42 37 57 61 50 49 63 72 67 74 74 75 69 71 67 67 63 61 47 56 47 38 40 42 28 22 37 26 20 26 34
28 23 28 34 31 24 19 23 38 30 31 48 52 54 46 63 69 71 61 64 71 70 79 62 60 72 54 65 60 58 49 41 41 47 47 58 62 58 58 67 67 72 79 75 64 80 64 76 73 69 58 46 51 45 42 37 30 21 35 33 26 24 24 27
20 30 18 25 25 28 29 35 38 36 38 35 44 53 66 62 72 65 81 76 76 86 71 66 77 72 69 60 53 42 50 48 49 52 48 56 60 63 53 56 63 77 69 86 68 70 69 77 55 70 55 43 55 50 38 36 26 33 29 29 19 33 34 28
33 20 30 35 22 21 27 25 37 39 49 49 47 43 59 69 59 70 70 70 81 90 67 75 70 72 57 57 49 55 37 52 55 40 50 41 62 64 60 74 66 78 87 70 87 76 69 79 72 69 57 47 55 53 34 48 26 27 38 32 23 18 19 36
24 28 24 26 20 34 19 28 35 33 51 37 43 55 59 58 74 65 72 82 86 88 82 64 75 59 53 59 62 47 50 42 54 37 38 57 59 49 56 63 59 66 84 74 87 76 78 72 58 54 63 52 41 39 47 47 33 31 28 27 31 30 35 34
34 23 25 29 32 21 27 23 26 41 38 49 42 55 54 65 60 69 60 66 82 64 67 67 77 73 61 65 50 57 55 38 40 53 46 57 58 66 61 64 68 69 76 82 66 69 70 69 64 65 65 42 51 43 31 29 24 28 31 18 22 36 33 32
22 33 25 32 35 21 27 32 36 38 50 42 40 57 52 65 61 72 76 63 81 74 77 61 64 67 59 45 58 42 42 40 36 40 47 46 48 53 60 63 74 72 70 81 78 65 64 58 59 65 65 60 37 51 37 36 23 39 23 37 19 28 23 30
37 34 23 36 31 34 35 34 40 28 44 39 41 55 52 64 50 58 65 75 58 75 74 62 72 68 47 56 55 47 49 34 36 44 33 44 50 54 52 60 57 70 64 60 71 61 74 64 66 48 43 44 41 43 31 42 41 18 30 22 31 26 37 19
33 38 23 20 33 36 20 32 32 39 43 40 35 37 61 45 63 69 53 57 67 69 60 57 68 58 48 40 43 46 46 47 48 48 34 39 54 44 56 58 52 56 58 61 55 71 70 57 48 60 48 51 51 44 43 32 28 25 31 31 23 36 27 27
19 33 23 37 21 38 36 28 31 37 38 48 37 42 46 56 45 55 49 65 67 58 66 54 61 57 46 44 40 41 37 26 45 26 40 39 48 55 48 44 52 65 52 57 53 57 66 51 50 50 41 46 47 33 36 24 24 30 33 37 27 29 37 28
33 41 30 36 35 39 40 39 29 36 42 36 48 50 42 47 62 51 50 68 64 60 59 60 57 48 44 50 55 45 36 28 46 46 47 48 40 60 43 63 60 56 60 56 61 55 51 56 65 61 47 50 47 48 41 42 33 40 28 35 34 32 24 34
25 31 31 41 29 45 31 35 43 43 36 49 54 52 51 49 54 54 55 58 54 66 54 52 57 60 54 51 44 41 44 48 36 39 41 57 49 56 53 65 69 62 55 70 63 53 69 57 48 56 58 60 57 51 47 33 41 38 48 43 49 50 34 39
39 43 40 36 35 41 38 39 40 34 34 50 44 47 60 56 59 48 53 57 54 63 51 64 59 66 56 43 52 57 53 32 40 42 55 55 44 53 52 49 59 57 72 73 68 66 64 55 60 63 65 48 52 41 48 54 48 54 44 52 48 47 55 53
31 25 43 33 33 45 43 40 26 43 45 46 39 48 34 50 54 49 49 46 58 58 55 54 43 45 47 51 33 37 46 28 30 37 29 48 54 46 47 47 41 55 52 53 63 58 54 50 61 55 55 55 45 33 49 32 42 34 39 42 44 43 43 50
40 30 38 29 27 30 28 29 26 36 24 30 31 33 45 45 35 34 42 45 45 47 52 43 36 50 28 33 44 39 36 36 33 37 41 26 32 44 46 37 49 46 39 52 38 51 38 33 33 47 48 37 29 36 29 26 24 33 35 39 30 28 35 38
31 32 19 36 30 28 30 22 27 25 20 38 30 20 35 35 24 40 25 32 35 34 43 42 24 26 34 38 29 25 27 31 36 26 37 32 28 24 25 31 35 41 43 30 35 42 39 44 33 39 35 37 20 31 37 26 32 31 23 24 27 21 36 30
30 37 37 31 32 18 18 36 31 23 32 22 29 28 35 22 31 39 31 32 38 38 24 29 28 30 21 19 31 30 31 35 35 19 22 30 32 30 19 28 37 32 27 39 25 34 24 21 26 21 24 38 30 35 18 34 30 32 27 21 31 30 37 21
37 25 30 32 19 30 19 26 33 27 37 38 33 30 35 29 33 36 23 28 30 20 33 36 37 22 28 18 33 34 30 24 32 27 20 27 31 34 21 35 29 29 38 20 36 25 20 36 33 31 34 19 23 35 27 27 37 23 23 22 24 20 35 25
20 36 36 30 33 21 37 23 37 29 19 19 23 27 23 35 38 28 31 18 36 29 19 37 20 31 31 33 32 31 19 32 21 34 31 21 31 35 23 34 19 21 19 30 22 32 31 19 31 38 24 31 30 30 20 31 30 37 33 32 19 36 33 37
18 18 28 21 28 33 22 32 26 21 32 30 27 28 38 25 21 37 34 28 35 27 35 29 38 28 35 37 28 29 36 37 18 25 31 30 33 32 30 29 31 25 30 35 26 29 20 37 27 37 20 26 18 36 30 27 38 23 32 28 27 29 19 38
32 30 37 36 26 27 18 38 37 18 18 20 27 30 19 36 26 37 27 19 30 31 30 30 31 20 30 30 31 26 29 30 29 21 31 35 28 26 25 33 28 37 37 28 34 19 23 21 24 34 25 34 35 30 38 38 29 29 26 35 25 27 25 19
20 19 34 24 28 21 31 27 34 34 24 32 37 34 18 29 32 33 37 24 30 38 27 26 31 28 20 28 30 25 33 25 36 29 34 19 32 28 22 22 28 35 37 28 35 18 28 18 29 20 38 18 30 23 18 18 33 37 36 38 19 19 29 22
37 21 26 24 27 21 22 29 35 18 32 28 31 22 35 19 37 18 32 29 23 32 20 34 26 22 36 37 24 33 21 36 35 33 27 28 25 19 33 33 24 27 25 36 19 25 30 37 21 22 18 37 33 37 28 38 23 22 27 18 38 27 34 19
20 37 23 25 34 19 33 26 18 27 29 36 18 24 29 36 25 26 23 21 18 30 23 26 30 28 37 36 35 31 36 31 30 32 29 21 29 24 21 20 20 29 35 29 33 22 25 25 31 31 30 35 33 36 20 33 19 38 26 23 20 31 32 20
30 20 20 22 18 23 27 30 23 33 25 36 24 34 26 29 22 29 35 34 31 26 31 24 27 25 33 21 24 29 19 25 32 23 26 35 29 34 36 32 30 34 23 29 23 18 28 33 23 19 25 30 27 25 22 27 25 31 26 31 31 30 35 27
38 29 38 30 38 27 35 21 32 25 36 26 28 24 20 32 20 29 26 27 26 35 18 23 28 36 34 38 29 25 31 20 24 37 19 28 20 24 31 38 29 23 24 35 32 27 26 34 25 29 29 22 29 36 22 28 19 22 19 33 28 22 23 25
22 24 32 25 35 37 26 20 21 28 36 19 21 37 24 32 38 26 29 19 35 25 35 37 32 27 36 19 33 30 22 22 25 34 25 34 34 22 33 19 24 30 21 33 18 29 32 32 24 29 36 25 31 33 26 33 28 23 33 31 30 29 23 22
28 30 24 25 35 34 35 35 27 24 32 29 20 31 29 23 34 33 37 18 31 31 29 33 20 37 27 18 35 37 27 29 24 27 21 19 18 28 37 33 30 24 36 31 25 30 21 28 20 26 25 21 38 27 22 28 30 23 19 34 24 36 23 24
36 30 26 21 32 19 20 28 28 33 38 22 28 33 33 38 24 24 22 37 35 32 19 28 25 25 34 38 27 22 29 23 26 26 36 27 20 36 36 20 37 18 37 28 24 22 22 37 38 21 20 33 38 28 22 38 22 35 25 34 35 18 24 19
18 21 24 20 21 25 34 20 27 21 20 28 33 33 20 37 28 21 20 38 32 37 38 36 25 31 35 22 26 22 27 28 22 31 33 31 24 31 21 37 31 25 28 26 18 24 34 24 24 35 20 28 22 34 31 22 35 29 33 36 25 28 30 19
22 28 23 18 18 28 22 21 33 26 37 32 19 31 27 18 32 22 37 31 35 38 25 22 25 37 20 34 26 32 18 27 26 34 33 25 24 22 29 24 35 30 37 31 23 24 21 38 19 30 24 20 18 18 23 20 25 36 20 30 32 23 35 30
30 35 22 18 28 32 36 30 31 18 22 35 20 36 18 31 33 19 23 33 23 19 27 20 24 21 32 38 23 18 35 34 38 36 36 22 29 25 37 20 23 25 33 26 29 24 24 37 20 21 22 25 34 34 31 36 31 35 28 35 33 20 27 33
20 28 23 21 37 27 34 30 32 28 22 24 25 19 21 37 23 26 35 20 29 32 22 31 30 37 35 18 35 19 33 21 33 27 30 26 32 38 21 27 30 18 33 34 32 26 37 37 24 34 19 25 29 18 29 28 36 36 22 37 35 33 36 33
35 37 29 24 36 19 35 30 32 37 29 32 22 34 35 35 36 31 27 35 34 30 36 21 29 32 30 20 21 30 18 27 24 22 20 32 19 26 28 23 37 21 33 36 24 18 22 27 25 18 36 25 38 37 33 38 25 19 33 20 18 19 23 22
20 21 23 25 25 27 36 20 37 22 24 34 21 28 26 29 29 36 26 31 20 20 20 37 22 35 18 33 18 21 19 28 22 26 33 30 24 35 23 29 28 19 18 32 33 26 31 35 35 36 36 36 36 31 25 30 38 38 20 28 36 27 20 25
