P2
64 64
255
38 34 36 35 26 31 37 29 35 30 25 31 22 19 37 29 35 19 26 33 25 31 37 37 31 28 31 27 36 37 32 28 21 36 20 21 29 29 22 24 35 36 38 19 31 35 29 25 34 34 20 26 38 34 35 37 24 27 30 19 19 30 21 31
23 33 20 35 22 20 38 32 37 33 33 24 26 25 19 18 18 33 34 34 27 21 30 37 34 18 27 23 34 23 20 35 24 22 28 25 25 32 24 30 23 23 33 30 22 33 30 30 18 21 30 33 24 24 38 20 27 29 31 19 36 19 32 35
35 21 38 23 19 26 31 21 34 29 19 18 38 35 27 31 30 33 26 27 32 27 20 28 33 22 37 37 24 38 34 34 27 29 37 18 25 20 36 33 29 31 26 26 36 28 23 38 37 34 34 18 33 34 33 26 22 29 26 21 23 32 23 38
24 36 20 30 19 36 21 19 23 32 33 23 18 33 37 31 28 38 34 25 37 27 31 27 37 27 20 29 29 22 36 20 33 22 37 23 34 27 26 32 27 31 26 33 32 26 37 38 21 32 30 30 32 35 23 34 33 25 18 28 32 34 34 20
23 24 34 35 20 30 25 33 25 29 23 19 26 36 30 36 38 26 33 34 34 27 32 29 34 33 29 29 19 26 37 30 22 27 23 23 33 21 33 24 36 26 20 28 27 34 25 21 31 36 35 25 19 22 19 34 36 29 37 31 33 24 22 33
28 38 33 18 18 36 37 28 18 30 20 27 31 24 31 18 27 22 21 29 36 29 35 37 28 26 24 30 21 19 28 34 24 25 26 38 18 22 31 36 38 25 28 35 20 36 23 19 26 22 19 18 26 25 36 18 37 38 35 25 37 23 21 36
34 25 20 34 31 33 35 30 26 24 30 34 26 34 20 38 33 21 34 35 31 26 22 30 24 32 31 35 18 38 25 22 18 19 37 27 37 35 25 36 22 23 31 33 22 31 32 24 23 29 34 18 33 22 19 21 19 18 27 21 19 38 37 21
26 31 37 37 32 33 26 34 26 30 35 25 28 21 36 34 20 19 31 35 25 32 29 28 34 37 26 36 33 18 37 25 29 31 26 24 38 34 28 26 38 22 32 31 36 26 32 37 26 30 24 25 18 35 33 27 33 33 27 26 28 33 20 29
25 27 38 37 22 19 38 21 22 22 37 34 19 24 20 25 27 18 21 28 34 27 21 32 38 29 29 29 18 28 35 30 29 27 28 25 38 36 25 28 20 33 26 33 25 34 27 35 21 37 33 36 19 36 35 19 20 20 29 35 21 37 20 18
33 25 30 20 36 18 20 30 25 35 35 22 23 34 35 24 19 34 37 38 21 19 22 19 30 32 31 34 33 36 19 31 18 21 35 24 29 24 26 25 25 26 26 21 20 26 24 38 30 38 26 32 21 28 24 28 25 22 22 29 18 20 32 37
33 32 20 23 38 27 26 29 18 30 29 25 35 21 37 19 35 23 35 31 35 31 33 28 31 36 22 38 33 25 18 24 21 22 29 19 19 33 37 18 36 25 32 31 36 29 37 22 36 38 18 31 25 20 18 27 21 29 37 32 31 27 23 29
27 33 18 36 23 27 26 29 35 30 26 29 27 24 19 26 25 27 24 26 37 22 32 25 34 32 37 30 29 35 23 30 36 25 26 25 18 35 23 31 24 38 38 25 30 20 18 32 33 22 29 24 21 35 31 28 32 33 21 35 30 31 27 37
32 35 27 34 30 38 38 36 37 38 25 19 30 25 37 20 31 25 34 25 22 21 24 19 23 25 37 36 18 35 28 32 19 25 24 27 28 30 26 31 18 28 31 22 28 20 28 33 31 35 34 30 26 22 22 22 36 36 27 20 24 37 31 38
30 37 20 22 29 20 28 24 27 18 28 34 35 32 19 36 35 26 35 18 31 28 27 21 28 35 25 19 23 19 21 27 20 22 30 31 38 32 22 23 21 31 37 24 29 27 31 29 24 36 27 18 36 28 32 34 23 29 20 20 34 18 25 19
27 18 28 35 24 23 21 36 24 29 24 29 27 18 34 18 25 35 35 23 29 25 32 26 35 22 31 25 30 30 26 33 37 30 29 22 34 21 36 33 23 22 26 36 36 19 31 31 36 23 33 36 37 31 21 33 36 19 34 36 22 31 18 24
20 23 21 18 18 19 33 37 19 26 24 30 21 19 20 38 32 26 28 19 32 38 19 34 34 20 30 37 37 25 31 31 38 18 23 24 33 36 35 33 19 29 28 37 20 33 18 28 37 25 20 19 24 18 25 31 24 24 21 31 27 19 37 27
21 32 19 32 22 26 19 24 38 38 25 21 18 28 34 29 26 32 19 36 26 23 25 25 38 32 30 25 27 18 26 18 35 34 28 24 25 28 27 38 25 21 27 23 36 31 34 19 38 25 37 32 29 20 31 24 34 20 34 34 19 34 37 30
29 29 34 25 25 38 35 28 35 36 23 23 23 21 36 24 26 29 25 37 33 27 28 38 19 25 20 30 29 37 20 25 38 32 31 35 24 31 23 18 24 18 19 32 33 37 19 29 36 20 29 31 38 36 33 20 29 18 29 34 32 36 22 26
26 29 31 31 33 38 29 27 18 26 18 18 35 23 31 28 18 38 22 27 21 38 33 32 27 19 35 32 18 33 26 21 27 27 29 31 29 36 30 24 33 37 29 20 37 19 23 36 27 27 29 36 28 29 37 32 38 38 32 18 23 27 23 20
27 37 34 19 36 26 27 23 20 38 18 33 26 32 26 27 34 38 34 23 29 32 36 23 37 22 24 24 30 30 20 26 29 26 26 27 33 22 35 31 30 32 33 39 23 21 28 34 20 32 23 24 32 22 27 22 36 37 38 33 22 25 38 26
35 31 20 18 25 20 24 32 29 35 32 38 24 37 26 35 29 31 36 31 26 44 35 26 36 29 27 36 24 37 37 22 36 29 37 38 30 20 36 31 32 45 34 37 45 26 27 28 31 37 19 20 28 27 25 25 30 18 30 31 25 24 33 31
18 37 30 37 36 24 29 31 24 27 22 34 22 35 34 30 43 47 42 35 47 31 45 30 46 26 38 26 24 111 30 18 35 33 20 26 29 26 32 30 38 31 45 38 47 33 44 30 34 30 30 21 23 20 33 33 22 33 28 33 35 32 19 27
28 29 36 24 33 18 19 37 22 34 30 24 29 31 27 48 33 35 33 36 42 43 39 36 48 34 32 45 27 36 120 26 21 32 21 40 34 35 38 50 49 46 49 38 41 51 52 43 47 28 41 38 28 37 33 18 20 38 30 32 26 19 22 27
20 29 36 25 22 19 20 31 22 20 34 27 33 34 37 50 39 54 47 51 44 53 57 38 41 38 41 44 40 27 110 112 26 27 31 40 39 49 46 41 39 39 55 57 57 46 47 49 41 46 46 35 40 34 24 36 21 31 34 22 18 34 26 35
30 24 29 18 18 18 20 38 38 19 32 25 40 33 41 42 53 53 43 45 56 46 55 43 43 42 42 39 30 29 34 114 108 29 44 45 34 37 48 53 51 42 44 55 57 45 51 57 57 42 37 31 33 35 21 30 23 33 28 33 30 38 34 28
27 36 25 33 25 24 26 26 26 26 32 38 50 33 35 53 55 58 47 45 45 54 47 56 44 48 56 48 39 35 130 25 23 205 29 35 37 43 49 45 42 59 54 54 53 57 56 53 52 53 45 36 47 26 31 22 24 24 29 37 31 18 30 24
24 35 36 38 24 23 33 35 36 31 31 42 43 51 44 47 55 55 57 58 53 56 65 53 62 47 55 40 43 137 36 29 34 201 39 47 54 46 42 48 60 54 58 57 58 48 54 46 48 45 56 45 40 43 40 30 36 22 24 36 29 30 32 20
35 35 19 23 23 38 37 38 23 37 33 50 42 44 56 51 61 50 53 58 58 57 55 66 52 63 58 47 50 134 38 42 218 134 48 44 44 47 60 56 65 51 65 72 70 69 57 53 58 54 48 53 34 51 31 24 29 30 21 27 22 38 29 31
30 37 35 25 20 33 32 27 37 25 48 41 39 43 59 49 62 71 55 66 62 74 68 66 70 56 50 56 126 53 46 52 128 219 46 47 44 63 52 49 61 57 70 73 70 59 72 59 55 46 59 41 56 33 36 26 37 24 25 21 21 31 33 18
29 33 27 23 28 21 22 25 41 29 30 40 56 42 47 58 57 70 63 74 78 74 79 71 63 52 54 132 54 127 47 46 136 121 127 54 60 56 52 57 73 67 71 61 70 62 62 74 67 68 60 52 43 41 46 39 42 25 33 21 18 31 36 24
31 24 24 25 25 28 20 34 43 31 47 37 49 49 60 61 68 73 78 73 70 79 83 69 59 57 149 59 62 143 54 36 208 122 45 50 61 49 61 63 71 68 66 75 66 81 63 75 60 54 64 60 46 41 34 32 38 37 25 18 34 36 35 25
18 22 29 32 32 18 27 27 30 30 37 38 55 56 58 55 60 64 71 86 78 70 67 80 78 68 138 65 60 43 140 122 43 214 42 45 43 67 70 56 65 67 77 77 71 80 64 68 58 52 58 54 48 53 39 36 33 25 38 18 30 26 38 22
28 38 29 23 36 31 33 36 24 30 40 55 51 43 55 66 62 71 78 74 73 89 77 79 63 146 68 52 49 58 223 40 52 211 57 42 47 61 56 59 68 69 76 90 73 83 76 63 55 53 57 46 52 47 32 33 31 37 34 36 30 23 28 38
30 37 33 18 32 18 26 25 43 38 37 35 45 56 60 53 70 78 73 80 88 72 79 68 148 71 70 51 62 57 55 215 55 137 128 43 59 49 71 55 65 72 68 71 82 76 62 73 55 53 58 43 58 51 40 28 32 35 24 30 18 28 26 21
23 39 39 40 36 33 26 40 37 35 36 51 52 60 61 74 69 69 85 85 90 84 84 80 149 74 68 58 61 45 61 135 145 144 50 141 68 72 65 72 71 73 79 73 90 87 88 85 66 75 61 58 59 49 54 47 51 40 40 27 28 44 35 34
28 43 31 29 37 30 29 50 48 57 52 62 66 63 71 65 68 85 87 91 81 94 87 162 83 78 78 63 69 63 142 68 153 148 66 154 68 78 69 76 89 80 90 98 95 87 95 79 89 83 69 67 73 73 58 55 56 43 53 48 44 56 42 57
34 42 50 36 40 53 46 52 53 57 58 62 63 74 76 72 76 82 92 88 89 88 89 93 174 73 77 84 62 77 157 62 57 157 154 149 67 70 85 94 98 99 85 87 84 93 101 85 78 74 72 87 65 65 62 68 62 48 62 66 49 61 51 60
49 52 60 60 48 42 43 42 53 50 66 71 75 72 69 71 84 87 81 92 95 90 86 84 79 161 78 86 78 84 167 81 165 64 156 169 78 76 83 86 89 106 95 94 101 92 96 103 93 99 88 94 81 87 85 72 69 77 69 79 61 73 76 71
46 52 42 56 46 48 40 52 45 46 56 52 53 74 65 72 67 69 89 75 84 84 86 87 156 73 76 75 72 65 139 52 71 228 65 71 161 84 80 87 78 92 97 92 94 77 77 87 75 88 84 69 64 77 71 59 56 60 56 68 69 52 67 60
42 45 49 32 42 50 37 39 50 47 53 50 62 56 67 55 65 74 77 69 69 72 71 145 63 71 59 71 53 60 136 53 54 141 147 136 57 66 70 71 76 81 84 79 79 73 63 78 72 62 58 53 71 47 59 58 55 50 54 50 53 59 59 51
33 25 31 31 32 25 24 36 43 44 33 38 39 49 55 46 60 62 64 57 49 67 55 133 52 56 46 53 43 141 40 31 46 39 254 56 57 51 62 67 65 69 67 55 60 56 54 67 50 65 60 53 45 45 42 41 29 42 47 41 31 37 35 40
35 34 20 22 28 19 35 33 31 24 28 41 38 42 41 49 36 41 37 48 54 42 56 43 128 40 33 38 27 28 116 37 27 195 119 43 46 43 35 39 45 57 56 53 41 52 40 54 51 51 41 40 38 37 30 36 30 34 33 34 32 25 19 31
26 38 35 36 35 36 35 30 38 23 24 36 31 43 39 31 48 32 37 33 39 52 53 35 50 121 34 30 40 34 118 38 18 29 201 115 30 39 43 50 31 39 45 53 39 43 38 43 35 29 42 27 22 33 37 29 23 21 32 20 35 36 27 18
34 24 30 27 31 22 37 32 37 19 25 23 29 34 27 33 33 38 44 42 33 37 38 45 27 115 28 34 25 114 21 31 18 29 190 118 35 29 44 26 35 48 32 31 35 32 31 41 32 38 42 38 27 20 31 31 37 21 34 34 25 38 29 21
28 32 36 24 22 20 29 19 22 34 23 24 30 35 25 28 25 40 30 40 46 42 25 27 127 37 36 36 21 116 26 19 21 196 118 32 26 22 21 32 32 36 40 35 37 42 36 30 41 28 35 35 30 21 27 23 29 36 29 25 38 38 36 30
21 33 38 23 20 35 33 23 36 27 26 32 30 32 32 32 39 32 22 38 24 31 29 30 37 108 33 32 38 23 107 34 120 108 107 18 30 18 26 25 22 38 23 34 36 30 30 34 24 29 29 21 23 28 29 27 21 35 23 30 27 37 32 30
24 21 30 19 32 22 33 32 27 22 22 30 38 35 38 37 19 35 22 25 32 24 34 32 122 30 20 28 31 28 122 110 20 198 19 24 23 19 37 21 23 29 27 32 28 23 35 22 38 36 18 24 38 21 23 30 36 22 23 37 28 30 28 38
21 26 19 38 22 24 18 37 21 33 35 21 20 24 37 28 32 30 20 25 24 28 22 32 115 35 31 18 20 23 121 108 20 118 112 21 27 38 27 28 24 24 36 21 20 24 27 22 28 31 35 28 19 32 29 22 30 22 32 27 35 33 31 26
37 37 21 29 19 19 27 30 22 34 33 34 25 32 29 24 25 29 36 23 27 21 21 24 19 108 31 19 38 24 117 29 112 23 195 28 32 26 27 21 19 29 37 23 30 38 24 35 19 38 37 18 22 37 20 35 38 18 19 21 22 32 23 33
25 30 35 36 37 20 25 37 31 29 32 20 26 23 19 33 21 23 21 35 27 30 21 20 117 19 18 35 32 32 31 113 29 205 110 27 19 33 29 38 38 35 35 35 38 31 32 30 34 28 30 32 24 20 27 35 21 19 28 22 25 20 18 38
24 34 35 21 28 20 38 30 35 24 33 28 22 31 18 38 24 34 20 28 22 35 35 120 22 28 36 20 37 25 19 19 105 201 33 103 34 27 34 28 29 28 26 28 33 29 36 38 18 29 35 31 19 26 23 30 31 38 27 22 29 29 23 18
34 29 19 33 35 36 37 24 32 24 19 23 24 19 38 38 27 24 19 26 36 26 21 103 33 18 31 25 20 25 29 36 195 115 19 122 22 30 24 30 25 34 32 32 27 29 23 26 20 21 38 18 20 33 32 18 34 34 37 24 23 20 29 22
36 23 32 32 31 38 26 31 20 35 27 25 32 29 21 18 18 22 19 26 38 21 28 104 27 30 19 22 31 34 31 122 24 115 206 38 22 19 31 22 22 31 32 37 32 36 30 33 28 29 36 26 27 33 18 24 32 34 30 21 35 31 24 22
20 38 35 33 20 35 18 29 28 38 20 29 25 29 27 23 25 20 34 19 33 24 25 37 120 37 21 32 33 35 111 24 26 120 117 28 26 33 37 30 28 29 30 20 36 38 33 32 19 23 34 28 19 30 38 22 30 24 21 37 20 24 19 35
29 37 37 25 26 38 34 34 30 18 20 23 36 30 22 33 30 26 32 34 24 30 32 35 27 103 35 25 25 27 19 123 38 104 111 31 23 20 19 36 33 36 38 34 22 37 25 19 20 35 24 25 31 19 38 28 36 33 23 25 35 24 20 38
22 32 34 29 30 28 23 20 36 31 27 22 30 32 24 34 27 26 33 34 26 26 20 28 33 26 22 37 24 20 19 114 26 206 33 37 23 34 32 23 30 21 30 20 38 19 21 26 19 19 30 35 24 26 36 35 22 36 23 23 32 38 30 27
23 35 36 18 38 28 21 21 29 23 34 27 29 26 38 34 30 25 32 20 20 38 31 36 30 26 19 20 29 27 122 18 196 35 28 26 25 22 22 32 30 22 22 38 19 20 32 26 32 32 36 33 25 38 35 23 24 32 28 27 21 35 19 33
28 20 33 28 28 34 20 38 30 30 28 32 36 22 28 25 33 20 36 20 34 28 32 35 30 34 26 29 29 37 19 26 25 195 25 30 18 36 21 25 38 18 25 32 28 33 22 24 28 23 32 35 30 32 35 23 26 34 21 30 25 19 26 18
35 36 29 26 37 23 19 28 27 19 26 23 22 26 22 20 25 33 18 22 27 18 29 25 33 36 32 29 18 23 24 19 117 108 22 35 35 26 38 25 32 31 36 24 38 28 19 29 32 24 22 36 30 32 23 31 20 38 26 26 22 20 34 38
19 29 25 27 21 28 23 33 18 30 29 30 38 28 23 21 31 38 22 38 29 35 22 27 24 24 28 26 30 19 22 34 22 21 108 20 19 35 24 22 18 31 18 28 21 36 28 26 23 36 22 20 21 27 31 18 26 23 20 38 30 26 26 26
33 19 27 35 31 19 19 26 20 18 37 18 25 29 30 21 20 26 34 32 29 21 34 27 20 31 18 38 22 28 23 37 34 25 36 104 35 28 33 21 25 20 34 20 36 28 26 21 32 26 23 23 34 27 24 18 18 33 35 27 22 18 33 25
19 29 18 26 35 23 38 37 31 22 19 31 22 35 23 34 20 28 30 19 34 23 29 25 28 25 34 19 18 18 21 30 27 25 18 31 37 29 38 19 36 28 38 18 36 38 36 38 24 21 25 33 31 31 29 24 36 26 19 22 36 23 18 28
30 35 24 23 18 21 21 26 35 24 34 32 20 37 21 34 26 32 30 30 25 21 18 23 33 21 26 36 32 22 26 26 20 22 24 19 31 18 22 36 38 38 38 36 26 27 31 34 26 37 36 26 34 33 29 19 29 30 36 26 37 19 38 30
24 29 38 30 37 37 33 22 35 26 33 23 36 34 30 26 36 34 34 32 29 29 23 35 23 18 18 20 20 35 28 29 21 18 19 27 38 34 37 37 34 32 33 35 30 30 18 18 36 38 24 34 35 36 37 28 29 26 30 29 19 24 24 19
