P2
64 64
255
25 22 26 18 19 19 23 24 16 18 22 16 26 21 17 17 15 23 18 26 14 21 14 15 18 14 14 26 16 24 23 19 18 26 25 25 25 23 24 17 23 19 18 18 25 18 16 15 19 23 26 15 16 17 14 24 24 24 20 24 21 20 21 21
18 22 17 24 26 25 24 14 22 26 22 26 17 25 17 20 23 18 19 26 15 18 23 18 20 17 25 26 22 14 16 23 16 18 25 20 15 18 17 16 25 23 21 19 21 19 20 23 15 17 25 22 21 14 22 18 14 18 22 25 22 21 22 17
18 25 24 16 25 18 15 23 19 25 15 22 24 18 17 15 19 23 21 23 16 20 15 17 16 26 23 16 24 20 25 24 24 17 18 15 19 26 25 15 25 16 15 15 19 14 14 24 15 16 17 19 21 17 15 25 15 24 19 25 15 14 16 21
16 25 20 22 21 17 24 25 19 19 20 23 16 26 18 15 19 19 22 19 24 19 25 17 21 19 16 20 25 19 19 20 16 22 18 23 22 15 19 18 15 15 17 19 24 26 24 14 25 24 16 24 15 15 23 22 17 17 14 23 19 24 24 15
20 25 15 17 14 23 14 25 23 19 17 22 20 24 26 24 17 19 14 16 19 22 19 20 25 21 15 21 19 14 22 18 17 18 18 14 24 26 22 14 23 22 22 21 22 19 17 15 20 22 16 23 24 15 21 25 15 22 25 14 18 19 20 21
20 18 17 21 24 25 14 23 17 23 14 14 16 25 20 25 16 14 18 23 24 17 26 20 14 15 22 15 26 19 15 18 23 18 19 14 24 17 19 24 19 26 17 15 14 19 22 19 19 24 16 24 17 15 19 19 25 17 22 14 19 14 20 14
16 16 17 25 18 26 16 20 20 16 17 20 26 16 17 18 22 20 26 20 15 16 23 14 25 22 17 20 20 23 21 16 19 22 16 17 19 26 22 15 19 25 22 14 19 22 26 15 21 18 16 23 20 26 22 18 26 26 16 25 15 16 23 22
24 24 24 22 14 24 22 21 21 15 20 22 17 22 18 24 17 21 19 25 24 16 18 14 23 19 15 26 14 18 19 26 25 14 14 22 20 18 14 25 20 20 23 20 24 20 19 18 16 24 18 14 17 26 14 20 16 16 26 20 15 21 26 20
24 24 22 25 17 16 20 26 16 17 14 21 26 18 20 24 21 17 14 21 26 17 24 15 17 19 20 15 20 19 16 18 25 15 18 19 16 14 24 14 16 20 21 26 14 26 15 19 21 15 19 21 25 14 18 14 22 17 23 20 21 16 17 18
19 15 15 26 15 26 25 17 18 16 17 20 18 24 15 14 17 14 24 26 14 24 21 19 15 24 26 26 16 19 24 20 24 21 14 17 25 17 21 15 18 25 17 23 20 24 24 16 16 23 23 17 17 24 14 22 19 23 24 24 22 19 16 25
21 21 15 22 20 19 22 22 19 18 15 23 14 14 15 25 20 17 17 24 17 17 23 15 17 14 23 22 22 14 15 20 15 14 16 25 17 21 18 16 19 14 24 17 21 18 18 24 15 26 17 20 21 19 19 26 25 23 23 24 14 25 23 18
15 22 26 20 22 14 26 24 24 20 19 19 20 17 17 20 16 21 26 15 20 17 15 20 18 19 19 25 22 20 15 15 16 23 18 22 15 23 21 14 19 15 15 22 23 25 21 23 15 25 14 18 17 15 19 25 20 15 26 14 17 15 17 22
23 17 23 19 26 15 15 17 21 26 21 14 18 26 24 17 18 21 22 24 22 18 15 18 14 22 18 26 24 22 14 18 20 16 22 25 26 23 15 15 18 21 21 22 17 18 26 23 16 25 18 16 21 17 15 21 25 25 17 23 23 16 22 16
25 18 26 16 19 14 26 17 18 19 16 14 24 20 24 19 21 16 18 26 14 16 16 21 20 21 22 18 25 15 16 18 24 15 24 25 14 18 17 20 16 20 23 19 19 23 25 14 23 20 22 21 21 19 23 24 20 24 18 16 26 15 24 23
26 17 25 20 26 21 23 16 24 20 19 20 26 22 23 17 17 23 19 23 21 18 22 24 21 18 20 23 20 26 14 14 25 17 26 24 18 16 17 20 21 15 16 14 21 18 19 17 15 16 23 20 23 19 24 17 21 16 25 17 14 19 18 17
24 25 22 18 15 22 17 21 22 14 21 19 22 24 16 19 25 14 25 14 22 25 17 19 16 24 15 25 25 15 22 17 17 21 23 26 14 14 18 25 16 18 21 17 21 17 18 24 24 16 16 25 17 21 24 14 22 21 14 24 14 26 22 17
19 15 14 21 23 24 26 15 26 18 19 26 24 25 16 14 24 15 25 20 18 20 17 22 24 20 16 24 17 21 26 18 24 20 14 18 21 21 18 23 15 26 16 18 17 26 26 14 23 22 25 21 17 23 16 24 20 17 26 20 20 14 24 15
25 15 17 24 14 14 24 25 24 20 17 19 26 16 14 16 25 25 18 16 22 22 18 24 16 18 21 18 22 25 14 17 14 21 18 22 23 21 24 25 20 21 19 17 23 18 21 23 16 22 20 20 18 26 18 25 26 21 16 14 21 16 21 24
17 24 15 24 20 25 18 17 22 15 22 17 19 17 23 26 26 23 19 16 17 18 23 23 22 15 14 16 19 14 22 21 26 26 16 15 15 24 14 25 23 26 21 17 26 26 23 26 22 19 16 18 24 18 23 26 14 17 14 18 25 20 23 25
20 23 14 19 23 16 22 18 21 24 24 20 20 15 19 19 24 27 28 23 22 23 26 28 17 21 21 18 19 23 14 15 22 19 25 14 19 25 22 19 19 25 28 30 26 17 28 19 17 19 20 21 16 24 17 15 19 24 17 19 19 20 26 19
24 18 15 21 17 18 23 23 15 21 14 19 17 18 18 23 19 21 33 23 31 32 24 33 31 20 27 19 25 20 20 21 14 21 21 20 16 19 17 30 32 24 25 24 28 22 32 21 24 17 22 18 14 20 21 26 26 20 20 14 24 21 22 26
21 26 16 17 25 22 20 14 25 20 21 23 26 17 28 24 24 25 30 29 33 31 27 32 29 31 30 26 18 26 25 25 24 16 20 19 20 20 25 29 27 24 27 33 30 32 31 28 28 22 19 19 19 21 24 24 23 23 21 26 25 17 14 21
24 15 23 15 16 21 20 18 22 14 23 22 29 26 29 25 34 30 38 39 35 32 32 38 38 35 33 27 28 24 22 17 22 20 25 28 27 26 30 32 28 30 34 36 40 33 33 29 31 28 29 28 26 16 26 19 20 14 24 18 15 16 20 17
14 23 23 22 19 15 14 23 17 24 24 18 23 24 30 28 33 42 37 45 35 35 36 36 33 39 39 25 34 31 22 21 26 17 22 20 28 36 31 31 39 42 40 45 34 35 33 42 40 27 31 25 25 18 21 14 19 25 19 19 17 14 15 23
22 17 18 21 23 26 16 19 18 24 24 29 29 35 36 42 45 41 41 47 45 45 43 41 41 35 38 39 35 29 21 18 16 19 31 33 36 30 33 36 42 43 42 40 40 48 41 46 33 34 39 34 30 24 21 25 15 25 23 19 20 26 18 16
16 20 15 19 25 23 18 14 26 22 25 33 34 32 43 34 42 38 42 42 46 50 42 39 50 38 43 40 28 26 23 21 27 26 23 28 38 40 36 44 48 49 43 50 41 50 50 43 46 35 31 33 26 28 24 28 17 14 24 22 16 16 17 23
19 15 26 18 16 19 20 22 20 18 24 35 28 41 43 45 49 43 51 50 56 48 55 51 41 41 41 36 39 31 30 21 23 33 25 38 32 37 44 44 52 55 53 49 54 44 49 50 44 43 45 34 39 32 30 22 15 19 25 15 15 21 24 20
22 23 16 23 22 20 22 22 19 27 23 34 38 37 48 50 53 56 59 53 50 53 55 49 55 46 51 36 44 41 29 27 29 25 36 39 40 46 42 42 47 50 55 52 55 48 48 46 49 47 41 34 33 28 34 28 28 16 15 26 25 25 15 25
26 19 24 21 23 16 22 17 28 25 28 29 34 46 46 44 55 48 52 62 62 56 53 62 49 49 42 42 36 36 33 28 28 36 35 33 45 39 54 57 58 51 62 53 62 53 57 57 52 48 51 42 35 31 37 30 19 16 17 25 16 26 15 14
18 15 22 15 16 16 22 22 18 27 38 39 44 48 43 56 58 57 62 55 63 64 64 64 56 58 52 40 42 36 36 33 35 37 31 36 46 46 52 47 52 55 66 60 59 60 59 56 59 48 46 46 34 38 30 32 27 25 23 20 25 17 23 22
17 19 22 23 17 22 20 21 19 24 30 41 42 38 45 55 60 56 61 67 65 61 59 68 62 61 55 51 45 37 38 35 32 34 40 34 41 46 49 56 58 63 69 60 61 66 63 56 61 49 44 47 41 42 27 27 30 25 15 16 23 14 18 25
16 21 26 18 15 17 16 18 28 29 33 42 35 40 45 54 54 65 65 72 65 65 68 69 64 58 59 45 43 42 34 39 32 41 42 36 44 43 53 54 60 58 65 70 65 73 68 63 51 55 49 50 42 36 36 23 28 26 21 14 26 25 21 17
26 15 14 21 20 23 21 18 20 25 32 41 38 51 48 52 59 57 60 64 72 78 64 64 65 55 56 51 42 36 40 34 43 34 40 43 43 52 57 58 67 59 65 77 74 74 60 56 61 54 52 50 37 38 33 32 26 19 26 20 15 18 21 22
17 22 25 16 18 14 21 18 27 26 33 34 35 48 50 50 55 56 59 65 70 73 71 58 62 55 51 45 46 43 34 42 44 44 34 38 42 47 54 51 60 63 63 72 70 67 60 54 52 51 53 41 36 37 27 32 23 21 19 25 25 24 17 26
15 25 16 17 22 17 24 26 29 33 27 35 37 42 53 57 49 53 68 62 65 63 66 63 65 54 50 44 44 36 41 35 39 42 39 34 43 54 54 54 63 59 60 64 66 70 58 53 49 55 48 50 36 36 28 24 21 27 17 25 16 17 20 15
21 22 14 22 14 15 17 18 20 26 30 34 45 43 41 46 59 58 64 55 68 64 57 60 53 58 44 43 40 37 33 36 42 42 41 37 45 40 50 53 57 55 62 57 69 61 59 61 52 46 48 46 33 41 35 22 27 21 14 21 15 16 25 24
18 25 26 21 26 26 25 24 28 27 28 35 41 42 40 46 55 55 50 63 60 55 57 50 50 56 46 49 45 33 29 36 32 37 38 37 47 50 42 57 56 57 57 59 56 60 60 52 51 52 45 46 36 32 26 23 21 15 24 15 26 20 22 14
22 19 20 16 26 26 20 24 17 23 28 38 32 40 40 40 44 57 57 59 51 55 59 58 52 46 48 46 33 39 32 37 34 35 36 39 38 46 40 47 48 56 50 52 51 49 59 45 49 43 39 33 37 28 24 24 28 16 20 14 17 26 15 18
19 18 18 21 20 21 26 20 21 28 27 30 37 40 41 49 48 49 45 56 52 46 47 46 49 48 41 42 34 37 31 24 27 22 33 34 40 39 42 50 48 53 53 45 57 52 55 46 43 39 45 37 36 33 33 20 22 18 23 19 14 22 17 25
27 22 25 28 21 25 19 26 21 25 29 28 40 42 40 38 47 47 47 55 55 46 52 43 50 47 42 44 41 37 34 31 33 33 36 38 34 36 49 42 46 51 49 54 56 54 44 47 42 43 45 37 43 32 36 30 30 22 21 24 20 29 26 32
30 31 32 21 31 25 30 32 31 33 28 36 35 42 45 43 46 52 48 52 52 53 57 48 48 46 47 42 43 34 39 38 29 29 35 45 38 47 50 54 50 47 48 49 60 60 53 55 52 48 49 40 47 35 35 34 30 34 30 36 27 38 36 39
31 33 26 24 29 30 25 29 34 32 36 33 31 36 47 43 50 54 46 56 52 56 53 52 44 47 47 51 46 46 34 30 35 37 36 36 47 51 43 53 53 50 54 58 54 59 55 51 48 44 44 41 46 44 41 41 44 43 37 44 40 41 45 40
29 22 32 26 26 27 28 22 23 25 29 24 31 29 33 34 35 43 40 42 37 48 47 37 38 38 39 35 39 35 27 24 26 28 30 29 33 34 42 41 46 48 43 51 44 45 39 45 47 46 41 37 38 30 36 38 26 37 29 35 29 36 38 37
25 19 19 19 23 22 21 17 27 28 25 18 22 25 32 32 26 35 35 33 41 40 30 31 27 31 35 26 28 26 20 28 28 21 24 20 26 35 37 38 30 40 31 31 37 35 29 31 28 33 26 32 20 20 30 21 32 22 25 31 27 30 21 22
25 19 25 22 18 26 15 24 14 26 20 15 23 26 24 26 30 22 30 29 24 28 23 21 21 26 18 21 16 23 23 26 24 15 24 18 15 25 27 22 26 33 29 34 27 21 25 26 26 19 19 19 18 19 14 25 23 23 23 23 22 18 20 20
15 16 16 15 19 23 19 17 22 22 24 19 25 14 17 17 22 16 24 19 26 28 23 27 23 17 24 22 24 14 21 23 19 16 20 16 23 19 26 19 25 22 23 22 18 22 25 25 24 16 24 17 18 16 19 16 16 25 19 15 25 21 18 20
25 26 23 15 25 22 24 17 18 18 24 16 16 24 23 21 24 26 20 24 15 15 22 25 20 18 15 23 20 21 21 19 22 20 21 15 21 14 18 26 23 18 15 15 16 19 26 18 22 24 16 23 23 25 14 23 19 19 22 25 26 15 25 21
16 23 16 24 16 21 25 16 21 25 26 24 15 14 19 20 26 20 26 19 14 18 21 17 23 14 24 18 18 24 24 15 16 18 22 20 15 17 22 14 17 26 17 24 19 24 17 16 20 14 18 19 16 24 24 15 25 24 18 17 20 23 15 14
25 15 14 23 22 26 16 16 20 17 16 16 23 19 23 20 21 16 22 18 16 24 20 24 15 22 20 16 25 21 18 24 26 26 18 14 15 16 22 23 17 24 26 15 26 25 19 26 23 16 14 14 25 20 25 19 14 15 18 18 22 21 17 16
23 26 20 19 15 22 25 24 24 16 25 19 21 21 21 23 24 25 22 17 17 19 14 20 24 24 26 14 16 17 21 14 24 23 19 14 16 15 17 22 16 26 23 26 20 16 25 14 15 21 19 19 16 16 24 19 20 24 15 25 23 16 25 24
20 22 14 22 20 19 25 26 24 19 18 14 25 14 25 14 22 17 14 14 14 17 21 20 15 15 21 21 23 16 18 21 17 26 17 21 19 20 16 24 20 16 17 14 21 15 22 14 21 20 16 22 15 23 22 17 22 14 16 21 25 16 14 18
20 15 20 16 16 24 15 20 24 22 18 19 15 26 14 19 15 24 19 18 17 21 15 26 25 18 16 16 22 22 20 16 24 25 24 15 20 25 17 16 16 21 26 16 14 19 25 24 24 20 22 19 14 19 26 17 15 15 16 21 17 14 25 19
14 26 14 14 20 21 17 26 26 22 15 16 14 16 18 25 19 18 19 24 25 14 24 26 15 15 15 26 25 17 18 15 17 24 20 25 15 14 26 23 20 21 22 26 24 16 19 16 24 25 24 23 21 23 25 16 23 20 26 21 26 15 22 18
20 24 25 26 23 20 21 25 16 25 18 22 21 21 26 23 24 16 17 25 24 15 26 24 22 17 21 19 19 25 20 18 20 16 20 24 14 24 16 14 23 20 18 21 22 23 25 14 17 23 18 17 14 20 16 16 24 26 16 22 25 18 23 14
26 20 19 24 24 26 22 25 14 25 20 20 17 18 18 16 15 24 20 19 25 20 20 19 20 24 26 16 16 26 19 18 26 22 25 17 17 16 17 25 19 21 22 21 18 16 23 20 21 23 14 24 26 17 16 20 15 14 16 16 19 22 16 19
14 21 15 17 25 17 25 21 23 21 20 21 20 18 17 26 24 17 15 22 16 23 22 24 16 20 15 22 25 19 16 14 16 20 26 15 26 18 18 20 25 16 21 20 25 24 24 18 25 15 24 15 19 16 26 14 16 21 15 18 24 14 19 24
25 14 21 15 23 23 26 21 17 24 22 15 25 22 24 18 14 14 23 23 25 24 26 14 26 19 17 15 15 23 23 17 21 25 23 17 25 23 19 17 19 25 26 17 14 21 26 17 14 14 15 16 23 25 21 24 18 24 17 19 23 25 23 17
24 17 16 23 26 25 23 24 21 15 20 20 25 21 18 24 21 21 26 26 24 25 21 18 18 26 15 23 26 16 18 22 19 25 23 20 22 21 15 23 24 14 22 25 14 15 15 21 18 21 17 15 14 14 16 16 16 25 23 18 20 17 14 23
16 15 23 26 26 21 25 24 17 15 20 25 22 18 16 25 19 16 25 21 17 25 20 23 14 18 18 24 22 23 20 22 19 14 14 15 16 22 23 25 21 15 14 26 25 25 15 14 18 20 20 23 24 22 16 25 22 20 20 24 26 14 23 17
17 17 18 20 23 14 19 16 15 19 20 20 25 18 23 16 19 19 15 21 18 26 23 18 22 18 22 22 20 23 16 22 24 20 25 26 24 23 26 23 23 23 16 18 15 21 22 17 14 22 26 20 23 25 22 20 25 14 21 25 17 19 18 15
24 24 22 16 25 22 19 15 26 25 20 22 17 16 14 25 22 20 24 22 19 16 20 17 25 20 17 17 25 14 23 15 22 24 20 16 24 18 19 21 15 15 14 24 19 20 20 16 14 19 21 20 18 23 25 17 22 23 19 15 17 24 17 21
21 14 21 24 21 20 16 14 20 20 21 16 19 20 26 26 15 21 14 14 16 21 23 22 26 19 15 19 26 20 16 24 17 15 15 26 25 21 23 26 20 21 19 15 22 24 26 26 19 22 25 25 18 24 21 19 24 21 21 24 18 14 22 20
18 25 17 24 22 16 21 23 25 25 19 22 22 25 18 16 16 16 22 19 16 23 18 18 24 16 24 15 21 18 26 23 19 19 25 17 23 14 16 15 21 17 24 17 23 18 20 26 20 18 18 17 15 19 25 24 26 17 19 16 20 20 14 25
20 15 21 22 21 24 25 24 14 23 15 22 16 16 16 24 26 15 16 18 17 24 19 14 24 26 19 19 23 24 17 22 25 20 22 23 18 14 23 23 19 23 14 19 16 19 18 26 18 24 14 20 14 19 15 19 26 18 14 14 20 19 16 23
