P2
64 64
255
18 22 30 34 34 35 19 30 25 23 19 19 32 33 34 27 26 22 19 20 19 26 38 32 20 22 18 33 34 25 26 26 26 22 36 18 29 38 36 34 33 38 20 37 34 38 30 33 34 20 22 27 34 18 31 30 27 33 37 18 22 28 30 26
19 25 22 32 23 26 27 22 31 35 19 32 35 26 19 27 20 20 37 35 24 28 22 37 34 34 31 28 34 24 23 27 37 20 37 29 24 25 19 23 26 37 37 21 24 30 30 33 30 34 24 25 36 25 22 18 19 22 22 28 27 22 36 35
29 23 29 31 31 30 19 30 25 35 28 37 19 19 23 19 26 29 28 21 25 36 30 33 18 33 36 35 36 30 36 35 31 36 26 25 18 27 20 19 20 18 27 23 37 32 28 27 25 35 36 38 27 25 18 22 31 30 19 29 36 28 36 20
23 36 32 33 32 34 33 38 19 36 32 35 29 33 29 33 20 31 20 28 25 24 19 23 19 32 35 30 28 34 34 29 21 32 18 20 25 25 25 32 33 25 23 24 33 23 37 26 36 36 32 29 29 35 27 26 28 29 27 28 22 30 35 19
25 18 34 21 19 28 35 19 34 24 37 35 33 32 27 18 30 26 33 21 26 29 22 31 37 38 31 37 29 35 21 26 18 33 36 24 23 29 38 24 23 26 19 26 35 31 20 22 24 23 23 20 28 34 19 28 30 36 38 19 33 35 32 20
31 38 38 23 19 23 30 38 37 20 33 23 30 28 23 20 30 26 29 26 23 18 32 18 18 29 33 30 36 25 37 34 36 37 34 20 33 18 20 23 21 25 34 37 26 18 25 26 24 26 26 20 32 26 28 23 38 35 31 33 35 33 18 32
36 20 30 29 28 19 29 31 34 22 38 22 19 34 30 21 20 33 18 22 23 37 23 27 32 26 27 38 30 33 25 22 27 26 19 30 29 32 25 18 30 20 19 36 30 27 37 34 32 29 21 35 22 26 32 22 26 33 19 28 37 35 19 29
21 24 28 32 23 21 19 34 26 32 36 23 33 30 18 22 34 23 21 25 35 33 28 33 26 27 36 32 36 19 21 30 30 30 28 29 24 36 24 33 24 27 23 21 35 34 21 28 34 24 18 33 36 34 19 25 26 26 18 21 31 27 25 37
20 19 23 20 27 37 33 38 19 35 33 35 23 33 27 22 20 20 19 18 28 35 32 30 32 26 24 21 34 36 30 27 20 36 32 36 34 23 30 22 28 23 24 31 25 22 24 24 27 25 20 20 33 33 27 24 26 24 21 38 36 38 34 34
19 31 19 38 19 34 22 24 21 34 28 38 31 23 28 36 27 33 23 27 27 32 28 23 22 18 27 37 18 31 19 37 25 32 24 21 26 30 35 24 35 36 38 33 21 33 29 23 29 19 20 23 29 37 33 35 23 26 28 21 26 28 38 33
32 18 29 25 22 18 29 28 22 37 24 26 18 22 27 28 35 32 20 24 21 32 20 27 33 30 18 32 29 29 34 33 36 38 33 21 21 30 26 19 24 25 27 32 35 19 23 30 34 22 20 23 34 21 20 24 20 20 32 38 18 30 23 34
37 33 34 19 23 30 26 26 28 36 33 29 18 34 20 22 28 18 23 36 22 28 23 19 33 30 32 20 33 35 31 37 28 25 19 18 29 35 36 18 20 29 24 21 26 32 23 31 26 37 22 36 22 29 32 32 28 29 31 19 19 35 24 30
26 30 26 26 33 26 32 31 19 22 35 21 32 34 32 27 35 27 38 22 29 34 29 22 20 36 35 34 27 26 20 25 21 34 38 34 37 27 28 23 24 38 34 26 32 20 25 27 34 31 25 32 24 19 23 19 20 31 37 38 20 29 20 21
38 32 24 19 35 27 25 25 25 31 24 19 22 21 24 23 28 31 33 28 27 38 36 34 21 26 35 27 31 28 21 34 37 26 32 35 22 38 34 23 23 25 21 22 18 20 25 27 33 27 28 23 24 28 38 26 24 20 37 38 35 27 36 25
20 38 34 29 29 31 27 36 22 27 27 19 38 29 26 18 20 28 33 38 24 29 26 28 29 25 22 37 24 26 31 37 29 36 25 18 32 31 36 35 27 26 23 34 27 21 28 34 28 30 24 19 20 21 38 32 34 18 34 29 37 21 22 22
36 27 20 25 36 28 24 38 37 21 32 25 38 29 37 22 29 27 20 38 31 33 36 31 34 18 21 28 32 26 37 18 23 31 35 22 35 28 26 29 29 27 25 24 36 30 34 22 19 36 38 34 31 35 32 29 28 21 28 38 23 34 35 36
34 34 25 33 37 37 33 29 20 26 37 38 31 34 33 26 19 36 36 26 30 31 35 33 38 33 36 19 34 19 25 19 38 23 32 25 28 29 29 23 28 22 18 19 22 38 21 29 19 30 35 23 25 21 31 32 21 33 38 20 26 24 31 22
24 33 27 34 35 22 27 36 28 37 19 37 26 36 31 37 18 31 30 27 23 21 23 31 30 24 33 26 20 19 18 32 27 33 20 32 33 38 22 18 32 24 22 26 25 20 26 25 22 33 27 23 22 34 27 31 23 19 37 26 33 27 35 32
34 31 22 29 19 36 29 37 35 18 21 32 22 32 33 33 22 32 23 29 24 21 22 35 19 28 27 20 18 31 29 29 23 18 31 30 28 33 34 21 35 25 29 34 34 19 34 26 20 25 33 22 38 21 32 33 34 19 30 38 24 30 23 32
27 34 24 28 23 23 26 23 38 24 32 27 33 34 25 18 33 33 32 39 36 22 41 25 20 39 28 30 38 21 20 38 20 22 36 24 26 28 25 38 26 26 22 37 34 22 28 26 37 34 32 32 23 36 27 28 32 21 32 28 36 35 21 24
18 36 31 27 36 36 24 25 21 37 28 36 27 21 29 21 37 44 32 40 37 41 32 37 39 28 39 25 21 22 31 32 27 19 21 38 29 34 37 30 31 30 45 45 46 28 36 25 42 37 32 34 26 26 22 21 26 28 27 22 18 36 22 28
34 20 38 33 26 27 32 32 19 38 24 35 25 27 37 34 40 30 39 30 46 44 46 33 32 45 37 31 21 32 32 36 21 33 22 36 29 23 30 36 31 44 31 42 30 38 35 40 26 27 30 32 32 32 37 26 37 34 28 25 30 25 22 25
35 34 21 21 19 18 24 36 25 36 37 30 39 38 36 34 50 36 37 37 52 51 49 33 45 49 43 29 38 29 34 23 28 29 31 39 39 35 32 43 50 47 36 33 48 33 34 41 40 48 38 43 30 20 36 31 25 32 34 36 33 32 31 20
37 29 34 28 27 34 30 36 24 35 39 38 39 38 45 48 37 36 43 38 37 52 42 52 53 37 40 49 42 30 37 26 35 31 41 34 30 29 33 44 36 40 47 55 56 39 39 40 45 43 30 27 25 28 26 23 35 33 18 20 30 30 18 27
34 29 31 30 19 27 26 31 30 31 37 37 40 47 37 42 41 45 60 61 43 45 60 49 55 47 40 34 37 31 34 36 21 36 44 28 38 51 53 56 55 41 51 60 45 60 41 43 47 52 52 31 27 30 26 26 35 27 33 36 34 24 31 21
37 34 19 21 26 27 23 29 28 37 34 29 30 36 37 42 48 52 46 46 45 46 50 59 52 42 53 36 44 33 37 30 32 37 37 33 42 52 56 48 60 50 47 55 59 60 58 42 47 45 54 32 35 45 35 28 22 25 23 35 19 26 28 23
24 23 27 25 29 22 26 21 26 28 33 41 42 46 47 45 60 60 63 51 53 50 61 59 45 53 49 54 43 38 45 31 33 36 38 48 38 41 46 53 57 49 58 52 57 53 54 52 47 48 44 53 34 33 35 37 20 32 38 20 28 21 27 26
37 19 24 30 22 23 27 22 31 25 30 38 34 50 59 46 53 62 58 61 66 67 62 57 50 53 63 41 55 53 47 39 30 48 43 38 53 57 44 58 62 66 60 56 64 65 60 50 51 46 47 39 39 37 45 37 33 37 19 26 18 30 35 23
28 26 29 18 22 33 33 35 35 42 37 43 37 49 47 55 59 66 71 76 65 67 56 61 56 57 49 50 57 54 43 47 34 34 37 50 47 51 57 49 61 57 63 60 72 75 64 65 65 58 46 48 56 50 30 30 38 33 26 33 33 28 28 21
18 31 25 35 19 32 19 26 31 30 42 38 39 44 62 57 71 72 77 63 79 72 74 66 55 51 62 48 49 52 51 40 47 34 48 50 48 52 53 67 65 66 75 73 68 63 58 57 58 59 61 47 39 36 32 37 25 28 24 34 35 38 33 20
32 19 26 18 25 22 36 24 28 37 39 53 41 46 53 60 61 63 72 73 79 79 78 65 67 56 66 57 49 51 53 54 55 54 39 42 56 56 68 59 71 79 80 75 75 72 67 72 68 59 54 45 40 49 51 28 40 36 21 24 33 27 21 35
30 31 31 27 25 30 26 35 26 31 45 45 50 49 57 53 59 72 69 80 76 70 76 66 72 63 56 63 45 48 52 46 49 37 44 49 62 65 52 61 63 73 77 82 79 72 77 76 70 60 65 43 59 50 31 43 42 35 27 35 37 30 33 35
18 26 19 29 24 33 37 33 25 43 37 37 45 43 67 63 60 69 68 77 90 71 77 79 70 72 70 47 57 56 39 45 53 53 56 44 43 55 71 58 78 64 68 82 85 70 79 75 71 59 58 63 52 36 39 43 27 26 38 22 19 24 35 36
23 26 31 35 32 18 31 33 44 46 39 35 59 59 51 71 75 67 73 66 83 74 85 80 78 68 61 65 52 49 57 47 55 48 38 39 59 48 68 65 75 73 65 79 81 73 72 69 72 64 49 45 48 40 51 46 24 36 28 24 22 38 33 27
36 30 21 18 33 20 34 31 31 31 32 54 39 56 46 69 60 71 61 67 74 68 76 67 71 72 55 52 52 47 51 36 50 39 45 54 51 62 65 59 70 65 68 64 64 73 66 64 62 54 48 55 57 43 38 43 24 28 29 31 28 29 19 32
32 18 27 23 21 35 35 33 42 30 31 43 50 43 56 54 65 61 65 67 79 70 64 69 68 70 66 60 44 42 54 54 49 41 41 50 49 58 50 68 64 59 61 81 71 65 75 65 66 55 53 47 56 36 41 39 26 30 27 35 18 35 37 25
27 24 36 18 23 26 19 36 32 26 44 41 47 49 63 51 55 57 54 64 66 73 58 70 63 54 58 55 58 50 42 40 39 44 41 40 59 51 66 53 53 67 59 63 68 56 54 57 49 56 60 43 55 46 39 25 24 23 18 38 33 22 21 25
21 18 35 35 33 21 21 28 20 40 28 31 50 44 53 64 48 59 57 61 71 63 60 63 51 63 48 59 52 47 44 44 34 34 40 46 44 52 63 61 52 59 62 62 71 57 51 50 52 58 59 51 49 36 41 25 31 19 32 32 24 18 38 25
31 38 36 27 27 20 36 31 26 42 27 41 41 47 40 56 52 45 63 53 52 61 50 48 45 57 59 44 35 45 30 35 38 29 32 47 44 52 53 44 58 67 58 60 52 57 52 56 60 60 42 49 39 49 36 37 28 28 25 30 18 33 27 33
41 21 26 35 36 22 33 21 37 23 40 41 37 39 46 50 54 58 51 63 58 62 66 63 55 59 54 50 48 41 51 32 47 29 45 48 56 47 45 56 51 52 55 59 60 51 56 60 66 56 41 45 40 33 48 39 43 26 26 27 41 41 24 36
40 35 39 27 43 32 44 39 31 27 36 38 35 53 48 50 47 46 63 62 55 62 69 67 63 63 58 58 45 55 38 39 30 49 34 38 44 55 45 65 50 51 61 71 59 65 51 69 67 47 58 53 51 47 46 31 43 33 46 38 40 41 49 46
41 28 28 38 39 45 44 38 29 31 45 43 50 55 56 54 55 64 50 65 57 66 58 65 49 64 56 60 50 53 49 41 33 34 44 55 47 61 62 56 59 55 73 60 56 59 63 67 67 53 53 57 52 52 41 55 44 42 52 50 46 41 44 38
36 29 35 42 38 42 42 44 33 38 27 40 46 47 35 56 55 49 48 45 47 44 51 41 44 47 45 40 38 32 38 35 39 33 47 35 51 52 54 56 60 50 62 43 63 50 49 59 55 55 57 35 45 33 41 46 48 33 41 35 36 31 31 31
23 33 39 32 31 26 23 35 28 25 22 26 26 32 44 39 37 38 45 35 41 45 41 49 32 36 36 40 41 29 31 42 30 31 34 40 34 32 44 43 40 43 49 36 42 38 39 41 33 48 38 38 27 33 35 28 25 31 42 32 41 40 39 43
27 33 27 38 22 18 35 23 31 22 38 24 32 30 26 26 41 43 25 40 28 28 45 44 44 27 24 28 35 30 37 26 21 34 26 35 20 34 38 42 31 44 41 32 31 33 43 32 26 40 21 25 23 26 36 23 25 28 27 36 20 34 27 29
22 26 22 34 31 24 34 34 33 37 29 37 20 28 25 30 36 24 33 25 38 23 34 34 38 35 32 28 28 26 30 32 22 22 22 27 27 23 29 28 37 41 37 42 27 40 38 30 20 25 31 18 38 37 29 19 25 34 22 28 23 34 29 26
25 37 23 33 34 26 38 26 25 28 18 25 35 25 22 38 38 29 20 18 24 31 31 19 23 27 33 31 32 20 19 30 35 35 24 37 22 32 27 28 37 22 26 21 27 24 24 36 30 33 28 21 30 27 35 26 36 27 18 19 30 23 38 23
21 29 24 30 34 23 24 36 36 37 31 23 34 25 26 25 19 27 25 31 34 34 19 37 34 33 23 27 27 26 35 31 26 21 38 34 35 18 21 21 19 34 22 37 38 31 38 25 29 18 29 30 29 30 18 25 29 25 38 29 24 28 32 34
22 22 34 19 28 29 19 37 33 34 32 30 36 35 36 34 38 35 35 27 33 18 38 37 18 33 26 37 33 23 30 25 30 23 26 33 21 33 23 31 19 36 22 28 35 22 38 34 33 24 36 37 37 23 20 20 26 32 26 19 37 22 20 32
30 21 27 30 25 22 37 33 27 29 26 21 38 27 35 19 22 20 25 21 27 26 19 27 29 34 26 26 18 19 27 30 29 18 18 19 29 18 18 28 24 20 19 35 38 20 25 18 31 19 28 34 26 35 30 30 33 36 33 37 18 37 27 34
23 18 18 22 24 21 33 23 34 33 25 33 35 30 19 18 32 21 19 34 34 26 26 22 33 31 34 29 35 37 23 23 25 33 24 32 27 32 28 18 24 31 28 26 18 19 38 37 22 30 35 33 30 26 33 37 32 31 24 25 23 38 33 24
32 22 18 32 30 23 25 37 19 21 25 38 21 31 23 30 25 35 24 21 33 29 22 35 29 20 36 22 23 38 28 30 30 19 23 24 24 36 21 19 28 37 36 33 35 38 22 30 19 33 29 28 21 32 22 35 33 18 34 18 24 31 38 26
29 30 38 20 22 31 22 20 19 29 37 30 33 32 34 35 35 31 20 37 25 33 19 36 33 23 19 28 35 28 22 18 30 33 37 20 26 22 22 33 25 33 36 30 32 35 29 18 35 33 24 23 34 27 20 19 30 29 20 19 25 23 35 18
29 28 38 27 24 32 36 21 32 24 32 19 23 36 29 31 27 38 32 30 27 24 27 20 25 29 24 37 19 25 32 23 33 18 18 20 20 35 36 23 31 21 19 37 35 37 33 34 34 34 22 29 28 35 33 29 18 26 33 38 26 28 29 18
36 22 20 35 34 23 29 38 36 29 36 28 24 33 31 35 36 31 33 26 38 38 23 36 32 33 34 31 29 26 24 28 35 26 27 18 36 18 23 26 24 28 31 22 20 20 24 34 23 27 18 20 18 23 27 29 22 22 37 21 19 38 37 29
31 31 26 20 32 30 36 27 27 18 38 18 23 19 20 34 24 28 34 29 34 19 23 24 35 38 24 20 18 23 31 24 29 28 37 19 27 28 28 35 35 27 20 37 38 23 30 19 33 30 34 22 35 24 36 38 38 38 24 21 26 23 26 26
26 26 19 32 33 32 37 24 19 26 25 28 37 30 31 28 23 31 35 35 28 18 30 30 24 31 23 33 25 38 23 21 21 23 26 22 23 24 27 33 27 27 23 28 18 33 26 25 30 24 29 27 37 29 19 20 23 32 38 32 21 28 33 19
23 27 31 31 27 34 21 34 37 30 26 36 29 21 31 19 21 38 23 30 35 28 29 33 29 30 18 35 36 25 22 24 25 25 23 22 35 26 29 22 34 25 25 28 29 30 33 30 31 38 19 37 25 20 28 23 26 20 35 38 24 24 26 18
20 36 21 25 29 38 28 20 26 36 25 36 38 23 33 35 23 20 30 22 22 27 21 27 36 37 29 26 29 19 19 29 22 36 21 18 20 35 31 37 24 19 37 26 24 32 19 20 29 34 36 22 37 18 32 27 23 35 20 20 38 21 18 31
20 28 28 28 26 36 19 24 23 33 29 20 28 24 35 25 38 31 27 33 18 37 25 24 35 34 27 37 21 23 24 28 24 27 33 30 32 18 32 36 19 29 33 29 29 21 26 19 21 24 23 30 30 27 30 29 18 26 22 37 31 31 28 18
35 21 34 21 32 34 22 19 35 32 18 18 19 31 32 28 18 19 31 21 33 37 33 27 24 22 22 20 32 27 25 26 25 36 30 25 31 19 34 36 29 33 22 25 20 38 30 25 27 29 38 26 36 33 27 33 37 20 23 30 36 20 37 37
36 37 30 22 30 26 18 32 28 33 26 31 20 24 24 35 38 23 37 32 21 20 35 20 37 36 32 31 18 32 34 20 23 26 19 22 38 25 26 33 36 25 21 18 32 31 36 33 32 33 38 23 20 36 31 25 37 19 23 30 36 34 33 35
36 18 25 34 24 18 32 29 26 19 29 28 27 30 38 34 38 35 27 21 22 19 19 18 18 24 37 27 35 23 37 33 32 20 19 33 29 23 18 24 37 21 29 34 22 24 23 26 18 35 22 28 38 22 27 26 35 18 29 38 29 37 25 33
21 37 38 23 26 32 31 28 18 35 35 37 31 36 18 26 38 25 33 18 36 37 26 24 19 23 22 22 36 25 29 24 22 32 31 22 19 24 19 25 29 35 37 26 25 32 38 25 26 27 36 19 35 35 33 37 23 29 30 38 31 23 35 36
