P2
64 64
255
22 23 19 18 23 18 18 25 25 23 23 21 23 16 23 20 24 18 20 20 20 14 16 14 20 25 26 20 22 18 20 22 21 17 20 26 18 23 26 24 25 23 23 19 20 19 16 24 18 23 25 18 26 14 19 18 22 25 22 25 25 20 21 14
24 18 25 17 23 19 15 26 18 17 20 16 20 23 23 24 14 18 16 20 15 22 15 24 18 20 22 21 19 26 23 25 16 20 19 16 25 18 17 17 23 20 14 20 16 22 15 16 17 25 20 24 18 14 21 14 14 21 21 17 14 24 25 17
21 19 21 20 20 20 22 23 24 24 21 24 17 21 19 24 19 22 18 26 15 24 25 26 22 21 26 19 19 25 14 17 14 19 21 17 17 20 23 25 25 25 23 22 17 14 26 20 15 16 21 18 21 25 14 17 26 26 21 14 17 24 19 26
21 25 26 21 16 25 14 18 25 23 24 18 21 15 25 25 22 17 25 26 22 24 18 17 15 21 18 21 16 25 20 21 15 22 25 20 18 20 21 14 26 16 21 22 21 16 19 15 26 15 19 22 14 26 25 17 15 14 15 21 26 22 24 25
17 25 24 24 14 16 24 19 24 21 18 19 17 17 16 21 18 19 19 21 17 16 25 25 20 25 21 26 20 21 21 25 19 15 21 23 19 21 26 24 14 20 18 19 16 20 14 19 16 19 16 21 22 21 15 16 17 17 15 24 24 19 15 16
16 16 20 22 21 19 19 26 15 22 18 14 14 21 26 16 14 19 20 18 20 24 25 20 23 25 16 25 19 18 20 14 22 19 19 15 16 23 18 18 18 14 25 20 25 22 25 20 23 25 21 17 20 26 21 15 16 14 16 15 22 23 25 14
26 17 21 15 26 18 14 19 23 15 26 23 18 19 23 16 15 16 15 21 17 25 15 20 26 23 19 21 26 26 16 22 14 22 17 16 26 19 21 21 24 26 25 23 25 24 16 20 23 16 21 26 25 16 26 17 18 14 22 20 21 20 23 14
23 21 22 17 20 20 15 18 14 17 18 22 17 14 17 20 14 16 20 24 23 20 19 22 16 19 23 20 25 20 23 18 15 23 17 18 24 20 17 20 18 23 20 19 21 17 23 19 14 20 16 15 22 16 22 26 20 18 18 25 15 16 26 21
21 22 20 22 16 15 16 23 14 17 17 21 25 22 23 19 17 26 22 20 24 15 16 18 17 23 19 26 14 16 18 21 25 18 21 25 18 21 21 18 21 20 25 23 26 24 15 18 17 25 21 18 21 25 15 16 26 20 22 26 25 14 16 18
16 22 15 24 25 20 20 17 20 26 17 22 16 25 20 25 22 23 20 24 23 16 20 24 23 20 22 22 24 24 22 21 25 25 24 16 21 19 22 23 16 23 20 14 21 26 17 23 18 20 17 17 22 20 24 20 26 25 22 20 25 25 26 24
22 21 23 20 18 25 17 16 23 19 17 26 14 20 16 14 15 19 20 25 15 26 24 14 20 20 14 20 25 24 26 21 20 18 26 22 17 25 19 15 23 19 14 21 20 14 22 14 18 21 15 17 24 19 23 19 24 18 20 26 25 23 24 26
20 25 21 16 24 26 18 20 22 16 24 25 18 24 19 23 18 15 19 22 19 19 16 24 18 16 20 22 18 23 24 23 15 14 26 17 16 25 17 19 17 17 15 25 18 19 25 22 24 22 16 16 20 24 17 20 22 18 14 18 22 14 23 22
26 24 23 24 20 21 15 23 18 18 15 20 20 25 24 15 16 21 19 15 25 16 25 19 18 22 26 22 18 20 21 23 16 16 19 19 20 15 17 14 23 14 22 18 21 15 20 22 16 23 26 25 14 14 19 21 26 20 24 16 26 14 24 20
14 19 16 20 14 23 15 24 26 19 22 21 20 15 16 21 15 20 15 17 24 23 24 26 14 26 19 15 15 21 16 21 24 16 21 17 21 25 14 19 22 24 15 26 17 17 23 19 19 23 24 16 15 18 14 24 17 14 15 20 19 24 19 17
23 17 21 18 14 23 18 23 22 18 23 17 20 22 25 15 20 14 26 14 24 17 22 24 15 25 18 21 22 25 22 20 24 20 16 22 14 26 21 20 22 15 22 16 20 21 15 24 17 25 22 22 21 14 15 16 18 21 22 25 19 15 19 21
19 24 23 23 15 19 16 15 16 17 26 23 16 19 18 23 26 20 22 18 26 16 21 21 25 21 26 19 21 23 26 24 22 15 21 14 24 21 17 24 23 14 17 18 14 15 16 24 21 19 21 14 26 19 18 14 18 19 19 14 18 14 22 26
16 26 19 21 17 25 14 20 16 26 20 20 18 22 17 25 24 20 22 19 15 26 23 23 19 20 23 15 23 17 23 21 26 25 21 19 23 25 22 18 16 26 26 14 18 24 16 25 24 14 18 22 17 20 23 19 22 15 26 26 23 18 21 25
23 17 21 16 14 25 20 16 19 26 16 18 21 18 23 15 18 22 21 19 16 15 19 25 14 16 18 21 20 21 21 18 14 18 22 15 18 22 23 22 24 17 25 25 22 24 22 26 22 18 19 16 23 16 15 24 26 21 14 26 14 16 25 26
23 22 15 18 16 19 17 20 25 25 14 16 17 14 14 14 18 19 20 18 15 14 18 14 19 19 19 26 19 16 15 25 17 15 20 26 14 25 15 17 23 21 21 26 24 18 17 25 22 16 23 15 25 23 14 16 17 16 21 23 18 26 22 16
14 16 15 22 23 16 23 26 26 23 21 18 24 16 16 17 23 20 21 25 25 25 27 24 20 24 25 16 14 26 16 26 20 25 19 22 20 26 14 25 19 17 17 23 29 17 23 19 25 25 17 15 20 26 18 19 18 25 19 21 26 17 21 15
19 16 14 18 25 21 18 18 24 26 15 19 23 23 18 21 25 24 31 22 33 28 30 32 29 23 18 21 19 14 25 18 14 19 23 21 25 15 25 19 22 27 32 33 23 22 21 24 20 29 17 16 22 26 25 24 26 26 22 22 15 24 21 16
19 19 18 18 19 14 20 24 20 25 17 24 24 26 29 26 22 24 34 31 34 36 33 36 25 31 24 20 23 15 26 23 23 23 27 26 18 24 28 33 31 27 29 29 33 28 35 32 26 22 23 29 25 26 19 25 18 24 20 15 17 25 20 15
25 22 26 22 23 23 15 18 21 24 26 26 19 32 29 34 27 30 32 40 31 37 35 36 27 37 35 30 32 35 28 23 26 32 26 32 35 26 25 35 35 29 34 40 37 35 31 30 35 25 24 24 18 25 21 16 18 16 19 23 18 19 17 17
14 19 16 21 24 19 15 19 16 19 22 28 31 35 37 36 38 41 41 42 35 44 44 40 32 36 45 44 40 41 34 35 31 34 43 35 44 39 34 45 36 41 44 41 43 37 40 34 41 29 26 25 26 22 25 17 17 15 23 21 15 22 21 14
20 17 24 25 25 17 20 24 18 18 17 21 27 34 36 35 43 43 47 39 44 40 38 49 43 42 43 49 48 50 47 48 44 38 43 53 47 52 53 43 48 40 39 40 42 39 38 43 40 40 36 33 35 27 26 16 17 24 25 24 25 25 19 24
26 23 19 23 19 16 22 16 19 21 22 23 31 35 32 38 43 39 42 53 50 48 51 52 60 51 53 55 52 59 50 58 48 47 53 51 60 55 57 62 54 49 44 41 45 50 41 40 40 39 41 37 36 24 20 18 23 22 26 26 17 26 26 19
14 26 22 14 24 16 20 22 15 25 23 30 33 41 46 48 43 41 52 47 48 48 63 67 65 70 65 69 65 61 59 54 56 66 64 71 70 61 72 65 68 67 62 54 54 44 43 48 50 41 34 33 31 31 32 28 21 19 24 21 26 15 17 24
21 22 19 16 18 23 24 24 25 22 24 34 33 44 40 41 50 51 52 60 62 58 60 73 73 71 78 70 68 70 71 74 66 73 65 78 79 73 77 69 74 75 68 58 54 52 53 48 50 48 38 40 40 30 25 31 24 26 23 14 21 15 25 25
25 24 21 18 21 14 26 14 24 26 27 31 38 36 44 53 51 59 55 59 63 65 72 71 77 75 81 78 87 81 83 82 74 77 77 78 79 76 83 75 73 81 80 66 67 63 56 57 47 46 42 47 37 36 28 28 17 21 17 16 25 22 22 19
16 22 16 16 15 20 21 23 26 27 37 33 38 45 51 52 52 62 57 65 73 72 86 86 83 90 92 86 87 91 90 85 86 91 89 87 82 85 88 81 80 86 78 74 76 69 57 59 59 50 46 37 45 30 34 23 29 19 25 22 22 18 16 22
23 19 25 25 24 23 15 21 29 34 37 35 45 39 42 50 58 53 69 67 75 88 94 95 88 95 91 100 98 88 90 93 99 96 99 89 92 95 96 87 86 91 85 86 74 66 67 58 60 56 51 42 44 43 33 31 27 27 24 21 23 14 22 25
26 18 26 25 24 18 20 26 28 26 28 32 38 43 44 50 59 59 70 79 83 92 93 96 98 95 104 102 102 106 98 99 109 106 99 102 97 96 101 99 100 91 87 91 79 79 67 58 55 48 51 46 41 39 36 33 23 17 14 17 14 21 24 22
24 14 21 17 20 23 18 20 30 28 29 37 40 42 52 53 51 60 74 85 88 94 103 97 105 99 107 103 102 111 112 109 107 105 107 107 100 108 102 104 95 94 98 93 84 75 69 65 52 56 52 51 46 33 38 31 29 22 18 14 22 23 21 15
18 22 14 21 18 25 24 24 29 25 28 35 45 43 45 53 55 56 76 83 92 99 103 94 104 101 110 106 106 104 112 110 114 111 116 104 115 114 108 109 107 99 95 99 93 78 76 58 53 47 47 42 37 34 27 26 25 16 21 21 23 20 17 14
15 24 25 21 17 21 15 22 19 25 35 32 42 39 43 54 59 62 74 77 80 88 93 103 102 102 113 114 117 108 122 125 127 118 116 107 105 113 104 107 109 103 98 93 85 83 66 59 57 46 50 46 40 42 38 25 31 18 23 18 20 21 25 17
20 22 22 23 17 24 25 16 19 31 31 40 39 39 47 44 56 58 63 72 86 85 91 94 101 101 105 104 106 110 122 121 130 123 118 119 113 110 110 100 96 103 98 92 81 80 67 60 55 49 48 38 33 34 27 32 27 18 14 25 18 19 15 21
18 20 15 24 26 17 17 15 27 24 35 38 41 36 39 49 51 53 58 71 75 81 96 95 96 98 111 111 112 113 114 126 129 127 115 109 116 107 103 107 103 101 92 85 83 73 68 56 47 43 42 44 39 29 26 23 22 16 21 26 21 23 15 26
26 19 15 22 18 26 16 17 19 23 27 38 32 45 39 50 48 55 65 65 80 77 80 86 99 96 101 111 107 107 106 117 116 121 108 115 102 106 98 101 101 93 81 77 79 65 62 56 50 52 44 45 37 32 24 27 26 19 18 15 14 25 26 17
17 23 21 14 25 23 17 23 18 25 32 28 35 35 38 41 46 54 59 61 74 71 78 82 95 96 93 99 99 109 112 107 114 103 111 111 103 99 100 99 89 91 75 75 70 68 54 50 51 40 46 34 37 34 33 24 17 19 17 15 14 26 25 18
22 26 20 22 25 15 22 14 14 18 22 27 29 32 31 34 48 45 45 58 68 68 82 77 88 84 95 91 93 102 103 101 94 95 94 95 100 100 90 90 83 79 77 71 71 61 48 42 40 46 32 28 29 26 25 22 18 16 22 25 20 18 20 18
14 17 24 22 26 15 24 19 23 18 20 30 32 37 35 38 43 39 42 47 56 71 71 78 79 82 86 93 85 92 94 89 84 94 96 98 91 83 80 88 81 72 66 64 65 48 46 41 45 33 40 30 34 25 25 25 18 22 18 14 20 15 20 26
15 24 25 23 15 18 25 25 26 14 21 21 22 35 34 36 29 42 35 41 55 60 59 71 70 74 75 82 77 84 81 82 85 82 79 80 88 75 80 79 69 64 70 61 48 41 42 36 33 27 26 29 27 27 26 23 16 19 14 23 24 18 24 21
14 16 16 18 25 15 19 26 23 21 19 20 17 32 32 32 30 39 34 46 49 51 55 67 65 71 65 74 77 75 72 79 72 75 74 77 70 72 74 69 66 55 63 51 48 42 33 30 32 24 29 22 22 20 17 24 20 17 20 15 26 21 24 17
25 22 22 16 19 26 15 15 25 18 23 23 14 27 31 26 34 34 27 28 45 46 52 58 52 61 59 68 72 70 73 70 74 75 68 65 68 71 64 60 56 48 53 49 43 32 33 35 31 20 21 25 14 26 25 19 20 26 15 24 21 23 22 18
18 24 26 22 18 23 14 26 17 17 16 14 16 24 18 20 22 22 23 29 29 40 48 46 55 51 49 52 59 62 60 60 58 70 58 59 52 52 50 58 49 42 43 44 38 30 29 25 26 27 21 18 24 18 26 25 20 19 26 17 14 14 25 20
14 24 19 15 25 19 20 21 16 16 17 22 15 23 25 21 24 18 24 17 26 32 36 34 46 41 52 48 47 49 58 62 56 61 62 55 47 44 49 41 46 39 31 35 21 22 20 21 19 19 21 22 19 23 14 20 20 25 15 14 14 19 15 23
14 17 19 19 22 24 25 24 15 21 21 16 19 14 22 22 25 24 24 16 17 17 30 37 33 39 46 43 41 48 48 55 47 56 48 50 45 41 45 44 40 25 31 27 25 15 18 22 25 21 18 25 22 23 22 26 24 18 24 20 17 15 25 21
24 23 20 26 18 17 15 23 26 16 20 23 15 24 21 24 26 25 17 25 17 23 28 30 32 38 31 42 46 44 40 51 46 49 38 39 44 39 40 36 29 28 22 23 14 17 16 19 14 22 18 19 15 16 25 17 21 22 16 24 16 18 24 21
25 18 17 17 19 19 14 25 19 19 16 23 24 14 25 14 20 23 21 24 14 19 25 16 27 32 29 31 30 36 38 38 34 40 37 35 38 30 34 29 24 27 23 22 16 26 20 19 16 24 26 15 15 14 16 19 25 17 14 16 17 26 24 23
24 24 16 18 22 25 21 19 20 14 21 23 14 21 24 25 17 19 25 20 17 19 25 17 25 23 31 33 26 35 28 28 28 38 27 27 29 32 25 16 23 24 26 21 15 21 25 25 20 22 15 23 15 24 16 18 14 19 14 17 17 17 23 22
15 21 23 19 18 21 15 15 16 20 20 23 17 15 21 16 24 20 16 16 23 24 24 21 17 21 21 21 29 28 25 24 31 26 26 29 23 18 24 16 24 24 14 23 21 19 26 24 26 14 20 20 20 25 22 14 18 21 20 25 19 25 25 17
23 25 23 23 17 24 22 18 26 14 26 16 20 21 16 20 26 20 26 15 16 20 23 16 17 19 23 14 20 16 20 23 17 24 18 26 24 24 15 23 17 17 24 15 18 16 25 20 26 16 23 15 22 19 21 23 20 18 21 18 19 17 26 25
19 23 22 22 16 15 15 16 23 25 23 17 20 18 20 23 25 15 15 22 20 22 25 17 14 22 15 25 18 19 14 19 25 26 17 14 24 15 19 20 14 19 26 20 26 26 21 15 20 17 17 14 26 24 18 23 22 14 19 14 24 18 21 23
19 14 14 20 23 15 22 21 15 20 26 17 16 20 23 16 15 21 22 25 24 19 24 22 21 17 17 21 25 22 18 15 26 19 15 26 21 18 25 21 22 20 19 23 16 17 22 23 14 20 25 24 26 21 24 17 26 14 24 16 15 20 22 21
26 23 24 24 26 19 26 26 18 22 26 26 16 18 20 17 22 14 18 18 15 17 15 16 23 25 22 18 20 19 26 15 14 26 23 24 19 18 24 14 22 19 25 15 23 21 15 24 24 18 16 22 23 14 21 26 24 14 23 20 25 20 20 20
24 22 22 22 23 26 21 24 15 23 15 18 20 24 14 22 17 17 23 20 16 25 14 22 22 15 23 26 24 26 25 14 20 14 21 20 25 19 25 19 18 22 22 19 15 16 16 20 21 24 24 19 26 19 21 14 20 18 15 18 17 20 17 26
21 25 20 25 15 17 21 22 14 25 15 22 24 20 20 26 26 15 24 18 20 19 25 19 18 14 26 24 21 20 25 25 26 23 14 25 21 24 21 26 23 25 16 24 22 14 15 23 16 16 18 26 18 22 15 15 24 18 24 23 25 17 26 21
26 22 17 22 26 20 25 25 25 20 14 17 21 18 21 21 15 24 24 22 14 26 26 16 15 15 21 18 26 24 17 21 15 16 17 25 16 20 20 24 21 23 24 21 17 17 23 18 24 24 19 15 15 25 23 24 21 25 17 25 16 16 19 17
22 19 25 14 20 19 24 15 22 20 18 16 16 20 16 15 26 24 15 18 14 26 25 14 20 14 24 20 16 15 14 14 22 26 16 18 17 21 14 20 21 25 16 26 25 20 24 15 15 14 21 18 25 17 20 26 21 23 18 24 24 21 18 23
21 22 23 21 24 15 26 26 26 16 25 20 14 22 25 23 17 18 22 14 20 24 17 23 24 20 26 22 19 21 17 26 16 17 14 21 21 19 25 15 22 17 22 14 20 14 15 15 15 24 18 21 25 22 22 25 20 22 21 23 21 21 14 17
18 23 14 18 26 18 20 17 15 26 25 22 20 17 19 18 24 22 23 16 26 20 18 22 20 14 22 26 25 21 21 24 25 17 26 18 26 15 17 16 17 25 22 14 26 20 17 19 15 25 20 26 25 23 15 25 19 19 20 14 22 17 25 24
15 24 14 16 16 25 20 16 18 18 21 18 22 23 14 25 23 23 26 21 25 26 26 22 18 20 15 17 17 18 26 19 23 18 20 18 14 21 24 15 19 21 14 20 25 21 19 24 22 23 18 15 25 17 20 19 18 20 26 17 14 18 23 24
22 23 25 21 22 21 21 18 23 24 18 18 19 17 14 15 14 22 26 20 15 15 14 20 19 22 16 22 18 18 22 26 19 26 26 22 25 22 18 19 17 18 24 16 16 21 25 22 25 16 23 23 17 16 17 16 22 16 14 16 14 20 19 14
24 14 24 16 15 15 26 19 18 18 15 16 16 15 20 24 19 23 17 26 15 25 18 17 24 17 20 18 24 17 16 19 18 16 18 25 20 23 22 19 23 24 25 14 17 20 25 26 25 22 18 21 20 18 25 24 20 18 19 23 23 25 20 17
