P2
64 64
255
19 38 29 37 28 36 18 23 32 23 36 19 27 18 22 34 21 36 36 38 27 28 26 24 33 20 29 37 19 31 38 23 21 20 27 24 33 38 23 25 38 24 29 23 23 29 27 20 21 21 35 33 33 36 30 25 27 18 28 21 33 32 31 18
27 34 20 20 20 27 28 34 38 18 24 37 18 36 19 38 33 19 27 23 32 25 28 30 26 38 33 29 19 25 22 35 19 19 27 22 34 22 23 22 23 23 27 29 27 26 32 19 35 30 36 19 27 24 31 19 21 26 24 22 31 34 23 36
34 36 27 36 27 19 36 36 38 18 33 35 24 22 37 31 34 34 30 30 20 35 33 24 32 35 27 20 23 20 24 36 32 24 36 18 24 37 20 36 18 19 22 19 31 28 25 31 30 31 18 28 35 23 37 20 19 22 37 24 35 24 24 24
35 22 26 30 18 29 29 30 27 19 24 38 32 18 18 30 20 28 33 28 18 18 37 35 32 21 33 34 31 36 24 25 25 18 30 27 33 35 18 26 19 33 26 30 28 20 25 37 35 23 26 24 31 24 38 32 31 34 20 18 24 20 28 38
21 34 38 24 22 36 18 29 33 38 28 38 38 35 32 22 19 18 24 19 19 30 33 33 29 25 23 26 26 28 25 36 27 19 26 24 24 28 23 36 36 34 28 32 21 36 34 24 38 34 25 26 38 29 21 30 32 25 26 33 21 22 25 29
23 34 36 32 35 31 30 37 18 27 23 23 27 30 35 37 20 31 37 29 20 25 19 32 37 38 18 28 27 34 24 37 37 32 18 37 38 37 23 30 21 34 34 20 18 18 35 25 25 34 20 24 37 23 29 21 27 18 18 31 19 21 33 32
33 20 24 25 25 18 32 27 21 31 24 33 30 38 26 30 19 21 19 23 36 19 31 22 34 25 31 38 37 28 37 25 22 26 27 29 37 26 35 33 19 27 33 35 28 24 37 22 18 27 38 29 23 18 24 24 19 27 35 26 19 24 21 21
31 29 24 21 28 24 34 18 35 19 37 22 32 22 31 37 31 37 22 28 37 19 22 21 26 19 24 37 26 32 26 27 33 31 34 21 31 24 37 37 31 24 21 37 25 18 20 33 38 38 18 20 28 38 29 21 22 33 29 38 38 27 18 22
30 25 27 33 34 36 38 38 26 27 31 28 32 26 32 28 34 23 34 34 19 27 24 20 35 31 20 23 29 37 32 31 20 19 33 23 38 35 24 32 34 21 18 37 22 24 24 19 36 26 29 36 22 36 32 29 22 34 28 30 24 24 37 21
21 34 29 33 19 29 24 31 30 18 21 32 34 25 32 34 25 35 27 21 28 36 29 37 19 18 37 24 25 18 27 19 24 21 31 30 27 20 20 31 36 18 34 23 23 24 26 31 35 18 35 32 32 22 24 32 21 28 26 38 38 31 24 32
24 22 37 32 24 38 28 30 37 34 27 25 18 31 30 35 38 28 34 24 18 19 27 25 28 19 21 18 29 26 30 18 26 26 29 37 18 23 34 24 26 33 29 27 27 32 34 33 35 24 21 22 22 23 28 18 23 31 37 18 18 32 35 35
35 21 31 38 19 31 23 21 21 20 36 37 30 32 21 27 31 35 20 22 28 18 30 21 20 29 38 30 24 37 31 29 36 23 28 22 26 29 26 31 26 37 22 37 22 36 21 34 30 22 35 34 24 23 26 35 26 27 36 30 28 26 22 30
26 32 27 26 34 38 26 21 37 29 27 18 34 37 37 34 25 38 18 19 24 32 36 22 22 23 19 38 25 26 37 26 19 25 35 21 37 34 21 18 27 20 20 28 36 36 24 31 21 29 28 34 27 29 38 35 21 35 21 25 36 26 24 21
21 36 26 27 32 28 36 18 23 23 28 19 24 28 18 38 29 28 19 29 26 34 25 21 29 28 33 35 36 28 32 26 38 29 20 35 31 26 19 37 31 27 18 20 27 26 21 34 27 32 31 20 26 27 23 34 20 33 24 30 28 28 28 28
25 33 22 31 34 27 30 20 37 37 20 28 34 37 35 28 33 34 28 22 25 38 36 34 31 37 28 27 38 37 20 22 23 35 30 30 34 36 37 27 29 26 32 22 34 19 34 28 33 32 21 28 18 20 19 33 24 22 36 21 22 25 25 29
21 25 36 21 36 35 26 38 25 36 22 33 27 36 24 31 27 32 19 28 27 38 33 22 25 25 22 21 19 32 29 26 20 22 36 35 23 29 34 37 29 25 32 20 37 20 18 38 34 22 24 27 33 25 26 35 37 30 22 30 23 29 35 36
18 28 22 36 20 24 28 37 34 31 21 38 29 25 38 19 28 19 22 18 29 20 25 27 36 19 25 27 25 30 35 36 35 35 35 19 24 33 19 36 38 32 28 34 23 19 18 31 19 22 33 26 34 21 20 30 23 34 29 22 37 29 21 37
31 20 26 25 24 27 23 22 21 22 24 38 30 32 30 25 26 27 21 19 25 36 23 18 34 26 20 26 21 34 20 22 35 23 25 20 24 21 31 20 20 33 35 35 31 26 28 18 35 22 36 24 38 34 22 36 24 20 32 29 26 29 18 25
24 25 29 27 20 23 23 19 25 21 35 30 32 37 29 37 23 20 32 20 23 36 19 28 36 23 23 18 30 28 22 20 24 33 38 29 31 38 35 33 20 35 27 37 25 20 26 36 22 29 19 36 22 36 27 37 27 20 33 37 25 37 29 35
24 38 22 30 33 22 29 28 30 37 33 37 28 26 28 32 31 39 27 22 23 38 24 25 39 25 38 27 19 21 21 36 38 23 28 34 21 22 29 32 39 23 31 33 37 32 33 20 24 21 25 24 33 30 22 31 28 20 34 23 20 35 18 36
35 38 26 23 25 28 33 33 35 31 34 23 36 28 35 38 35 28 26 35 27 45 37 33 27 35 34 19 33 19 29 28 22 29 27 22 27 21 35 25 25 27 33 45 28 44 33 35 41 37 39 24 23 30 30 28 30 20 24 25 21 23 19 18
28 37 20 34 19 19 30 18 35 37 31 34 22 39 29 44 44 37 45 35 32 33 44 46 40 41 27 31 39 36 27 24 36 28 21 25 21 41 43 39 35 38 32 30 42 31 43 37 41 34 36 23 21 28 24 22 18 20 29 38 23 36 27 25
34 29 33 32 18 38 23 38 22 28 19 39 31 24 28 48 36 35 44 52 33 46 47 33 46 31 29 39 32 25 31 20 24 31 25 38 27 43 29 31 44 38 45 34 36 40 45 51 50 32 36 27 37 31 35 36 25 18 30 23 28 36 22 23
20 20 24 23 22 33 23 34 24 37 22 30 42 33 37 47 39 49 36 38 57 42 48 41 55 49 43 32 34 37 21 38 35 20 40 42 40 47 32 49 42 56 48 37 53 42 46 44 42 42 29 40 33 33 21 18 23 36 30 25 34 29 23 25
38 21 21 18 22 22 24 21 26 31 41 29 46 36 35 41 45 45 45 57 62 66 54 64 45 49 40 45 50 35 28 33 19 40 40 36 39 38 48 52 38 57 57 50 59 59 60 47 40 43 40 47 29 44 34 34 35 18 30 22 26 25 31 35
28 28 27 38 37 23 33 28 27 29 30 32 47 46 46 46 55 58 55 69 64 74 78 75 64 64 48 47 37 45 30 35 35 38 45 33 32 51 54 43 50 58 62 65 59 60 48 42 47 42 42 33 44 43 35 30 38 27 27 36 31 28 21 26
33 24 35 27 30 29 25 22 23 27 39 48 36 47 48 47 50 66 58 79 80 81 88 97 82 67 68 54 48 48 45 30 35 30 47 39 55 49 57 43 61 51 48 50 59 50 64 62 44 57 50 40 52 42 38 22 34 24 33 35 33 20 36 26
28 32 19 20 35 23 38 31 27 43 47 42 47 42 51 60 48 61 73 85 106 100 99 103 102 91 67 64 44 35 40 37 28 30 47 40 44 41 50 62 55 57 56 63 68 54 69 59 61 57 61 38 52 33 30 28 26 18 26 30 28 23 30 20
36 21 19 36 22 36 21 28 28 45 43 48 52 56 49 59 51 68 81 98 104 120 117 120 100 94 71 56 41 37 50 47 36 52 34 56 54 52 53 56 59 61 60 73 68 64 57 57 58 52 61 57 41 38 37 29 36 34 24 20 27 37 24 26
36 25 24 20 22 21 27 25 23 27 41 52 48 52 55 56 70 68 78 109 118 119 143 124 97 88 84 70 49 45 42 47 43 35 40 57 56 46 54 71 62 72 77 77 64 61 58 69 59 49 48 50 37 52 41 34 36 21 34 38 27 26 21 34
33 38 27 31 33 29 31 37 34 46 32 47 57 60 53 51 71 79 89 95 114 118 128 126 108 87 87 68 56 60 46 60 52 55 45 59 49 50 62 62 62 65 63 70 68 72 79 61 68 54 57 48 41 46 34 35 26 34 33 30 25 37 34 20
31 20 32 27 27 24 36 21 42 29 43 50 51 49 54 71 71 74 87 110 119 115 113 104 98 96 71 72 63 54 70 77 69 69 57 62 52 48 60 59 70 82 69 87 80 68 76 66 70 63 67 53 54 39 46 42 37 23 19 36 29 21 28 26
32 27 23 25 26 19 26 20 24 38 51 41 47 57 66 62 57 69 78 104 116 113 113 105 101 81 81 50 75 72 85 71 86 80 77 71 64 68 70 63 70 67 75 80 86 86 68 68 55 65 60 51 50 45 40 29 32 20 29 20 31 21 30 27
34 28 26 18 32 26 25 31 33 45 39 47 43 55 52 64 67 61 66 96 87 108 94 82 83 79 72 55 64 80 85 88 99 84 88 78 72 68 60 71 77 77 85 70 71 86 82 77 60 53 63 55 50 48 44 37 26 28 19 32 22 24 21 19
24 24 35 33 23 31 19 36 41 27 45 55 42 45 48 66 58 68 63 71 80 73 89 89 71 69 65 81 75 89 102 110 106 110 100 76 79 76 64 59 74 79 76 70 66 76 72 77 72 58 62 43 54 38 42 36 35 26 29 28 32 32 32 22
32 28 24 35 20 26 37 25 35 46 38 48 43 47 46 50 54 57 69 71 64 76 81 82 90 87 86 91 94 91 89 112 120 113 83 89 79 63 57 68 72 61 62 69 62 64 66 64 53 59 48 41 46 36 38 33 31 38 35 24 34 30 26 34
32 38 38 36 29 36 23 35 29 26 45 33 46 39 49 61 60 70 72 69 69 77 73 83 84 91 78 90 88 91 97 107 106 94 92 88 69 65 48 63 72 57 65 72 77 69 61 56 58 62 50 57 53 38 45 45 27 30 37 25 22 21 21 27
24 38 38 18 30 22 30 33 38 37 31 41 38 38 43 50 59 57 64 72 69 60 82 84 82 97 95 92 94 89 97 88 92 95 87 72 75 57 53 60 59 63 54 60 65 62 64 50 47 51 54 51 41 50 38 24 35 30 21 35 32 27 31 35
35 23 28 21 35 32 26 28 26 33 43 32 43 53 41 43 58 60 62 57 49 69 78 80 100 108 111 106 105 85 92 69 80 70 68 72 67 49 46 44 50 50 64 64 64 67 49 62 49 52 49 44 46 31 33 23 28 28 22 20 36 38 22 19
28 24 30 21 18 29 25 35 24 23 38 30 34 41 38 51 59 52 47 51 51 69 78 78 90 100 113 93 96 88 81 70 59 60 57 41 39 48 49 57 53 53 57 51 57 45 51 46 54 52 44 36 36 42 26 26 22 36 23 31 23 22 22 25
22 37 34 33 18 22 28 35 35 19 27 39 31 47 45 44 48 51 54 54 41 52 80 82 80 104 106 90 80 78 70 42 45 47 49 37 36 47 37 53 56 60 47 44 42 46 43 43 39 51 49 42 30 28 27 26 27 27 19 36 31 27 32 18
20 18 18 25 36 29 21 19 37 37 24 34 28 29 49 50 38 38 44 40 46 45 68 80 80 87 79 74 62 57 48 34 18 26 29 31 38 33 37 38 39 38 43 53 46 51 41 37 47 39 38 36 39 23 24 27 24 36 24 22 38 37 21 34
27 28 29 34 29 19 21 30 28 38 38 35 30 35 33 37 34 38 52 46 45 47 46 52 57 63 61 62 55 40 43 37 28 20 27 39 32 42 48 40 45 41 34 37 41 44 50 32 47 44 29 42 26 25 33 37 30 35 27 33 35 37 37 34
18 37 22 27 35 34 27 31 33 29 34 24 32 22 24 31 27 30 43 29 35 32 38 39 55 64 61 62 55 35 22 20 31 32 23 25 30 25 29 32 27 45 40 39 39 31 36 36 26 39 32 28 35 25 32 23 20 26 28 34 33 23 20 23
33 35 31 29 29 20 26 37 36 37 26 32 20 19 22 23 22 41 40 25 41 29 39 32 30 36 32 48 43 27 21 19 27 30 19 27 25 22 30 35 40 43 25 33 33 45 28 26 23 28 31 28 37 20 31 19 36 31 35 34 29 32 38 30
33 28 24 30 25 34 26 24 26 31 19 27 23 29 36 19 29 23 39 38 25 28 40 31 21 30 37 35 24 36 28 26 35 33 32 26 20 26 21 21 20 22 34 23 31 35 40 25 19 33 30 33 28 36 26 35 24 36 32 20 20 24 19 31
21 37 37 31 18 19 25 23 27 19 30 35 20 34 27 38 31 25 32 32 30 19 32 38 24 29 38 36 36 25 24 29 26 37 29 26 30 26 26 20 24 18 20 25 38 32 29 37 25 23 29 34 26 19 34 36 27 19 24 22 30 32 22 19
31 30 26 28 20 29 38 38 37 23 38 19 33 27 26 37 18 21 26 35 21 37 19 30 32 24 29 19 23 33 37 20 29 19 35 23 37 34 21 34 33 22 27 19 19 26 38 33 36 30 20 30 28 22 29 27 33 38 25 31 34 21 21 20
30 36 30 24 24 35 36 31 26 33 37 27 35 20 29 25 20 22 32 33 26 33 24 19 26 34 29 18 29 30 20 37 18 28 33 37 18 23 35 28 37 31 29 29 18 26 31 28 26 24 37 32 29 35 25 36 28 30 30 32 31 32 28 32
22 25 36 29 29 32 22 34 24 27 36 31 23 28 22 18 30 19 26 20 35 30 37 19 30 34 33 30 34 28 35 18 23 29 28 38 26 25 21 26 31 24 38 24 33 37 19 21 20 27 35 27 21 34 20 33 27 20 20 25 18 32 36 30
38 23 30 34 19 19 23 23 22 36 31 29 33 36 29 25 30 29 22 34 23 30 21 23 18 19 32 38 28 32 36 36 34 22 32 33 27 28 20 34 25 22 33 32 28 19 26 21 38 21 30 27 25 37 35 28 34 22 18 26 23 31 25 19
38 38 29 30 26 24 21 34 36 26 23 26 34 35 21 21 26 34 24 26 34 27 20 20 32 37 34 35 26 22 23 22 26 29 34 31 24 31 29 30 37 29 18 38 21 36 23 25 26 26 24 31 34 21 20 22 31 24 29 38 29 34 31 28
38 31 37 18 31 29 32 30 26 19 37 38 34 19 22 34 24 23 20 28 31 25 27 18 27 25 26 38 22 34 21 27 21 25 37 32 26 29 20 20 37 30 38 21 23 26 35 21 24 32 28 24 32 36 24 23 35 23 18 34 23 25 37 38
25 28 33 28 25 19 24 38 34 26 25 20 33 28 26 23 19 29 20 38 37 18 24 21 30 33 27 36 19 23 27 35 25 32 28 27 27 36 21 32 25 21 36 23 35 18 24 27 25 35 23 35 18 29 24 22 24 29 35 30 19 20 25 28
23 38 24 20 24 20 33 30 27 24 32 24 31 21 25 22 36 22 20 31 24 22 36 24 26 33 34 29 18 24 30 26 38 27 21 36 23 31 23 30 25 35 36 30 27 36 22 34 29 29 18 31 34 27 28 37 37 33 20 38 34 33 36 38
30 25 24 26 28 30 34 26 37 23 35 31 33 24 37 18 20 24 24 25 32 30 37 27 23 29 36 20 24 23 20 36 18 37 27 33 23 20 30 38 31 26 35 37 28 28 26 19 24 36 31 20 21 23 18 20 19 19 27 19 28 29 38 21
38 20 36 34 21 27 23 18 20 38 38 21 26 27 27 35 31 18 24 37 25 38 34 35 22 38 23 33 33 37 24 25 32 27 29 37 30 22 36 36 35 23 37 26 25 37 26 35 35 26 25 19 24 36 34 36 28 33 28 33 30 38 18 27
34 31 30 28 18 36 19 30 25 34 33 21 21 27 32 21 22 35 22 32 19 25 35 23 32 37 36 34 22 32 28 34 18 33 33 33 22 35 31 32 24 35 19 25 27 37 23 35 22 32 34 25 31 18 27 22 38 25 28 26 30 26 18 37
24 20 27 32 25 24 27 33 34 29 35 35 35 35 21 38 22 31 30 35 31 27 18 19 18 34 36 27 24 18 37 31 27 19 35 26 20 18 34 20 34 37 33 37 38 26 23 26 18 34 28 19 36 20 37 25 31 19 37 30 35 20 21 25
32 36 19 20 21 21 38 38 19 30 31 29 31 38 20 30 19 32 38 27 18 35 27 22 24 36 18 32 25 38 29 34 20 36 37 33 36 19 20 22 26 30 26 35 28 30 21 27 33 32 28 24 26 36 21 22 22 24 34 20 37 36 36 19
24 20 28 18 23 36 31 36 24 27 29 27 24 21 20 38 36 37 18 28 25 31 33 32 32 23 27 24 34 22 35 38 25 24 29 20 29 19 28 21 23 22 20 23 37 36 18 37 26 27 35 21 22 38 28 24 33 29 38 32 33 25 29 19
30 25 33 19 26 29 31 27 31 18 18 38 25 26 19 31 20 29 38 22 35 24 36 38 35 37 28 31 38 28 37 21 22 33 38 18 28 29 19 22 35 20 22 22 24 38 21 18 26 27 23 35 22 34 38 28 26 32 25 36 36 36 23 28
38 21 28 23 35 20 37 27 25 24 22 33 19 37 22 30 33 29 37 31 29 30 28 27 35 28 26 36 24 31 22 20 38 32 35 35 27 34 29 29 20 33 20 38 34 34 28 38 22 20 27 26 23 37 28 29 18 38 24 33 35 24 32 30
36 23 22 27 36 22 33 34 21 22 21 24 30 29 30 28 34 20 38 38 20 21 19 30 24 28 35 30 32 27 26 34 25 22 37 21 18 21 26 27 34 32 20 32 28 33 32 26 32 23 26 28 20 20 22 36 21 23 31 27 27 22 32 37
