P2
64 64
255
16 24 17 22 21 14 18 18 19 22 23 21 21 23 19 24 19 20 14 14 26 22 20 24 14 16 17 24 15 20 18 18 20 22 17 14 22 16 24 14 23 15 20 24 24 23 19 20 23 21 22 25 21 16 20 21 14 22 19 23 26 14 18 15
24 16 18 18 17 24 21 24 19 23 24 23 19 18 26 22 18 19 19 20 19 19 16 20 24 18 20 16 24 19 25 18 25 21 21 18 15 22 16 15 19 25 26 22 17 25 22 15 23 20 14 17 14 26 14 20 19 23 25 21 21 21 23 18
14 25 18 26 20 23 15 15 17 24 25 23 26 17 26 20 14 17 14 26 18 16 25 19 22 24 23 19 24 24 16 24 16 23 24 14 24 23 15 16 18 20 18 16 18 20 20 18 19 18 18 26 20 19 23 15 23 16 17 19 23 19 15 26
16 17 26 24 16 16 17 19 20 25 14 14 21 26 25 22 17 17 21 22 14 15 15 14 22 23 16 14 15 20 19 26 22 14 17 19 15 14 22 21 18 26 24 17 23 19 19 14 18 17 20 16 24 15 24 15 21 22 14 24 15 14 21 15
18 21 16 18 25 21 23 24 15 20 20 15 16 25 15 18 19 17 25 25 17 26 25 25 22 18 25 16 19 26 21 26 19 26 17 19 21 20 26 19 23 16 16 24 21 18 15 22 23 14 17 14 16 26 23 26 25 19 14 22 23 20 14 22
18 17 19 21 17 19 17 18 14 14 22 18 21 14 25 23 25 22 14 25 19 19 22 25 25 17 24 14 26 18 17 20 25 23 26 16 20 25 20 23 25 23 14 19 20 20 16 15 17 16 19 15 19 26 24 18 24 23 19 23 19 17 15 20
16 25 19 26 18 15 17 21 20 16 25 25 16 20 24 14 15 14 26 25 18 19 22 17 25 19 19 19 17 19 25 23 20 23 14 15 23 19 26 19 22 15 14 16 18 17 22 15 25 22 20 25 21 18 14 14 14 18 23 22 19 21 15 22
19 17 20 22 20 25 19 17 15 24 23 23 18 17 18 16 21 24 26 23 21 18 21 20 19 18 14 15 22 21 14 25 19 24 14 15 23 20 16 24 22 24 22 14 22 26 19 26 19 18 19 22 20 25 23 26 26 18 20 21 14 15 26 22
20 16 21 22 14 17 26 26 25 15 21 23 25 20 21 15 24 19 18 16 20 24 26 26 16 19 17 15 19 24 20 24 16 17 25 14 15 24 14 25 26 15 20 22 16 18 20 18 18 20 25 22 19 22 21 18 18 26 25 24 22 15 24 14
20 21 15 15 14 26 22 24 23 14 15 21 25 17 14 18 22 14 19 14 16 15 15 26 15 18 26 20 14 16 23 15 17 19 23 17 16 16 15 24 23 21 14 19 15 19 22 19 24 26 26 25 16 17 18 17 14 18 21 21 25 14 15 15
14 17 23 18 24 23 19 22 19 26 25 23 16 17 21 26 21 21 17 16 22 23 20 19 22 23 15 20 23 15 21 25 18 17 23 23 18 23 16 15 15 19 24 22 20 23 22 22 24 23 19 22 22 19 19 25 25 16 26 19 18 23 24 19
18 24 24 19 21 24 21 24 19 20 20 19 15 16 14 19 21 23 22 15 17 17 17 24 16 17 21 23 20 19 22 25 25 21 18 24 22 25 19 20 22 20 17 25 25 22 19 17 19 24 22 22 25 14 19 21 20 17 20 23 22 14 20 14
16 26 19 16 25 21 22 22 26 18 21 26 24 20 21 14 16 23 22 22 19 17 23 18 16 22 18 16 16 15 25 17 26 26 14 22 23 16 15 21 19 19 19 17 25 23 24 18 17 16 22 20 17 19 17 16 26 20 17 18 16 21 15 16
25 21 19 20 26 21 22 23 21 14 15 23 19 16 21 22 16 22 15 15 15 16 25 15 24 23 18 21 21 17 18 22 24 16 17 18 26 20 15 25 17 20 15 21 14 24 16 19 19 14 20 20 21 16 26 15 25 19 24 15 17 16 19 23
16 22 15 26 17 25 17 21 14 22 24 22 26 23 17 15 20 20 20 20 17 17 16 25 14 14 19 26 21 16 15 14 25 15 25 14 21 14 26 19 19 18 17 15 15 23 17 19 15 14 21 22 23 26 17 25 15 18 25 18 24 16 17 25
24 23 26 20 22 20 26 18 19 16 19 25 25 25 16 16 19 14 21 24 17 22 17 14 19 25 24 21 19 21 26 22 23 26 26 26 19 23 17 26 18 26 16 18 22 16 21 23 16 25 20 21 26 22 19 22 19 23 17 24 20 26 25 21
24 15 15 14 25 17 18 19 19 23 23 24 18 26 22 23 24 15 15 15 20 21 26 20 24 14 15 20 20 21 20 21 16 18 16 16 18 18 21 23 18 18 20 22 24 18 15 24 19 25 21 15 19 15 21 18 18 25 24 14 16 24 19 15
22 18 22 21 14 22 23 22 22 19 23 17 16 23 24 19 14 17 25 18 17 20 23 21 16 16 26 25 26 20 23 16 23 15 25 26 21 18 23 14 19 14 19 19 14 20 21 23 16 21 23 26 21 15 22 26 19 25 14 18 19 25 16 24
15 21 17 23 17 16 17 25 16 20 26 14 20 24 26 16 17 14 14 19 15 16 25 17 17 24 17 18 15 17 24 25 23 16 19 24 17 20 18 19 26 18 19 21 22 15 22 24 18 24 21 14 26 23 20 22 14 23 17 14 22 23 25 25
24 18 17 23 26 24 14 21 14 18 21 24 17 22 25 22 23 25 22 25 27 28 22 25 24 18 25 24 21 20 16 22 14 18 18 15 24 16 19 21 28 21 19 28 23 29 23 17 15 24 20 24 16 17 18 16 21 20 14 25 23 24 20 19
19 19 26 24 24 18 21 19 20 21 23 14 16 23 22 20 20 32 22 30 29 34 26 29 20 21 22 17 15 18 22 17 19 18 20 24 25 24 24 22 24 25 32 29 24 22 25 29 26 26 17 17 17 19 22 25 20 18 17 19 25 24 19 18
20 17 17 24 23 26 16 21 26 23 22 17 17 24 27 20 33 28 34 34 28 36 30 24 34 28 27 31 16 17 17 21 28 21 25 23 16 25 25 31 31 26 33 30 29 37 28 32 33 25 23 20 19 23 19 19 14 16 26 25 24 19 17 19
19 21 23 16 22 23 14 22 15 23 18 16 23 28 29 27 29 32 40 38 37 29 35 32 33 27 28 32 31 26 24 29 29 28 32 34 29 26 31 28 33 33 32 36 29 36 39 34 35 36 31 27 27 19 25 17 16 20 25 19 16 21 23 24
14 21 24 19 19 24 23 25 14 21 18 25 28 30 26 39 32 37 39 37 43 40 37 39 44 39 34 35 45 42 43 37 39 32 31 42 34 43 37 36 41 41 40 35 41 42 44 32 36 33 26 33 21 28 17 17 26 15 21 22 16 21 19 21
22 24 15 21 16 26 22 24 17 17 27 27 28 26 39 35 39 40 40 45 48 38 37 50 42 43 45 55 55 45 46 39 46 42 48 53 46 46 46 53 43 44 44 42 39 40 43 42 38 33 28 35 27 27 18 16 26 21 26 23 18 26 14 25
22 26 15 17 14 20 18 26 18 28 23 32 30 34 42 45 42 40 47 43 48 43 44 58 57 62 53 58 62 61 49 52 49 49 50 55 61 55 61 54 61 46 48 52 46 52 40 45 42 34 32 33 33 22 28 17 14 17 17 15 26 25 21 18
26 21 17 15 19 22 24 18 16 29 30 33 30 32 45 49 50 42 55 44 46 48 53 63 60 64 62 62 70 61 60 57 61 62 69 67 65 62 67 65 60 63 55 48 49 52 53 45 50 46 45 35 30 32 32 19 24 22 17 23 26 17 19 22
22 14 26 17 26 20 17 20 16 27 23 27 33 38 47 50 52 56 51 53 56 61 62 71 66 78 77 69 67 70 72 71 66 64 74 78 70 73 70 77 73 74 66 57 52 48 50 48 42 41 41 33 38 28 24 23 26 14 26 22 23 24 19 25
21 19 16 26 22 24 20 20 24 22 27 35 42 36 42 54 48 52 57 58 68 76 71 83 82 82 84 78 80 80 74 83 80 85 81 77 86 81 83 84 83 78 77 69 59 55 59 50 45 45 51 39 40 36 34 31 23 21 23 19 17 18 23 20
15 24 23 20 18 15 25 25 21 30 31 30 39 42 42 47 56 55 61 69 74 81 76 79 82 82 86 85 86 90 80 93 85 93 85 86 89 91 86 92 85 88 83 83 78 62 59 61 53 45 43 40 41 34 37 22 23 25 17 25 25 19 25 26
16 14 14 19 17 17 24 21 25 25 29 39 44 41 43 55 60 60 59 69 83 81 88 93 86 99 99 98 96 88 90 100 90 95 100 96 89 91 98 99 88 86 86 85 80 69 68 55 59 56 48 42 36 41 32 23 19 17 16 16 14 19 16 20
22 19 20 24 15 18 23 24 26 25 39 38 36 41 45 52 54 58 61 81 80 84 98 99 98 97 100 101 105 97 97 108 103 103 100 104 96 99 96 104 101 91 99 96 81 71 63 57 60 54 46 44 37 35 28 29 31 16 14 16 22 21 26 14
14 16 18 26 14 25 25 17 31 34 34 41 46 45 49 48 56 62 64 83 85 99 100 103 107 101 105 107 103 103 113 114 110 103 103 109 100 99 97 97 101 97 95 88 89 85 74 58 60 57 44 50 47 37 33 35 30 23 17 26 19 20 23 15
21 22 20 26 18 14 23 21 26 29 29 32 35 44 53 48 55 56 73 85 89 97 94 102 107 102 105 111 106 116 110 116 110 116 115 108 111 111 107 110 105 94 103 98 92 84 64 65 56 56 43 46 40 34 37 27 21 23 25 16 20 16 20 21
19 19 17 16 26 22 15 16 25 25 28 36 44 39 52 50 50 57 74 72 81 96 102 100 102 107 114 112 114 113 121 124 126 119 114 117 108 107 110 103 103 97 93 95 83 83 68 66 59 54 54 40 44 43 39 30 23 22 14 19 14 21 17 24
19 20 24 26 24 26 26 26 27 29 26 33 38 39 52 52 55 59 71 79 79 86 95 97 95 99 112 114 110 119 113 128 124 123 113 116 118 103 104 110 104 104 96 90 78 77 65 64 48 49 48 41 39 40 26 25 20 25 26 14 17 19 24 24
20 19 22 15 17 20 23 21 24 22 29 31 37 36 50 46 47 54 61 76 77 82 86 93 100 103 107 107 114 113 120 117 134 123 121 116 106 103 106 106 93 92 89 79 79 68 66 58 49 46 50 41 41 34 27 33 27 15 21 14 20 21 18 15
14 21 23 19 20 19 26 18 28 22 28 27 35 38 42 47 53 48 65 69 78 79 87 88 90 95 103 104 104 105 110 115 119 119 116 111 105 102 106 99 92 85 87 87 78 70 62 57 54 47 41 36 41 34 23 32 28 20 15 22 25 23 19 24
15 21 24 16 22 15 18 19 18 18 33 31 29 43 45 47 43 44 57 59 65 74 85 83 93 89 100 106 101 110 106 104 103 110 107 103 104 96 95 99 84 91 86 76 76 64 50 48 50 38 38 35 29 36 32 19 18 14 23 20 21 24 26 22
15 24 16 20 18 21 16 21 25 18 24 31 37 32 32 45 40 41 51 62 63 77 76 77 84 94 91 91 99 102 102 104 105 103 100 97 97 96 99 85 87 75 80 74 68 55 56 39 48 43 34 39 31 23 20 23 20 17 26 24 20 18 17 18
17 18 24 19 15 18 23 15 24 26 27 20 30 35 32 31 42 40 45 49 53 60 67 73 73 77 86 92 96 89 97 90 86 96 86 96 89 90 89 77 74 72 71 68 64 49 42 37 36 31 35 36 33 29 17 16 23 24 19 25 14 25 15 21
25 16 26 26 15 23 26 14 20 25 26 21 22 29 35 30 31 32 37 52 51 52 70 69 72 82 73 86 83 87 89 85 87 78 89 78 79 84 74 71 78 72 67 55 55 53 44 39 35 36 37 32 25 25 22 17 14 16 20 25 22 15 24 16
15 21 22 22 21 23 17 16 22 22 16 17 26 24 25 30 38 36 38 38 45 58 56 63 59 66 65 70 78 76 74 76 79 82 70 79 75 78 76 74 65 64 53 48 40 44 32 35 36 32 28 28 17 15 18 23 18 24 20 18 24 23 24 24
25 15 18 16 26 15 19 20 21 26 20 26 25 24 28 32 31 31 31 28 39 39 44 47 63 59 62 71 63 70 74 75 72 70 73 68 64 61 67 62 52 55 45 44 41 33 35 33 29 23 22 17 21 17 22 19 21 16 26 18 15 20 20 22
14 24 20 26 24 24 25 26 24 15 14 20 25 24 25 23 19 25 26 22 34 41 47 48 46 52 57 62 57 66 60 70 59 63 69 66 53 58 59 48 44 46 48 38 36 31 26 30 20 21 20 17 18 25 23 16 15 24 19 17 19 15 20 23
23 15 26 26 22 21 24 18 16 22 20 21 18 15 15 23 16 27 21 22 27 24 38 40 40 50 42 50 51 57 61 61 56 57 61 50 55 56 41 43 44 36 29 24 20 19 20 18 20 17 25 20 25 22 23 22 15 17 22 19 18 25 16 22
25 15 16 17 15 26 24 24 20 15 24 14 14 22 20 16 23 14 17 25 24 21 31 25 31 44 42 43 41 53 52 54 47 50 45 49 42 49 37 34 41 36 21 24 20 14 21 19 16 21 19 20 19 25 15 23 17 14 16 20 23 15 21 19
18 16 16 25 22 26 26 20 15 17 18 20 16 22 14 14 14 21 20 18 17 14 26 30 33 36 37 40 43 38 41 39 49 51 40 42 45 34 32 35 35 32 26 21 22 19 25 14 20 21 22 16 26 14 26 15 26 19 19 18 20 14 20 20
26 16 20 17 16 15 19 23 21 15 18 21 25 20 14 20 26 25 24 25 19 26 16 27 30 25 34 32 37 33 39 43 42 39 34 43 33 34 26 25 18 21 24 17 19 19 16 25 14 24 21 17 20 23 25 22 23 20 19 21 20 15 22 26
18 22 23 22 24 22 17 21 22 19 15 16 21 16 26 17 24 15 26 23 22 23 26 15 18 21 31 21 32 32 31 39 33 29 32 30 32 25 29 19 20 22 25 16 22 26 16 19 17 16 23 16 21 22 21 17 23 23 17 23 21 24 22 18
20 22 18 22 19 19 17 19 19 19 20 21 21 26 26 18 15 25 22 18 24 21 18 14 25 14 23 23 19 31 24 31 27 25 25 19 25 24 22 18 21 17 15 16 15 26 18 23 21 25 16 23 22 22 17 17 20 15 24 24 15 22 14 15
14 19 25 16 25 16 15 14 20 20 25 17 16 19 16 24 15 26 15 14 20 16 17 16 16 20 18 15 16 21 26 25 24 22 22 16 15 18 26 14 23 20 22 16 17 19 16 24 22 24 22 16 16 17 22 22 21 19 22 22 19 16 23 21
24 21 25 25 20 21 16 22 22 14 26 17 26 17 19 21 17 15 18 23 23 20 23 23 24 23 18 14 23 20 16 20 24 24 22 18 24 18 23 19 19 24 15 15 26 17 25 14 26 25 22 22 19 19 26 21 23 20 26 24 16 24 25 14
23 24 19 14 21 16 21 18 18 19 21 14 26 20 15 22 26 15 14 20 22 21 23 22 15 22 19 14 14 18 19 14 17 24 24 26 15 14 24 14 17 23 23 21 23 25 15 15 22 26 25 18 21 19 19 16 20 25 23 15 16 20 14 17
24 21 18 14 16 17 18 25 22 22 19 16 25 14 26 23 26 15 21 22 15 26 21 22 19 17 25 15 21 22 22 24 18 18 14 20 24 14 26 24 17 25 15 23 26 14 25 25 23 25 22 26 15 26 19 25 16 26 15 16 25 16 22 15
14 23 14 16 26 26 16 24 26 18 21 26 19 19 23 15 15 19 17 18 22 20 23 22 20 19 14 19 19 14 26 17 16 21 20 22 21 18 18 22 24 20 25 16 25 23 14 25 19 26 15 24 22 23 15 23 22 26 18 25 22 26 21 15
15 24 21 24 19 15 18 16 17 24 17 25 15 22 21 18 23 23 17 14 22 17 17 20 26 22 22 20 23 17 25 14 22 16 17 23 18 15 20 19 17 23 21 17 15 15 25 19 20 25 24 23 18 26 19 17 20 22 21 23 23 22 16 21
21 21 26 14 19 20 23 14 24 16 19 19 24 21 22 25 23 22 20 23 19 26 24 24 24 25 18 26 23 26 25 21 23 16 23 15 22 14 20 14 25 24 22 23 23 22 16 17 22 16 20 15 16 15 16 24 21 19 19 17 17 15 19 24
16 26 14 20 24 26 24 14 23 24 20 22 14 14 19 22 16 23 20 23 18 17 19 20 19 22 22 14 15 15 16 22 25 18 26 22 18 23 16 26 24 25 19 16 21 18 15 18 19 26 26 21 20 26 23 14 24 25 19 19 16 15 19 22
19 17 25 25 18 23 25 16 23 17 22 18 21 24 14 23 16 15 25 14 18 18 18 16 23 17 14 14 14 21 14 20 20 17 18 23 17 14 19 24 16 21 15 23 15 16 19 25 26 25 20 26 17 18 25 26 24 14 18 21 16 19 20 14
23 26 17 18 26 23 25 20 24 21 22 22 15 16 26 18 23 17 20 17 23 24 14 24 22 22 25 19 23 15 20 20 24 18 25 24 26 23 17 14 23 17 19 21 15 25 16 16 18 19 25 25 21 17 19 22 20 20 17 24 23 26 21 21
21 16 15 19 23 15 20 17 17 19 26 21 21 16 16 24 15 23 15 16 20 24 26 19 17 16 26 17 18 21 25 22 19 26 23 14 26 23 21 18 25 26 15 14 19 18 21 17 24 26 14 17 19 17 22 23 14 15 26 16 19 17 19 22
25 20 26 22 23 25 21 21 15 17 24 16 17 20 26 15 17 25 24 16 19 22 25 19 19 19 21 16 22 26 20 25 15 25 18 14 17 17 25 18 25 19 16 22 25 20 26 14 17 23 20 24 15 25 26 23 18 18 18 24 25 18 26 15
21 26 26 25 19 20 19 22 21 15 14 26 14 26 22 23 24 21 19 18 18 26 16 18 25 22 22 16 20 18 23 17 22 22 20 24 20 26 17 20 24 23 26 20 21 26 24 19 14 17 20 23 20 15 19 22 18 14 21 18 17 16 24 14
