P2
64 64
255
20 23 27 20 22 38 28 33 24 21 22 21 34 37 27 25 28 22 22 31 26 24 24 31 19 29 24 21 35 27 20 29 36 21 31 26 31 24 29 25 29 34 35 30 20 21 31 32 27 26 24 37 22 21 31 37 21 20 38 18 31 38 31 25
19 18 37 29 35 34 24 34 33 26 27 38 24 23 30 36 34 24 36 31 33 29 36 29 25 38 21 28 30 22 35 36 19 37 23 25 31 38 19 34 25 31 34 20 28 34 30 21 38 30 31 23 31 36 31 34 38 31 36 33 24 33 33 19
27 28 35 37 33 23 29 38 27 37 24 24 19 33 31 25 35 30 30 28 33 22 24 36 31 26 19 35 34 31 23 20 36 22 26 19 35 37 18 24 31 38 18 31 21 35 30 28 30 33 31 27 33 25 30 33 30 28 30 25 30 21 18 22
26 31 24 22 26 33 34 32 31 23 38 26 22 24 32 25 27 28 19 24 21 23 25 34 26 22 37 32 32 33 23 38 27 22 36 35 29 36 25 24 28 38 23 26 29 35 28 35 32 21 28 18 21 35 18 18 21 33 30 36 30 24 27 24
20 21 31 31 30 21 25 35 21 29 18 38 36 31 21 30 23 29 36 22 18 25 24 26 25 26 32 36 21 27 18 38 32 24 19 32 30 30 21 29 36 31 30 33 20 20 23 23 26 33 22 30 34 32 19 34 19 21 30 18 25 31 19 20
37 34 36 37 32 30 25 36 23 20 38 31 38 38 20 36 21 26 32 21 22 22 19 24 25 37 27 23 34 29 29 34 26 28 24 20 20 27 33 31 34 38 38 27 35 23 36 38 18 36 38 33 37 27 30 20 29 35 35 36 23 21 38 25
18 19 34 26 36 32 32 34 36 26 37 25 36 21 30 32 19 21 35 22 35 28 23 35 19 22 35 34 29 34 31 27 26 19 21 29 24 24 29 37 35 36 28 30 28 24 19 23 32 22 24 36 26 38 28 38 38 23 34 20 20 34 26 29
21 35 19 20 36 30 31 28 27 31 21 18 32 33 27 26 37 35 24 23 36 27 28 34 32 25 36 34 27 20 22 33 35 37 37 19 35 19 32 34 32 20 28 36 28 30 18 29 23 35 27 24 37 35 19 33 35 31 22 19 27 21 24 18
37 27 30 21 32 29 34 34 33 26 33 24 21 23 27 35 38 36 28 35 24 26 37 18 36 31 29 29 38 30 18 32 23 32 30 25 26 36 28 26 23 25 26 30 35 20 35 28 21 18 18 26 32 25 30 31 25 20 22 19 33 18 25 28
22 31 34 33 34 31 20 27 35 22 18 29 32 23 20 30 18 27 32 30 32 32 20 34 28 30 26 29 31 23 33 20 26 37 27 28 35 25 25 24 38 26 28 18 23 36 29 22 34 21 29 26 36 24 26 37 31 37 23 29 27 32 19 36
26 22 32 38 35 20 35 22 38 26 35 28 19 38 29 22 23 38 29 25 25 30 18 22 27 36 22 25 25 22 27 29 23 32 19 24 35 29 35 31 38 26 19 23 30 22 23 31 25 30 25 36 23 29 20 27 22 24 35 24 35 29 19 19
38 27 34 28 19 33 34 24 21 36 21 34 35 22 22 18 22 23 23 28 32 38 28 34 26 36 30 23 21 35 26 37 32 18 35 37 38 27 18 27 35 22 31 29 37 26 29 22 19 32 33 29 32 18 20 26 19 29 21 19 26 18 27 37
30 30 36 23 18 35 35 33 32 23 26 22 20 30 38 30 28 26 21 33 24 34 25 23 36 25 33 26 28 18 28 31 30 26 27 22 21 29 29 22 26 33 18 30 37 22 21 31 24 20 36 20 38 38 27 32 38 26 34 21 29 32 38 28
25 22 31 36 20 30 33 38 21 35 18 25 28 35 36 26 22 37 22 35 36 29 37 19 36 29 37 26 34 33 22 30 38 19 32 19 24 24 21 29 21 32 32 37 18 27 27 38 20 34 27 25 22 19 23 28 32 21 20 21 36 24 28 20
21 36 24 34 23 33 33 21 38 29 27 23 24 25 27 20 28 27 38 21 32 24 33 32 33 19 32 37 26 18 28 20 23 25 31 38 18 23 28 33 19 24 26 27 30 23 31 19 38 23 26 33 30 27 37 23 20 18 28 38 32 32 19 20
27 29 31 18 22 18 35 36 38 22 25 18 25 36 19 28 21 36 26 23 31 35 30 26 34 20 31 22 22 18 24 24 32 21 33 36 21 18 37 24 31 32 35 31 21 31 38 35 27 25 26 34 31 36 18 24 30 36 32 37 23 33 22 24
22 21 35 28 30 19 29 20 20 24 38 24 32 35 29 22 26 34 29 34 29 29 27 27 25 36 21 36 21 34 32 33 27 30 27 18 27 32 36 32 37 28 26 31 29 31 34 18 23 35 35 30 38 29 27 24 24 19 18 36 33 23 21 25
30 20 27 25 23 31 21 21 25 34 29 35 30 29 30 36 26 36 25 35 28 35 38 36 36 35 32 19 23 32 20 26 38 24 36 24 18 25 27 20 34 29 30 36 24 26 25 24 33 35 20 31 29 20 34 38 24 34 31 26 33 23 31 20
21 36 38 25 29 36 29 33 33 29 29 31 21 37 21 20 27 36 32 32 35 19 26 33 21 37 31 36 19 31 38 30 22 32 38 35 18 20 38 37 19 22 38 24 22 29 35 19 32 18 22 34 25 25 20 35 27 36 20 33 34 34 32 36
31 27 24 31 30 22 27 26 36 27 37 20 37 35 28 35 25 29 25 34 38 32 30 25 36 36 34 32 26 30 24 23 35 22 36 34 38 20 32 24 39 34 24 24 35 23 36 36 28 30 29 21 21 27 21 19 36 32 28 34 26 31 20 26
33 37 19 21 36 26 20 29 35 22 20 28 28 22 27 32 23 29 30 45 30 28 42 37 27 25 39 28 28 31 34 34 18 20 34 38 18 31 24 39 40 34 43 31 32 42 27 25 30 31 25 30 20 19 34 27 37 19 36 25 35 34 22 37
20 33 27 20 34 27 35 32 23 19 25 37 21 38 32 30 26 41 28 34 48 44 35 37 36 39 36 39 23 36 18 38 33 31 31 108 40 36 42 29 39 37 32 44 42 29 37 41 33 42 38 36 18 25 31 18 35 25 30 20 23 36 22 19
25 20 28 21 21 38 31 32 36 31 28 38 39 31 27 32 39 42 40 51 47 47 38 35 47 33 40 45 31 34 25 34 31 33 33 121 38 30 47 43 31 33 49 50 50 37 42 47 39 29 40 32 40 39 19 31 34 29 33 30 27 23 18 32
25 18 32 26 34 33 36 31 28 18 35 25 26 43 42 42 53 45 40 44 56 45 44 40 35 43 42 40 32 24 40 21 21 22 106 31 123 46 36 50 53 49 38 54 45 49 38 40 49 49 39 30 30 31 22 33 32 24 29 36 31 19 24 26
35 30 28 30 25 38 23 24 33 33 25 37 42 34 35 55 42 39 54 59 42 57 61 46 39 56 44 50 41 33 35 38 21 122 41 41 46 121 45 42 42 53 42 51 59 41 59 52 57 53 50 31 33 34 36 38 20 38 32 37 19 37 32 37
38 30 32 26 37 27 21 33 38 26 43 27 35 51 50 49 45 61 54 51 56 61 50 50 60 52 56 48 43 42 124 36 40 112 32 31 46 43 142 53 52 55 64 48 58 48 59 47 55 41 41 51 32 29 42 29 25 29 23 31 25 36 34 28
34 24 19 23 38 36 33 37 21 41 45 39 47 54 43 49 48 51 64 63 55 59 56 53 60 61 47 41 52 34 34 128 46 110 48 36 43 54 58 129 63 54 57 65 54 54 51 53 61 61 57 39 40 38 35 31 20 29 25 29 33 18 18 34
22 30 23 31 22 28 36 23 23 44 28 44 50 44 50 60 52 63 54 57 63 55 70 60 69 65 44 42 42 41 131 30 29 124 130 36 51 47 139 55 60 60 71 73 72 69 52 50 55 63 55 39 42 35 40 29 26 26 20 22 19 37 28 21
23 38 27 21 37 35 33 35 21 45 39 47 48 54 63 60 50 58 66 64 68 63 66 62 52 65 65 43 59 48 127 36 44 126 130 40 44 58 133 60 58 57 68 68 63 67 67 63 51 53 56 41 38 50 31 42 29 27 34 32 20 23 30 18
29 24 29 22 19 28 19 39 40 41 41 41 38 53 48 52 60 72 75 72 68 73 71 68 74 62 51 52 41 129 121 38 36 119 138 37 41 61 52 153 65 70 72 74 73 71 59 56 67 59 58 54 41 40 36 27 38 29 29 31 21 25 29 37
18 26 37 22 29 18 25 30 33 39 50 55 52 58 46 50 66 75 76 69 78 80 71 80 76 58 61 59 54 48 208 46 43 47 210 55 58 46 57 146 67 80 83 70 80 76 78 69 69 59 62 42 51 46 42 41 33 29 21 21 23 31 36 32
26 18 18 22 32 23 36 22 39 28 32 39 54 49 61 64 71 67 81 78 83 86 71 68 72 69 68 61 55 58 50 213 53 129 56 141 45 58 67 55 147 77 69 81 70 75 82 68 57 51 52 45 55 50 32 39 31 30 30 22 18 19 31 20
33 27 29 21 24 29 26 20 40 47 44 41 40 47 62 64 59 66 67 76 76 72 71 81 61 55 65 50 50 45 40 133 212 42 56 143 50 53 54 140 59 65 69 89 79 81 64 64 72 64 56 60 47 48 36 45 28 37 27 20 27 29 19 27
29 25 30 36 21 24 24 35 30 29 33 54 44 51 61 68 56 70 79 82 87 84 67 72 59 62 60 65 49 42 137 137 53 127 53 53 147 56 154 60 74 77 71 86 78 86 82 61 57 68 65 55 44 45 44 44 30 20 18 34 23 37 23 38
37 25 35 38 41 32 42 27 33 48 48 43 47 50 69 63 78 70 75 71 80 73 83 86 79 68 63 70 54 130 134 46 63 45 136 54 57 145 69 148 85 85 82 87 85 77 85 85 63 77 64 50 59 50 54 49 32 31 34 43 40 36 27 41
47 37 35 46 33 37 46 46 45 56 48 63 68 62 61 75 83 72 70 85 90 76 91 80 80 72 81 71 59 225 67 51 56 62 57 145 57 73 151 159 82 87 95 91 91 87 79 89 79 72 71 77 74 58 64 49 58 45 45 50 52 47 42 40
36 38 52 40 37 42 54 46 44 61 66 69 75 70 70 82 75 86 75 79 79 78 82 78 80 90 79 78 71 158 147 71 56 71 64 153 65 68 71 175 173 87 84 98 100 99 93 88 90 76 91 84 70 78 66 68 51 60 65 52 67 57 57 52
59 47 59 58 44 42 41 57 52 67 55 64 60 67 80 81 77 94 89 92 100 91 83 80 81 76 74 73 71 70 246 78 68 69 77 83 167 74 78 86 180 171 94 102 99 103 101 92 85 92 87 83 73 87 75 71 65 79 68 72 76 75 65 80
43 47 47 38 52 42 52 44 37 57 58 66 62 73 67 77 83 70 86 82 83 86 77 78 78 83 77 80 64 76 141 139 66 66 62 77 159 70 80 174 92 75 166 93 93 87 97 93 89 76 75 81 78 81 63 73 60 66 71 70 52 71 57 63
41 33 44 35 41 47 38 37 35 43 54 48 63 55 61 55 56 68 72 67 76 78 73 79 65 66 56 70 56 65 225 53 58 50 64 49 141 53 148 72 71 149 73 78 73 75 81 73 65 63 66 58 70 55 64 46 40 48 45 57 45 41 50 42
25 37 38 31 32 40 35 25 25 30 29 39 46 56 47 62 64 51 61 61 66 61 62 66 46 45 56 58 40 38 50 209 38 38 40 44 52 143 140 60 148 52 64 70 62 69 60 57 62 61 44 48 57 38 52 38 43 49 50 41 34 33 33 45
22 34 19 20 27 25 33 26 18 27 37 30 39 41 36 47 43 50 45 57 44 41 51 47 51 45 51 45 29 40 208 27 20 22 31 37 32 119 45 134 135 53 55 45 58 57 47 46 38 35 42 45 35 38 34 35 31 31 36 37 27 39 24 24
25 19 20 22 21 28 33 35 34 28 35 30 36 29 30 35 31 48 46 47 45 42 37 38 48 33 32 33 27 205 21 23 24 31 38 30 39 38 116 115 121 34 37 34 49 34 44 35 45 46 43 41 33 23 27 21 20 22 25 35 35 29 30 32
20 22 30 34 23 37 20 28 35 29 28 33 28 34 31 35 32 34 37 43 45 31 35 42 28 43 43 27 34 118 122 20 28 35 19 28 38 36 110 112 46 124 33 35 29 39 36 43 40 42 32 32 37 31 32 19 27 21 21 29 21 36 18 31
38 21 22 18 20 25 38 21 23 20 29 19 36 30 33 40 33 31 39 37 29 26 31 29 42 27 26 35 38 103 122 24 18 26 23 20 24 30 208 23 119 44 44 36 33 40 27 33 38 31 33 31 38 36 21 22 27 28 26 20 33 23 18 20
37 29 20 30 36 34 23 34 34 27 32 28 30 21 24 23 31 24 31 38 31 28 40 34 20 29 27 30 29 33 121 105 34 33 19 21 36 18 194 120 37 32 41 28 25 32 22 33 28 18 36 33 26 28 38 20 31 33 37 24 29 35 25 21
21 30 38 27 19 32 21 25 19 29 32 28 24 36 34 33 20 30 20 31 36 21 31 23 18 18 23 35 24 22 111 120 24 22 18 18 21 30 115 189 26 21 37 36 20 24 36 29 21 31 38 38 19 23 28 34 27 24 30 27 26 18 36 37
19 33 37 27 29 37 33 33 36 27 22 38 27 30 31 38 29 38 36 29 27 24 37 30 36 26 34 26 19 19 108 122 21 31 26 28 25 25 246 29 27 27 21 22 35 20 38 23 34 28 19 35 37 18 27 31 21 22 33 32 34 25 25 30
30 38 20 19 33 27 19 28 29 20 27 20 30 29 25 23 22 32 34 25 38 20 34 35 35 37 19 24 26 28 105 24 110 19 35 37 23 199 20 110 24 33 27 23 35 25 24 35 34 36 33 34 26 33 19 26 35 21 23 31 29 29 31 29
35 20 33 35 38 32 23 38 26 26 26 34 37 33 32 31 36 37 38 25 24 18 29 38 28 34 31 35 36 27 107 119 21 30 28 34 118 25 190 20 22 34 30 29 34 28 21 20 19 30 20 19 26 36 35 21 28 35 38 26 27 36 21 36
30 31 24 21 24 18 37 28 32 21 19 22 32 32 26 30 21 28 20 32 33 27 30 24 33 19 35 31 34 27 18 123 106 37 27 30 123 34 112 118 33 28 36 26 23 20 38 37 33 32 30 19 38 30 29 20 27 34 37 25 19 23 33 19
18 26 31 26 38 33 24 38 22 34 20 19 34 35 37 20 27 22 25 22 22 28 21 32 33 35 32 21 25 37 120 21 112 31 35 18 107 25 25 192 27 34 34 36 29 35 30 22 38 26 36 20 33 33 21 35 20 28 30 31 28 19 32 18
19 29 25 35 35 38 38 34 31 36 38 20 27 23 37 38 29 34 22 19 35 24 27 18 28 33 35 29 32 107 24 108 25 22 28 18 121 38 199 22 19 38 33 24 23 30 33 20 29 28 23 20 38 34 33 32 28 34 33 22 32 33 28 33
27 18 21 38 29 24 27 23 32 19 19 35 33 27 35 36 21 24 27 27 22 23 27 33 22 29 30 36 34 36 123 121 33 23 20 22 20 122 18 111 24 23 24 34 18 33 37 32 21 32 33 22 34 18 24 31 25 20 37 21 24 20 37 23
21 27 29 22 20 20 26 31 36 18 27 22 26 21 23 20 28 36 32 30 23 36 33 34 26 20 34 37 19 25 19 121 123 32 30 30 29 29 120 28 117 23 37 23 35 34 29 21 33 38 25 19 32 25 20 31 20 38 25 18 30 27 25 23
33 38 30 20 33 31 19 20 28 38 30 32 23 37 37 26 32 21 31 28 19 25 19 30 23 31 33 31 31 37 36 202 20 37 34 19 20 18 20 110 28 25 22 36 33 35 30 29 25 32 36 32 34 28 29 22 38 32 26 29 23 33 34 35
38 38 27 34 32 29 34 32 21 27 27 34 25 29 22 26 37 22 18 18 30 23 30 35 21 19 38 29 33 31 105 31 110 31 33 18 21 33 111 26 20 36 29 19 29 22 35 31 19 27 31 38 36 37 32 34 25 32 29 33 28 28 37 35
36 36 33 38 33 37 34 22 36 22 26 23 18 21 26 24 29 38 19 31 23 23 31 36 25 24 20 19 28 28 26 117 38 25 36 24 25 119 22 25 24 31 33 32 32 29 38 22 24 26 36 22 29 24 19 22 18 28 24 34 27 33 24 26
35 28 18 28 34 20 35 38 18 28 31 23 33 27 31 34 19 25 23 21 33 37 36 32 23 37 32 18 21 22 22 120 22 18 20 36 36 23 123 20 23 29 18 34 38 23 30 26 26 23 31 28 23 19 35 35 30 29 19 35 34 24 32 27
30 26 18 32 26 27 34 25 34 27 34 24 23 36 35 20 20 22 34 24 22 28 21 31 21 23 30 30 20 25 32 111 34 37 34 26 34 38 35 38 19 23 28 24 19 28 20 28 25 23 33 27 22 20 36 28 27 23 27 33 25 32 35 34
29 25 27 20 21 24 22 21 33 38 33 27 38 25 29 30 22 36 33 37 32 32 30 22 35 33 28 18 36 18 34 24 105 27 29 18 19 30 29 30 34 37 31 25 31 27 26 19 23 36 32 37 31 26 18 20 27 19 19 30 28 22 24 23
29 29 23 29 31 31 32 19 20 21 20 33 27 21 36 22 35 22 24 27 35 27 29 35 34 28 18 38 18 20 26 29 18 19 23 19 19 24 36 20 37 30 37 34 37 18 32 37 36 31 32 24 27 38 31 38 37 29 29 21 37 32 19 35
38 33 23 18 24 20 35 19 30 35 19 21 20 22 23 21 22 35 27 28 22 23 18 24 30 19 31 31 20 34 24 27 33 31 23 19 35 22 31 38 25 30 25 23 28 30 25 35 22 37 35 34 28 23 31 24 20 20 28 30 34 35 34 30
29 33 32 36 25 31 33 23 33 29 25 36 20 35 18 27 24 31 24 21 33 18 25 34 31 24 29 27 19 38 27 32 33 23 33 23 33 20 19 37 18 23 35 23 38 31 33 18 21 32 25 38 26 30 22 20 20 33 18 30 34 37 35 27
