P2
64 64
255
21 16 23 25 24 21 22 26 16 18 26 16 17 17 18 17 26 17 17 22 20 21 15 26 15 23 24 16 20 14 23 20 22 18 15 22 19 24 26 23 20 20 24 24 22 17 17 15 19 15 21 25 25 23 21 17 16 22 26 16 16 26 15 16
19 16 24 22 21 16 23 19 22 19 25 14 18 22 17 17 14 14 14 26 20 17 21 20 20 23 18 14 16 25 14 22 17 14 19 17 18 18 17 15 25 20 20 19 17 24 16 25 21 23 19 16 16 26 15 18 17 19 23 26 19 15 25 26
15 17 23 14 26 19 16 22 26 24 17 20 25 18 24 16 20 21 23 19 21 14 21 23 19 26 24 14 14 17 22 20 14 25 19 23 25 22 17 17 22 26 23 26 22 25 18 21 17 20 15 15 17 22 21 22 19 25 16 22 22 23 20 22
23 15 16 16 15 21 23 21 15 22 25 23 21 21 26 19 19 15 19 16 16 14 14 22 15 20 16 17 24 25 21 22 26 23 20 21 19 17 24 25 20 21 26 16 23 14 19 23 15 24 15 23 21 23 14 23 22 17 25 14 16 25 17 22
22 26 17 15 25 21 19 14 24 16 26 14 19 23 23 23 26 17 15 19 17 18 22 26 22 24 19 22 16 25 23 16 21 15 23 23 21 15 25 16 14 22 24 23 25 26 14 22 24 22 18 14 25 22 19 23 18 19 16 23 19 22 26 22
15 15 18 20 16 19 17 16 26 22 23 17 18 23 17 15 18 15 25 23 20 17 15 21 19 22 19 16 20 24 21 23 16 20 18 22 18 26 16 17 18 16 18 18 14 17 15 23 20 25 20 16 18 25 14 21 17 25 15 22 26 26 24 25
20 22 20 24 24 24 24 24 18 17 26 19 26 26 17 16 23 22 22 24 20 17 25 23 16 18 19 18 22 22 15 25 26 14 24 16 17 17 16 25 22 26 26 25 25 18 15 21 22 23 21 20 23 25 17 24 15 21 19 25 21 21 17 22
23 24 20 17 20 16 17 14 19 24 18 23 22 15 22 19 25 20 25 22 20 25 20 25 22 21 23 26 19 17 23 22 23 23 18 16 14 18 19 20 14 14 24 20 15 26 16 24 22 25 16 26 15 17 18 17 25 26 15 24 18 19 16 25
26 25 16 17 22 18 16 16 24 25 22 16 24 14 14 21 18 14 18 22 24 17 16 15 18 24 19 23 17 15 20 26 20 16 19 14 15 15 24 14 26 20 21 19 16 24 23 16 26 14 17 26 26 22 15 17 15 20 20 22 24 18 21 20
14 21 24 20 21 19 26 16 19 20 15 25 16 26 19 14 25 23 17 15 24 18 25 16 14 24 15 18 15 18 17 22 20 26 22 25 21 20 16 20 23 24 15 21 20 23 21 24 20 18 20 18 15 20 26 14 15 17 22 14 18 25 17 14
19 24 14 22 22 26 22 15 15 25 18 14 20 25 26 22 20 20 19 19 24 26 15 14 26 25 14 22 26 17 23 25 19 15 26 18 19 20 17 19 22 17 18 16 22 23 18 25 15 15 24 16 17 24 17 18 18 20 15 21 15 20 18 16
24 26 18 19 15 25 24 21 16 22 15 25 19 15 23 18 22 19 19 14 18 25 17 19 19 22 18 24 16 24 17 23 16 21 22 26 20 24 20 18 18 22 16 17 26 26 20 18 20 22 16 26 20 24 25 21 20 14 16 26 17 21 17 20
23 25 25 17 25 14 19 17 16 17 14 14 26 15 18 21 26 23 16 23 19 22 16 18 14 16 19 17 15 14 14 26 19 21 19 25 17 15 15 26 22 22 22 15 19 15 16 20 18 20 18 24 25 17 18 21 23 16 15 20 25 20 22 14
26 21 16 21 22 24 26 16 20 21 20 25 24 22 18 20 20 22 14 22 24 25 16 26 20 21 22 22 22 15 19 15 22 23 17 17 18 17 14 25 18 19 24 20 16 20 14 16 15 25 18 19 23 21 18 21 19 22 26 23 22 16 17 15
15 24 15 22 21 17 22 26 19 22 14 18 25 23 18 15 26 23 25 15 26 23 25 16 18 17 23 22 19 23 22 19 16 24 25 14 18 14 25 23 22 17 19 26 18 15 21 22 18 22 19 16 19 19 21 20 16 18 15 25 14 23 26 20
15 23 17 14 20 17 21 14 26 17 23 17 26 25 26 21 21 25 26 19 16 20 26 20 25 14 18 25 22 25 18 23 14 17 18 16 18 19 19 26 24 15 15 15 25 15 16 26 22 22 22 15 21 20 26 17 25 21 19 17 20 22 18 22
15 23 23 25 23 22 19 15 14 16 16 22 16 24 21 19 18 25 17 20 25 17 23 26 23 19 15 14 20 26 14 26 16 22 14 14 18 19 19 26 20 15 23 18 18 19 14 18 23 25 14 19 15 17 23 20 19 22 17 20 17 24 16 26
17 18 18 26 26 17 23 21 15 25 18 20 26 25 19 23 21 18 22 22 14 18 22 26 15 26 26 17 17 25 15 14 22 25 15 22 20 16 16 24 17 16 24 24 22 17 14 25 23 19 19 23 16 19 15 20 15 16 17 23 15 18 20 26
14 15 25 25 19 18 20 19 19 21 26 25 19 18 23 15 20 26 17 15 18 23 19 15 15 25 21 23 22 26 20 17 22 26 16 24 22 22 24 20 17 15 20 25 22 25 23 23 22 20 22 18 21 25 22 24 19 19 15 14 21 14 19 16
21 15 26 18 26 20 17 21 20 18 19 22 25 18 26 18 16 18 17 26 18 25 20 20 28 21 21 22 20 15 22 19 25 18 15 26 26 18 23 19 27 26 26 23 29 23 23 27 19 26 21 22 21 15 25 16 15 15 18 25 26 19 20 20
24 22 14 26 19 25 15 16 20 24 16 14 19 22 26 17 19 31 33 24 28 26 31 32 28 30 29 23 20 25 23 23 16 18 22 21 24 17 22 18 20 29 33 34 32 22 26 31 25 23 24 26 21 23 18 16 18 16 26 18 25 17 25 14
23 17 19 14 24 20 24 25 16 24 24 24 25 28 27 25 29 33 33 36 36 31 31 28 32 32 20 23 17 26 28 21 27 26 23 26 26 24 27 31 25 33 37 36 28 34 27 26 31 25 28 28 18 25 22 24 17 25 26 23 22 14 21 25
22 20 21 25 19 26 16 20 16 21 24 26 27 20 29 31 30 32 31 33 32 39 29 39 30 28 27 28 34 34 28 31 33 24 31 34 30 34 26 36 28 36 39 36 41 40 29 33 34 29 27 26 22 18 22 14 23 22 21 14 21 15 22 26
23 20 20 16 18 22 20 25 25 17 20 20 31 29 36 30 29 37 40 45 41 34 41 41 38 45 42 40 38 40 41 41 35 30 34 43 42 35 36 45 42 34 36 42 41 42 32 36 31 39 25 25 31 24 15 21 14 23 24 15 16 22 18 16
24 22 23 24 23 24 18 20 26 22 17 28 31 38 32 39 40 36 46 49 45 49 43 51 44 50 44 43 43 50 45 44 43 44 45 54 49 50 51 54 47 50 45 46 42 42 48 34 36 39 29 26 29 24 29 26 21 23 15 21 26 22 17 18
23 15 23 19 23 26 19 19 19 18 20 25 37 38 33 34 45 41 41 48 45 46 47 54 50 61 64 62 59 56 55 52 56 51 55 52 61 60 60 61 55 58 54 53 45 42 49 45 38 37 31 35 33 32 24 23 20 22 18 19 21 20 23 21
19 21 26 14 22 22 20 18 20 18 22 36 30 37 42 40 42 42 44 47 51 50 60 55 65 61 65 65 63 71 62 63 57 63 58 62 68 62 67 59 61 62 55 53 47 56 52 51 47 44 41 35 28 35 26 27 17 22 20 25 15 15 17 15
26 24 19 21 22 25 25 14 21 30 30 29 42 42 45 44 49 56 48 48 60 67 70 64 68 72 67 79 79 75 68 75 70 69 67 79 76 72 70 72 74 71 63 66 62 59 59 48 42 50 37 41 38 36 31 32 25 16 18 20 26 26 23 23
14 14 24 15 25 19 19 16 20 31 35 30 41 40 51 44 46 59 59 58 71 73 69 77 74 74 87 79 84 83 75 82 75 83 83 82 79 78 76 86 79 72 70 65 67 61 58 48 45 51 45 40 39 28 28 22 25 21 19 26 16 16 14 19
25 26 25 22 20 26 23 15 23 33 31 42 42 44 45 49 53 51 57 69 74 77 76 80 79 85 85 92 86 86 81 94 88 86 81 81 93 91 93 92 84 85 84 75 73 62 60 59 56 53 46 49 42 37 36 30 26 23 22 16 15 26 24 25
15 16 26 15 20 24 25 23 31 26 29 39 38 45 52 55 57 61 57 69 83 83 89 94 89 93 94 99 94 92 93 94 93 100 96 90 94 93 91 98 91 85 86 89 72 71 59 60 51 48 54 41 44 40 36 25 25 22 17 18 14 26 21 22
22 17 15 23 15 24 23 25 29 24 32 43 35 48 46 54 52 62 73 72 90 90 89 98 101 95 96 95 105 100 105 102 101 96 96 97 104 95 101 103 96 97 94 84 80 71 72 58 57 57 44 50 39 35 37 28 26 20 16 15 24 15 15 24
16 14 25 19 24 24 22 23 25 34 30 38 37 45 50 52 62 67 65 76 88 100 96 97 102 99 109 107 110 104 108 108 105 115 108 111 101 104 102 105 99 101 100 96 92 76 69 56 51 51 53 50 35 33 34 24 25 25 20 26 20 23 25 17
21 15 25 16 26 23 15 28 30 31 31 39 35 43 54 59 62 61 65 86 90 97 96 98 106 104 107 112 107 109 113 116 116 111 114 107 112 102 107 106 107 98 96 96 94 77 72 65 59 57 45 40 46 37 37 30 29 21 18 14 24 26 25 15
22 16 17 24 24 23 23 17 26 27 33 41 37 45 42 57 50 64 69 72 84 92 103 102 107 107 110 105 114 113 114 120 126 119 111 109 107 109 105 103 109 95 98 86 84 84 66 57 50 58 43 45 45 33 31 23 28 24 17 14 24 16 25 25
24 24 20 26 20 14 20 17 21 34 35 41 33 37 41 52 47 61 66 79 78 93 89 93 98 99 108 108 114 118 115 117 124 126 118 113 109 104 111 105 104 93 95 93 89 73 69 63 57 46 42 39 38 42 30 30 24 19 16 26 16 15 21 15
15 26 22 25 22 24 21 25 25 33 31 34 41 45 44 43 55 60 70 72 85 81 91 89 100 103 111 114 112 114 113 124 129 116 112 115 108 109 110 107 103 98 87 80 78 75 65 53 50 54 40 37 35 33 34 32 27 18 20 22 25 20 22 25
19 14 17 25 25 23 20 26 24 31 32 31 40 37 37 40 52 57 59 66 73 80 85 90 99 96 96 104 109 110 106 112 117 119 113 115 102 100 105 93 92 85 84 83 71 72 55 49 53 40 40 43 40 38 30 25 23 19 22 25 15 16 16 23
18 16 23 23 23 16 18 26 22 26 24 25 35 33 34 46 45 45 61 67 68 81 78 84 86 98 98 98 106 104 103 107 112 110 113 105 99 97 103 90 91 90 81 81 76 68 58 49 42 44 42 38 35 34 25 30 17 19 16 21 20 25 23 20
14 19 14 24 19 15 18 15 22 25 26 28 26 36 32 37 38 39 56 60 59 69 79 76 87 95 95 101 94 98 99 99 104 98 104 103 101 94 97 90 85 79 80 65 66 64 51 46 47 44 39 37 36 31 31 18 18 17 23 19 22 24 16 14
22 25 26 23 14 18 16 23 22 22 23 22 35 36 28 39 44 45 43 49 65 63 65 73 84 89 83 93 89 88 95 93 85 87 98 93 95 90 91 81 84 76 66 59 62 53 51 44 34 41 30 34 24 30 24 20 23 20 15 20 23 20 26 20
24 21 20 18 19 26 16 17 15 15 17 23 21 35 33 34 35 40 45 49 49 52 68 72 73 70 80 82 88 86 77 82 86 80 87 90 83 87 84 76 68 67 61 63 49 52 40 40 40 35 34 30 27 22 24 18 26 25 15 21 25 21 20 22
15 20 19 24 22 26 24 16 20 19 24 26 27 31 31 33 36 35 34 47 41 48 57 57 63 71 75 78 73 79 73 78 74 73 79 81 69 77 68 69 71 64 53 55 52 44 38 38 35 25 27 29 20 15 19 26 23 18 21 14 25 22 22 15
14 14 16 15 18 22 24 23 20 18 20 22 26 26 23 24 25 24 31 32 43 38 47 52 55 59 60 65 64 69 70 74 76 65 65 62 63 67 58 57 61 49 53 49 38 30 33 31 24 24 24 24 23 17 21 24 14 17 21 14 15 22 14 23
22 14 23 20 25 21 22 23 19 18 24 24 22 26 20 29 19 29 28 26 28 38 45 51 45 55 50 54 60 56 60 58 69 68 69 67 53 50 57 55 52 47 47 36 30 32 30 25 22 29 26 21 14 25 24 14 17 24 14 15 16 25 19 18
18 25 23 24 20 20 26 18 15 15 18 21 15 16 15 26 21 19 22 21 20 26 38 41 45 40 43 48 48 60 62 55 60 62 59 52 58 51 47 38 39 32 40 32 24 29 22 26 26 23 23 19 23 21 20 25 24 20 14 25 25 19 24 17
17 23 16 16 14 25 18 20 15 26 25 17 20 14 22 19 15 14 19 14 22 20 26 26 38 40 39 46 49 47 53 52 54 56 51 52 49 42 43 44 39 35 29 16 19 23 26 25 16 18 16 16 23 19 18 22 21 26 21 15 20 16 23 19
22 22 19 25 23 18 24 25 21 16 18 18 22 18 24 17 23 25 14 23 16 20 18 31 31 38 35 40 41 45 48 45 49 44 43 41 35 41 40 29 33 32 26 26 24 22 20 25 18 26 21 16 21 22 14 22 25 19 21 21 16 23 16 20
18 20 17 14 24 20 25 15 17 23 23 14 16 14 17 19 14 24 22 15 26 20 24 24 28 27 36 30 37 33 42 44 34 41 39 38 41 31 37 28 24 26 14 18 18 21 20 15 24 23 21 19 22 17 21 22 17 23 18 14 20 19 17 18
23 24 19 17 22 18 18 15 17 21 16 16 20 16 18 26 19 20 22 17 19 14 18 26 16 27 27 24 27 26 30 39 30 32 29 35 26 26 28 18 20 15 19 14 26 15 19 16 14 16 25 24 16 22 19 20 15 15 14 18 25 25 26 15
15 17 16 24 20 15 16 24 14 18 24 18 20 22 22 19 15 18 23 25 24 14 16 17 20 17 22 28 29 23 20 28 28 31 30 28 26 17 23 14 18 19 25 24 23 17 17 16 23 21 24 20 14 23 14 24 14 16 23 17 23 14 20 21
14 19 14 16 26 19 19 15 24 19 17 16 16 14 21 25 18 24 16 25 14 20 21 21 23 22 18 20 21 14 22 19 24 17 25 23 15 19 22 20 23 26 23 23 23 25 14 20 14 16 26 25 22 18 17 16 18 17 21 26 18 23 19 17
15 25 20 26 16 15 23 25 26 19 14 23 20 19 18 17 19 18 22 14 20 21 15 22 16 15 25 20 15 21 15 14 22 22 26 18 26 16 17 26 17 24 15 26 25 24 14 20 24 19 19 22 21 26 25 23 21 26 14 22 22 23 16 21
16 21 26 15 19 20 20 22 15 20 24 16 26 16 21 25 22 22 25 16 20 19 22 15 23 22 17 26 18 19 15 25 23 15 24 24 26 15 20 25 18 21 20 16 17 16 26 17 23 26 25 25 16 15 24 23 15 15 26 26 25 24 18 21
18 17 15 25 14 19 23 23 15 14 18 14 26 26 22 21 18 26 24 22 21 16 20 20 20 16 18 26 25 15 17 17 16 14 21 17 22 25 21 23 23 18 24 16 23 14 24 20 18 25 18 26 20 26 21 20 19 22 25 22 25 19 22 15
20 15 14 17 26 16 16 17 17 20 19 17 17 22 15 24 23 16 14 25 14 20 15 18 21 24 17 19 17 23 25 25 15 22 17 21 14 22 18 21 25 17 14 24 24 16 24 23 19 20 16 25 19 15 25 19 15 18 21 18 16 16 26 25
22 23 20 25 20 16 24 24 19 24 26 16 22 23 14 25 22 25 21 26 17 24 21 18 23 24 19 19 14 25 22 18 25 17 21 19 23 21 18 21 15 25 14 24 17 22 19 26 16 20 19 23 14 26 14 15 24 22 22 19 22 17 21 21
16 22 20 14 26 23 26 21 22 26 24 18 25 25 18 21 19 14 16 23 15 25 20 26 20 23 19 23 25 22 25 17 21 14 19 21 16 18 24 23 20 23 17 26 20 19 17 21 23 17 17 20 24 19 20 15 19 19 17 19 22 24 17 14
20 18 15 19 14 16 18 26 20 23 23 23 20 25 21 20 23 23 17 17 25 21 19 17 22 21 26 19 14 25 14 25 21 22 14 26 23 25 22 20 20 24 14 15 21 24 18 17 22 22 26 21 14 19 15 19 26 25 23 25 23 26 15 14
15 22 15 25 21 16 24 26 16 24 24 23 20 20 23 15 14 22 19 20 17 25 24 16 15 19 22 18 23 17 23 16 25 23 15 18 16 20 23 22 16 18 24 20 21 17 20 22 16 15 16 22 25 20 14 16 18 16 14 23 26 17 17 20
21 21 26 21 21 21 16 16 22 24 23 21 14 21 14 22 25 14 16 16 23 22 23 22 25 20 25 22 25 25 22 23 17 19 20 14 19 25 17 22 17 25 15 23 21 24 15 23 25 26 14 22 26 14 15 16 15 20 23 14 18 26 17 15
23 20 22 26 26 18 16 21 20 26 24 18 17 18 17 14 22 23 15 20 16 15 22 17 19 17 17 17 26 18 22 14 14 23 19 22 25 23 20 24 17 24 16 18 17 17 14 21 19 22 15 17 19 21 17 25 24 22 21 22 15 20 15 20
21 24 19 20 22 20 20 14 26 14 24 19 25 16 23 18 26 14 25 18 19 25 16 26 14 20 22 21 24 22 14 24 26 23 16 17 25 24 23 19 23 24 19 21 19 17 19 24 23 24 18 20 24 25 22 21 21 22 20 22 14 26 17 22
18 16 26 24 15 16 17 18 14 23 21 23 19 22 26 16 18 24 16 15 23 18 25 18 24 20 19 14 22 23 25 23 17 25 25 25 26 24 22 17 20 18 19 26 22 26 25 20 15 14 20 25 19 17 26 19 14 15 14 26 20 22 25 16
