P2
64 64
255
26 25 22 26 19 18 26 24 22 15 19 18 18 23 18 16 24 15 26 18 16 19 17 25 24 23 15 16 22 15 26 26 15 21 22 17 22 26 25 26 17 18 20 19 22 22 23 26 16 14 26 21 20 20 20 14 18 24 18 22 20 18 21 26
21 14 20 22 22 18 15 25 16 14 16 26 26 16 21 17 20 24 25 21 21 26 22 21 20 24 17 21 21 16 17 21 25 25 18 16 19 21 24 16 18 18 26 18 18 20 16 14 24 25 17 17 23 22 26 25 16 18 19 15 22 16 25 16
25 23 26 14 15 18 21 26 26 19 14 21 19 23 20 18 14 19 19 25 24 20 18 14 15 18 26 21 18 18 25 25 16 21 26 23 25 14 20 20 16 23 18 25 14 16 22 17 14 21 14 22 22 18 24 19 25 16 24 23 17 18 17 26
20 21 18 22 22 25 21 18 19 20 24 23 21 15 26 19 26 19 18 17 26 23 23 15 22 15 23 20 19 24 26 18 18 24 25 22 14 21 26 22 22 25 19 23 18 15 24 24 22 16 22 21 14 16 18 14 22 16 20 22 14 14 20 19
14 26 20 26 15 26 24 20 19 21 15 26 18 16 14 21 14 26 25 17 20 20 15 19 22 18 15 25 25 18 21 17 18 19 18 16 26 26 22 21 24 14 17 22 20 15 18 22 18 26 22 21 21 18 24 22 16 23 14 26 26 20 24 19
14 23 26 14 19 19 22 16 19 19 22 16 20 22 19 20 23 22 26 18 18 16 19 20 17 23 21 20 26 19 22 25 24 26 15 17 15 14 24 24 25 18 20 16 16 23 18 21 25 20 23 25 23 24 24 25 21 25 25 20 21 15 26 16
23 22 19 20 22 20 17 21 16 23 21 23 26 15 21 17 21 18 25 26 15 17 22 24 16 22 26 23 15 14 20 24 23 22 15 14 17 15 21 14 19 20 25 19 21 26 14 19 19 17 19 20 21 25 22 14 18 15 18 22 17 18 16 24
14 20 21 18 18 15 22 24 24 16 21 15 24 23 21 15 24 19 22 25 25 22 15 24 16 21 17 19 15 23 16 24 18 25 18 20 20 23 16 16 16 21 21 17 22 19 18 16 18 17 15 26 17 19 25 24 26 15 22 19 21 23 23 25
26 26 25 14 21 18 24 23 17 21 15 14 21 25 15 17 26 18 20 20 15 21 14 22 18 22 21 15 23 24 15 25 20 24 14 17 16 16 17 16 19 26 16 24 20 24 21 21 14 14 17 26 26 15 24 22 15 25 22 20 16 24 15 21
21 16 24 23 15 20 20 17 25 20 16 23 25 19 14 25 15 20 20 14 14 20 19 17 20 18 15 21 14 14 16 20 24 25 19 25 15 25 14 26 24 16 18 26 26 24 22 20 25 15 22 24 22 24 22 23 21 21 23 18 14 26 16 23
17 19 26 26 18 15 16 18 16 15 25 23 14 23 20 26 16 20 24 14 21 14 14 14 17 17 25 16 18 21 16 15 18 20 23 20 21 20 16 26 24 21 23 20 16 20 16 21 22 15 19 16 25 23 26 19 24 19 20 25 15 21 19 24
23 18 14 24 14 18 14 14 15 24 26 20 26 17 14 22 24 25 15 25 14 14 15 22 24 21 21 16 15 24 23 15 15 16 23 23 17 14 17 14 26 20 17 14 26 21 19 21 21 26 26 21 22 25 19 14 16 25 23 14 26 26 19 15
18 15 22 22 15 22 15 26 20 26 19 24 14 24 24 15 25 18 14 25 24 26 19 22 23 16 17 15 25 25 21 23 22 19 20 17 18 16 19 18 24 19 23 26 20 22 22 19 14 22 14 22 16 22 26 22 20 16 23 22 24 26 26 18
16 20 22 25 20 17 16 15 17 23 15 22 19 15 22 22 20 19 25 18 18 21 14 24 25 15 21 22 26 25 21 14 20 15 15 18 21 17 16 16 19 19 16 14 26 25 23 20 21 25 18 19 20 24 16 24 22 19 24 25 17 23 21 22
24 18 25 24 22 17 24 26 19 21 21 14 17 25 16 26 18 24 19 20 23 17 21 18 19 25 20 25 23 17 15 19 21 24 18 26 25 22 14 21 16 17 26 19 18 14 24 15 26 19 19 16 24 25 19 16 26 24 17 15 25 15 26 15
14 15 14 19 26 22 19 16 18 23 15 22 16 14 22 16 14 17 24 16 24 24 20 17 16 26 20 22 22 25 22 23 14 22 21 23 25 18 16 21 22 22 16 26 22 17 21 19 25 21 14 16 20 16 20 22 20 26 20 17 22 15 17 14
20 20 16 18 15 15 26 16 18 15 15 17 14 15 26 18 22 15 25 22 15 22 15 16 22 23 24 18 26 16 16 21 17 20 23 17 25 15 15 25 25 26 16 25 18 24 24 26 18 25 26 16 21 14 18 16 25 24 23 19 20 25 26 20
16 20 16 22 19 22 19 19 25 15 15 22 19 14 17 18 26 19 20 26 14 16 16 26 24 16 19 16 22 17 14 20 20 19 15 21 17 19 20 21 14 20 21 25 26 23 25 16 18 21 15 22 19 21 20 14 21 14 19 24 25 24 19 21
24 23 18 21 24 20 22 18 16 17 18 15 21 23 25 15 22 21 20 20 18 25 25 26 17 26 14 20 14 15 14 19 14 26 16 14 20 23 22 18 14 17 17 21 15 22 18 24 17 18 24 20 19 19 23 15 14 21 17 18 17 22 17 21
25 15 17 25 19 16 20 20 25 22 25 17 20 22 22 23 26 23 22 17 23 22 17 28 22 25 23 14 18 26 20 16 21 20 25 16 19 23 18 19 25 22 23 26 27 25 26 26 21 18 14 21 22 14 21 22 17 21 20 18 17 18 16 16
18 16 25 25 16 21 18 18 14 15 18 22 22 14 18 29 19 26 27 32 29 33 33 22 31 23 25 27 26 18 23 16 15 20 20 19 21 16 29 19 25 28 25 24 31 26 23 29 23 20 24 26 20 16 20 22 21 18 22 20 15 21 22 26
14 26 26 23 22 19 24 14 17 15 22 19 21 17 19 31 34 27 31 35 27 32 29 26 28 27 20 29 17 16 15 22 26 18 15 18 16 29 31 33 34 31 29 29 35 35 32 24 30 22 27 28 19 22 26 24 24 17 19 14 21 26 18 24
18 16 23 17 26 23 19 18 25 15 16 20 19 32 29 24 29 35 37 38 33 30 35 34 36 29 27 27 30 21 20 26 15 16 17 26 24 26 25 30 28 34 32 41 29 38 35 31 34 25 33 27 22 22 15 18 20 19 21 16 14 15 15 14
21 24 24 26 20 18 20 15 15 19 17 24 28 35 33 28 40 39 42 33 36 33 34 38 35 37 33 37 33 22 23 18 18 26 22 24 29 31 37 35 32 38 39 41 40 37 43 41 33 33 36 27 26 28 21 17 20 14 22 17 16 14 23 19
14 15 16 14 16 19 17 18 21 24 19 32 27 28 30 33 39 42 39 49 37 38 37 38 35 34 36 35 38 31 27 28 23 24 21 30 26 34 34 41 37 48 43 38 37 40 41 45 33 32 29 29 25 31 18 25 25 22 25 19 21 24 22 16
20 26 23 23 19 16 17 22 17 25 23 32 34 28 32 41 46 50 46 46 42 44 41 49 47 47 36 33 37 36 31 28 23 23 28 30 39 32 34 46 50 44 53 48 42 53 45 44 40 41 34 40 28 31 21 21 21 22 25 14 22 17 21 14
22 14 24 23 21 16 17 21 15 24 22 33 39 31 45 47 49 51 52 48 48 54 52 50 50 46 40 36 39 37 26 24 31 29 33 38 36 41 47 49 53 52 48 53 46 55 48 50 45 43 44 32 30 25 25 24 18 15 23 24 17 14 21 26
25 22 17 22 20 18 14 20 21 26 25 32 42 39 45 44 52 54 52 56 58 51 51 55 55 50 41 43 36 31 32 30 36 25 31 30 38 43 43 50 57 52 59 51 51 57 48 48 49 45 44 42 39 29 34 21 21 24 14 24 25 17 16 14
14 21 21 18 19 18 25 25 19 21 31 40 39 42 42 44 46 59 50 54 64 65 59 58 56 56 49 49 41 32 31 34 36 32 28 33 44 49 49 49 54 62 56 62 61 61 61 49 54 42 51 36 33 28 34 25 25 15 23 22 20 16 22 24
20 14 19 22 16 14 22 16 20 24 27 38 45 47 50 44 47 56 64 59 68 65 63 60 55 49 55 41 47 33 42 42 36 33 42 34 49 44 48 47 62 64 56 63 67 66 58 53 50 51 45 48 43 34 37 33 18 25 25 20 26 24 17 18
18 24 18 19 22 26 16 23 22 34 34 43 43 42 48 52 55 63 68 60 67 66 67 59 56 61 55 49 48 42 33 42 35 33 40 41 38 42 47 58 65 66 63 69 64 59 64 57 53 56 53 42 40 32 37 34 31 18 14 25 16 22 26 14
17 19 26 15 17 18 22 19 21 31 29 36 46 45 51 58 61 54 62 68 69 64 69 65 54 53 52 50 45 44 42 44 32 36 40 42 44 44 47 55 58 66 71 76 69 67 58 64 54 53 47 40 37 32 35 31 23 19 19 20 23 24 24 20
19 20 24 24 21 21 16 22 31 25 29 31 37 41 45 58 51 59 64 67 78 72 65 62 60 55 47 50 51 42 36 44 46 41 36 44 44 46 56 61 56 68 74 73 73 69 69 63 62 48 53 51 36 37 30 34 20 18 20 26 21 17 26 24
15 14 19 23 19 18 21 17 20 25 38 33 43 48 43 49 63 55 60 70 64 71 70 70 56 50 54 45 51 39 42 39 34 35 39 37 46 55 52 62 63 58 68 71 68 64 63 55 58 49 44 44 42 38 27 32 31 19 26 14 16 18 25 25
19 25 26 20 20 20 18 24 22 23 30 38 38 48 43 57 59 56 68 60 62 66 59 67 56 50 51 46 50 37 33 42 34 44 41 39 43 44 54 51 54 64 69 70 71 70 64 54 52 55 50 41 36 40 36 24 31 16 15 22 26 21 16 20
17 16 14 21 26 20 15 27 29 23 27 32 40 43 43 48 58 59 57 61 65 64 55 58 57 58 45 40 44 39 42 40 36 31 38 35 38 45 55 57 51 54 57 64 69 56 53 58 54 53 41 37 37 38 34 27 24 20 23 24 22 14 17 25
15 22 17 25 19 15 23 21 22 28 34 35 36 42 43 54 46 48 61 59 64 55 59 57 48 57 51 49 43 33 31 40 32 37 29 34 44 46 44 47 53 53 59 63 58 55 55 57 47 54 48 37 41 38 31 22 23 14 26 24 22 18 22 14
14 26 17 19 17 17 24 21 20 27 30 29 37 36 41 50 46 56 53 53 60 53 51 55 54 46 41 40 33 35 32 34 33 33 35 38 43 42 48 52 54 52 58 53 58 55 51 49 46 42 44 41 32 28 25 32 16 24 14 20 25 14 25 20
15 15 21 23 23 24 19 26 16 23 33 26 34 35 45 43 49 42 55 56 51 46 52 47 41 43 40 45 37 38 25 33 24 33 30 32 31 45 43 51 47 46 56 52 56 55 43 41 51 39 46 38 30 28 24 25 25 15 24 14 16 23 25 26
29 17 26 23 22 29 25 28 17 31 35 29 37 36 35 43 51 51 46 51 51 48 49 46 51 50 49 36 40 36 30 29 34 28 28 41 39 44 42 42 44 48 56 49 54 57 50 44 50 48 43 34 44 29 28 22 21 20 29 20 21 23 23 24
29 28 31 22 30 31 33 25 26 32 29 36 36 45 47 41 45 53 46 45 47 57 52 49 53 53 42 48 47 32 41 27 32 38 39 40 42 41 52 50 55 54 59 53 54 55 54 54 46 51 46 46 47 40 33 27 28 26 32 35 34 37 35 37
34 35 27 33 30 33 27 35 34 28 37 29 41 38 37 45 47 52 51 52 57 57 48 50 54 47 50 49 39 38 37 29 31 31 37 43 40 45 50 53 58 60 61 52 57 53 53 50 53 51 54 45 44 35 45 36 35 39 35 36 43 44 43 36
29 25 30 22 27 31 29 25 29 24 25 23 28 34 33 38 34 43 47 40 48 40 45 45 36 46 43 36 39 33 31 35 25 25 32 29 31 38 34 46 38 41 45 45 43 48 50 46 37 46 40 33 35 27 27 32 33 37 29 34 34 33 33 32
17 21 26 22 17 17 28 22 23 21 24 19 23 28 32 26 34 36 40 30 35 33 34 36 27 38 26 24 29 20 19 22 22 22 21 24 27 32 29 31 40 31 38 38 36 41 29 36 37 25 34 29 22 25 24 23 29 20 30 24 30 26 26 22
24 15 21 24 22 22 23 21 26 14 20 15 16 25 21 24 29 30 33 23 27 27 23 31 24 22 28 18 21 25 18 21 18 19 17 14 21 27 22 28 26 25 32 32 28 29 22 30 27 22 27 16 19 21 25 20 25 16 18 14 21 16 26 18
18 22 15 22 17 19 23 25 20 14 16 15 20 18 22 24 27 19 26 17 23 27 23 29 28 15 23 21 21 17 25 22 21 18 14 23 15 22 24 26 22 29 29 18 27 24 22 21 21 21 22 19 18 23 16 22 18 26 16 23 25 26 25 21
17 25 25 24 21 24 26 20 18 23 17 19 25 21 24 16 23 20 25 17 18 18 15 19 23 15 17 16 21 14 14 21 26 17 26 19 14 19 23 16 15 19 21 14 16 19 15 18 20 17 21 18 20 25 25 17 24 16 19 22 16 16 16 24
21 25 19 25 24 22 23 26 16 19 18 24 14 23 19 22 14 20 21 26 16 24 17 23 26 23 15 19 23 18 24 20 22 26 17 24 25 16 15 15 16 23 19 15 20 18 18 16 14 16 15 22 14 24 24 15 17 16 14 24 23 18 23 22
23 22 24 15 15 25 19 23 23 18 20 20 14 18 20 17 14 20 23 23 26 21 20 16 14 22 24 17 19 19 25 21 23 23 26 15 14 26 16 25 21 14 20 23 17 22 25 24 22 24 18 25 15 22 21 19 25 17 20 17 14 24 22 17
25 22 26 22 14 25 18 24 21 19 19 25 14 18 26 24 15 22 14 26 19 15 19 20 23 14 26 25 17 25 22 26 18 14 17 21 25 17 24 18 21 24 17 22 24 17 18 23 20 22 25 24 15 15 14 16 26 16 21 18 19 17 19 26
23 19 18 18 25 25 16 26 18 17 22 14 25 22 21 21 24 15 21 16 19 24 15 26 16 17 22 24 21 24 21 23 22 16 23 22 15 25 25 21 18 19 14 18 25 16 18 23 17 20 23 26 25 21 18 17 24 22 18 22 16 22 19 25
17 23 21 23 23 19 21 15 25 22 20 20 22 16 17 22 16 25 17 19 26 16 19 18 22 24 16 22 16 26 14 18 25 15 14 17 24 23 25 18 14 26 23 24 23 16 22 15 19 20 26 15 17 25 23 15 26 21 15 16 14 16 19 17
16 24 20 21 17 18 17 20 17 23 18 15 20 15 19 25 15 17 24 26 20 24 15 15 17 25 23 15 17 25 19 22 26 24 20 15 15 21 24 15 19 22 21 20 26 21 24 22 21 22 18 24 25 18 16 24 18 25 18 20 20 24 20 16
14 19 26 20 25 18 24 16 16 17 15 23 19 26 23 15 15 16 20 24 16 16 19 19 21 18 19 23 19 24 15 20 17 25 15 15 23 26 22 15 16 23 23 23 23 22 20 20 16 25 20 16 25 23 26 16 17 20 17 20 17 15 21 25
24 17 24 23 26 23 25 22 21 24 16 24 21 18 25 25 16 22 16 14 22 16 15 17 26 23 24 18 23 20 23 26 15 23 16 22 21 22 22 23 24 19 23 16 18 21 20 22 22 19 17 19 17 23 22 16 14 24 20 16 22 22 24 24
18 18 25 14 17 24 17 17 18 14 21 24 18 24 26 21 18 16 18 19 23 15 19 20 21 17 26 21 22 21 22 19 15 22 23 16 14 17 20 17 24 26 16 19 20 14 25 24 18 14 14 17 14 24 15 26 14 15 18 14 26 25 15 16
18 22 24 21 22 19 20 14 17 21 22 18 19 23 25 18 21 24 19 19 14 16 14 15 25 18 14 16 15 17 18 26 20 20 24 14 26 17 16 24 18 15 16 18 26 15 14 16 26 15 22 21 20 14 21 25 21 21 22 16 26 26 23 24
15 22 17 16 26 18 20 20 15 16 19 17 23 26 23 15 21 14 22 19 24 15 15 21 17 22 16 15 17 25 16 16 23 24 18 18 26 24 18 21 16 16 16 14 17 24 19 23 17 26 22 18 22 24 15 16 24 14 26 21 19 24 23 21
21 15 18 14 16 17 15 16 16 19 26 14 14 22 18 24 20 21 26 19 21 26 16 21 20 20 22 15 19 24 17 16 17 14 26 20 14 16 26 26 19 24 18 17 23 22 17 26 15 21 15 25 18 23 20 24 20 19 17 15 18 20 19 17
15 25 16 20 18 15 17 18 15 25 14 18 17 19 21 22 17 16 18 19 26 26 25 20 23 16 24 20 14 21 25 15 26 19 14 26 25 16 17 22 19 16 18 14 26 20 20 16 18 15 24 14 24 14 15 21 16 16 20 15 19 20 17 22
14 21 22 26 16 15 15 24 14 15 18 14 15 20 17 23 25 14 19 17 24 22 25 22 14 16 18 14 18 24 22 15 21 15 16 20 19 16 23 23 16 21 16 22 24 19 26 15 24 21 17 14 22 18 25 19 22 14 25 24 19 26 20 22
22 17 24 18 25 23 18 15 18 15 16 25 19 23 22 23 23 24 26 16 16 17 26 23 18 14 14 14 17 15 25 23 25 15 22 14 24 16 25 15 14 17 15 20 23 26 18 21 15 19 23 19 21 22 21 20 15 21 19 19 22 14 20 19
24 25 24 20 26 26 16 18 17 25 22 20 14 24 19 23 18 14 23 14 18 14 24 20 16 17 18 20 16 15 17 26 25 20 21 15 19 17 18 15 25 23 20 22 20 25 25 22 24 21 26 24 20 14 19 21 25 17 21 16 15 18 18 23
20 15 19 21 18 24 14 24 16 14 22 16 24 23 26 17 23 19 15 16 24 25 16 22 18 16 20 19 19 24 26 24 18 15 22 21 26 22 17 17 21 15 20 15 17 23 23 23 15 17 26 16 17 15 20 21 20 20 23 18 24 20 19 24
