P2
64 64
255
18 31 19 22 31 38 29 24 27 34 20 19 22 23 35 19 26 36 38 38 28 30 24 26 29 23 32 34 32 22 23 33 32 32 37 21 29 18 22 22 32 29 29 19 33 38 29 29 31 26 27 23 29 23 35 30 23 18 35 26 32 20 38 20
20 36 22 19 37 22 33 31 35 38 29 21 26 32 23 22 31 31 27 31 26 34 31 24 23 18 22 30 20 22 37 23 19 19 18 29 33 38 25 38 25 26 22 31 19 29 23 29 18 34 21 18 18 27 30 23 33 18 32 37 25 34 26 29
22 20 28 32 37 37 32 22 34 38 19 29 37 35 32 29 30 27 18 20 18 19 34 37 32 37 20 25 30 28 26 31 25 22 26 37 25 35 37 19 26 37 32 18 20 33 34 24 31 33 21 35 31 37 33 33 31 37 32 19 19 32 34 36
34 19 28 38 31 37 19 33 20 37 35 18 36 31 30 33 38 33 38 19 29 22 37 36 26 18 28 32 28 21 24 32 25 19 38 30 21 25 38 28 25 35 25 29 21 22 21 34 32 22 38 34 32 33 30 23 25 34 34 33 38 33 38 23
32 24 32 22 29 30 38 27 37 21 28 38 37 38 20 35 22 22 18 18 21 33 19 35 29 19 24 21 28 36 32 36 37 26 37 18 25 36 20 30 22 31 20 36 24 33 29 26 24 31 31 22 29 23 28 19 20 18 36 37 19 26 37 27
30 22 29 38 34 28 34 31 20 38 19 29 19 30 19 18 18 27 34 37 32 35 18 31 29 35 34 38 18 34 33 30 22 31 35 28 36 36 27 25 33 26 21 19 30 20 31 21 36 23 18 29 37 38 37 22 20 18 18 37 29 37 32 33
29 24 23 34 30 25 29 18 31 21 31 31 38 22 20 35 31 22 23 35 36 20 19 30 30 33 25 32 34 23 27 28 38 31 18 19 31 33 35 24 27 36 31 29 30 35 29 29 21 33 38 30 32 18 33 21 23 30 24 23 26 27 22 34
18 26 33 38 38 32 29 33 34 29 25 35 18 38 32 38 20 23 20 23 20 32 23 29 29 30 30 24 29 28 24 22 38 32 25 38 19 25 21 21 23 38 33 24 36 27 31 24 37 23 31 35 36 28 37 29 20 32 37 18 26 27 34 34
26 29 34 20 21 18 30 20 21 32 37 37 19 35 24 28 22 33 29 26 26 34 28 26 33 33 30 35 29 33 38 35 29 23 28 33 26 23 22 22 20 35 31 26 25 20 21 32 21 33 28 31 24 29 21 37 28 23 37 38 34 31 26 26
22 20 28 26 32 38 32 37 22 22 20 24 35 30 35 32 21 21 26 21 25 38 35 25 23 34 33 32 20 28 36 24 33 18 20 28 20 26 28 35 20 29 37 35 31 23 38 31 24 28 33 22 23 23 36 24 29 32 30 25 38 20 22 36
26 26 23 31 26 37 19 34 29 31 30 35 35 36 25 32 27 18 30 23 29 33 18 25 19 28 19 26 20 26 29 32 20 34 34 23 35 38 22 24 19 36 35 31 30 31 30 19 34 37 28 31 32 32 20 24 24 33 25 22 22 24 34 24
24 25 20 32 36 38 19 27 26 36 29 20 35 31 29 22 19 38 36 31 24 32 19 22 24 30 36 27 25 33 36 32 36 26 37 22 31 18 19 22 36 26 21 36 21 25 20 26 34 25 24 33 19 27 35 31 18 36 35 38 22 20 18 37
19 24 35 26 18 27 26 37 31 24 19 35 30 30 21 19 29 23 29 30 37 24 29 22 18 37 34 25 38 19 26 21 26 31 25 18 28 32 25 29 23 24 28 30 27 37 35 32 26 28 23 35 25 30 22 35 38 36 28 29 28 22 31 27
36 32 28 34 23 19 27 29 35 31 35 25 30 21 20 21 26 22 19 30 18 26 33 36 23 26 37 34 36 27 32 35 33 36 24 38 30 19 32 21 29 26 37 28 36 32 23 31 38 38 34 25 38 32 38 19 20 27 35 23 28 23 26 19
36 33 36 32 23 25 22 25 19 19 19 25 25 24 31 26 19 24 23 26 18 29 26 29 20 36 25 25 22 18 35 30 32 22 27 23 34 37 36 37 28 28 31 30 27 31 23 34 26 32 29 18 33 22 23 31 38 22 28 32 31 19 24 26
26 19 18 31 19 31 22 26 38 33 38 20 33 23 26 26 27 38 34 27 25 35 34 35 18 29 32 37 27 29 19 33 34 38 18 31 35 29 32 35 38 18 26 26 34 24 30 26 34 30 27 35 35 36 19 33 33 33 18 25 34 38 28 23
21 24 38 37 35 35 31 25 29 26 21 23 26 30 23 25 18 32 18 23 19 26 30 18 21 33 33 18 38 21 22 18 23 38 36 27 19 36 34 30 22 29 20 20 19 29 36 34 19 33 32 28 36 33 25 29 25 27 26 27 21 34 18 32
36 23 35 25 38 38 27 34 26 18 35 33 31 18 35 19 35 20 19 21 21 28 37 24 22 32 19 34 38 31 35 25 20 35 29 36 22 38 23 26 20 25 38 38 33 31 37 33 24 26 37 22 24 26 29 25 36 18 22 38 30 21 24 36
19 35 18 37 22 28 23 22 25 34 34 21 33 37 36 29 28 36 18 18 22 38 21 29 26 20 18 21 38 33 34 19 34 30 25 30 38 28 26 21 31 32 31 34 26 26 28 23 29 24 23 29 29 38 18 22 18 28 34 29 26 38 38 26
32 35 28 18 36 18 31 37 24 25 20 30 26 26 30 35 33 35 39 33 27 30 28 39 24 39 22 33 36 25 22 23 22 22 36 31 29 32 27 25 35 23 26 31 23 24 38 26 19 37 23 21 27 36 38 27 37 22 31 23 29 36 36 18
22 38 18 23 21 20 21 20 33 37 25 36 24 30 30 36 33 38 33 44 34 34 27 32 39 40 28 24 22 29 33 36 29 24 27 36 26 23 23 36 43 26 39 36 33 41 39 34 30 23 21 34 38 20 30 38 18 30 30 31 37 37 36 25
29 24 23 28 38 29 37 29 30 35 31 19 19 27 35 26 40 43 30 39 37 38 41 37 32 44 31 42 38 19 28 18 27 29 25 28 22 23 42 43 32 47 44 40 40 39 32 46 32 30 29 26 30 38 31 22 31 21 30 34 28 18 25 26
20 19 19 21 24 34 37 32 27 33 38 26 21 35 40 45 35 43 37 47 46 40 40 46 35 37 33 35 30 40 21 20 31 38 37 28 44 30 36 31 41 41 44 41 34 48 36 47 43 44 28 35 24 26 35 18 27 24 30 22 34 34 36 36
19 38 35 28 34 34 26 18 28 33 23 33 27 46 35 45 36 43 49 57 54 39 49 42 40 43 32 44 34 39 39 26 30 23 25 27 45 49 37 43 45 42 51 43 38 38 45 46 36 49 41 30 26 33 22 29 23 34 20 32 24 28 19 31
36 36 18 34 27 23 27 34 24 34 37 39 36 31 50 50 46 42 55 46 44 59 56 60 42 40 55 37 38 41 25 28 29 34 38 28 41 32 43 57 51 46 60 54 57 56 57 46 47 39 46 35 37 25 25 31 26 22 28 20 36 21 23 30
34 19 38 23 35 36 23 25 21 40 36 45 34 32 47 47 43 59 43 63 61 47 59 58 61 54 39 40 34 33 44 26 36 27 39 44 50 43 53 50 54 60 58 54 60 61 56 60 52 50 35 44 50 32 37 20 34 18 33 27 23 36 34 26
37 35 32 26 38 32 28 29 30 41 32 35 45 40 57 42 60 50 57 66 59 49 65 52 46 46 57 40 54 49 40 29 42 30 37 43 39 52 57 46 63 66 65 63 53 64 48 48 49 58 52 37 37 37 41 27 18 26 28 30 25 24 24 18
25 35 29 34 28 24 37 38 20 39 43 50 36 52 58 61 63 60 70 64 68 61 70 71 67 47 61 53 39 46 40 47 40 33 40 39 44 46 54 63 69 55 62 71 73 71 53 58 63 55 45 47 36 45 27 25 36 26 24 21 19 22 21 34
29 22 35 29 31 31 26 33 32 41 41 34 50 56 52 66 63 60 58 73 62 61 66 65 70 56 64 57 48 45 44 40 42 37 39 49 55 58 62 65 53 60 62 65 59 67 72 68 68 53 59 39 40 49 41 32 23 36 31 20 24 28 33 35
30 35 35 18 22 34 26 21 26 27 41 50 49 56 49 62 64 61 77 69 66 77 65 76 71 61 62 49 45 57 54 36 43 50 45 45 60 49 58 63 59 73 67 81 74 72 71 66 53 68 48 57 43 38 38 44 32 27 25 31 31 24 29 37
19 19 31 19 33 29 20 33 31 36 33 44 47 61 64 63 65 70 61 63 68 83 66 71 70 69 67 61 58 58 53 41 43 38 45 38 52 66 54 69 61 63 74 79 68 70 62 74 59 68 58 55 54 47 32 32 23 32 36 36 20 36 21 25
27 19 38 18 38 23 32 34 29 43 51 53 56 44 50 54 59 62 63 86 87 70 71 68 59 57 53 63 58 49 42 56 55 44 54 46 45 57 70 60 62 67 74 83 84 79 66 68 72 56 49 52 58 49 51 44 41 30 20 36 38 35 25 24
23 25 19 23 32 30 31 40 43 48 42 39 45 50 58 51 66 67 69 80 80 74 78 75 70 58 67 54 49 44 42 54 44 47 43 52 54 53 56 66 61 64 68 83 75 69 70 73 64 64 56 60 59 43 36 36 34 39 34 21 22 29 34 38
36 37 31 22 31 31 38 29 41 42 39 53 43 53 51 69 58 72 69 84 79 80 81 64 60 62 69 63 60 57 47 38 47 41 42 58 49 53 66 72 73 82 71 74 82 68 78 64 73 51 57 59 56 48 48 39 29 23 33 25 28 22 37 33
22 28 20 34 29 22 35 29 33 36 32 39 42 54 46 55 73 60 75 75 76 83 79 72 71 71 59 54 50 43 50 47 37 41 41 57 44 61 68 68 67 64 73 68 71 71 63 73 66 63 63 48 57 48 34 29 24 33 21 18 28 24 30 28
35 36 30 24 38 18 20 20 28 37 39 47 57 43 50 62 70 63 58 72 66 67 65 63 60 52 56 61 50 45 41 47 50 50 50 53 60 62 63 63 56 73 74 62 72 73 63 68 63 62 49 48 48 39 42 46 33 26 35 27 18 37 28 34
25 21 34 33 33 32 33 25 36 41 32 34 44 44 46 52 53 52 56 56 77 77 70 57 56 55 61 47 40 44 42 41 41 40 50 45 57 51 50 68 58 62 75 65 63 56 70 66 57 51 56 55 38 34 29 31 35 29 28 36 25 35 19 22
34 28 25 33 27 34 38 35 28 30 36 45 54 56 49 60 53 68 66 57 59 53 59 66 61 56 50 41 42 43 41 32 31 40 34 39 47 44 62 64 68 61 71 73 60 55 65 54 47 49 46 50 42 41 44 41 23 27 30 20 35 18 24 23
25 29 31 36 24 38 38 31 20 26 28 44 45 49 51 41 56 65 47 56 53 68 49 58 63 63 42 52 43 39 33 45 42 29 37 44 45 38 51 62 55 67 55 64 53 60 53 49 48 51 56 55 37 35 45 31 26 21 31 19 33 25 18 32
31 40 26 34 25 40 35 41 24 34 37 44 48 37 59 48 56 61 62 54 54 68 59 53 47 59 45 41 53 45 47 41 45 40 38 54 53 48 62 61 55 68 59 56 68 70 53 48 59 56 44 43 46 43 45 44 44 25 43 36 26 29 37 33
32 43 31 34 34 39 38 45 26 27 43 34 53 42 40 44 56 51 65 67 68 62 61 60 60 59 64 59 50 48 34 31 41 36 51 41 54 48 47 58 68 58 69 61 64 72 66 58 55 57 54 46 57 47 53 31 37 49 45 49 34 43 36 49
32 35 34 36 38 42 39 33 38 42 34 49 50 44 46 60 57 58 68 50 65 67 54 62 49 48 55 63 57 54 42 44 35 52 39 52 42 61 52 65 52 58 61 65 59 62 67 53 51 58 58 45 53 47 57 45 38 53 56 52 57 40 40 44
24 26 43 24 30 33 25 41 41 36 36 35 31 51 41 45 42 50 53 52 52 51 53 41 56 50 53 41 49 48 40 29 39 30 41 44 54 42 45 54 56 44 50 52 44 52 45 51 60 43 51 38 34 38 40 37 45 50 38 39 43 46 49 36
31 27 28 37 39 35 31 28 35 21 33 37 41 38 26 29 36 42 49 50 44 46 49 50 39 44 38 38 25 22 42 31 40 36 32 22 34 37 38 40 40 46 38 39 34 45 36 39 41 32 45 43 42 24 40 23 38 41 24 35 35 36 30 43
33 29 37 36 27 27 28 32 32 25 20 20 31 37 20 40 28 25 29 37 46 32 36 26 30 31 41 36 18 27 20 31 35 21 30 18 23 20 24 29 34 28 39 35 33 35 25 26 23 24 26 32 22 29 21 19 36 32 33 24 19 38 34 26
26 27 38 37 36 32 18 21 26 27 35 23 21 36 21 36 26 20 28 26 29 22 23 38 32 22 22 25 19 28 33 36 25 21 37 30 32 23 34 39 37 41 38 35 27 31 31 22 23 27 26 35 26 25 18 28 18 32 23 30 29 28 29 19
28 30 22 37 27 35 28 25 29 26 31 35 31 18 19 32 26 38 28 23 36 34 28 38 35 24 29 30 31 37 30 18 27 36 27 19 22 28 19 18 25 21 18 23 25 29 32 27 34 27 23 28 33 19 31 29 19 19 25 38 38 22 24 35
30 28 28 18 30 25 23 37 31 35 28 23 37 37 38 29 19 28 34 29 21 32 32 33 28 23 27 24 33 29 27 18 30 35 23 33 32 31 28 18 27 37 23 22 35 38 37 38 18 29 21 33 38 19 30 36 20 35 19 31 28 22 22 19
24 27 36 38 34 24 21 27 24 35 20 32 36 30 21 32 23 37 24 26 28 23 23 32 27 34 24 22 23 34 20 23 21 38 29 32 20 37 36 31 20 30 30 35 31 20 36 29 36 32 37 37 38 18 27 27 19 22 27 18 29 20 35 25
22 22 38 38 28 24 25 19 22 34 28 27 19 32 27 29 29 37 31 22 31 34 24 30 25 25 28 36 22 22 37 36 20 33 29 33 21 26 28 22 31 24 35 24 25 34 37 26 24 34 21 29 21 22 23 33 25 26 18 21 36 23 36 30
21 37 28 38 26 37 21 26 24 35 38 30 22 21 27 33 34 24 35 36 25 38 26 24 34 37 23 33 25 23 30 26 25 18 21 35 25 38 22 21 20 37 35 20 29 33 24 32 26 35 33 36 22 31 33 28 33 28 30 21 26 33 24 23
19 22 22 18 21 30 29 35 18 22 33 23 20 29 31 35 35 29 29 19 22 33 28 37 31 36 20 37 30 30 23 24 23 22 36 24 35 26 32 38 20 22 30 22 23 20 36 37 23 24 19 23 20 31 38 33 33 37 34 30 34 32 33 31
19 18 21 20 38 32 31 18 25 29 26 24 27 24 36 37 32 22 29 34 23 29 37 23 34 35 36 18 23 19 25 28 24 26 20 28 31 32 30 20 27 32 20 23 23 24 21 27 18 23 25 30 26 33 19 26 22 20 35 20 28 36 33 31
19 32 27 36 37 35 38 33 29 31 26 29 18 26 25 28 35 21 32 35 20 20 19 32 19 30 20 29 38 36 21 22 22 26 22 27 33 38 19 29 20 23 19 21 24 36 31 35 34 34 26 36 27 21 22 20 21 37 24 21 20 25 19 26
26 20 36 31 19 21 34 33 37 30 24 32 23 31 26 22 20 31 31 37 25 34 33 18 22 27 32 30 24 35 20 27 26 26 33 30 22 37 28 33 34 22 38 23 29 32 20 24 38 31 28 29 24 38 20 31 18 28 35 32 31 23 23 22
25 20 38 33 38 22 20 36 38 27 31 27 36 32 33 28 37 23 20 38 26 27 36 23 34 28 18 37 35 37 38 27 27 35 30 23 36 26 37 37 24 28 34 34 38 31 26 33 19 27 22 24 30 32 22 21 28 37 21 21 25 35 20 35
27 30 28 26 37 28 33 27 19 18 23 27 33 30 33 31 21 22 25 25 18 30 19 23 30 30 21 28 30 31 30 27 28 25 21 29 33 38 33 33 29 29 29 24 35 25 18 28 20 20 26 19 23 37 38 32 33 27 27 20 24 28 38 23
25 21 23 30 32 25 38 27 29 38 27 20 32 22 28 32 31 23 18 36 28 18 36 26 18 25 24 29 19 33 37 37 32 25 24 33 26 34 24 20 38 28 34 27 25 38 26 33 29 27 31 28 33 36 35 36 18 27 23 37 27 28 26 36
30 27 25 36 18 29 34 23 31 36 32 23 21 23 33 37 20 35 26 21 30 33 35 19 35 30 35 19 25 32 26 37 32 26 22 30 38 27 37 35 24 32 28 33 25 22 25 34 20 30 33 34 31 35 24 18 28 35 24 29 20 31 36 18
27 35 23 30 25 18 27 29 18 19 38 34 31 31 20 24 22 24 18 23 24 19 29 30 29 31 36 29 25 23 24 27 29 35 25 38 26 34 20 19 23 33 18 34 28 28 24 23 20 27 26 25 28 38 38 37 26 37 18 31 33 24 26 24
31 23 26 32 22 23 38 30 29 23 19 21 36 37 23 20 34 22 28 29 28 30 31 37 36 21 38 25 27 37 18 22 33 33 19 22 29 36 20 30 29 24 24 30 25 35 33 31 37 33 30 20 25 32 30 30 30 30 30 30 37 25 37 29
33 38 35 33 34 37 35 19 35 38 27 35 21 24 24 26 31 37 29 31 19 31 32 21 32 19 34 26 23 33 28 28 35 18 19 37 35 32 25 34 36 35 34 26 33 33 28 31 21 19 30 26 29 23 23 29 20 21 19 18 32 22 30 33
27 29 27 33 26 29 19 35 34 34 35 22 35 25 33 24 30 30 20 18 21 23 20 36 35 18 26 22 32 32 25 19 32 36 27 21 20 26 30 37 18 23 22 30 38 22 37 33 28 29 35 35 32 26 23 24 26 29 23 18 25 29 36 32
21 35 34 21 29 38 37 37 30 37 24 28 19 21 36 33 24 35 31 34 27 23 24 20 30 22 33 31 27 38 34 36 24 31 25 19 29 31 33 29 27 32 28 34 29 27 31 23 34 29 27 36 21 19 33 27 35 23 21 28 33 38 33 21
