P2
64 64
255
20 20 24 18 22 25 22 26 15 24 18 24 15 18 14 23 24 17 25 16 15 20 25 23 14 19 14 23 24 26 22 20 25 24 16 19 17 18 17 14 22 24 16 15 21 17 24 18 18 20 23 25 22 23 16 14 19 16 20 24 15 25 19 21
23 25 22 25 21 26 18 23 25 24 21 22 20 20 19 22 18 14 22 15 18 23 16 24 24 14 26 17 15 23 19 15 25 24 19 16 15 24 22 20 22 25 23 21 18 16 19 17 20 16 24 25 18 21 20 25 21 17 24 23 17 21 20 24
24 19 26 19 25 14 26 25 15 26 19 14 14 20 14 25 16 19 23 25 26 19 21 19 21 26 20 14 18 22 24 18 24 22 26 17 24 16 20 23 17 20 17 24 24 16 15 20 21 15 23 21 24 17 22 20 24 19 16 25 14 18 21 16
25 24 20 16 19 20 26 18 15 21 15 17 23 20 16 15 18 21 24 14 18 17 24 19 21 18 14 22 15 20 23 25 21 19 18 22 23 17 21 25 24 19 14 14 20 21 26 15 25 23 15 23 18 16 21 23 14 14 15 19 23 17 17 15
26 18 15 22 19 23 21 25 23 14 23 18 21 24 20 24 23 17 25 16 19 24 14 15 18 17 25 22 25 20 23 20 17 14 22 20 21 21 19 14 17 26 25 17 22 17 22 14 14 26 23 20 18 16 24 18 16 19 21 14 26 18 19 20
23 22 20 19 22 17 21 18 14 14 22 15 14 21 14 22 22 21 14 21 25 22 19 15 18 24 23 14 20 16 14 20 26 14 22 24 14 19 26 21 25 24 17 18 21 25 15 19 24 21 18 23 24 23 16 22 20 21 19 19 18 23 25 21
26 20 20 21 20 23 24 26 22 15 15 21 18 22 20 19 15 18 18 20 17 24 16 22 16 19 24 22 15 21 15 26 24 17 20 14 21 18 15 24 15 15 22 24 26 25 20 18 23 22 17 23 21 19 16 20 22 26 14 20 16 18 20 18
18 24 23 25 22 25 18 22 16 17 15 17 20 15 21 19 22 18 22 22 15 23 18 15 15 14 15 18 15 19 22 18 25 26 26 25 16 25 15 24 25 25 23 24 16 18 18 19 18 23 24 17 19 20 15 25 26 17 18 26 26 26 19 22
14 15 17 18 21 24 18 25 18 15 25 21 16 22 17 25 18 16 24 26 22 23 15 16 24 14 18 17 19 26 19 20 14 25 16 15 25 24 20 14 25 16 16 26 18 24 19 17 22 25 21 18 20 16 25 15 16 25 15 21 15 15 22 14
26 19 20 15 15 15 25 19 19 16 23 23 22 24 22 16 17 20 21 18 16 14 14 16 25 18 23 16 16 19 25 17 23 18 22 24 14 26 21 20 23 17 14 22 16 21 23 16 19 15 17 17 16 21 20 23 19 23 21 18 20 14 21 26
17 20 19 26 21 16 22 22 19 23 23 26 14 14 24 14 15 23 17 21 14 22 15 16 14 18 18 19 23 16 26 20 19 19 25 15 19 24 15 17 26 14 22 15 24 15 26 20 25 16 19 18 19 18 26 22 20 17 14 26 16 19 21 20
15 22 16 24 18 24 15 25 21 23 16 26 14 25 25 25 22 17 17 26 22 16 25 14 18 18 15 25 23 24 16 20 24 18 24 17 18 18 21 20 21 17 20 17 26 19 15 22 20 16 18 24 22 15 21 17 21 18 14 23 14 25 15 18
19 23 19 25 14 19 22 15 21 25 24 18 16 24 23 23 15 26 17 23 18 17 25 16 22 25 22 14 22 15 14 17 19 25 16 17 21 18 25 22 18 16 17 22 20 18 20 25 14 21 14 14 22 22 17 22 24 19 23 15 22 17 17 18
24 25 23 25 16 26 22 14 26 20 17 20 14 25 17 22 18 22 16 20 23 26 25 16 18 14 15 21 22 17 23 21 15 19 15 16 14 24 15 23 14 18 20 15 26 14 19 22 25 25 24 19 14 18 16 20 20 17 20 14 25 14 15 16
26 22 24 16 23 24 20 22 17 26 25 14 20 15 18 21 16 14 17 26 21 20 16 16 16 26 22 25 24 25 17 15 17 14 26 15 17 14 17 24 16 25 14 21 15 21 19 17 22 25 18 16 22 16 16 25 25 25 25 18 18 20 19 21
17 24 15 14 19 17 18 16 21 15 14 17 16 14 23 24 15 18 20 22 25 24 16 23 23 16 18 26 20 21 23 21 15 14 24 23 20 24 25 15 18 25 17 24 17 14 21 20 22 22 15 14 23 20 20 22 16 19 20 21 17 21 16 14
20 26 15 20 25 25 24 25 20 20 26 17 14 16 16 17 16 20 22 21 21 26 19 17 26 19 16 22 15 19 17 22 25 18 21 15 26 25 14 21 21 21 20 17 26 16 15 18 23 21 21 17 22 21 16 22 21 18 19 14 21 19 17 25
19 19 20 21 23 20 25 25 17 19 20 23 18 18 15 25 21 17 23 15 26 22 20 20 17 25 22 16 17 26 20 21 25 16 24 23 15 18 16 17 16 14 17 21 23 20 23 20 18 19 18 16 22 24 25 22 22 15 19 18 23 24 24 16
20 24 18 18 22 26 22 25 14 20 20 24 21 14 26 17 24 26 19 16 23 20 17 24 26 26 25 15 26 18 15 18 19 21 23 20 16 21 21 17 25 23 21 14 24 23 17 23 25 26 15 18 23 23 18 14 19 23 24 18 23 23 23 17
24 26 17 21 15 15 20 15 15 26 19 26 19 15 20 19 20 20 28 22 18 20 22 23 24 21 21 25 24 24 25 24 16 14 23 16 26 21 18 17 17 27 26 29 27 27 21 23 24 14 24 22 24 14 16 19 20 16 17 15 18 20 20 18
14 26 24 22 25 20 17 20 23 23 24 17 17 18 21 29 23 26 21 30 33 28 25 21 20 28 27 24 14 21 23 25 20 17 16 20 16 24 17 25 32 25 29 33 24 33 33 24 19 17 25 23 26 21 26 26 20 26 14 24 23 26 21 17
25 19 24 23 20 17 15 20 20 18 14 22 19 21 21 30 25 35 32 36 26 33 32 30 27 27 23 29 24 26 21 26 22 23 20 23 18 20 32 31 28 35 26 26 35 26 32 27 33 26 28 20 17 16 25 20 16 23 21 22 19 24 14 23
22 14 21 17 21 25 15 17 25 19 16 18 21 25 28 31 32 29 40 33 32 29 34 36 31 37 37 33 30 33 27 29 32 26 28 29 25 35 30 36 31 30 40 33 31 31 29 32 31 31 23 29 18 18 26 20 18 16 20 16 14 20 25 18
21 19 16 25 23 20 14 19 25 16 26 20 25 26 28 28 34 34 42 34 35 42 38 44 44 43 41 44 39 38 43 36 29 35 33 35 46 34 45 39 41 37 41 34 43 35 36 36 38 27 30 27 22 24 25 25 19 15 16 14 25 18 20 23
25 17 26 14 26 25 23 21 23 21 19 25 26 36 39 33 37 46 45 38 39 41 37 45 40 52 49 54 43 52 41 38 47 39 49 52 47 51 52 43 47 39 43 46 43 43 43 35 43 39 28 35 27 21 21 23 15 23 16 17 23 21 20 22
17 19 15 16 19 22 17 26 22 16 24 25 34 28 39 36 41 43 41 42 51 43 52 46 52 63 63 59 52 54 58 46 57 57 51 58 63 64 62 53 52 48 50 44 46 45 50 41 43 43 36 28 31 22 21 26 21 18 23 15 16 21 19 25
21 17 17 22 26 14 14 14 16 22 23 26 33 35 42 41 50 47 43 54 45 56 53 65 67 66 62 62 63 62 57 57 63 59 66 65 64 64 60 71 57 57 58 59 54 48 43 51 51 38 46 31 40 30 30 27 24 24 25 14 24 19 15 21
23 24 18 24 21 15 16 17 20 28 29 36 34 45 41 41 48 55 56 50 63 57 61 66 73 74 78 73 78 68 74 68 75 72 68 75 69 75 71 74 74 63 64 62 55 49 51 46 48 48 38 39 34 29 23 30 24 18 23 14 24 24 21 15
16 15 17 22 21 18 20 14 24 23 36 32 39 40 39 43 46 49 62 53 61 70 71 80 76 74 75 81 75 84 76 82 79 76 81 86 86 83 80 83 75 78 68 73 59 61 52 55 47 45 41 38 37 31 34 30 20 14 19 19 20 21 22 25
17 19 24 21 21 20 17 27 28 30 27 30 35 45 49 49 52 54 60 59 67 73 84 89 81 83 87 94 88 91 89 85 85 92 87 88 92 82 86 83 91 83 85 76 70 67 65 51 54 53 50 47 43 42 26 22 24 25 18 17 19 26 20 24
26 17 25 25 22 22 15 19 29 24 32 37 45 41 44 47 60 61 63 66 78 89 87 90 94 96 100 91 90 99 89 90 93 97 93 88 95 96 98 93 95 92 90 82 79 72 57 58 56 48 47 49 46 34 36 26 26 27 22 26 14 26 26 15
19 26 17 15 21 14 17 21 24 34 34 42 47 40 45 54 55 62 63 81 89 88 93 99 91 96 94 97 99 104 100 99 108 96 100 105 107 101 99 94 95 96 94 86 87 73 73 55 58 55 48 39 37 33 35 23 21 22 21 16 24 19 16 20
17 15 22 25 14 22 25 21 28 33 32 41 36 47 50 54 61 56 71 82 96 94 98 105 95 106 104 110 104 108 104 115 108 108 109 99 99 109 99 98 98 95 99 91 95 78 75 61 61 55 46 42 43 41 38 27 29 28 14 26 17 22 18 24
15 26 22 19 20 22 22 24 29 27 37 39 35 43 46 48 63 63 67 85 83 98 93 94 100 108 112 114 108 115 111 110 118 109 117 113 108 102 105 110 97 104 99 90 86 83 73 61 59 51 55 50 45 34 35 23 23 28 15 21 25 15 15 16
24 19 14 24 21 17 24 19 23 25 38 34 45 46 54 50 54 58 74 84 85 87 102 96 100 107 103 110 105 109 117 119 127 114 112 107 111 105 109 111 100 104 99 92 89 79 63 58 58 57 54 47 37 37 36 30 24 16 19 16 23 21 23 25
20 25 23 14 15 14 17 26 30 33 29 41 43 44 52 56 55 61 66 77 83 90 97 99 98 107 108 113 115 118 116 124 131 124 122 109 116 106 106 100 98 102 88 86 82 78 68 56 51 46 44 44 44 35 35 28 22 27 21 25 26 15 18 20
26 18 21 25 22 19 23 15 28 28 30 30 43 38 43 45 53 61 66 69 78 84 89 100 94 96 99 106 109 118 112 119 124 119 110 117 112 112 104 96 100 89 94 86 81 70 66 57 57 48 47 35 44 39 26 28 18 17 22 14 21 16 14 20
26 26 18 24 23 20 25 24 16 25 28 32 33 37 44 43 48 56 59 71 72 75 87 87 93 93 100 105 104 112 108 118 113 110 106 108 111 105 97 98 102 91 82 86 78 67 62 47 53 40 42 45 38 32 26 30 20 19 23 20 24 16 16 21
17 26 17 21 26 25 14 25 17 18 31 33 30 31 40 43 48 51 55 58 75 74 78 82 88 90 97 105 107 108 110 111 105 101 102 100 100 102 102 99 92 90 76 71 69 61 57 51 51 39 39 32 37 25 27 23 24 15 24 26 26 20 19 23
23 16 23 16 23 22 17 23 18 26 19 30 31 37 43 44 36 49 50 54 68 67 79 82 81 88 88 100 95 95 101 95 98 97 96 97 93 97 98 93 86 87 72 77 59 59 54 50 37 45 36 36 35 22 25 28 14 15 20 19 15 22 24 22
16 16 22 17 16 23 22 18 15 15 26 27 24 29 40 41 38 43 44 50 55 67 65 73 83 82 87 87 87 87 89 86 88 95 90 87 90 91 85 89 80 71 65 62 65 51 45 37 38 33 32 33 30 32 20 25 17 21 25 22 18 20 14 18
18 22 14 17 21 26 23 23 23 24 17 21 25 32 35 34 39 35 35 42 57 59 58 74 73 72 83 80 82 81 85 88 77 78 80 87 86 83 78 72 74 65 69 64 48 46 37 41 37 35 36 28 24 21 17 14 21 16 16 15 19 17 18 21
17 21 14 19 16 26 20 14 26 16 25 19 18 27 31 28 34 32 35 41 52 51 51 67 70 64 66 69 81 77 73 77 71 72 76 73 70 69 66 75 65 61 51 56 47 37 31 29 31 30 22 23 25 21 23 14 14 25 24 25 21 23 21 15
14 22 14 25 24 20 14 21 22 17 14 23 24 19 28 27 28 29 34 30 41 47 50 47 62 63 58 68 70 67 69 71 73 76 72 72 62 64 64 55 52 51 53 38 45 30 36 30 30 31 28 24 26 24 15 26 21 24 19 16 24 24 18 23
15 21 15 19 14 26 20 23 16 25 17 22 20 18 17 18 30 28 32 27 32 42 37 45 51 49 55 62 57 61 64 63 65 66 63 56 63 58 53 57 44 41 37 32 29 23 23 28 28 18 16 19 17 19 16 19 26 19 26 21 25 15 19 22
21 18 25 16 19 14 16 24 19 19 23 14 26 23 24 19 15 19 21 20 22 27 39 37 41 46 46 55 50 56 58 62 53 62 62 54 50 53 53 49 40 36 37 27 23 24 21 21 23 24 18 22 21 14 14 17 22 25 22 23 24 19 23 22
15 24 21 19 23 19 16 19 16 24 16 26 18 24 25 22 18 16 16 20 19 19 20 35 32 44 43 41 42 44 50 51 47 45 56 46 42 49 39 40 33 28 29 24 23 14 21 14 23 23 21 26 24 17 19 23 25 16 22 22 16 16 16 23
17 15 17 21 15 16 17 17 16 23 25 23 20 23 17 22 24 16 25 19 16 21 20 32 32 38 34 36 38 45 40 40 41 39 44 43 39 35 35 29 32 30 20 24 19 24 24 20 14 20 17 17 18 18 17 20 19 24 25 22 25 18 23 26
20 19 21 26 15 14 17 21 15 24 19 22 25 16 23 26 25 19 14 22 21 20 21 16 28 25 26 29 33 37 41 40 37 39 35 31 38 31 30 33 20 20 23 20 25 22 23 24 16 20 24 20 17 23 14 25 16 21 21 19 24 21 20 14
24 20 21 16 20 23 19 22 14 23 17 23 18 16 21 15 22 26 25 17 14 17 22 23 23 28 26 33 29 33 36 32 36 34 38 26 25 30 31 24 21 21 17 14 26 17 25 22 25 22 21 17 21 23 21 21 15 15 20 14 20 26 18 22
23 19 21 18 18 26 16 19 18 19 21 24 24 19 26 26 24 20 15 24 14 15 21 19 20 14 14 19 21 19 29 31 22 23 24 25 25 22 22 19 18 21 15 21 23 24 21 24 17 20 14 26 18 19 23 21 14 17 15 21 18 15 15 23
14 22 24 26 25 15 15 26 23 22 26 24 26 18 23 23 19 25 16 25 26 23 17 17 22 17 26 20 16 16 17 23 21 15 15 23 17 26 24 16 24 16 16 14 15 16 21 19 25 18 19 26 25 22 23 26 14 14 19 17 14 21 24 22
26 16 17 15 20 19 14 14 17 16 25 18 15 24 26 19 19 15 25 26 23 22 16 22 19 20 15 18 26 21 21 17 24 24 14 26 15 24 17 16 14 21 23 22 16 17 20 19 19 17 18 19 24 22 23 14 15 23 22 17 17 20 19 25
15 22 14 18 17 25 23 26 21 16 14 18 20 22 17 16 22 24 16 15 20 22 22 26 17 24 23 21 15 21 19 26 24 21 26 26 26 23 16 26 20 17 20 21 24 26 18 18 22 24 18 25 25 14 24 26 20 16 16 21 17 15 16 19
17 16 20 22 14 25 14 23 21 26 20 19 22 18 18 21 14 23 20 22 16 15 14 17 23 23 19 20 22 16 16 16 20 23 18 22 14 18 26 23 26 21 24 26 21 18 25 14 18 21 18 24 15 20 23 16 24 26 26 17 16 26 14 23
23 23 16 14 25 26 22 18 17 20 22 18 17 14 26 16 25 22 21 17 20 24 20 24 19 24 23 17 18 20 16 14 15 22 17 16 18 26 19 16 21 15 16 16 26 23 25 15 22 26 15 26 15 24 22 14 16 21 25 15 23 26 17 19
19 22 14 14 26 23 19 16 18 16 19 17 21 16 25 21 20 22 23 21 15 18 26 14 15 19 14 14 21 18 22 25 18 26 24 25 24 25 16 17 19 17 22 25 24 26 19 26 25 26 21 16 20 20 26 15 21 15 15 25 19 17 15 17
21 15 14 26 21 22 14 24 14 16 17 24 18 26 21 23 20 14 21 21 22 19 23 19 22 18 23 17 22 21 25 20 25 18 22 19 19 23 18 25 26 18 18 24 23 16 16 26 18 18 18 20 16 21 21 25 18 25 22 21 23 18 16 20
25 15 17 18 26 23 15 15 17 24 24 22 21 23 25 23 19 17 20 23 19 17 25 15 25 19 24 14 21 20 14 18 16 22 23 20 20 15 20 26 21 23 21 14 16 21 25 19 25 14 21 23 25 24 16 26 17 22 14 24 17 22 17 21
24 24 24 20 15 26 17 26 21 16 18 23 24 24 21 24 26 19 25 17 16 19 25 17 24 17 20 23 25 25 18 23 17 17 18 26 26 23 25 26 14 14 18 23 17 14 15 17 25 24 18 25 26 26 24 17 26 24 15 24 26 18 20 24
24 26 22 23 24 16 23 17 14 21 23 23 26 19 25 20 26 17 14 23 16 20 19 17 22 23 23 19 22 14 22 19 26 19 25 26 26 15 23 24 14 18 26 22 17 21 21 15 19 16 18 17 20 17 18 19 15 16 18 17 17 21 21 25
20 25 21 22 20 18 15 16 17 23 24 22 26 19 22 15 18 18 20 25 21 20 22 17 22 24 22 14 15 20 16 20 26 17 14 20 21 23 18 18 24 17 23 17 17 14 22 15 20 22 24 23 14 14 16 18 20 21 26 15 25 20 15 25
14 24 22 22 16 24 23 23 14 19 22 18 19 20 17 25 23 19 18 23 17 14 17 17 15 19 16 15 23 22 22 18 14 19 14 25 24 26 26 25 15 21 20 14 21 17 17 15 18 18 20 21 19 19 17 20 23 25 23 21 24 19 24 23
17 24 16 20 21 16 18 14 22 23 21 23 19 23 21 14 26 15 15 19 18 14 26 26 16 25 22 17 15 17 24 25 14 16 21 17 18 16 25 21 26 18 23 16 22 23 20 26 16 20 25 21 18 19 22 18 23 14 21 24 15 26 18 19
