P2
64 64
255
38 38 37 23 35 37 20 28 29 33 26 35 38 28 36 22 38 29 29 37 20 38 27 23 24 21 22 35 37 21 29 24 30 27 37 34 21 22 31 21 31 25 33 18 21 32 37 32 36 23 33 26 30 31 28 22 32 19 27 33 18 34 35 22
38 26 35 36 21 37 30 20 27 24 35 35 20 37 28 38 24 29 38 27 26 22 36 19 25 25 35 20 18 30 24 32 32 35 20 31 23 27 29 20 19 37 24 19 32 19 18 33 38 32 25 24 18 24 31 31 26 25 18 18 37 29 22 38
27 23 30 22 37 32 19 18 36 20 25 31 35 33 38 23 38 28 20 18 33 28 22 20 34 27 36 19 22 29 18 38 31 18 36 36 26 22 30 20 21 34 21 29 19 28 31 22 30 37 26 24 29 36 34 31 30 26 23 24 24 26 19 30
35 32 19 19 25 25 37 34 38 34 28 33 30 26 32 37 36 21 24 28 36 18 26 20 25 32 26 33 37 34 20 36 38 19 32 20 26 18 24 28 37 24 24 23 20 24 23 32 32 24 23 23 28 33 20 37 23 33 18 34 28 28 30 29
29 30 28 26 36 34 25 19 32 27 36 24 29 38 26 24 25 33 25 26 22 21 24 25 27 20 33 23 24 32 25 27 28 33 19 29 36 34 22 38 22 28 20 28 29 18 27 34 20 35 37 34 29 24 38 27 20 21 34 28 25 31 28 36
19 35 23 31 38 34 38 37 35 29 32 31 29 37 35 21 24 31 27 20 25 31 38 35 31 35 35 33 31 19 32 20 31 27 34 22 24 19 32 31 28 21 37 37 21 21 23 34 31 25 23 21 33 27 31 29 23 33 24 18 35 20 30 20
28 29 38 30 32 36 26 37 38 27 22 18 37 23 20 38 19 29 19 37 24 30 31 38 36 37 36 33 36 34 19 23 22 18 21 37 29 37 18 27 20 24 19 19 18 36 25 22 21 23 25 37 18 23 18 32 18 29 29 24 34 23 29 31
35 37 27 22 34 27 32 36 36 30 32 27 31 26 30 20 23 35 33 20 26 18 28 27 37 34 27 34 26 38 18 19 25 33 36 29 26 29 35 30 25 23 27 31 37 21 33 18 21 18 31 18 18 35 34 31 18 20 21 19 31 28 26 26
19 29 25 26 24 29 28 27 29 18 19 31 34 27 37 30 27 19 28 29 36 27 34 35 24 35 22 29 34 33 18 26 30 35 23 21 33 27 18 23 34 26 33 30 22 37 22 27 34 24 27 20 38 30 24 27 31 26 29 19 33 37 18 24
37 37 28 22 31 19 38 25 24 29 36 29 19 33 23 37 26 37 36 21 24 35 18 20 30 20 34 32 32 20 33 27 21 26 36 33 28 18 33 23 19 21 35 19 34 27 24 29 21 19 28 37 29 23 37 21 18 37 36 28 37 36 25 32
31 31 28 19 25 32 27 37 34 30 26 32 21 32 18 31 26 32 32 35 36 27 28 37 20 34 26 21 32 28 30 35 34 26 33 33 21 29 32 21 24 33 31 28 34 35 21 26 32 20 33 26 32 33 28 33 19 27 24 25 34 20 22 22
18 29 25 29 38 28 22 19 19 22 38 21 28 29 18 26 18 31 34 20 35 38 30 35 38 26 36 28 20 38 25 32 28 21 20 27 32 26 36 26 20 31 18 27 18 22 33 22 29 33 25 24 18 29 26 26 28 36 28 38 28 28 18 19
38 36 31 36 22 20 35 24 20 30 25 21 31 37 23 38 25 36 38 31 30 33 20 21 22 28 32 18 37 28 32 23 24 29 28 31 22 30 36 22 31 37 21 35 19 37 20 30 18 38 24 20 21 24 26 38 37 37 23 37 19 31 38 20
29 33 38 18 37 28 24 33 32 21 22 18 19 32 37 27 27 37 20 33 30 32 38 25 22 35 25 22 21 21 25 22 35 33 29 23 24 31 18 25 24 21 30 26 21 34 36 21 34 19 26 28 34 23 25 35 23 19 36 33 20 37 18 31
21 35 38 29 37 27 25 26 21 32 26 30 26 25 18 36 28 29 30 22 20 30 30 37 35 34 29 24 33 38 33 19 34 35 29 30 38 18 33 30 37 22 35 37 36 30 34 30 33 26 37 37 24 18 30 27 34 26 30 36 28 18 34 24
23 37 21 35 31 28 34 37 35 28 27 29 18 19 33 26 31 31 24 33 21 36 23 32 18 38 38 27 23 33 25 32 36 38 29 28 25 24 33 19 30 20 28 19 33 25 25 37 29 25 20 31 35 33 24 22 28 18 18 29 38 23 32 24
27 28 22 26 23 18 25 21 19 18 21 23 38 28 20 25 20 26 19 38 20 31 22 20 23 24 29 33 35 28 23 27 21 36 23 26 30 34 33 30 28 22 34 18 20 23 28 22 35 33 19 29 29 36 35 37 29 37 29 22 23 32 31 32
28 25 33 18 22 19 18 19 38 28 24 32 25 27 28 37 30 26 30 27 22 30 22 31 22 34 19 21 30 18 31 26 29 31 19 29 26 24 26 34 30 22 27 21 29 27 28 27 30 34 33 23 28 30 38 27 33 29 28 18 25 21 19 26
34 26 22 30 34 38 29 37 26 28 28 37 30 38 38 27 18 32 38 35 28 36 21 36 32 31 18 32 32 33 19 21 18 26 37 36 18 23 29 26 22 26 26 34 35 18 18 34 32 24 22 30 28 38 24 30 23 20 34 28 38 32 23 36
26 31 19 36 29 21 20 36 38 21 26 29 35 27 28 27 21 32 31 30 37 35 40 40 26 39 28 38 36 38 38 25 26 23 36 31 27 31 22 35 24 29 26 34 38 32 23 30 27 27 19 32 38 29 18 18 27 29 21 23 22 22 30 23
21 18 30 24 18 31 28 29 25 22 32 35 31 38 34 34 29 39 27 35 32 29 34 34 34 22 30 25 34 28 30 22 20 36 37 26 21 31 23 27 38 38 26 27 36 44 34 40 22 22 30 20 30 30 34 30 20 35 32 35 21 33 23 25
31 20 37 29 38 31 21 34 25 32 33 25 31 36 25 41 30 46 35 35 42 29 39 33 36 26 31 37 28 20 32 34 35 36 20 29 26 26 35 31 43 36 35 33 35 33 45 31 45 33 23 21 19 18 24 27 26 18 29 18 22 20 25 38
24 33 24 21 37 28 20 23 29 28 26 37 35 43 32 33 48 38 44 47 49 42 46 40 33 49 31 32 43 44 44 30 44 36 31 29 33 37 47 41 49 45 46 36 37 36 32 44 37 48 44 38 36 28 36 22 36 33 30 18 35 18 18 25
23 32 25 19 21 34 36 26 29 31 39 35 32 44 44 50 39 54 51 53 43 42 54 48 56 37 44 49 50 49 49 50 48 45 50 54 47 52 56 45 36 49 54 56 38 43 55 51 39 35 46 28 37 26 34 20 21 37 27 31 35 35 30 19
26 27 34 26 35 36 24 25 26 22 22 41 39 38 52 47 53 42 40 51 47 54 58 62 56 64 56 57 57 50 63 52 44 45 47 57 54 56 50 57 52 50 44 51 43 44 42 58 45 48 41 41 34 31 27 37 38 25 26 29 29 19 23 33
34 18 31 19 27 24 36 19 25 40 40 35 46 50 54 38 44 43 53 62 54 57 55 59 69 56 74 67 72 61 53 50 69 62 60 72 56 75 69 75 66 63 60 46 46 59 61 59 60 44 35 33 50 43 27 30 32 32 35 32 23 27 28 33
29 28 18 18 24 18 21 31 35 40 39 48 49 43 57 59 44 45 57 57 56 69 56 61 76 79 77 77 68 79 78 75 69 62 68 64 72 72 79 78 61 67 71 54 60 62 67 50 61 47 46 55 35 43 40 22 22 33 29 28 34 20 24 28
24 37 31 30 18 22 25 38 24 37 33 41 36 48 60 60 66 68 53 52 64 67 67 76 84 85 71 80 80 87 88 86 79 82 75 88 82 74 83 84 90 83 77 66 70 70 62 60 62 61 55 51 41 39 44 32 21 21 34 36 30 35 23 28
34 37 35 37 20 24 31 29 24 25 33 36 39 49 62 46 53 54 63 62 74 83 79 86 91 86 80 96 92 79 80 85 96 88 96 99 87 84 87 97 97 79 92 68 74 70 63 53 53 62 50 40 50 39 41 25 39 30 37 34 24 36 21 26
27 18 20 34 27 35 21 26 41 39 31 49 50 46 65 62 70 69 60 80 72 87 80 102 86 93 104 106 104 100 98 90 105 88 89 105 99 106 99 103 93 89 89 77 79 75 68 59 58 63 65 50 37 52 37 27 27 20 26 23 36 36 22 18
33 26 19 31 30 19 34 24 23 35 35 37 45 46 61 67 63 69 75 72 96 100 99 101 90 107 93 99 112 99 106 96 106 97 92 112 95 96 112 108 104 98 106 91 77 89 66 72 53 68 66 62 42 53 41 32 26 30 27 28 20 38 25 36
32 28 33 36 18 31 24 36 28 35 40 55 58 56 67 51 72 74 79 91 83 108 107 95 100 99 114 98 100 108 119 109 107 119 101 102 102 102 111 98 113 100 105 96 97 95 71 67 69 59 62 55 55 53 48 41 26 36 18 38 33 23 19 20
19 36 33 22 22 27 32 23 30 44 46 38 45 46 64 63 66 66 77 89 104 96 114 107 106 106 114 103 114 107 121 118 115 109 114 104 115 114 101 110 114 97 103 111 104 97 86 76 70 53 59 49 54 37 41 40 33 23 36 32 25 37 18 23
21 18 22 27 22 26 38 23 36 37 36 44 39 51 55 71 58 65 71 85 90 108 95 98 118 102 115 114 112 124 127 129 130 130 113 117 111 123 105 109 109 113 107 110 101 90 87 66 59 66 52 48 42 40 38 42 44 37 30 23 19 24 30 32
23 27 33 25 32 33 20 27 23 34 31 52 45 60 54 55 66 64 71 94 101 92 96 98 102 116 110 110 109 128 126 122 133 135 116 126 122 117 124 110 121 98 109 100 91 82 68 73 63 54 65 53 52 48 40 31 36 30 28 20 30 23 18 37
18 28 30 23 33 22 29 28 42 40 34 40 40 60 56 65 71 59 75 84 87 100 94 101 103 110 110 114 113 116 127 131 138 134 124 122 125 120 111 122 107 112 94 91 93 82 80 74 61 50 63 42 43 39 42 42 38 23 37 34 32 33 31 35
24 26 23 33 38 32 28 31 34 30 38 35 47 51 46 64 64 62 72 76 93 90 105 111 115 108 116 117 113 121 126 137 136 135 118 123 125 122 107 111 97 109 107 83 97 78 78 54 69 56 52 39 55 43 33 38 21 19 34 29 23 18 20 21
37 24 19 30 33 23 32 34 34 35 31 51 44 55 50 47 51 51 79 73 93 95 92 96 108 107 119 114 126 129 112 124 122 134 118 113 110 116 110 111 110 106 87 99 75 73 67 68 46 56 51 52 46 37 29 24 31 35 34 32 37 26 32 28
19 31 38 23 20 22 23 33 24 37 39 30 35 40 42 47 54 51 69 73 84 84 87 88 108 103 100 117 116 107 111 115 111 119 115 105 108 112 108 101 104 102 88 89 74 63 63 49 57 41 39 54 42 45 29 34 33 25 28 32 21 19 19 22
26 37 31 34 36 32 28 22 22 37 27 33 39 39 53 57 43 44 56 64 82 84 82 80 101 98 108 99 108 116 114 114 103 116 109 115 115 102 97 91 98 92 94 89 79 65 52 42 58 40 54 47 35 38 41 40 31 33 34 35 33 27 22 32
36 22 32 36 38 22 36 35 27 35 26 26 37 46 32 46 42 53 45 65 64 79 79 93 78 94 100 97 109 99 100 102 95 102 107 94 102 91 87 101 90 75 71 80 77 53 61 40 44 51 51 30 45 42 28 29 18 24 25 29 29 23 22 29
31 30 37 32 38 28 37 37 37 23 24 37 34 45 45 49 49 37 50 60 57 74 79 75 72 74 79 95 92 95 96 85 86 85 97 84 87 86 87 75 85 77 72 64 71 47 41 55 37 49 34 39 44 31 39 21 29 21 26 25 37 24 34 27
19 21 21 25 26 18 18 23 37 22 25 27 27 39 30 43 33 43 39 42 57 57 74 72 74 75 72 82 91 85 87 91 79 92 82 76 88 82 78 67 81 75 58 59 64 53 49 40 46 28 38 33 30 26 19 19 23 18 28 19 26 24 23 29
37 27 30 29 24 38 27 24 20 29 24 30 26 24 30 42 32 27 46 41 42 47 60 54 61 74 79 66 82 65 75 81 77 68 73 73 78 65 72 76 71 61 57 54 43 43 32 47 36 35 34 39 25 26 29 34 28 23 33 29 27 37 21 25
23 25 18 38 34 31 23 20 36 26 33 26 33 37 22 25 28 26 28 40 36 36 49 49 59 52 57 55 73 62 70 68 76 70 68 77 70 54 71 50 54 49 46 52 41 30 37 44 38 35 34 32 28 38 25 28 28 29 32 28 27 31 27 25
30 25 37 27 22 31 35 20 30 33 18 23 29 32 35 24 19 27 30 22 31 28 49 51 58 49 58 51 60 60 72 73 61 66 67 55 60 48 47 43 41 44 46 38 25 26 26 27 33 26 22 29 33 21 33 34 29 19 18 20 37 21 21 37
25 38 20 22 27 25 23 23 30 22 20 29 24 23 25 37 31 23 36 21 22 36 38 44 33 55 59 53 61 50 64 56 51 62 64 58 62 55 42 45 37 41 36 32 28 27 32 33 23 27 33 36 35 20 21 31 25 29 24 28 26 35 19 32
36 20 38 22 22 37 31 35 34 26 35 38 20 31 18 19 36 36 19 38 34 34 37 28 43 40 37 40 55 44 45 54 62 61 51 41 49 37 38 36 35 33 24 36 31 38 26 26 27 34 19 32 19 34 38 18 30 34 19 26 25 25 25 38
20 27 21 33 34 21 38 26 33 22 28 35 32 28 25 34 22 19 31 26 23 18 28 25 29 37 30 38 49 46 39 48 53 49 49 47 38 40 41 37 40 28 19 30 29 37 38 29 26 27 33 27 21 28 24 37 30 33 26 19 38 23 23 37
23 25 29 30 18 21 28 18 18 23 25 26 26 33 32 28 23 19 27 20 19 36 32 33 32 30 26 43 39 37 33 33 45 51 47 36 39 25 31 33 29 29 35 25 25 25 28 33 31 35 34 25 22 25 25 18 38 33 36 22 22 26 32 33
30 38 28 26 34 37 38 32 34 23 31 29 32 33 20 25 25 22 29 23 27 35 34 24 34 21 18 24 33 24 32 26 30 37 30 33 37 39 38 18 38 21 29 30 22 30 22 20 35 35 38 30 29 20 21 25 27 19 25 24 34 20 32 22
36 33 26 29 27 34 35 22 29 34 37 32 18 37 37 22 35 38 32 29 30 18 20 32 31 38 27 21 29 19 21 32 35 28 30 19 34 24 23 21 27 27 33 21 19 37 34 22 22 19 36 22 18 22 35 36 34 34 27 22 37 28 38 25
26 20 19 37 20 19 37 36 20 36 25 36 23 31 32 18 26 22 38 20 19 20 36 34 20 28 25 37 32 34 31 28 20 27 36 35 33 26 31 26 33 24 24 29 26 25 28 29 30 21 20 23 36 20 21 27 21 36 19 27 31 32 29 32
34 31 23 27 26 27 23 30 27 24 22 31 29 27 21 22 31 20 26 35 29 34 30 24 31 27 24 36 32 35 31 24 32 30 20 18 28 35 23 37 22 19 27 27 20 38 31 31 35 18 30 26 36 36 36 18 30 32 22 19 20 34 29 18
29 22 35 32 28 26 21 27 28 31 30 24 38 32 35 28 31 22 21 24 32 22 36 27 36 26 25 38 31 25 36 33 28 20 27 28 33 18 35 37 31 20 30 30 36 22 38 36 36 31 33 38 35 36 21 31 26 29 34 26 23 27 36 34
23 25 18 21 21 32 19 32 31 33 26 30 19 32 37 27 32 31 28 26 26 24 21 36 30 22 20 36 34 35 23 28 38 19 34 37 22 22 38 21 27 21 25 19 22 37 19 27 20 34 35 35 27 27 21 32 25 24 38 29 23 22 27 29
31 28 21 28 31 24 25 38 29 31 25 37 22 25 18 38 32 20 22 25 28 35 22 36 37 19 29 32 19 23 28 30 20 34 25 32 36 30 29 19 27 31 26 23 27 37 23 25 29 30 24 29 22 31 30 29 33 37 36 18 32 36 37 22
38 28 22 34 20 23 20 33 32 19 27 30 19 23 36 18 29 32 24 30 18 38 35 36 19 32 35 32 18 32 24 30 18 33 26 34 23 35 34 31 38 35 26 25 38 26 37 31 34 23 24 34 20 19 26 27 26 27 38 27 37 20 22 19
28 31 37 26 38 22 31 26 22 25 19 38 25 27 24 20 19 32 27 20 35 37 22 34 20 27 18 20 24 38 34 38 18 36 38 38 36 37 32 25 18 34 37 23 22 29 21 35 25 21 32 19 22 24 36 37 23 37 22 26 27 35 30 20
26 18 31 22 27 38 32 35 21 23 26 28 32 37 29 26 19 37 31 38 36 31 34 24 18 29 21 25 23 28 22 22 20 25 28 26 27 23 32 29 31 26 22 19 31 35 19 28 34 18 31 38 22 37 18 24 28 25 19 24 36 23 21 34
33 22 21 29 21 34 18 37 25 38 28 25 18 19 34 27 27 26 36 31 21 37 30 30 23 28 23 30 30 21 36 28 38 24 31 32 20 29 25 31 19 24 31 27 26 29 25 34 26 18 21 19 27 22 35 30 35 26 24 37 19 38 26 28
29 35 38 21 18 32 20 34 35 31 21 24 31 19 22 37 34 38 37 30 38 29 35 27 33 22 23 38 38 30 34 27 20 26 28 22 23 18 24 22 21 31 28 28 33 33 22 22 24 25 37 18 32 37 23 37 31 32 31 32 25 18 35 36
30 31 30 25 20 28 37 38 22 23 23 26 20 28 24 34 21 25 27 29 31 33 23 28 31 18 28 23 32 21 24 27 26 28 27 34 37 22 20 32 27 34 27 20 18 36 27 19 19 21 19 26 23 35 34 31 28 30 29 33 24 29 29 37
19 29 27 29 19 34 18 28 36 38 26 33 29 31 26 37 24 31 34 20 24 20 28 27 36 28 36 33 18 28 21 31 34 34 20 33 27 21 24 27 19 30 37 24 20 19 28 20 24 33 32 31 28 22 33 21 36 19 18 25 25 31 25 37
