P2
64 64
255
32 18 38 18 19 28 33 25 36 19 30 20 21 33 35 29 25 28 28 35 21 21 31 30 32 27 18 32 21 23 29 31 24 29 25 23 25 27 24 37 21 36 31 32 38 21 30 26 18 33 34 29 36 22 26 32 35 32 36 29 21 21 23 37
34 20 20 30 36 36 22 29 35 36 33 25 37 18 26 26 23 21 22 37 34 34 27 28 20 21 35 37 19 22 27 36 32 36 28 20 37 21 25 32 29 28 21 32 29 19 29 23 31 31 19 18 21 32 22 19 29 38 26 22 36 34 20 32
18 21 26 38 33 22 27 21 23 19 20 28 30 18 37 28 32 19 28 38 25 35 22 34 30 20 32 31 29 33 21 33 36 22 37 21 23 29 27 30 23 36 37 19 36 32 24 34 30 36 30 27 25 33 21 22 33 19 34 35 36 31 32 37
20 30 26 37 25 26 30 31 26 37 35 23 37 33 28 23 28 18 29 28 34 22 22 32 21 20 29 28 34 25 23 21 26 23 33 18 19 34 18 33 23 32 30 35 27 19 37 36 19 29 22 32 18 23 23 33 34 34 19 20 19 24 36 19
22 30 27 35 29 20 26 21 35 30 20 26 33 34 23 27 36 20 34 29 19 25 18 22 26 26 35 20 33 24 34 35 19 33 24 32 23 21 28 28 21 38 38 34 25 21 35 29 21 27 32 38 35 28 31 38 26 20 34 34 32 28 19 22
26 20 24 36 30 38 19 36 34 18 25 38 29 18 27 35 27 27 21 22 20 23 36 25 25 33 23 37 37 30 25 21 25 34 23 20 27 26 21 25 20 30 22 24 22 27 33 32 21 28 24 23 24 30 22 26 34 22 32 21 24 37 37 35
25 18 29 34 29 21 19 24 35 28 19 22 23 29 24 31 31 27 27 36 35 37 18 30 23 32 30 20 37 36 22 29 24 28 32 23 29 25 19 33 19 26 37 37 28 36 18 31 27 25 34 28 30 31 32 33 33 25 20 18 30 38 27 25
29 24 34 22 33 19 32 32 25 27 22 20 18 28 37 32 35 29 25 20 37 22 22 38 25 32 24 37 29 31 31 20 24 37 26 28 32 33 21 29 27 27 19 35 27 24 33 28 29 37 27 35 36 33 25 21 20 31 38 20 38 27 37 25
18 29 29 19 24 21 18 36 25 28 28 22 34 26 24 19 30 37 21 37 27 19 36 19 33 19 28 18 31 19 24 38 33 23 35 34 30 24 27 37 18 34 34 36 36 27 24 38 36 20 26 27 29 29 29 25 32 23 27 27 21 21 34 24
32 21 25 31 28 32 32 27 19 23 22 35 29 27 31 36 22 21 28 34 31 35 34 22 21 24 23 28 31 19 38 29 36 34 31 27 22 29 19 33 20 22 23 28 35 38 18 26 31 21 35 22 24 35 26 22 33 30 29 38 19 20 37 24
18 23 36 30 22 37 20 27 34 21 22 34 36 27 28 24 28 37 25 22 29 18 29 23 23 21 30 20 22 30 34 36 34 21 18 18 36 35 19 29 25 24 18 38 32 23 32 37 23 28 30 29 26 26 20 29 20 30 26 23 34 33 29 26
22 35 18 21 33 36 37 34 18 25 30 35 33 24 23 36 33 38 29 22 34 27 38 20 30 24 20 32 27 33 21 18 22 18 34 22 28 34 28 29 23 31 37 27 28 19 20 23 20 23 27 21 32 20 24 36 36 38 18 20 20 22 20 36
29 38 30 22 26 30 20 26 26 21 33 26 21 32 29 26 34 38 25 32 24 38 19 24 22 22 25 29 31 20 26 30 28 23 30 26 35 18 22 19 37 28 36 19 34 33 22 23 26 27 32 34 31 34 38 19 22 38 34 23 36 23 21 35
36 31 25 31 36 28 31 28 36 35 35 35 38 34 20 24 20 22 26 30 34 27 35 23 24 25 28 30 31 36 35 32 18 31 29 29 36 27 19 21 31 23 27 34 33 23 34 33 32 37 24 22 21 25 22 38 29 24 38 33 22 20 33 24
36 38 38 25 29 37 27 22 18 36 31 19 36 19 33 32 26 26 28 23 28 23 20 24 25 19 34 38 25 38 20 31 34 28 37 32 30 22 25 23 26 30 18 28 21 29 33 33 28 34 35 18 20 31 37 24 36 30 26 23 29 18 34 36
38 34 28 35 23 18 31 20 25 38 28 21 33 23 34 38 26 21 26 25 18 31 27 36 37 31 32 18 34 31 31 20 31 19 29 21 26 22 35 36 38 31 19 24 38 35 27 28 25 28 36 20 19 28 34 25 38 31 20 21 24 25 33 19
30 19 26 31 20 35 31 36 35 19 23 33 33 28 20 23 29 28 27 23 26 33 33 27 31 27 23 23 32 29 27 22 34 30 30 26 25 35 20 32 22 38 21 24 34 25 35 29 24 35 31 24 25 36 21 23 37 29 34 26 37 28 32 32
20 38 36 29 35 21 38 31 20 24 33 33 35 26 37 22 22 27 29 29 27 36 22 27 19 28 25 20 33 20 36 37 31 32 36 33 30 23 28 32 22 33 24 36 37 29 34 36 32 36 24 19 27 21 29 30 25 19 26 36 35 25 27 25
22 32 28 32 23 18 34 26 25 26 32 21 32 26 26 30 35 32 25 34 35 27 25 36 37 35 34 19 23 30 19 23 24 35 33 29 35 28 32 24 20 34 30 18 18 22 20 36 31 27 38 25 19 25 23 26 27 28 29 29 18 37 22 28
22 26 28 30 29 32 22 23 22 24 25 38 35 19 35 28 36 36 41 24 22 30 29 29 33 26 30 26 35 37 37 21 33 38 38 32 30 28 21 23 29 23 40 28 26 35 21 33 34 37 38 19 36 37 29 20 38 29 25 34 18 18 37 36
33 35 28 28 21 20 34 23 35 30 23 19 28 37 24 25 27 30 27 40 30 45 41 37 43 42 23 36 30 35 32 35 35 23 28 19 24 20 25 37 33 28 41 32 33 28 41 32 31 35 19 32 26 34 31 20 30 35 36 18 23 24 38 37
22 36 25 36 23 21 23 19 32 28 28 26 25 39 37 29 46 44 28 31 32 34 30 35 46 34 35 36 40 36 110 25 24 24 30 35 34 41 44 33 29 40 44 32 44 33 36 41 37 34 35 36 26 30 30 27 34 27 25 20 20 21 36 33
35 28 25 27 31 22 36 19 23 34 33 21 35 26 45 44 31 40 51 47 49 34 48 46 47 44 45 29 37 110 32 19 25 20 33 28 39 26 42 32 45 51 41 34 52 47 37 49 37 42 44 43 22 30 37 24 31 23 32 18 31 38 28 32
29 37 22 22 33 20 24 27 34 38 20 38 40 38 45 34 41 38 54 39 41 38 51 50 43 53 36 38 46 37 121 34 29 29 113 29 31 46 32 50 40 40 45 48 55 49 48 43 35 31 33 40 24 40 34 38 34 18 30 28 32 30 35 29
34 22 38 25 24 27 32 35 22 38 34 44 46 40 40 49 48 40 45 56 54 48 49 40 54 44 36 43 40 46 114 27 34 108 43 44 46 36 52 51 56 44 58 58 45 50 51 38 44 42 36 44 38 41 40 23 22 38 36 27 23 26 19 24
28 27 20 36 20 34 32 32 35 21 26 36 35 42 45 46 51 59 63 63 59 63 57 56 48 46 53 44 46 46 208 38 114 25 30 43 39 40 49 44 51 51 54 56 51 52 59 57 46 58 36 44 42 30 41 21 24 25 18 27 33 29 18 21
21 23 25 25 29 20 32 33 19 42 42 29 49 39 48 61 55 65 53 65 66 50 57 52 51 56 53 48 52 128 131 32 36 119 44 46 44 56 46 46 59 67 57 49 55 57 58 65 48 60 56 46 34 29 41 36 35 31 18 33 22 28 29 28
35 29 30 36 19 29 28 34 32 32 38 32 51 46 51 55 64 60 62 57 72 61 69 64 57 48 53 44 126 119 133 29 122 49 30 35 49 52 52 54 63 58 68 63 58 64 63 58 62 58 48 55 37 35 31 33 30 38 29 24 38 19 38 20
29 38 34 24 31 32 33 37 23 31 41 47 39 45 52 52 64 52 54 62 67 76 58 61 58 64 52 138 50 126 40 121 127 40 52 46 43 43 49 67 62 56 60 58 66 60 74 61 69 60 45 40 45 33 32 31 27 24 29 29 18 29 20 23
36 27 36 32 36 21 28 34 40 46 36 47 44 44 52 62 64 56 57 76 80 75 60 74 63 55 52 138 137 44 127 213 45 36 53 42 58 50 49 56 66 57 77 63 81 59 74 69 67 48 54 44 43 35 46 37 24 24 18 29 21 38 34 25
19 26 34 23 29 23 38 21 36 45 42 46 39 47 62 63 72 70 73 81 77 64 65 78 67 62 58 148 131 39 133 125 141 37 43 47 59 46 65 60 72 61 64 80 72 67 73 67 61 52 58 43 43 54 48 33 29 27 37 33 26 27 32 30
37 25 22 34 20 33 38 27 43 27 49 54 52 48 55 59 67 59 75 79 86 80 73 67 77 62 71 152 49 128 41 138 225 36 52 40 57 55 62 61 78 69 66 76 72 70 64 70 64 58 62 61 42 54 40 37 25 38 30 38 31 23 38 29
22 26 37 37 27 19 26 38 36 34 39 46 57 47 50 61 57 72 81 68 72 78 72 76 75 75 153 47 54 55 139 218 131 46 47 44 47 61 63 61 66 66 76 84 89 87 70 60 56 51 47 63 48 48 35 38 41 27 23 21 22 24 20 19
32 22 38 37 25 38 31 33 40 29 31 43 59 45 52 67 56 68 72 70 83 87 77 78 58 154 55 50 59 131 137 130 52 124 41 59 59 61 69 54 63 79 71 87 77 80 64 64 73 69 57 62 55 48 44 45 35 26 18 35 32 35 31 19
42 27 33 31 29 32 42 44 33 50 38 50 44 66 54 71 74 69 68 76 81 82 71 70 79 62 142 58 66 134 143 45 140 139 59 48 54 63 60 61 78 73 86 73 89 78 69 74 80 60 66 64 49 56 50 40 48 36 34 46 37 41 33 37
32 36 44 30 49 35 48 42 51 57 52 61 60 53 67 66 71 77 82 77 83 76 83 83 78 170 76 61 70 153 135 54 153 51 145 69 65 60 83 87 85 88 79 80 95 79 91 84 77 67 80 80 64 61 54 47 56 43 40 54 57 41 39 55
54 38 54 46 54 52 50 47 48 56 56 59 56 75 73 85 79 86 77 93 80 81 83 96 168 82 83 71 160 69 74 156 148 59 160 63 79 86 72 77 83 94 85 98 89 98 86 91 95 81 84 73 81 69 72 66 68 67 59 52 64 53 56 61
43 54 52 44 48 58 44 55 55 60 68 59 63 70 69 82 78 89 80 80 88 93 83 176 95 88 75 160 78 74 65 67 146 244 74 75 85 83 91 86 95 98 93 90 107 95 98 90 94 92 79 77 89 83 87 80 60 73 65 64 76 66 65 71
50 48 40 49 42 56 49 54 56 57 65 49 56 62 71 66 71 71 86 76 85 85 74 81 169 82 66 76 155 71 61 58 153 239 55 59 67 74 73 75 93 91 91 80 96 94 96 82 92 89 79 83 75 65 72 64 69 51 53 55 71 69 72 72
41 45 37 39 49 33 34 37 49 33 49 50 60 53 61 54 73 72 75 67 67 61 76 72 159 58 74 142 54 49 62 126 43 142 134 53 57 65 71 63 69 73 82 64 72 74 65 75 77 66 71 63 70 52 44 53 47 47 46 53 52 49 47 45
36 24 42 25 31 24 36 39 44 42 32 37 39 53 53 42 57 52 51 67 64 51 65 58 139 60 134 45 49 50 51 50 115 132 133 44 45 60 59 67 60 55 61 60 65 58 61 67 58 47 62 58 41 47 52 37 47 46 34 42 42 37 42 49
33 36 38 21 23 34 19 27 27 27 23 37 27 46 36 42 47 42 41 42 39 56 52 51 120 43 39 114 37 29 33 37 117 121 108 26 48 47 44 50 53 50 45 47 42 42 57 50 45 46 31 29 28 31 24 23 27 33 21 35 37 32 19 31
28 26 38 37 23 27 24 37 33 26 22 19 24 43 29 35 44 35 35 39 40 49 40 131 33 37 34 44 124 40 29 107 21 201 32 23 24 43 48 43 46 51 53 37 49 40 34 51 35 30 30 36 30 34 28 26 34 27 38 33 19 28 32 19
26 27 37 38 19 25 24 23 25 36 36 31 34 22 30 41 42 46 32 41 48 30 43 37 131 31 30 32 119 18 38 107 119 113 30 20 27 27 42 43 41 36 48 44 49 36 38 40 37 40 34 37 28 38 23 34 36 36 35 32 27 33 29 19
31 27 38 31 33 26 18 24 26 24 24 29 20 32 20 36 24 41 37 31 45 32 25 29 120 31 23 123 34 24 112 36 28 202 18 32 32 27 40 27 43 32 28 31 26 35 42 43 39 37 37 34 19 28 22 37 26 29 28 18 25 32 23 22
37 21 33 29 34 35 25 27 18 37 31 25 18 36 35 28 35 25 29 40 37 33 23 26 125 35 38 106 37 21 21 119 110 114 18 34 31 36 29 30 26 33 40 27 23 21 23 32 27 22 36 38 37 31 35 22 22 37 36 32 35 25 36 20
25 20 28 31 33 34 21 36 23 29 18 22 28 32 32 36 24 36 23 37 31 24 27 24 118 36 34 110 20 19 19 110 118 27 118 31 24 38 38 25 19 38 24 28 35 33 33 26 31 31 20 33 21 22 21 37 30 22 35 27 23 22 30 21
34 37 34 28 33 27 33 35 21 31 25 30 24 32 25 18 22 34 27 18 29 26 27 109 24 21 104 33 19 20 32 31 109 202 21 27 33 19 27 36 37 36 37 21 24 32 22 38 30 36 21 20 27 36 28 30 32 32 33 25 27 25 34 20
19 34 27 30 28 29 23 32 29 24 23 24 37 18 20 29 25 25 23 38 35 37 21 111 29 25 115 18 29 22 27 106 33 26 196 18 33 31 38 32 33 36 38 20 30 29 34 38 27 28 23 35 22 32 21 23 29 34 34 37 25 30 27 35
31 18 35 22 37 32 19 29 19 34 31 36 34 28 21 24 20 34 38 25 21 24 32 117 23 29 122 31 37 24 35 123 31 117 113 28 37 34 20 33 22 30 29 20 18 35 25 29 38 36 38 26 29 20 22 27 35 24 21 21 23 34 27 32
31 28 38 19 18 38 20 25 27 35 28 18 21 38 21 25 28 33 33 37 21 19 20 26 120 37 18 106 21 34 26 25 111 18 208 38 22 20 34 32 22 32 28 20 24 28 38 37 25 23 21 27 22 36 18 32 30 20 23 20 22 32 37 31
34 33 36 30 26 28 19 23 23 34 37 23 19 32 19 32 19 19 28 34 20 33 20 23 34 119 27 31 113 35 34 28 23 113 107 119 33 33 32 27 30 24 19 24 31 30 19 19 19 37 22 21 34 35 19 38 28 24 28 32 31 31 34 27
34 30 21 27 18 23 38 23 33 36 22 20 19 21 30 28 38 29 19 34 18 31 24 18 22 37 114 105 30 20 19 27 24 19 198 38 114 38 30 18 19 33 23 36 30 34 27 35 38 36 33 21 19 26 24 22 30 29 27 35 29 38 25 18
33 27 20 25 27 24 21 19 32 33 31 25 35 25 37 36 20 29 31 34 19 37 33 18 32 19 109 30 36 38 34 36 32 202 33 20 33 109 22 22 33 21 26 34 34 18 23 26 22 36 32 31 38 25 31 32 21 27 37 23 26 22 32 20
24 29 29 22 34 38 33 27 18 21 21 29 34 21 23 26 25 30 19 20 30 23 20 18 33 113 19 32 26 33 38 38 20 109 105 28 120 31 37 24 26 38 36 26 31 36 18 29 35 18 27 20 30 32 25 37 38 37 31 29 21 21 28 25
23 22 24 29 37 38 37 33 27 22 37 24 24 20 34 19 31 25 38 25 38 36 21 24 27 103 32 38 38 19 23 21 24 123 25 117 38 38 34 25 21 37 32 18 25 21 30 23 33 35 26 27 24 22 22 19 21 21 28 32 29 23 28 36
18 30 19 25 29 27 36 28 19 32 26 18 33 26 23 34 18 23 28 28 37 23 30 33 33 122 24 31 35 24 37 36 32 103 103 27 26 33 19 26 30 37 23 18 25 34 20 37 28 37 33 25 24 33 34 22 18 35 31 19 18 26 23 28
34 18 36 18 23 38 35 38 33 26 25 22 24 22 29 37 33 28 33 38 29 18 37 38 19 21 22 38 34 24 23 19 36 35 197 25 26 37 29 29 18 32 28 29 23 20 25 36 24 30 37 32 23 34 25 22 29 29 19 25 19 36 33 18
21 24 33 32 19 32 23 18 38 36 20 26 36 34 30 20 36 31 34 34 36 29 35 37 33 38 24 18 29 36 25 30 27 107 34 116 36 22 19 20 29 37 38 35 24 32 33 25 24 31 21 26 33 29 30 34 37 29 20 20 26 23 19 25
20 21 21 34 18 33 18 20 21 20 35 34 34 31 37 34 21 30 36 25 22 31 25 23 19 36 25 33 29 26 19 24 28 38 25 110 26 34 18 38 30 23 35 35 20 21 20 20 37 38 30 37 30 35 18 26 23 20 38 19 26 23 18 38
25 30 19 36 37 37 24 30 34 28 37 32 19 27 29 37 30 37 20 22 22 30 21 22 18 26 26 21 24 37 31 20 21 28 108 32 34 24 28 33 38 18 37 28 23 19 37 23 23 26 18 28 38 36 21 30 35 36 31 26 33 24 30 26
36 23 27 29 31 37 22 20 38 34 18 22 19 34 32 36 37 25 22 38 30 27 30 30 25 24 20 21 35 29 20 20 20 18 18 21 24 26 31 31 24 33 29 30 34 30 31 27 18 27 20 19 19 33 19 37 24 31 21 26 22 23 26 22
28 20 34 23 19 18 23 37 18 33 31 33 31 31 23 34 23 33 34 38 19 36 35 21 22 30 20 28 34 32 37 28 22 26 30 34 21 21 34 24 21 34 24 27 33 18 34 27 30 21 34 23 25 26 33 33 32 26 31 27 26 27 20 26
24 24 30 18 32 20 30 37 19 19 32 23 36 35 34 34 26 20 24 30 31 19 36 18 28 34 37 33 27 27 36 26 34 24 27 21 34 30 34 18 34 27 25 20 26 34 34 27 24 29 22 34 19 36 20 27 35 30 31 33 28 20 38 36
