P2
64 64
255
22 25 17 18 21 15 24 17 16 23 21 22 22 18 16 14 17 23 14 18 14 15 14 18 24 19 24 17 21 26 23 25 25 17 15 19 19 15 24 20 22 25 18 21 16 21 26 16 22 18 16 23 26 16 17 26 22 23 17 15 21 26 25 18
26 18 19 24 26 25 25 14 14 23 19 26 18 19 19 19 20 18 25 19 16 20 22 15 25 25 18 24 14 26 19 16 16 20 17 17 18 16 16 17 19 24 25 19 14 20 22 23 26 26 23 24 17 22 19 26 17 19 26 26 15 18 25 15
18 14 23 16 22 15 24 22 16 15 20 18 21 19 17 20 24 15 26 17 22 22 26 26 23 23 21 23 17 14 20 18 15 14 23 16 22 21 18 18 23 16 23 24 20 23 20 16 16 14 21 14 15 26 17 18 15 26 20 19 16 21 24 22
24 18 14 17 25 20 25 15 22 20 24 18 21 26 20 23 22 18 18 24 18 19 26 24 25 25 23 14 23 22 20 26 26 26 16 24 17 14 21 22 16 20 16 25 20 20 17 21 15 23 21 14 17 20 20 24 14 24 24 16 22 21 14 14
15 15 17 17 21 21 16 18 25 22 18 17 19 17 26 14 24 16 16 21 17 24 25 19 16 15 18 14 22 18 26 15 17 19 14 15 26 14 25 18 16 21 23 14 16 22 14 23 18 22 20 16 17 23 22 26 22 26 21 17 18 22 22 16
18 17 16 14 26 23 21 24 23 16 17 18 19 20 25 19 15 19 21 14 16 24 25 25 21 26 20 20 17 19 23 14 18 14 24 18 15 21 14 20 18 21 16 17 26 23 15 21 20 20 25 14 24 20 15 16 16 24 25 26 14 17 17 25
16 19 26 14 17 25 19 14 23 15 16 17 19 20 24 26 15 22 16 24 16 15 25 22 26 14 16 26 19 16 17 20 18 21 24 16 14 16 22 15 18 16 19 17 15 25 16 26 17 16 21 24 15 17 20 15 14 14 24 15 23 21 18 14
24 22 19 14 21 23 25 20 20 15 23 15 26 23 24 15 20 24 19 15 24 17 17 14 19 25 18 20 26 21 23 23 19 17 25 17 20 25 21 26 23 22 17 16 25 26 20 21 22 18 23 22 22 14 16 14 15 19 17 18 17 21 19 19
14 14 17 16 19 24 20 19 26 18 24 26 16 16 16 24 26 20 25 15 21 14 15 23 23 24 16 21 23 24 17 19 20 22 23 14 19 25 24 20 20 20 18 19 14 18 24 24 20 19 17 26 22 15 21 18 22 18 23 19 18 17 14 26
24 19 26 20 15 23 24 21 23 18 16 21 26 21 26 17 16 20 16 21 24 22 18 21 21 22 23 21 16 15 18 14 24 21 26 23 14 22 17 20 15 16 21 25 25 16 23 19 18 26 15 25 24 22 17 18 20 21 19 20 26 16 18 24
21 15 24 17 25 14 17 15 23 18 23 15 17 20 26 18 25 19 18 21 24 22 24 25 23 21 22 25 15 15 17 15 26 16 14 20 21 16 22 24 14 23 23 24 25 26 20 25 24 15 19 16 26 21 26 26 16 21 20 14 22 25 23 26
21 22 19 24 17 20 20 15 26 19 23 24 18 25 23 24 14 16 23 14 22 25 25 15 15 26 17 18 24 25 25 17 22 23 22 14 16 20 24 25 14 18 19 15 18 24 19 23 21 15 19 24 20 19 20 26 21 24 19 14 15 22 18 22
25 16 25 17 22 17 18 19 26 18 16 18 26 17 21 26 20 25 23 16 21 24 23 24 26 19 25 24 22 15 22 19 14 14 18 16 26 17 26 15 19 17 24 17 15 16 26 21 17 17 17 20 22 21 23 25 14 14 23 23 16 20 15 19
16 16 26 24 14 15 25 15 24 15 22 23 17 15 19 17 25 19 19 20 14 17 19 18 20 18 19 25 15 14 25 17 14 19 17 22 23 20 24 24 20 23 21 21 16 18 14 26 21 22 25 15 26 23 24 19 26 25 20 19 20 23 17 24
18 16 16 22 22 22 15 23 25 22 16 16 22 24 15 20 21 17 15 25 17 23 24 17 17 26 20 23 19 22 17 25 25 24 24 16 16 21 18 20 23 17 25 21 26 21 24 15 22 23 23 14 15 14 25 18 23 23 19 22 25 15 17 20
17 23 20 24 19 21 26 20 18 25 22 14 18 19 26 15 23 21 22 24 26 19 17 19 24 24 15 25 20 14 24 25 14 23 22 26 21 14 15 23 16 16 22 20 24 18 24 15 15 22 18 20 26 22 17 24 18 26 16 20 24 20 20 26
24 16 18 17 25 16 17 17 25 20 23 25 26 18 25 14 16 18 26 18 23 16 15 20 26 16 25 18 25 21 17 22 25 24 20 21 20 22 21 24 18 19 22 23 17 25 25 16 16 17 19 16 24 17 23 16 25 19 24 22 15 19 26 18
19 22 25 23 23 16 24 19 15 23 14 19 18 23 19 19 16 14 21 25 24 26 22 16 25 18 18 15 21 21 25 15 21 22 16 19 17 25 24 17 16 23 15 18 20 23 20 23 20 15 25 25 26 23 24 24 17 17 15 19 23 22 24 19
18 18 18 22 16 14 18 24 17 25 26 23 14 18 25 16 22 20 22 25 17 18 23 23 25 20 18 24 20 22 24 23 25 19 15 25 19 22 25 17 23 22 26 24 15 18 20 23 25 18 22 21 20 23 17 16 16 22 21 25 22 19 19 20
19 24 15 22 21 18 14 26 21 21 15 17 23 24 24 20 27 20 27 19 20 21 21 17 19 22 22 25 24 17 26 25 14 22 23 22 22 23 24 23 28 27 19 26 25 19 27 18 25 18 15 26 18 25 26 21 19 15 24 19 23 14 16 22
15 18 20 20 20 25 18 14 19 20 15 25 18 15 22 19 29 22 28 31 29 31 32 28 22 30 26 20 26 18 17 19 15 16 19 25 24 26 23 29 22 31 32 29 30 32 28 20 28 23 17 25 25 21 20 26 24 24 24 20 18 20 24 15
25 15 14 22 14 22 22 26 14 25 25 14 14 25 31 24 30 25 26 28 31 25 29 33 35 25 32 19 17 23 26 26 23 20 18 21 19 28 24 29 24 29 36 27 37 35 34 25 27 23 29 28 21 20 25 25 21 17 16 14 15 19 25 25
21 22 16 17 20 14 19 21 20 17 24 15 17 31 30 35 36 27 35 41 30 30 38 32 35 37 33 30 27 24 34 29 29 23 23 33 27 36 36 34 39 38 32 34 35 37 35 30 36 31 30 21 29 15 18 18 22 26 17 20 17 24 17 26
20 18 22 14 20 19 24 24 20 18 16 21 24 27 31 35 29 31 37 42 41 38 37 42 37 35 41 44 40 43 31 37 36 33 36 42 36 46 41 38 36 36 42 33 40 45 40 36 36 39 33 26 24 22 23 22 16 21 17 14 25 14 25 14
15 26 17 24 23 16 16 23 15 18 23 32 35 33 33 36 39 39 46 49 41 37 49 42 43 44 52 48 46 54 43 45 42 39 47 52 55 50 43 49 41 42 49 37 42 42 47 37 42 35 34 33 32 29 18 25 26 17 23 15 18 16 14 20
19 26 15 16 22 17 22 24 19 25 19 34 28 40 33 35 44 49 40 47 46 49 47 58 60 63 64 56 61 52 58 46 54 52 50 60 52 57 56 63 57 54 52 50 50 45 40 43 47 42 33 31 31 32 31 17 18 18 21 19 20 25 16 24
18 20 25 16 19 20 25 17 18 28 26 26 34 31 45 48 46 46 55 52 55 54 61 64 61 62 65 64 70 64 68 65 62 62 62 62 64 61 70 68 59 57 60 56 49 56 46 46 48 37 34 36 29 26 33 18 17 16 23 19 20 19 20 19
25 23 26 21 24 18 23 23 18 29 35 30 33 44 43 40 50 50 49 51 56 58 67 63 74 76 71 73 69 68 76 65 69 72 73 71 76 70 72 67 66 74 70 58 62 55 49 48 52 43 41 45 32 27 32 30 24 24 14 18 22 23 14 24
14 14 21 15 16 16 20 26 21 21 29 34 42 43 42 51 46 59 61 64 67 64 71 80 80 75 87 84 78 85 78 77 74 85 84 75 85 76 76 75 80 81 75 71 68 56 50 57 47 44 49 45 35 32 30 28 25 16 20 16 26 15 17 22
26 16 16 14 20 20 26 19 22 30 34 37 36 45 49 55 51 52 60 63 72 78 81 87 90 92 85 89 94 89 85 92 85 83 90 82 84 94 85 84 89 78 87 83 69 65 60 56 55 52 45 46 42 39 38 22 23 20 17 21 15 20 19 23
16 18 26 19 18 18 15 16 25 27 29 36 45 50 48 57 57 65 60 70 75 81 90 85 95 87 93 101 95 93 90 98 90 94 91 88 96 93 95 97 92 87 84 87 79 74 59 55 54 50 47 48 42 38 39 33 30 26 15 19 16 15 26 18
24 16 22 15 21 19 24 18 27 32 37 41 39 46 55 52 55 60 68 73 82 89 98 93 93 94 102 103 100 102 99 102 97 102 103 101 97 105 99 95 95 101 96 96 87 76 63 66 54 58 43 49 40 34 27 30 28 20 18 22 20 19 14 16
20 25 24 25 19 20 15 19 24 34 33 34 47 45 49 53 53 55 68 85 86 91 98 96 97 104 107 108 104 105 104 114 109 115 103 110 106 110 108 104 98 103 93 97 88 86 70 58 59 55 53 46 36 40 36 34 20 17 18 23 24 15 14 15
24 26 17 16 21 22 23 23 21 29 29 35 42 49 51 55 56 60 68 82 82 88 93 101 100 100 107 113 115 111 111 117 121 109 116 106 115 114 110 107 107 106 92 98 89 77 68 66 53 50 44 50 43 31 30 35 28 27 18 18 20 25 14 15
26 20 23 19 26 24 24 22 30 27 37 42 40 41 45 48 57 56 75 76 91 87 101 101 104 107 104 116 106 119 111 117 125 119 114 108 116 116 107 100 97 99 100 96 87 76 75 55 51 54 51 50 37 41 31 26 26 18 21 20 25 23 16 14
19 22 23 21 16 16 21 15 24 30 35 32 34 45 51 45 56 59 63 80 84 94 97 103 103 106 104 109 118 114 122 120 128 118 117 113 107 110 108 106 95 100 92 93 79 70 67 61 49 44 45 41 35 41 33 28 21 26 17 18 16 18 21 15
20 20 15 25 26 24 26 15 22 27 26 31 35 42 49 44 55 54 68 67 84 90 93 97 99 96 110 104 108 108 111 125 129 119 112 114 105 111 107 103 95 95 91 88 77 72 68 51 52 45 50 35 40 28 31 29 20 23 21 22 20 14 19 23
16 19 24 16 18 17 18 20 26 31 28 37 36 36 39 49 45 50 55 63 76 85 91 90 93 102 96 109 106 111 110 111 123 115 111 114 108 106 96 94 93 87 85 83 80 68 67 54 45 42 44 44 30 35 35 29 20 15 14 22 17 15 20 21
17 25 22 21 20 23 25 25 21 18 21 31 40 39 42 44 40 52 53 68 65 74 82 89 90 95 94 100 104 111 112 108 114 111 109 110 99 107 93 91 87 85 87 74 74 59 55 42 48 38 41 39 31 25 24 29 15 22 19 18 15 21 24 16
15 15 14 26 14 19 26 25 15 17 30 30 33 34 36 45 46 41 55 61 63 68 77 84 91 90 98 92 92 100 103 93 104 94 102 100 101 92 96 92 91 79 74 69 59 60 53 45 40 45 35 38 37 22 21 21 18 15 25 25 15 19 15 21
22 23 19 22 20 19 25 16 17 19 29 25 26 36 28 37 45 43 46 58 56 61 68 73 85 88 87 83 94 92 90 95 84 93 86 98 89 88 88 88 75 76 71 67 55 54 48 36 39 34 33 34 24 28 20 20 17 24 22 23 20 16 19 25
15 24 24 26 17 22 24 14 25 22 17 29 31 31 33 35 39 35 41 46 50 53 67 71 74 72 81 79 88 88 89 88 83 87 78 84 89 79 85 75 69 68 68 56 56 47 43 32 32 32 27 30 24 23 25 15 20 15 16 26 17 15 19 17
16 18 24 18 18 16 20 14 18 20 23 27 23 29 24 36 38 30 31 37 43 58 54 58 68 72 74 74 76 69 71 73 80 76 78 71 70 74 67 74 63 63 61 48 50 41 37 28 32 27 29 20 20 26 14 24 18 22 21 18 14 22 24 26
17 25 26 19 14 16 18 18 20 26 21 24 25 18 30 25 23 26 31 32 39 46 45 52 62 60 64 64 72 70 64 65 76 70 69 70 71 69 57 55 57 57 48 45 39 30 24 24 34 23 24 29 18 17 26 14 15 18 23 26 22 14 19 23
16 23 22 22 17 20 16 26 26 21 16 24 18 21 15 21 25 24 27 33 32 41 39 52 55 57 57 58 64 60 62 62 66 64 60 57 56 56 50 53 56 49 39 34 35 32 33 31 24 29 21 18 24 15 24 16 16 19 14 23 15 19 24 17
15 22 20 24 26 17 22 19 17 15 25 20 23 16 15 21 15 26 26 21 28 26 28 33 42 45 44 47 51 59 60 64 63 63 51 60 48 48 49 46 39 32 35 30 21 27 21 21 26 25 17 19 18 23 24 23 26 17 15 23 22 17 17 25
22 18 20 16 15 20 24 19 17 22 26 24 20 15 23 14 26 25 17 14 14 23 26 31 32 41 42 43 49 55 44 57 47 57 56 53 50 39 37 34 34 30 31 23 26 23 22 21 23 14 22 18 26 18 17 15 19 19 23 16 20 18 23 19
24 21 16 21 25 23 23 25 22 18 22 14 22 21 19 15 20 16 17 22 18 18 22 23 33 30 36 38 35 41 44 45 48 50 50 48 42 34 36 29 33 26 20 26 14 26 18 24 24 16 14 20 22 22 18 15 23 15 22 22 17 18 21 15
26 26 24 16 24 18 18 16 20 24 25 24 23 16 24 24 22 15 20 15 22 21 20 20 23 24 37 34 31 42 36 44 39 34 38 34 32 30 33 29 20 27 22 19 25 15 16 21 22 14 21 15 15 21 19 24 22 14 16 15 24 21 17 18
17 20 22 25 16 25 23 17 16 24 26 26 24 14 19 25 26 24 26 26 21 21 26 26 17 25 20 22 31 26 34 30 36 31 32 34 27 32 26 28 19 21 17 22 25 26 22 24 21 15 17 24 25 16 16 21 22 15 14 22 15 20 26 20
26 23 19 19 18 16 24 15 17 24 16 17 23 14 17 21 19 19 23 23 20 17 17 23 20 20 14 27 21 19 22 27 25 25 26 20 18 23 19 24 24 16 21 23 17 18 21 19 22 15 19 16 26 16 16 16 20 18 16 19 18 16 25 18
20 18 18 24 18 15 18 14 14 14 17 19 23 22 15 17 25 15 22 25 18 20 17 15 14 24 18 26 25 15 19 25 21 23 18 23 18 18 22 25 26 21 15 15 22 22 26 18 23 21 16 22 17 14 18 26 26 16 20 14 25 18 17 15
21 21 16 25 22 22 15 23 22 22 18 16 16 15 15 21 19 19 24 26 17 24 15 26 26 16 14 17 26 20 21 26 14 25 22 19 21 16 17 16 23 25 24 26 21 19 26 22 18 22 20 21 18 21 17 14 22 15 18 25 26 23 17 18
16 22 17 16 17 25 17 20 22 25 26 25 20 18 23 25 25 23 23 19 18 25 26 14 16 24 15 26 20 14 18 18 18 23 20 22 25 22 24 24 22 23 19 20 20 18 23 19 22 21 18 20 18 21 17 18 23 22 24 21 24 24 16 14
26 14 17 25 14 25 21 18 18 15 14 22 14 21 25 23 14 20 16 23 21 17 19 22 18 20 26 14 21 14 14 22 19 20 23 19 14 24 21 21 17 14 20 26 24 19 14 22 23 16 20 26 19 23 21 15 14 23 17 21 24 15 15 22
17 26 19 25 23 23 25 23 24 14 20 14 14 25 15 24 25 23 15 26 23 22 20 16 22 16 17 18 17 24 16 14 23 17 26 17 19 15 19 16 23 24 19 23 22 24 22 23 26 20 17 20 22 23 20 24 14 22 23 16 26 22 21 19
17 18 19 25 16 14 26 20 15 24 22 22 22 19 23 14 26 26 16 17 20 24 25 18 20 16 17 20 18 17 14 24 21 16 21 15 21 24 18 17 16 14 18 18 23 15 23 26 17 25 24 15 18 19 26 14 14 25 24 19 25 14 14 26
26 17 18 24 17 17 20 25 22 20 26 14 21 17 16 19 23 19 26 24 14 18 14 18 14 18 15 20 22 25 14 26 16 25 25 21 23 16 24 24 25 25 23 15 20 20 24 14 18 18 14 19 22 19 24 17 20 17 15 21 17 14 21 17
19 22 20 20 16 22 25 14 24 17 19 24 19 23 20 14 26 24 15 26 15 14 23 20 17 14 20 19 19 17 25 20 16 20 20 22 22 17 24 18 22 18 21 16 22 17 22 20 21 25 23 16 14 23 17 22 19 14 24 19 19 18 14 19
26 18 18 18 22 18 21 18 14 19 23 23 20 22 26 17 18 18 14 16 18 22 18 23 14 25 26 24 26 24 19 17 24 15 16 16 21 26 17 23 26 17 14 17 21 17 15 14 24 19 14 19 20 25 24 19 17 23 17 22 16 23 16 22
14 16 24 22 26 25 23 15 17 17 16 16 20 17 21 17 16 22 16 17 15 26 20 21 24 20 17 22 25 21 22 16 24 25 25 18 20 14 14 22 19 21 24 17 20 22 15 16 23 16 17 20 18 26 14 17 24 24 15 18 23 18 24 20
23 23 18 19 17 24 21 16 14 14 19 16 21 24 14 14 15 25 26 25 14 26 21 22 14 18 20 23 25 21 16 23 23 21 14 19 16 17 15 18 21 26 16 16 19 22 16 25 21 23 20 25 21 17 15 20 19 26 20 24 19 25 26 25
20 21 15 20 22 25 24 15 22 24 25 22 23 15 22 14 24 23 17 25 23 25 22 24 23 19 15 15 16 22 22 18 17 23 25 16 15 15 22 23 16 14 16 16 22 20 16 26 18 14 18 23 24 24 19 16 14 23 21 15 26 19 21 24
14 15 25 24 22 18 16 15 24 18 20 21 18 23 21 14 16 22 25 24 20 16 21 20 19 17 21 22 14 16 24 15 19 24 25 14 25 17 26 24 26 20 14 19 16 23 17 22 23 21 22 22 17 15 20 14 26 24 16 21 15 23 18 23
