P2
64 64
255
36 24 23 29 24 24 22 21 28 22 18 28 30 29 38 21 28 31 32 29 32 20 22 28 36 20 35 36 21 29 25 26 28 36 23 35 35 28 30 31 32 22 38 18 29 38 35 30 36 35 19 34 36 26 35 38 25 18 32 28 31 22 32 25
35 37 36 27 32 31 32 21 28 35 23 28 21 38 38 18 36 28 36 32 31 26 24 27 35 28 19 38 27 25 36 28 19 24 36 28 26 33 31 24 20 18 37 25 27 32 21 38 20 25 38 30 21 19 24 28 37 29 28 25 34 32 37 34
35 33 29 33 29 31 28 21 37 34 27 23 25 29 25 25 19 30 20 27 33 33 24 30 38 35 25 29 36 18 29 22 34 21 30 27 18 23 33 28 35 25 18 31 36 30 18 32 38 30 38 18 19 30 26 28 38 36 19 38 23 28 21 29
38 33 31 22 24 29 28 18 36 18 26 36 24 25 20 32 18 31 24 32 29 19 32 26 32 38 34 27 25 25 20 37 31 33 21 18 37 21 27 21 38 22 31 33 21 23 31 21 32 19 18 21 27 23 18 34 38 26 21 26 38 34 31 31
20 30 37 20 38 19 28 27 18 26 34 22 38 38 21 33 31 25 29 31 28 35 32 31 31 33 20 37 20 30 19 19 35 26 38 32 23 20 33 25 20 31 24 20 34 27 18 20 28 38 20 23 28 28 27 19 26 35 21 37 20 22 20 33
35 34 29 28 30 31 35 37 36 38 36 32 24 35 30 18 19 34 24 30 20 33 38 19 35 25 35 28 30 22 24 34 32 33 30 27 28 36 24 27 33 18 33 31 28 25 37 26 35 32 30 22 20 25 34 22 34 28 35 20 21 37 23 25
18 26 37 32 25 20 36 28 36 25 19 18 27 22 23 37 30 24 32 38 27 31 33 25 31 20 38 27 34 25 36 28 29 37 26 27 20 28 28 35 27 19 30 22 19 25 19 22 27 21 24 19 33 37 30 18 29 29 35 37 33 25 34 28
23 25 25 29 29 34 18 18 35 37 24 19 34 20 32 23 24 25 26 24 28 24 37 31 22 19 34 31 26 30 30 20 30 21 26 30 36 27 20 29 32 33 30 24 35 21 31 31 25 28 22 37 34 25 27 19 34 18 36 25 33 18 30 20
21 37 34 33 31 20 25 35 34 34 25 24 32 32 19 31 20 20 32 30 19 22 31 20 38 36 28 20 33 31 35 26 23 21 28 28 30 33 29 26 31 35 27 30 20 31 19 35 22 33 23 27 29 31 34 23 28 30 30 30 20 28 21 21
24 28 30 27 19 22 26 28 37 34 37 27 19 25 22 33 34 30 32 20 18 36 30 22 32 38 29 38 32 20 36 26 29 37 24 36 34 23 22 18 25 32 31 31 28 29 28 27 33 27 18 27 33 31 34 22 22 22 36 25 38 22 22 20
31 26 38 36 30 35 24 34 25 22 20 18 36 24 33 35 26 28 30 24 18 29 26 30 20 19 30 22 31 35 31 25 31 26 28 28 27 37 27 31 33 36 27 28 32 25 29 38 29 26 29 20 21 37 21 34 22 26 23 32 25 21 36 35
33 29 36 30 27 34 25 19 22 33 34 25 38 21 26 22 36 36 38 32 29 20 26 31 27 19 19 33 25 25 31 31 30 30 32 27 29 23 22 27 22 38 19 27 19 23 34 18 36 37 20 24 26 36 34 27 29 20 36 32 26 33 19 36
20 22 20 28 20 20 26 37 34 33 32 29 24 29 31 29 38 20 28 35 31 27 23 25 33 30 27 26 24 31 26 23 37 31 29 25 22 22 38 22 34 26 29 38 24 20 33 35 25 20 37 23 21 21 19 35 25 22 30 20 31 23 30 30
23 35 23 32 29 25 23 32 36 24 29 32 18 28 21 31 33 20 25 27 19 30 32 34 28 20 23 23 28 24 25 29 31 32 35 27 25 30 23 33 35 27 27 35 31 29 29 29 38 23 21 21 30 30 24 31 35 32 23 24 38 24 26 29
20 32 27 31 37 28 38 28 31 27 34 21 22 23 23 34 18 29 37 29 32 18 28 36 30 36 24 37 24 38 23 37 19 33 27 22 34 33 21 37 27 18 26 32 36 22 33 25 20 20 35 37 29 32 26 35 27 36 37 35 31 29 19 20
18 23 33 21 38 19 34 37 38 36 27 25 22 35 30 28 36 28 30 19 23 22 37 32 18 19 22 22 36 30 27 20 22 22 36 19 19 35 29 28 23 35 28 31 25 21 34 18 24 38 26 24 20 24 26 19 18 36 24 27 36 25 23 24
19 20 28 34 27 34 23 33 23 23 26 24 25 33 37 28 20 32 21 32 35 37 30 27 36 25 23 35 35 21 37 22 24 32 36 22 34 36 19 34 18 20 23 31 30 21 20 35 35 27 35 23 25 37 25 38 21 38 31 30 32 31 26 30
30 20 23 33 20 36 26 19 29 28 35 37 32 27 35 29 35 33 19 24 31 28 26 38 20 19 37 28 33 23 33 22 26 24 34 19 30 34 28 18 30 20 23 38 19 29 36 37 34 30 38 31 28 31 31 23 30 33 28 34 24 38 28 22
22 24 29 31 31 29 34 32 34 18 30 30 18 33 21 22 36 23 32 28 37 24 18 20 25 35 21 24 30 34 22 36 32 24 32 29 35 18 23 36 18 38 31 25 27 20 20 34 21 27 38 19 35 32 20 35 20 34 32 35 31 38 19 27
25 33 31 31 24 19 36 32 31 33 20 23 38 30 33 24 39 24 35 21 39 42 27 35 32 35 31 27 26 22 25 21 35 27 32 29 29 18 30 26 30 39 31 29 29 29 31 38 21 21 24 32 18 24 32 37 34 18 29 37 21 25 23 32
33 30 18 26 36 36 25 24 34 20 33 25 24 21 38 29 41 42 28 39 40 34 26 45 37 24 23 25 18 32 27 32 33 30 34 27 38 27 38 33 24 44 30 31 45 33 36 39 37 36 25 24 35 35 24 28 31 29 33 30 25 27 23 30
35 18 23 30 33 30 32 21 27 29 28 27 18 27 30 31 30 31 42 33 38 43 47 41 37 26 24 26 21 29 32 35 22 37 37 31 28 29 41 34 44 37 32 35 29 45 41 38 29 25 35 32 36 22 26 35 20 23 30 20 28 25 26 27
37 26 30 23 31 34 28 28 29 31 18 33 32 40 28 34 45 49 45 39 38 36 45 32 39 44 44 30 37 26 23 25 26 31 30 32 35 32 44 41 43 43 47 40 36 51 47 46 47 33 28 33 28 24 31 31 29 23 18 27 35 32 29 25
24 22 36 33 24 34 35 36 28 36 30 37 33 41 39 38 38 39 53 55 42 55 38 37 48 46 34 39 40 30 31 34 29 26 29 31 31 46 41 37 37 49 56 39 53 48 51 42 53 38 43 31 26 24 24 37 31 32 37 25 38 30 26 28
34 18 28 26 28 24 28 21 33 31 26 28 44 32 44 37 47 49 41 60 59 47 48 42 50 38 43 33 31 43 29 35 36 21 39 43 43 41 39 44 48 41 51 49 43 60 50 50 43 42 47 36 34 43 21 38 32 37 19 26 26 19 25 29
24 30 33 24 32 37 25 36 28 28 38 30 46 49 43 58 48 58 48 52 52 64 59 43 58 42 44 49 49 46 44 26 25 36 28 44 43 46 50 58 56 46 53 46 55 59 56 47 47 46 46 40 49 39 35 34 22 38 35 24 38 18 29 24
25 34 25 18 33 33 19 19 36 39 28 37 42 50 57 48 57 47 48 52 49 66 68 63 47 50 60 49 45 40 41 31 34 29 46 46 44 53 55 62 56 63 61 65 63 56 53 45 62 45 58 37 40 46 25 28 18 34 32 31 36 24 19 22
18 21 24 33 27 36 37 23 24 27 44 34 37 55 43 52 56 51 71 54 63 61 55 66 64 48 52 42 50 45 31 29 46 32 30 35 47 60 52 49 68 58 53 63 68 56 59 65 56 55 58 44 39 50 31 25 34 29 32 29 37 32 37 33
21 32 20 31 18 25 24 23 34 34 41 49 39 59 52 59 52 63 54 75 59 64 57 54 67 52 47 46 41 49 48 45 50 40 52 41 48 53 64 57 70 65 58 70 58 75 69 65 59 66 45 48 48 32 34 41 39 20 21 35 30 28 19 25
22 37 24 35 29 20 37 35 26 45 44 38 53 51 65 55 52 61 73 64 71 63 60 77 67 64 56 62 60 54 49 46 36 51 38 51 45 50 60 59 57 69 68 73 73 72 76 58 63 61 61 59 55 50 37 28 37 27 35 29 31 34 35 30
23 34 26 35 38 21 31 27 33 33 39 50 49 56 49 54 61 64 72 64 71 73 65 70 63 53 67 46 54 56 54 37 48 50 40 55 55 51 51 64 60 79 66 77 70 83 76 68 56 60 56 56 48 37 33 38 25 27 24 20 19 36 30 36
30 37 38 37 21 20 23 40 31 40 50 39 42 43 62 58 75 77 62 72 72 88 69 76 69 73 62 47 44 48 56 39 52 42 47 51 52 57 56 62 66 67 85 84 69 72 70 72 71 68 62 54 51 44 49 39 35 35 18 29 28 23 29 30
38 25 30 36 38 37 29 20 39 46 52 55 48 44 60 53 63 62 68 81 81 90 80 74 69 65 63 60 57 50 53 46 49 42 44 43 59 65 61 74 66 70 67 72 85 75 74 78 70 70 57 53 40 44 49 45 38 32 38 24 22 31 30 33
19 36 28 30 27 33 30 24 29 41 41 39 55 61 59 70 75 68 68 80 87 84 73 63 65 73 57 62 53 43 38 46 47 42 44 55 63 56 60 72 63 67 71 77 80 77 82 67 67 53 49 55 47 51 46 29 30 22 25 24 34 37 20 28
33 28 20 27 36 31 23 20 35 32 41 36 52 51 48 51 55 59 65 73 73 71 79 64 60 56 64 50 43 44 54 37 44 43 42 44 52 47 68 67 69 67 64 67 84 65 79 69 57 70 48 59 40 51 41 35 31 27 19 20 19 37 22 32
27 19 27 35 23 18 23 29 41 33 39 42 51 56 63 51 69 66 72 74 79 70 71 72 61 65 59 57 41 50 47 45 36 46 51 43 46 47 64 62 64 66 64 70 75 79 66 61 68 51 58 45 48 38 36 46 40 24 18 30 34 21 29 37
29 33 21 25 35 28 24 21 26 35 37 44 51 44 53 57 57 61 64 61 63 58 64 58 53 62 49 43 50 51 40 36 32 52 48 54 44 53 52 51 61 60 62 61 67 63 64 61 62 49 63 53 48 35 34 36 34 29 32 34 23 22 23 24
25 21 24 30 29 23 24 20 36 42 33 41 47 44 60 64 62 49 58 66 64 60 72 59 62 47 60 55 41 53 32 36 45 30 49 51 39 47 59 48 52 62 56 54 57 56 65 61 66 53 59 44 38 40 32 33 29 37 36 21 28 30 28 32
30 31 24 23 21 30 34 19 20 36 40 43 51 44 44 46 47 49 57 55 55 64 50 60 49 53 61 41 50 37 44 40 35 33 38 47 50 57 44 61 54 59 56 57 54 61 64 46 50 57 55 45 45 41 29 25 22 29 21 28 30 23 32 24
25 27 27 24 27 41 36 38 33 43 36 32 48 39 46 57 55 50 52 58 64 52 58 60 56 63 47 47 44 43 33 37 40 40 51 42 38 59 60 56 52 65 58 58 52 70 66 59 64 59 43 42 51 51 35 37 28 29 30 29 43 26 26 25
41 34 40 28 40 41 42 43 28 43 47 35 53 38 57 62 65 59 56 66 52 52 67 59 67 56 53 44 45 55 47 32 43 40 41 52 59 49 53 63 65 62 68 58 71 72 68 64 64 52 49 56 40 39 52 45 35 36 31 50 34 47 38 36
36 36 41 37 42 44 35 29 44 37 32 47 50 41 60 60 52 55 58 52 68 65 64 60 55 58 49 60 53 57 43 42 38 46 56 57 56 59 51 49 63 58 55 62 53 55 66 71 69 57 61 48 41 43 56 37 52 53 43 42 52 38 54 53
37 43 34 25 38 27 30 37 32 29 37 31 45 35 53 37 38 41 40 55 55 49 61 56 47 45 45 55 49 34 46 45 39 27 42 43 43 54 38 57 56 56 56 44 47 61 44 54 57 50 39 45 34 30 41 50 31 44 43 45 33 32 30 31
28 22 23 22 32 21 30 36 33 30 37 30 23 29 40 27 49 34 41 42 35 49 50 38 38 32 37 29 29 40 26 28 26 41 34 34 35 35 29 46 52 48 39 37 42 52 48 49 49 31 36 36 35 34 24 42 27 36 38 38 33 42 26 35
36 22 36 27 19 35 29 24 31 38 33 30 19 29 32 36 28 32 38 45 43 31 36 33 42 35 36 31 26 37 36 33 32 35 22 37 26 27 40 38 41 33 45 38 28 40 38 35 35 27 35 28 24 38 19 35 35 20 33 22 28 22 36 25
25 33 19 35 34 36 25 18 22 27 29 21 25 19 24 35 31 22 35 31 39 25 36 33 20 21 24 30 26 28 22 24 38 31 18 25 23 20 22 26 24 21 26 36 39 29 31 34 39 35 29 18 21 26 30 32 24 33 37 37 28 26 33 28
35 34 24 36 25 29 31 18 23 36 19 20 26 33 26 18 27 30 26 34 21 33 21 38 28 37 22 26 23 37 36 20 26 37 36 38 20 33 32 29 28 22 25 36 34 27 22 31 37 30 24 25 28 30 27 23 21 30 33 31 21 34 30 27
23 27 32 35 21 36 21 26 20 23 38 18 26 22 33 36 38 29 18 30 21 37 34 32 33 33 23 27 18 27 35 34 21 37 24 33 26 24 23 25 29 38 31 37 27 24 26 37 26 37 37 18 37 23 24 30 20 35 22 34 19 20 27 36
20 29 21 36 20 18 18 20 18 21 26 21 20 26 26 29 28 34 27 33 36 30 27 23 29 19 19 30 30 30 24 20 32 36 20 23 27 25 34 35 29 37 31 33 32 19 18 18 18 28 23 19 23 19 34 21 38 19 26 21 21 23 32 30
30 27 30 27 19 38 20 23 37 30 19 22 38 27 19 19 32 25 29 36 27 32 33 24 23 27 23 30 23 25 35 29 22 18 29 32 35 34 34 33 27 22 18 34 24 37 19 35 26 22 28 33 32 23 21 37 24 34 35 29 34 32 36 29
23 24 30 19 35 23 27 31 29 30 19 28 23 32 35 37 23 31 25 36 21 26 30 34 26 35 18 38 30 18 24 37 19 28 34 30 32 31 38 18 32 18 28 19 18 29 30 29 27 27 30 38 30 25 22 35 23 32 37 20 21 35 25 38
35 34 24 32 18 37 31 28 38 21 20 25 32 22 21 29 21 27 23 23 21 24 27 37 19 19 23 23 20 38 34 22 21 38 35 26 38 32 25 35 33 26 34 34 24 18 30 36 31 25 24 22 30 27 27 30 18 29 24 34 25 30 23 26
35 30 30 38 38 34 37 24 21 24 19 22 31 31 30 22 36 26 29 25 30 34 19 38 23 37 28 31 28 35 38 26 20 35 32 28 22 27 23 29 28 22 33 24 19 36 30 36 33 19 32 24 38 33 33 30 37 34 34 28 25 18 28 37
24 28 26 35 35 32 23 19 27 26 26 23 22 19 32 18 23 30 38 36 24 31 33 29 38 22 22 23 36 19 19 19 22 35 20 21 23 29 18 25 34 28 35 31 31 36 25 23 29 23 35 38 22 28 37 25 38 32 38 27 22 21 31 32
18 28 23 38 32 23 37 30 30 19 35 30 22 22 26 24 32 23 18 22 34 19 23 21 28 20 30 28 22 20 33 37 32 26 32 29 29 35 34 34 34 37 26 38 25 33 25 35 23 32 20 23 37 34 23 34 20 21 19 33 36 33 23 19
36 28 30 26 36 26 21 26 29 24 36 20 32 37 27 35 28 33 20 35 27 32 38 22 35 24 29 35 24 18 25 19 21 36 20 30 32 29 35 35 29 18 24 28 23 24 33 20 24 19 31 29 32 35 32 29 22 19 34 34 19 32 29 19
22 38 24 31 26 20 30 29 30 20 22 33 34 19 25 34 32 25 30 22 33 32 38 19 25 25 24 38 37 36 38 30 22 25 25 22 26 30 25 26 28 30 35 18 27 33 23 34 25 37 38 38 21 31 19 26 29 36 20 38 24 28 20 37
37 32 31 31 30 36 32 38 36 35 26 35 33 19 37 29 30 28 22 24 22 27 33 25 37 20 35 38 32 37 30 27 37 35 19 35 37 30 27 20 28 18 22 35 21 20 36 32 29 31 23 34 29 20 25 31 33 20 18 37 38 28 21 38
37 28 35 30 34 34 27 24 26 24 32 23 31 19 36 25 30 30 31 19 37 19 38 32 20 25 20 22 37 29 31 28 34 38 23 33 23 20 31 23 24 23 21 31 27 34 25 35 37 28 29 34 37 22 20 36 20 27 32 33 24 37 27 29
32 33 21 32 35 35 26 18 35 25 23 20 18 20 29 20 23 35 25 37 25 22 19 23 26 36 24 31 20 21 24 22 33 21 21 22 28 35 20 38 19 24 21 20 18 21 25 37 34 25 25 18 26 23 26 27 31 30 26 35 28 28 23 20
37 37 37 27 24 37 27 21 19 28 31 27 22 19 27 22 36 33 18 27 28 33 37 27 37 33 33 23 21 36 29 20 26 21 35 36 25 25 25 20 32 20 33 25 25 33 34 23 18 33 26 30 37 27 22 34 33 30 18 29 31 19 37 22
30 25 36 25 32 25 33 33 33 21 33 22 21 21 19 38 20 27 23 22 37 22 31 29 37 34 18 24 35 29 31 23 37 29 23 28 19 31 35 25 28 33 33 27 31 31 35 24 31 19 24 22 20 19 21 37 31 24 30 36 24 27 18 34
18 26 18 19 20 28 36 30 36 36 35 37 30 38 24 34 35 32 28 36 33 23 21 20 24 36 28 27 25 37 34 19 30 25 37 37 23 25 31 20 28 30 30 37 19 34 21 21 18 19 33 28 35 24 28 26 22 34 26 21 20 30 33 38
20 28 32 38 32 18 21 19 28 30 38 28 19 38 33 34 25 26 27 36 37 36 30 30 26 24 20 28 28 20 33 21 28 30 29 27 23 26 26 36 21 35 21 31 26 37 38 38 30 25 26 33 24 30 27 22 30 33 30 22 25 25 37 24
