P2
64 64
255
23 19 26 20 20 25 23 25 17 22 20 17 20 14 26 14 23 16 26 18 16 21 14 26 26 21 23 14 25 16 15 14 16 21 14 25 23 19 24 23 19 23 15 14 20 22 26 24 18 14 24 17 23 17 17 21 22 23 17 22 22 26 26 16
21 15 18 23 24 14 21 18 23 25 19 25 17 18 26 26 20 26 15 16 24 19 22 20 15 21 20 15 22 24 14 25 15 18 19 25 17 14 16 25 15 15 23 22 21 14 22 19 24 22 17 14 14 22 21 24 22 25 15 17 16 20 19 14
22 24 22 16 25 22 20 26 23 14 19 18 19 25 25 18 22 17 25 18 24 20 19 21 22 15 16 25 19 15 18 15 26 16 23 16 14 14 25 25 17 24 18 24 19 25 21 20 23 15 21 17 15 16 19 21 17 26 25 21 21 14 25 21
16 25 19 19 18 16 20 15 26 18 25 20 20 15 22 20 23 21 26 19 21 22 25 21 18 17 19 25 17 26 22 17 24 23 21 25 16 24 21 23 20 14 14 25 20 22 25 21 18 17 26 21 20 18 23 26 18 26 24 15 26 24 20 15
26 19 23 14 15 23 17 25 14 16 14 26 25 26 26 16 24 15 14 24 22 23 24 25 19 14 19 19 23 22 18 26 24 17 24 24 25 14 21 15 22 22 15 25 15 18 20 17 16 24 26 21 14 19 26 20 21 14 24 24 20 24 21 20
19 24 21 15 24 22 24 17 15 18 25 25 19 26 20 26 19 20 20 24 26 21 26 16 26 24 20 15 17 19 23 24 14 21 21 25 18 15 14 26 25 15 26 23 15 21 14 18 20 26 14 17 24 15 15 23 19 15 16 18 25 15 21 21
18 19 23 19 15 15 18 15 24 20 14 14 25 22 26 24 19 25 16 17 18 16 17 15 16 20 16 17 26 14 22 20 14 20 24 18 18 25 14 18 18 23 17 25 24 25 24 23 25 22 23 26 14 17 17 23 20 23 19 25 24 24 21 19
26 22 22 21 15 22 25 14 18 18 17 15 24 22 18 26 25 19 14 23 18 17 16 25 25 24 19 17 21 23 14 25 14 24 24 25 22 20 17 25 25 26 14 25 21 18 26 20 26 18 22 16 19 14 17 22 17 14 18 24 25 14 21 17
17 17 21 25 17 18 26 21 15 17 20 24 26 17 26 22 22 21 20 22 26 22 18 21 21 23 19 19 17 21 18 17 26 17 22 17 22 14 14 22 17 20 15 25 20 15 14 16 18 19 19 16 18 20 17 14 24 18 24 18 16 22 17 24
23 24 18 18 23 23 19 26 25 24 25 16 24 15 19 18 22 15 18 15 15 26 17 14 20 23 19 19 19 22 22 16 16 22 24 24 25 15 24 15 24 18 23 21 26 24 14 15 21 23 16 21 14 26 24 16 15 20 23 16 21 20 21 21
21 22 17 14 21 22 22 25 24 17 23 19 25 17 18 20 18 26 23 15 15 24 15 15 18 23 25 17 26 15 21 15 25 25 26 18 19 17 17 17 21 24 22 19 22 20 25 25 18 18 16 26 21 26 23 15 21 19 17 14 21 26 15 24
21 19 15 22 21 21 15 22 24 22 21 15 19 17 14 18 24 21 18 15 20 14 20 15 25 18 21 18 18 20 16 17 15 21 23 14 22 22 18 21 20 23 24 23 22 23 22 16 16 22 15 23 26 25 19 15 14 14 19 22 21 21 17 20
26 16 16 23 19 16 25 15 17 24 21 18 16 17 18 15 21 23 24 22 15 26 17 18 21 26 26 16 16 14 21 14 22 18 14 14 21 25 23 24 23 19 18 18 26 24 15 19 21 22 15 18 19 16 21 26 18 21 26 21 17 22 21 25
14 20 17 25 24 15 17 26 14 19 14 17 22 16 19 17 19 26 16 25 15 23 16 14 16 21 15 18 15 18 14 16 19 15 24 17 14 23 15 22 17 17 18 22 21 26 15 25 23 26 25 15 24 24 16 23 14 18 26 14 15 21 25 21
16 24 14 25 17 15 24 18 17 21 26 17 23 15 17 19 19 22 23 21 26 19 24 15 23 25 21 15 25 15 22 18 14 20 24 17 19 26 22 23 18 23 23 17 17 22 16 25 17 22 25 23 15 15 20 22 18 19 20 14 19 14 22 21
18 21 20 17 18 20 26 14 15 24 18 15 17 22 25 14 26 14 26 25 17 17 24 24 15 22 20 20 26 23 17 19 26 22 26 19 22 26 23 15 22 17 24 21 20 18 17 17 18 24 20 25 16 23 25 15 26 26 16 25 25 24 23 16
14 20 17 21 20 25 17 23 21 18 25 24 18 25 18 18 14 24 26 23 24 21 26 14 14 26 20 26 24 22 15 22 25 23 21 17 15 19 17 21 24 15 14 26 19 23 22 22 21 19 22 21 23 21 19 14 14 24 16 18 20 26 14 14
25 19 20 23 19 20 18 20 20 24 16 15 15 23 14 17 18 25 18 17 15 15 22 25 17 16 16 23 22 16 15 24 26 25 21 20 22 16 22 21 24 16 23 26 16 14 20 15 26 20 21 23 23 18 21 24 21 20 18 15 19 22 22 24
20 25 22 23 24 26 20 16 20 17 16 15 17 18 24 19 18 24 24 24 17 14 18 15 24 17 17 17 26 15 18 21 15 21 19 20 14 26 18 19 26 19 17 14 16 14 23 18 14 23 21 17 14 19 19 15 17 25 19 21 17 21 19 16
23 19 17 19 18 25 20 17 24 24 17 23 21 25 19 16 25 26 24 26 25 27 29 26 20 16 15 14 23 25 19 16 16 17 16 22 23 18 20 15 21 26 19 21 20 26 25 20 24 21 21 16 22 19 16 21 16 20 17 25 15 24 20 17
14 25 23 26 16 14 18 15 26 19 16 18 26 16 25 20 18 25 24 27 23 22 31 31 23 18 25 24 22 20 26 20 23 14 26 25 20 15 22 21 21 23 31 29 26 30 23 31 26 24 21 14 25 18 22 23 22 15 23 23 18 19 24 17
17 19 23 25 26 24 21 22 20 20 15 14 20 17 21 21 27 27 24 34 27 32 30 31 30 29 31 31 28 15 26 18 17 21 25 22 17 25 26 28 33 35 25 30 32 29 33 25 23 30 23 21 14 19 18 17 16 26 20 22 25 16 19 25
25 17 20 19 21 16 22 23 15 17 19 18 23 28 29 33 30 33 34 31 31 36 37 35 36 34 32 36 27 26 23 27 33 33 27 32 26 34 37 35 27 35 36 33 31 30 33 35 26 36 22 25 21 16 16 21 22 20 25 15 14 19 21 20
21 26 15 24 19 18 17 21 22 14 19 25 22 33 27 39 36 41 44 34 41 37 43 33 40 39 43 37 37 37 42 38 31 39 38 42 40 43 34 44 39 38 43 37 39 39 41 43 37 36 26 26 32 20 25 15 15 14 25 26 24 15 18 26
16 21 14 25 14 19 19 14 22 24 29 21 35 32 34 32 35 46 38 44 41 45 44 50 40 44 50 45 44 48 49 42 47 38 49 50 51 53 50 45 48 49 46 39 45 41 39 45 33 41 33 38 23 30 24 14 21 15 19 16 18 15 16 22
26 21 22 21 21 16 18 23 17 27 31 33 35 31 39 42 43 44 39 44 53 43 48 49 56 61 61 57 61 58 52 48 47 53 55 50 52 58 61 59 52 58 53 42 45 49 39 41 45 36 36 34 36 26 26 19 19 15 25 26 15 23 23 26
24 18 19 22 21 21 21 21 22 19 32 28 36 41 44 45 43 44 52 49 53 50 56 66 67 60 64 65 60 69 57 55 58 61 58 67 64 61 72 66 65 66 63 51 51 49 53 53 47 48 46 33 29 32 22 21 24 18 26 14 19 23 23 24
14 17 17 25 23 18 24 21 23 23 30 28 36 35 42 50 49 53 56 54 52 57 62 68 70 68 75 70 67 68 68 70 73 73 67 78 76 74 78 79 68 66 65 68 55 55 51 57 53 40 43 40 33 29 23 26 26 18 15 20 22 25 18 26
18 15 25 15 17 26 15 17 27 30 31 30 34 42 50 44 54 58 62 57 63 75 79 80 74 76 84 83 85 75 81 81 80 81 83 84 76 77 85 79 82 73 73 69 70 60 55 56 55 42 49 37 44 30 27 31 19 23 26 15 19 14 20 25
24 18 25 24 18 24 16 17 29 22 32 34 43 44 52 52 47 60 58 67 76 80 79 86 91 81 82 90 92 90 86 88 82 92 85 86 93 90 83 91 88 88 80 80 67 60 55 63 51 44 46 48 40 31 34 24 23 27 17 19 25 23 16 15
20 22 14 23 18 22 19 22 28 33 31 35 40 49 52 53 56 56 65 67 78 80 90 84 87 96 93 99 90 100 88 99 94 93 90 100 95 93 97 94 88 92 90 81 76 66 64 63 52 48 52 48 45 39 35 25 23 15 17 19 24 23 26 14
17 16 17 24 20 15 18 26 20 29 31 33 45 41 54 59 61 64 69 82 85 85 89 90 97 92 97 94 98 101 102 102 98 96 97 97 98 94 96 101 101 91 88 89 83 74 71 59 52 52 48 45 43 33 28 28 29 17 16 26 17 20 17 16
21 26 21 15 14 23 21 20 30 28 33 43 44 44 55 53 55 61 73 78 85 93 102 97 106 108 106 103 99 106 105 109 116 108 110 102 110 105 97 99 95 101 91 89 87 77 67 64 53 49 48 42 40 33 37 34 23 27 23 25 14 26 23 22
23 24 21 15 16 20 24 23 24 34 36 37 47 42 50 54 61 57 67 86 85 91 93 97 107 110 107 113 114 105 109 116 121 114 114 104 103 112 103 102 103 94 98 100 83 82 76 56 56 48 49 49 35 40 33 25 26 17 23 16 15 16 14 14
19 17 17 26 21 17 14 26 30 33 35 33 45 44 45 47 50 56 71 75 79 87 99 106 105 103 104 115 111 117 121 125 118 121 115 112 105 115 111 111 103 95 102 87 86 78 70 63 60 58 50 49 41 37 37 35 23 19 19 21 16 17 20 19
26 14 19 23 18 25 21 16 29 23 26 35 37 37 53 48 52 65 63 72 79 92 93 92 106 99 112 114 109 113 111 116 131 117 122 118 111 104 103 108 95 92 93 95 88 73 67 62 52 46 48 38 45 30 26 33 23 26 26 17 18 24 25 26
22 20 19 16 21 14 21 22 19 30 28 39 38 44 42 45 57 58 58 75 84 88 94 92 99 98 108 112 116 118 115 117 123 116 111 117 116 114 107 102 99 100 85 89 76 73 64 62 48 50 40 37 38 33 32 22 25 14 14 25 20 22 14 15
18 16 26 24 21 15 17 19 26 22 30 38 36 36 37 46 47 53 57 65 69 85 80 86 90 102 98 111 106 117 110 117 112 122 106 108 106 108 101 93 101 93 80 76 72 69 63 56 42 45 45 42 34 38 31 25 21 24 26 15 20 18 23 18
15 22 23 18 26 26 21 23 26 29 25 32 30 40 40 42 39 49 60 60 70 79 76 83 87 96 93 99 103 107 104 109 105 106 103 112 103 98 96 97 87 84 77 81 73 57 51 44 41 48 36 41 37 30 28 18 23 14 16 16 21 21 15 21
25 20 16 23 21 15 15 24 14 20 25 32 35 40 41 42 38 45 51 55 66 69 73 84 80 93 94 98 92 94 101 93 101 98 104 104 103 93 87 88 83 87 73 68 66 60 56 41 47 36 42 31 28 25 23 27 15 15 22 15 14 14 23 15
18 26 14 21 21 24 19 23 25 19 27 28 30 31 30 36 43 45 40 57 55 65 71 76 84 80 92 94 90 97 98 93 83 95 96 91 95 92 84 77 75 72 66 65 56 59 51 44 44 35 36 35 35 21 21 14 18 23 16 15 14 25 18 16
22 15 18 25 20 21 25 15 24 23 23 20 30 24 37 28 32 35 35 50 56 52 69 63 74 74 74 80 77 90 81 86 86 86 85 83 86 83 83 79 69 63 65 64 57 49 45 34 29 37 26 35 29 19 27 17 25 15 26 20 15 24 20 22
23 17 24 17 23 18 21 23 24 18 14 18 25 20 30 32 31 39 28 39 43 54 53 67 60 75 65 76 78 72 73 71 80 74 79 69 72 76 66 68 63 59 51 53 47 36 32 28 29 29 31 26 22 17 26 21 18 19 19 17 15 21 17 24
14 16 16 20 23 26 24 21 19 17 18 14 21 29 31 21 23 35 36 40 36 49 50 53 59 62 68 68 65 63 68 71 64 70 74 66 72 66 59 67 60 56 51 46 44 36 25 32 33 20 23 19 24 22 25 23 17 24 15 20 25 18 23 18
16 24 19 20 17 19 26 25 18 24 18 23 23 14 25 22 29 27 28 28 32 33 36 41 52 55 58 57 62 55 62 68 64 61 67 67 53 55 53 56 56 42 45 34 37 23 28 21 25 21 26 14 14 17 15 25 21 24 24 20 21 24 24 17
21 16 15 26 18 20 26 22 26 15 14 16 24 20 20 19 23 21 26 23 27 27 35 41 41 38 48 45 51 57 60 62 57 60 62 57 56 48 41 47 41 32 29 24 25 19 29 20 20 19 14 16 16 18 23 15 16 25 23 23 23 19 14 22
21 19 18 19 18 20 15 25 15 24 15 19 25 26 14 23 21 20 19 22 21 22 28 37 36 38 45 39 52 44 54 54 57 53 49 53 52 50 46 38 37 25 24 24 26 17 25 16 16 21 20 18 19 17 25 17 16 14 14 17 17 21 23 18
18 25 17 25 14 24 23 19 19 26 24 17 17 21 14 20 21 18 15 20 18 21 17 31 30 39 35 40 43 43 42 44 44 40 49 41 36 40 35 32 26 26 16 16 26 26 21 24 16 23 16 14 25 22 26 21 23 19 19 22 22 24 17 20
20 25 15 22 18 19 22 23 15 22 24 20 25 20 25 25 26 25 25 20 17 15 21 24 23 27 32 34 39 35 40 37 36 45 33 34 34 36 33 22 22 25 15 22 20 15 18 14 17 16 22 17 26 22 23 26 14 17 14 23 17 18 24 14
25 23 20 23 22 19 21 20 17 15 24 14 17 15 26 23 25 15 14 24 15 14 22 22 20 20 23 30 32 25 28 37 33 34 29 25 27 29 31 23 21 17 21 14 21 23 19 19 23 25 17 23 15 23 14 19 15 22 23 22 18 24 22 25
17 20 21 25 23 26 18 19 19 26 18 14 19 21 25 14 14 20 21 22 15 17 16 15 26 14 22 23 19 23 28 33 23 22 24 20 21 27 14 18 14 21 18 20 18 25 25 21 23 22 24 18 16 23 21 18 22 22 18 18 17 24 19 16
22 23 24 20 20 25 25 21 16 16 25 17 16 14 23 18 22 23 19 21 22 16 18 19 24 24 23 24 17 18 24 15 15 26 24 17 25 26 21 23 17 25 23 18 25 21 16 20 22 14 16 14 18 22 18 24 22 25 21 17 15 24 24 19
25 15 21 18 21 14 21 14 22 14 18 26 20 24 26 22 19 14 15 26 22 24 19 17 17 25 18 14 24 16 15 16 19 22 14 26 17 25 20 14 14 20 22 23 25 19 24 17 17 20 18 15 19 15 21 22 14 18 24 23 14 14 21 19
24 25 14 22 20 15 14 23 22 23 26 23 17 26 19 22 16 19 24 17 17 24 25 14 20 19 18 16 25 15 18 19 22 15 16 22 15 22 22 15 19 17 25 25 15 16 14 17 15 25 24 26 22 20 20 14 19 18 15 16 16 24 19 24
18 19 17 21 21 26 17 19 19 22 26 19 14 23 23 25 14 24 20 25 16 21 22 17 16 17 21 15 19 20 22 25 26 14 24 16 22 19 15 26 24 25 22 24 22 22 18 21 16 14 26 20 22 19 24 20 14 23 25 25 18 25 25 15
21 26 14 25 18 18 20 16 23 22 25 15 20 15 17 22 19 17 25 16 22 16 26 25 25 19 19 26 14 22 23 23 22 22 23 18 26 26 20 20 19 21 16 19 25 18 18 25 15 24 19 17 14 19 25 26 19 23 19 21 19 20 21 17
17 24 23 18 20 22 19 25 19 18 18 17 16 20 20 23 20 20 25 24 17 17 22 14 19 22 21 26 18 17 21 19 14 18 19 25 25 23 14 16 23 22 16 17 14 20 16 22 15 21 24 22 23 16 23 15 18 15 17 26 24 19 24 15
21 19 25 22 23 26 15 14 25 15 22 17 17 15 23 24 21 15 18 15 15 16 18 15 26 16 18 23 15 15 26 21 20 19 25 19 22 18 22 18 24 16 14 24 16 23 25 14 23 16 18 26 21 14 24 19 20 26 20 16 18 22 23 24
24 20 23 20 17 23 17 20 17 25 23 22 22 17 17 14 26 16 19 23 25 15 26 18 14 16 17 26 23 18 26 26 25 19 21 22 21 20 14 24 19 25 18 15 24 14 15 21 16 23 24 21 21 20 23 20 20 26 23 21 19 20 26 20
16 20 15 15 21 21 18 14 14 23 23 15 17 16 26 22 19 23 14 15 15 19 14 24 22 21 16 19 25 20 16 22 17 17 16 15 15 19 24 24 25 23 15 15 14 18 16 22 22 23 16 21 22 15 14 18 24 26 23 23 15 15 17 17
18 22 20 15 24 23 16 24 16 19 14 20 17 18 25 20 16 17 15 15 19 14 20 23 25 17 21 24 21 15 25 26 16 16 22 22 22 22 20 26 20 20 14 24 25 20 25 25 16 17 21 17 25 22 22 21 20 19 21 18 22 25 16 25
17 20 18 25 20 14 25 14 18 24 16 19 19 21 19 15 21 17 20 16 20 18 15 16 22 18 16 20 25 26 17 17 17 15 25 16 16 21 18 24 14 17 21 20 17 14 20 15 25 14 16 18 15 24 26 24 24 16 17 18 20 22 17 19
17 23 22 24 21 19 17 15 26 18 21 19 25 23 22 22 20 25 19 14 23 15 20 17 23 26 17 18 26 17 20 18 25 21 23 18 21 21 23 17 23 21 18 25 23 24 24 15 14 19 21 19 17 15 26 26 18 24 15 16 21 19 23 15
25 14 21 24 18 18 24 15 22 20 15 17 23 18 16 19 23 22 16 25 25 20 21 22 22 17 18 22 23 15 26 19 23 16 22 16 18 15 14 18 18 23 24 14 15 23 15 16 22 19 21 16 24 19 16 15 20 25 21 14 23 16 18 21
