P2
64 64
255
19 32 25 37 38 32 36 36 22 20 28 38 28 35 34 35 22 26 21 23 25 32 30 29 37 19 31 20 25 38 33 35 34 23 25 20 20 29 31 32 36 32 24 22 30 26 20 36 37 23 23 34 32 30 37 19 23 33 35 37 19 38 27 30
38 36 24 19 35 25 23 21 25 30 29 22 37 33 22 34 25 33 25 38 27 30 23 21 22 27 29 24 35 30 28 31 31 31 23 21 38 37 18 25 35 26 36 29 27 35 28 27 26 35 20 18 23 25 29 18 18 18 30 29 19 31 31 20
20 31 26 33 38 22 22 20 28 32 33 37 36 20 27 30 18 35 25 38 29 24 38 22 23 28 38 28 23 22 20 25 22 23 18 29 27 32 23 18 31 37 29 35 21 18 25 18 29 30 21 35 33 21 24 37 23 36 30 27 27 18 31 37
27 35 25 24 23 28 25 27 26 34 33 23 21 23 21 37 24 22 33 37 22 36 30 35 38 35 24 33 26 29 37 19 24 37 30 29 31 29 34 24 36 32 22 25 37 28 21 19 22 23 38 24 32 29 23 21 29 24 32 30 21 33 37 23
34 37 22 27 30 30 34 18 23 35 20 27 34 37 30 29 33 28 27 25 34 31 36 34 22 18 34 20 25 23 19 29 35 24 22 29 20 34 22 19 21 22 26 32 38 28 24 20 27 37 30 18 27 27 33 23 29 28 21 26 23 19 26 28
20 29 19 29 24 19 27 36 21 21 34 27 36 36 38 19 24 33 26 31 23 27 37 35 25 23 30 32 20 27 27 23 20 36 34 37 31 28 38 35 33 28 28 19 19 20 34 37 24 18 35 23 32 37 33 36 32 24 28 26 28 21 32 31
30 19 22 26 21 33 35 27 20 38 20 28 20 25 25 18 20 22 29 29 34 28 24 27 36 21 36 20 23 20 28 27 31 19 29 29 22 35 38 37 20 23 36 28 29 21 30 22 38 37 32 26 33 33 32 23 32 32 34 22 27 34 20 31
31 32 37 20 22 33 18 32 37 38 27 18 25 18 25 36 20 25 36 26 38 18 24 37 28 38 20 20 33 30 31 33 19 18 26 36 26 32 22 20 30 24 21 33 35 31 28 36 26 34 38 22 22 31 18 30 29 26 26 21 19 26 22 21
29 29 38 35 30 30 28 31 23 33 28 28 22 34 33 38 32 21 26 33 32 36 22 31 26 26 25 34 36 23 20 34 34 21 23 37 25 28 38 20 32 21 23 38 21 24 26 22 26 37 24 21 22 38 33 22 29 23 37 29 32 22 20 28
22 23 38 24 29 28 24 27 34 24 21 30 33 20 38 38 38 18 37 31 26 25 34 27 28 29 18 23 26 23 30 35 26 24 25 19 28 37 38 33 32 35 23 38 29 30 27 19 34 36 35 37 28 23 25 22 26 38 35 20 30 24 24 35
22 29 33 30 37 33 32 24 23 26 20 36 32 20 31 18 27 36 23 20 31 21 29 26 38 37 34 29 21 32 27 35 30 30 26 27 28 25 22 18 34 19 36 30 26 22 34 33 29 18 25 20 22 36 35 29 36 32 28 19 25 38 30 35
18 36 37 33 29 28 22 30 34 25 31 25 21 36 36 27 24 24 27 23 34 35 31 19 38 35 37 38 29 24 31 25 32 33 21 22 33 18 36 27 32 27 31 29 19 38 21 38 27 19 22 38 35 35 26 37 24 29 29 29 19 29 37 29
21 33 35 30 29 22 23 24 18 37 19 37 35 24 26 29 28 25 26 28 30 31 31 19 23 30 22 37 21 27 21 38 25 30 25 19 36 27 24 32 22 34 21 19 35 34 22 34 28 20 37 35 37 30 26 35 37 21 37 21 18 38 22 34
23 19 25 26 34 25 18 22 21 35 29 35 27 27 22 32 27 26 25 22 32 21 33 18 32 32 30 38 28 20 36 21 21 25 30 25 21 23 30 30 24 26 25 24 35 37 25 19 26 29 29 20 29 33 36 24 37 28 22 21 30 18 22 33
22 38 37 28 37 33 34 18 19 19 29 18 33 20 33 33 22 38 26 25 32 30 21 36 24 20 34 34 19 26 23 19 34 34 19 32 26 26 22 18 31 34 18 21 26 27 33 23 35 28 22 21 32 37 19 20 28 27 35 21 27 18 38 28
32 29 20 23 27 22 25 28 31 18 24 19 32 21 18 32 37 35 20 36 24 28 35 22 26 34 31 35 25 38 22 32 32 28 22 35 28 26 35 28 26 37 26 29 20 37 30 26 23 18 30 37 27 26 37 20 34 33 20 28 22 36 27 38
21 24 21 36 19 18 38 28 33 26 20 20 25 34 34 22 23 27 38 29 34 21 28 24 33 33 38 24 36 28 29 32 28 23 35 35 35 32 26 34 33 18 22 27 34 23 37 21 27 38 20 32 33 38 27 38 27 36 31 18 38 18 30 35
21 18 29 31 26 35 35 24 37 30 22 27 30 37 37 33 21 28 33 33 32 22 19 35 36 29 26 30 36 24 35 37 30 22 33 35 29 19 29 26 19 25 24 18 35 35 35 29 33 33 38 22 30 23 22 23 27 34 29 25 26 22 18 36
32 21 30 26 30 26 30 19 36 22 38 38 22 37 29 36 20 19 20 28 28 32 36 32 20 27 37 32 25 31 24 35 33 38 24 27 19 29 20 20 34 18 34 34 24 34 33 37 22 26 29 35 25 30 29 33 31 24 30 21 32 26 19 22
24 22 37 18 30 35 38 24 35 20 37 22 30 29 30 34 30 30 28 28 28 33 40 32 39 36 28 37 24 36 28 34 19 33 19 18 21 26 21 19 40 29 22 42 35 23 28 30 37 20 28 28 35 34 33 26 20 22 34 19 26 19 36 28
21 38 23 18 23 30 33 32 28 33 37 23 32 26 21 27 30 29 29 27 31 39 29 27 37 39 32 29 31 28 38 36 37 32 19 18 19 19 40 33 32 34 30 37 32 26 45 29 28 27 22 37 37 18 30 23 34 21 36 19 24 19 38 31
19 22 34 27 38 33 25 29 26 24 38 18 30 31 43 41 36 44 28 44 37 39 47 41 37 33 33 40 26 22 39 33 29 31 20 22 36 24 43 35 35 29 47 33 49 31 33 42 26 28 30 25 21 32 38 25 18 38 26 37 28 38 29 26
33 27 30 35 18 25 19 30 20 32 36 25 33 27 33 36 40 40 49 50 45 51 37 36 42 32 36 47 49 31 27 46 33 38 39 37 45 47 37 45 45 40 41 45 45 40 49 31 35 47 41 38 38 25 37 32 33 27 20 24 32 24 24 36
35 29 22 37 25 29 25 34 28 22 29 39 38 39 34 41 38 37 52 48 46 46 52 42 52 42 42 46 51 38 51 37 40 53 37 45 51 42 45 49 39 42 50 57 42 56 50 40 51 36 43 47 43 26 27 31 28 24 25 24 20 22 37 38
30 22 37 30 24 28 25 19 29 34 33 25 45 43 39 44 42 53 57 48 50 51 53 60 54 48 55 58 47 56 47 47 46 47 50 58 56 48 47 52 53 48 44 59 42 61 50 49 50 54 38 35 37 40 25 26 32 36 25 21 20 32 23 20
37 38 35 19 27 32 23 33 34 23 30 34 46 41 49 39 41 47 55 51 62 61 50 55 69 70 69 75 60 69 66 52 62 70 63 70 65 67 71 72 64 66 60 60 55 45 61 42 59 52 44 38 31 34 42 22 31 18 28 19 21 24 36 21
32 31 29 19 31 27 31 27 28 42 40 29 44 52 56 42 58 50 55 57 58 72 70 63 78 76 66 77 67 74 66 60 72 73 78 71 82 81 65 74 71 73 61 53 49 55 54 48 45 58 55 45 48 33 38 36 36 23 38 27 22 26 35 34
31 38 20 26 34 28 24 31 28 41 45 38 48 46 47 51 52 50 60 61 55 74 68 77 84 73 72 74 80 86 68 88 77 79 73 74 82 89 78 77 72 85 82 64 55 62 61 49 57 53 51 38 39 43 37 42 23 26 38 23 25 18 25 23
29 21 24 20 31 23 35 32 23 37 37 48 53 59 53 66 53 59 72 65 69 74 80 85 77 98 92 82 79 84 85 90 93 89 91 94 91 82 94 94 83 75 85 83 72 70 61 64 64 52 45 50 41 47 40 29 32 38 20 21 28 36 38 32
27 18 37 32 28 21 24 25 28 26 35 50 47 48 60 50 53 64 61 71 77 81 91 92 93 89 86 90 93 92 96 101 97 94 104 90 94 100 95 90 87 83 94 87 79 64 73 55 69 65 54 56 49 34 36 37 30 19 21 36 37 24 35 23
30 28 21 28 36 25 21 35 23 37 46 46 53 48 48 59 68 67 68 74 92 83 99 90 94 111 102 111 113 95 101 106 97 110 93 94 97 95 98 94 92 92 99 89 83 72 62 69 56 58 54 51 49 49 38 45 40 35 28 30 27 27 22 20
24 23 25 24 29 38 28 23 30 46 35 38 54 45 61 54 62 68 71 81 93 105 110 100 102 108 108 112 107 101 106 108 113 107 104 114 107 118 106 98 108 93 92 94 88 78 69 63 61 67 62 49 45 53 50 33 27 29 29 25 25 24 26 23
38 30 36 27 23 30 29 22 34 43 39 53 49 59 49 71 72 59 69 87 99 97 107 104 118 104 114 104 108 106 109 109 126 124 105 121 122 122 104 109 105 109 102 104 108 92 85 74 66 68 48 59 46 44 37 48 35 31 35 21 24 27 37 36
22 30 21 36 38 22 33 20 30 30 35 46 41 63 54 56 59 72 68 90 89 98 95 99 108 109 124 119 120 124 112 114 124 116 116 125 123 126 106 111 111 105 111 103 90 94 84 69 72 53 54 45 51 37 43 40 35 40 37 20 19 27 28 37
19 27 36 23 32 22 36 30 41 43 46 52 54 44 55 63 61 67 79 92 86 104 115 117 105 109 107 117 109 118 115 125 129 135 127 119 109 111 108 110 115 113 95 96 94 81 68 66 68 63 48 46 52 44 36 41 35 39 36 38 27 28 21 31
25 28 28 24 30 23 37 33 34 38 49 52 54 50 46 55 64 59 77 79 87 89 109 104 100 115 118 112 113 116 134 139 129 121 130 127 113 111 120 116 100 112 108 90 88 87 80 57 51 66 58 51 48 50 44 28 28 34 34 20 29 21 22 25
18 34 33 23 37 33 27 36 36 34 45 48 49 39 54 49 57 73 72 80 94 83 103 109 97 108 107 108 120 123 115 129 144 135 114 114 111 117 106 108 97 98 101 95 79 88 81 64 52 60 62 51 55 32 36 32 31 22 22 18 36 24 18 37
19 37 25 22 22 29 35 28 35 29 45 48 37 54 54 57 61 67 71 73 87 87 86 108 103 104 117 112 122 124 116 117 124 130 114 120 123 112 111 115 107 109 87 99 80 70 64 58 53 61 58 46 47 43 42 32 22 23 34 18 38 18 25 37
37 36 33 21 27 22 26 28 24 25 27 35 35 36 48 61 63 61 70 74 86 75 81 85 99 100 113 116 103 110 125 110 125 118 120 107 106 112 108 104 99 91 97 80 85 61 63 51 43 47 47 37 41 29 29 35 19 18 20 22 37 31 34 29
23 32 33 29 20 26 22 36 36 22 29 34 40 37 49 42 54 55 57 76 64 80 87 99 98 93 105 99 96 105 109 106 104 114 97 99 106 98 108 105 89 90 87 84 79 61 52 42 42 58 36 41 42 43 33 30 37 30 20 22 28 30 36 23
30 22 20 25 19 26 29 25 37 23 32 31 31 45 37 36 38 49 51 64 57 83 79 82 85 100 100 101 100 106 90 108 102 95 100 95 105 104 88 87 97 90 74 69 67 63 48 39 37 48 48 44 38 42 23 19 35 33 34 23 29 31 24 21
28 33 35 27 35 19 33 28 31 22 35 33 33 31 39 47 45 50 54 64 67 71 72 84 91 94 92 82 81 87 91 87 91 82 82 88 81 97 81 86 73 77 80 72 55 56 54 44 39 37 45 38 25 33 24 35 20 33 28 21 18 27 36 24
33 27 20 19 26 30 27 23 24 35 37 36 35 42 43 38 46 35 41 44 58 69 72 61 72 77 78 83 83 90 80 85 89 83 87 86 86 71 82 71 83 69 61 61 50 39 50 35 34 42 29 32 21 35 30 20 31 24 21 34 29 38 30 25
31 27 35 35 21 27 33 33 28 19 32 35 19 26 26 35 29 46 38 34 49 59 64 68 72 78 63 83 65 84 83 70 85 70 87 81 70 82 70 60 56 59 57 61 40 34 38 40 31 35 31 32 38 37 26 24 34 38 30 31 21 32 21 26
27 22 26 35 31 36 26 21 32 35 35 33 19 37 31 24 26 24 26 43 43 49 57 47 59 51 59 57 61 72 80 63 80 79 71 69 68 62 63 61 59 50 50 48 32 26 43 24 27 27 37 23 33 26 19 32 20 23 25 34 29 35 34 33
18 19 23 27 31 25 35 19 38 30 28 38 36 35 33 25 24 34 21 35 38 39 43 37 53 55 59 51 67 70 64 73 68 57 55 64 58 62 54 56 51 55 39 36 29 32 29 32 27 24 36 23 37 29 19 31 36 29 33 30 29 20 27 21
37 22 19 28 32 33 18 20 29 27 28 32 29 32 29 28 31 28 26 28 35 39 40 49 41 37 44 53 60 65 49 54 59 62 60 54 60 42 52 49 34 40 28 24 26 21 35 24 34 21 31 36 23 26 22 20 26 29 33 33 28 19 18 26
30 19 36 25 25 26 22 22 21 31 22 23 25 18 37 38 27 25 27 35 30 18 37 33 39 43 49 50 46 46 56 44 56 50 54 50 49 40 44 43 39 36 35 23 18 29 22 21 35 18 19 23 25 31 31 35 20 18 30 35 29 23 28 36
25 34 19 36 28 19 35 32 20 34 23 26 18 26 27 31 26 32 21 20 33 36 33 26 36 41 43 43 48 52 36 40 45 48 37 46 34 39 43 29 25 36 34 27 27 19 36 38 22 34 22 37 30 26 37 26 24 29 23 38 18 31 30 30
32 33 25 38 29 30 38 20 18 22 28 32 30 37 21 27 25 32 34 27 32 21 30 36 30 37 31 29 32 42 49 33 34 40 37 31 38 40 28 25 33 22 21 26 27 19 32 24 36 29 33 28 33 22 38 32 20 21 25 19 24 35 32 27
18 37 25 22 25 36 29 24 27 18 18 28 21 32 21 27 34 37 28 18 23 24 20 21 36 32 20 38 28 34 35 25 33 30 32 32 21 20 32 24 18 27 21 27 20 34 26 34 36 25 26 31 26 23 24 37 18 33 23 22 25 22 20 19
18 26 36 31 26 32 21 22 32 23 37 19 20 24 34 18 24 20 27 24 37 30 18 32 20 27 20 22 34 25 21 33 34 24 22 19 26 35 19 35 22 20 36 23 33 27 36 21 26 19 26 19 25 29 33 18 25 36 20 24 20 32 20 28
24 36 25 23 21 20 36 22 21 33 26 38 19 32 18 37 25 21 32 32 26 19 26 31 34 20 32 35 21 36 32 27 31 20 20 31 24 22 26 35 23 36 31 27 36 18 28 29 30 26 26 33 25 28 34 25 33 29 24 38 24 35 32 27
19 23 28 19 29 24 27 19 30 29 27 37 33 27 18 30 33 24 20 20 22 36 34 26 32 36 31 36 22 36 24 27 20 25 32 29 33 25 22 20 37 29 27 22 22 23 37 33 21 30 32 28 33 30 21 29 25 23 29 34 23 23 20 31
21 25 33 30 28 34 36 21 24 24 35 18 25 29 29 30 20 20 27 31 25 36 35 21 20 37 34 18 25 34 19 21 18 22 37 28 29 30 29 32 35 38 20 33 33 34 36 35 19 38 20 36 37 36 24 18 36 31 26 18 32 22 36 35
31 25 18 27 24 24 38 23 19 24 33 20 34 27 30 35 30 27 23 26 27 19 18 30 20 29 24 21 23 25 21 32 30 20 35 34 38 29 34 26 19 34 37 34 21 28 27 30 37 20 18 35 37 37 26 21 27 35 30 34 20 36 18 32
35 34 22 28 32 19 22 26 26 23 32 36 33 38 34 34 25 37 22 25 28 27 24 36 29 27 26 20 33 27 21 24 18 32 38 36 33 19 23 20 26 35 22 37 22 22 20 32 24 27 32 32 25 20 30 23 27 31 20 30 32 20 19 34
23 30 33 26 25 32 32 35 34 29 31 32 22 18 34 26 36 32 37 28 28 34 36 31 33 28 36 37 36 23 35 27 35 25 33 24 18 20 31 25 31 36 28 23 26 28 36 22 23 30 23 28 24 18 26 37 24 33 35 22 36 25 20 19
31 36 33 31 31 19 28 37 20 35 26 26 33 29 32 33 38 38 24 28 36 35 38 25 23 33 36 31 24 18 35 30 28 21 36 24 38 20 32 38 36 22 30 22 26 38 30 35 27 24 34 36 20 38 38 23 34 26 22 37 34 28 19 25
31 20 21 21 20 37 28 35 20 29 19 25 28 37 28 26 30 28 23 35 27 35 25 22 23 38 28 37 35 33 20 20 26 23 33 20 26 34 24 20 31 37 36 36 19 32 28 34 24 29 23 22 30 20 33 33 37 38 21 27 33 21 26 36
22 21 19 22 22 22 35 33 27 38 27 31 20 23 33 34 27 20 18 29 29 22 31 33 23 22 31 36 35 32 18 30 24 34 26 25 22 34 33 21 20 38 27 22 29 25 28 38 29 20 20 37 25 35 22 18 20 32 35 33 29 21 20 31
30 19 22 34 27 18 38 22 30 21 30 38 19 32 23 26 38 36 33 27 21 21 20 35 19 37 24 34 29 29 29 23 32 37 34 33 36 28 35 37 30 20 27 29 26 37 35 18 28 22 29 26 30 26 34 29 19 25 23 29 21 33 24 27
36 22 35 22 23 37 31 28 23 33 21 30 33 35 20 31 22 33 23 25 25 27 26 33 25 33 20 35 24 20 29 36 34 26 31 38 32 33 24 31 30 26 29 33 22 20 23 23 33 34 28 38 32 34 20 26 18 29 37 36 24 19 25 19
35 27 31 34 37 30 28 25 32 37 29 37 29 36 22 35 35 28 24 24 20 35 35 28 24 36 27 33 37 31 38 23 26 36 25 26 32 24 23 36 18 24 23 19 29 26 24 36 31 29 25 18 38 27 36 36 36 30 36 20 19 30 24 20
