P2
64 64
255
35 19 34 32 18 22 25 26 38 37 21 36 24 25 28 32 35 34 23 35 35 26 20 38 28 31 35 34 30 34 37 25 19 38 29 33 28 31 28 37 32 29 21 32 20 34 28 31 25 25 30 26 18 21 21 22 18 27 18 36 35 24 26 34
31 23 25 25 19 22 32 31 38 30 34 35 35 38 27 30 34 19 32 24 36 32 29 31 18 28 25 29 31 29 25 27 32 22 25 35 23 26 18 33 22 30 33 19 21 25 35 25 28 25 22 35 36 21 31 38 29 33 35 29 23 32 22 33
31 31 25 20 33 19 21 25 18 19 25 24 37 21 30 27 19 25 20 32 25 24 37 19 18 35 38 19 26 24 38 37 22 30 22 35 30 33 27 33 28 18 30 38 25 18 22 37 21 18 25 37 30 27 19 37 30 19 35 27 29 29 37 29
31 22 36 23 25 37 38 37 22 31 31 20 37 21 30 28 32 33 32 22 29 26 25 36 33 24 22 25 25 33 35 27 23 37 24 19 18 30 32 34 35 34 27 36 36 26 23 38 21 26 19 18 27 23 19 35 30 36 24 35 35 33 30 33
36 38 30 19 31 24 18 37 28 21 35 31 29 31 27 21 34 35 25 22 21 24 31 23 37 21 21 26 35 28 36 38 23 19 29 32 25 30 35 31 22 23 26 31 34 22 23 37 32 19 26 27 25 22 22 34 22 31 29 23 27 23 29 32
36 28 18 38 38 20 26 28 29 18 34 27 21 23 25 21 23 29 21 32 25 26 33 29 30 18 37 28 30 26 24 20 32 18 38 27 36 26 22 20 32 38 36 26 22 31 35 35 23 27 19 30 36 32 20 36 21 27 26 30 37 20 27 26
31 22 25 26 20 23 34 30 26 30 18 23 25 19 18 37 38 35 36 35 21 30 38 24 38 18 19 31 30 27 20 27 18 23 18 29 20 33 32 37 25 27 28 20 24 32 34 21 35 36 26 33 33 33 37 30 31 33 24 24 21 31 23 21
19 25 24 38 30 32 32 32 22 31 22 22 21 21 26 37 38 25 20 33 32 27 36 21 21 38 27 19 35 32 23 20 22 26 33 27 21 34 27 30 24 30 24 24 20 26 23 37 35 28 26 19 34 38 25 35 36 33 38 20 32 21 18 20
27 35 21 22 21 19 31 34 27 18 18 31 18 33 25 36 31 29 19 20 34 23 19 24 38 18 32 28 34 34 27 30 32 30 28 29 20 27 36 24 22 22 30 24 27 23 23 36 30 32 29 28 22 37 36 20 29 21 37 33 30 25 19 29
23 29 36 18 26 20 19 27 25 26 34 27 23 23 31 31 33 25 35 21 29 30 20 38 24 24 35 35 26 22 38 29 26 32 37 26 20 25 32 18 36 29 35 21 29 32 29 32 25 18 28 37 28 23 36 18 20 23 28 36 18 34 25 24
24 30 33 38 37 24 26 31 29 23 27 38 38 20 35 20 34 32 19 38 28 32 35 21 38 37 29 20 21 35 21 18 26 34 31 32 27 21 38 26 31 18 38 28 21 37 28 27 19 23 38 25 27 38 38 35 29 22 24 26 31 23 38 24
23 34 26 23 31 32 24 18 32 22 37 22 37 21 20 19 25 36 23 30 35 23 25 22 31 28 33 26 29 25 24 29 30 31 32 30 37 21 32 37 33 22 35 35 24 34 37 30 24 23 20 24 22 22 32 37 30 31 27 27 22 31 29 24
27 28 35 20 34 35 35 21 34 20 38 28 32 37 27 27 36 34 24 37 33 29 37 31 23 31 18 19 26 30 20 34 22 24 29 21 29 30 24 28 37 25 30 26 25 33 33 30 25 31 25 32 24 38 30 33 27 33 25 38 22 19 28 34
21 29 23 27 31 19 29 22 21 28 29 36 33 35 34 38 34 37 21 35 18 35 23 20 27 38 36 27 29 33 19 24 33 28 22 27 30 25 33 37 37 33 33 32 38 30 23 22 36 35 18 24 33 22 25 37 36 34 28 21 29 31 32 21
18 21 24 32 19 29 28 34 32 19 25 20 22 26 34 23 20 26 26 22 32 35 25 28 24 21 29 32 25 37 26 21 30 20 20 37 25 38 37 36 30 32 38 21 32 30 24 33 34 26 21 27 31 32 35 37 19 34 38 31 37 30 25 31
24 19 33 32 36 22 34 38 36 23 37 25 34 24 30 27 27 33 30 35 32 31 34 23 31 18 26 30 23 32 30 20 29 23 29 27 27 25 31 28 18 38 20 30 22 18 37 28 36 33 28 35 19 19 28 36 30 34 20 31 38 32 21 33
18 20 30 18 21 25 27 32 30 26 38 18 25 34 25 25 25 18 27 37 36 34 36 28 33 25 23 33 25 31 28 33 30 32 18 24 31 33 27 31 27 28 37 29 38 34 37 26 36 37 32 25 24 30 29 34 29 38 21 30 21 21 30 20
24 37 34 27 37 21 20 38 28 21 28 27 22 38 37 30 32 33 36 18 24 31 33 19 33 35 24 22 38 26 22 26 25 38 34 33 38 38 23 31 36 38 29 34 18 26 38 24 35 32 27 19 24 18 38 26 22 35 25 26 32 22 37 32
31 19 26 19 20 24 27 38 18 34 26 20 28 33 20 23 29 26 32 18 26 29 38 36 19 26 28 34 37 37 23 34 31 30 35 31 24 21 29 19 30 26 29 33 38 26 33 38 28 29 32 20 26 21 35 35 28 38 38 31 35 30 27 21
23 29 21 31 25 29 21 33 27 24 34 22 38 26 22 19 27 36 27 23 26 28 28 32 34 38 35 34 35 34 33 31 27 19 25 33 25 21 18 38 35 34 25 25 37 25 35 25 32 20 32 35 32 18 21 25 26 29 33 31 25 30 32 25
22 30 38 23 28 24 35 29 24 22 29 30 28 18 26 39 38 39 32 37 28 27 28 39 40 24 21 36 28 36 35 22 20 37 37 38 35 33 30 41 38 37 30 33 31 34 31 40 41 38 39 28 33 36 21 32 31 37 35 31 35 35 25 21
35 24 29 37 35 28 24 31 24 18 22 25 27 29 39 42 36 36 30 31 43 41 31 35 45 38 40 25 40 34 30 40 27 21 25 39 39 26 42 33 34 31 35 45 33 49 34 35 45 38 26 22 36 26 38 27 26 19 36 36 34 25 27 22
23 27 33 28 19 24 29 27 23 22 22 21 22 41 35 29 45 34 45 45 48 51 34 46 49 35 44 42 45 44 39 46 30 30 41 29 43 35 34 45 43 41 33 50 39 46 50 33 37 39 33 40 41 25 20 28 35 38 29 18 29 32 20 37
28 27 26 19 20 21 31 34 25 36 28 24 31 27 43 39 49 46 53 38 42 38 44 46 40 38 41 55 52 46 49 49 51 48 55 57 53 47 44 50 37 40 52 44 51 41 40 45 34 33 39 47 34 29 26 20 28 35 24 20 38 26 38 26
19 23 34 38 23 28 29 36 24 32 26 27 28 39 43 37 50 52 55 60 57 54 45 63 57 65 61 53 53 60 49 61 44 53 44 60 63 55 59 48 56 54 42 56 49 51 48 41 42 55 33 46 43 38 31 28 23 32 36 38 30 37 21 27
36 37 33 25 38 19 34 36 32 24 24 42 48 34 44 57 44 44 55 46 63 57 48 55 73 68 57 66 68 73 52 59 50 55 64 59 58 68 75 57 70 58 54 52 50 58 58 56 45 43 43 33 42 37 36 21 35 26 24 22 18 25 27 20
19 23 34 23 23 36 36 35 37 23 33 39 50 38 46 50 59 46 66 56 54 71 69 69 70 73 70 79 81 64 66 61 75 68 81 63 67 83 69 70 78 65 56 53 65 49 60 65 49 49 43 36 41 38 33 38 27 25 32 20 25 33 36 24
28 25 32 31 32 19 23 38 20 44 38 49 47 37 44 46 65 62 65 53 75 63 80 77 78 81 85 72 75 91 76 79 80 88 74 89 85 83 86 79 83 69 73 65 63 57 71 57 46 44 61 53 49 34 44 25 20 28 23 32 34 20 33 23
18 25 18 38 34 22 30 32 32 44 38 47 46 55 57 52 53 57 59 68 65 83 82 77 82 83 97 81 91 97 78 78 79 89 87 99 85 92 94 82 83 93 77 80 82 74 66 64 52 61 61 41 44 35 43 29 34 29 26 29 30 21 26 18
18 23 20 27 21 28 36 36 37 43 38 43 52 41 54 58 54 72 64 77 78 85 97 92 99 97 87 105 90 89 93 98 88 89 95 102 99 96 86 104 87 86 96 95 89 81 59 70 63 60 49 51 53 34 31 30 36 34 35 37 37 27 35 22
26 27 20 36 26 33 19 22 23 33 35 50 44 62 52 52 57 64 67 89 89 91 92 90 98 103 96 107 112 106 107 108 106 100 105 101 100 97 99 101 92 105 98 94 91 82 67 58 55 50 55 45 49 39 51 42 33 27 24 19 19 19 37 24
32 31 35 18 32 18 35 22 25 33 49 47 54 63 61 52 59 61 69 94 93 93 107 98 113 111 108 105 117 111 106 110 103 108 110 105 99 112 115 108 107 102 106 105 99 79 82 63 62 65 52 54 42 35 46 41 35 40 32 26 26 35 25 28
30 34 20 20 21 21 36 30 34 40 32 45 40 61 55 62 68 72 79 89 97 107 105 104 101 111 105 117 117 104 121 122 123 110 115 117 120 108 102 107 114 98 114 106 91 85 85 61 70 69 60 59 53 50 36 40 32 29 38 19 24 23 23 31
24 37 29 32 31 35 23 30 35 39 47 51 52 61 65 68 72 73 68 79 91 101 101 98 112 102 123 107 125 119 128 128 131 116 127 122 109 115 117 105 104 106 114 97 90 89 85 66 59 67 58 58 49 40 45 43 42 34 24 31 27 22 31 29
37 21 25 25 34 22 18 39 24 35 51 51 39 57 54 52 73 64 85 94 98 101 98 107 108 115 120 117 114 120 123 128 138 126 119 127 121 120 111 110 111 98 104 94 95 92 72 61 55 63 56 43 49 35 46 46 42 36 28 27 18 34 22 32
28 29 27 21 37 30 18 36 30 45 49 54 54 51 56 54 53 70 71 77 86 107 108 104 114 109 113 115 113 122 117 127 127 132 116 126 123 115 110 119 112 111 111 92 97 73 74 63 68 53 46 45 56 54 33 42 30 28 24 18 31 25 31 28
23 25 23 23 19 36 35 18 26 39 46 35 52 53 50 47 61 73 80 82 78 89 106 105 99 103 121 124 123 130 119 136 145 120 132 130 122 124 105 118 114 108 96 91 83 83 80 54 60 48 43 49 43 47 48 34 30 27 34 25 34 23 21 22
22 18 28 31 22 28 23 35 20 26 41 36 47 49 53 58 55 68 67 67 80 95 87 104 110 101 112 111 114 115 129 127 117 133 128 111 112 113 118 106 106 96 103 90 76 70 64 57 50 58 59 49 54 34 32 25 25 27 18 26 21 29 31 34
31 19 32 23 38 34 24 23 29 38 41 49 50 50 56 50 53 46 60 66 70 83 93 94 91 106 115 105 113 118 113 122 114 107 112 104 110 106 108 111 101 84 91 90 87 62 74 57 57 42 42 54 32 48 37 31 19 32 25 26 36 28 30 38
30 23 29 22 25 34 33 28 34 30 32 43 40 38 50 39 41 47 52 66 76 70 86 92 88 101 107 109 95 109 102 99 107 97 106 107 99 104 108 104 102 99 78 75 78 61 69 60 42 57 46 35 34 28 41 36 27 20 28 32 22 33 35 34
25 38 36 29 29 25 21 36 35 25 29 34 37 40 46 47 39 42 63 52 72 64 72 90 85 93 86 97 92 101 106 95 101 102 90 104 97 88 96 96 77 78 75 65 59 60 46 53 41 46 36 36 46 27 23 23 31 24 37 28 25 30 22 23
19 29 36 33 23 21 28 32 38 29 19 28 44 37 48 49 50 37 53 58 66 76 81 79 79 77 77 97 94 94 94 84 90 94 97 95 94 96 85 78 81 80 71 63 56 63 57 48 46 39 45 39 38 40 22 28 18 29 32 27 37 18 34 29
20 27 21 36 36 18 19 29 34 18 22 39 29 24 42 45 32 33 49 59 53 63 73 79 68 77 76 74 86 93 88 76 90 83 93 91 93 85 77 80 69 73 55 52 59 51 51 48 44 47 36 39 41 22 37 25 23 19 25 29 23 36 33 33
36 20 32 29 18 28 25 26 26 36 30 34 32 22 23 32 42 39 46 37 42 61 65 66 55 62 81 81 69 80 79 80 80 75 85 80 79 68 64 76 71 62 59 56 55 40 38 33 28 41 33 22 38 18 35 19 32 38 30 31 35 31 24 28
31 21 34 22 31 25 28 36 35 23 27 33 20 28 38 22 27 24 33 27 47 48 60 45 52 51 55 60 73 72 69 69 63 63 81 61 58 57 56 62 68 57 54 49 34 26 45 24 38 28 21 38 29 29 27 27 18 35 34 34 21 32 35 32
35 37 37 22 30 28 23 25 20 25 18 38 26 23 33 30 27 25 28 33 30 31 34 39 42 47 57 66 67 62 56 72 65 61 55 53 62 60 59 62 39 55 34 30 34 22 37 26 35 19 38 19 29 18 26 28 19 33 27 26 22 23 22 35
26 20 38 30 20 31 23 38 32 19 18 28 35 38 26 31 28 22 21 25 37 23 24 31 37 56 51 61 52 62 50 61 51 61 51 48 49 57 56 55 52 46 36 22 33 21 24 23 34 19 34 26 19 26 28 38 26 33 21 24 34 35 19 22
29 24 32 31 29 37 36 29 23 37 29 32 34 22 36 18 27 29 33 28 35 35 25 24 28 33 50 38 39 42 45 61 54 52 48 49 41 39 45 45 43 29 37 20 35 23 31 33 21 23 36 22 38 30 27 18 26 35 37 32 28 31 27 29
21 21 37 38 29 19 34 23 21 23 18 32 27 29 31 28 37 32 19 33 22 33 35 23 30 28 29 31 34 36 52 56 37 44 41 35 35 50 47 37 33 19 19 28 22 33 28 29 28 36 35 37 23 35 38 19 22 26 29 25 25 28 34 23
20 28 36 25 19 37 35 24 34 20 37 38 37 34 20 33 22 24 34 33 19 20 28 29 28 38 30 25 44 35 50 38 49 44 33 36 40 27 39 21 32 36 31 35 33 20 30 26 34 19 20 18 37 30 28 18 34 37 37 34 38 38 23 20
29 36 21 23 26 25 33 38 20 23 24 30 37 29 34 34 26 27 25 22 25 23 21 27 38 34 34 28 23 35 43 30 35 41 29 42 28 23 38 31 29 29 32 25 28 26 24 30 38 22 22 38 27 28 20 28 33 23 24 37 20 21 23 19
27 29 19 34 22 36 38 36 37 34 27 18 28 38 33 25 36 20 33 33 35 24 23 29 19 20 23 30 19 27 19 19 39 39 19 28 22 37 24 28 18 27 22 18 20 38 32 23 26 31 18 21 37 29 36 36 30 30 21 23 33 37 37 37
31 26 25 32 38 21 36 35 35 33 34 35 32 20 29 21 25 22 24 35 37 35 25 26 18 18 35 28 34 36 20 26 21 34 22 27 26 31 25 30 28 25 38 32 31 27 33 19 20 31 28 28 38 25 20 19 30 20 34 27 20 28 35 20
29 18 37 26 35 27 32 20 29 37 20 36 26 33 20 26 27 27 37 38 24 32 34 33 34 30 30 23 31 34 25 36 31 37 19 35 20 37 33 21 33 30 26 25 32 19 27 35 28 25 26 24 20 38 23 32 23 19 24 31 36 23 35 24
27 21 35 36 36 27 20 19 38 30 32 23 33 27 34 19 26 30 37 31 29 28 29 19 32 18 27 21 30 34 33 32 38 36 31 21 31 24 23 35 20 36 32 29 31 29 26 24 24 31 24 36 22 26 37 26 19 34 28 24 33 28 24 27
18 26 35 27 36 34 19 26 32 36 21 30 20 20 32 36 29 28 25 33 31 28 36 32 36 37 33 23 25 38 19 22 21 33 28 29 20 32 33 31 34 23 32 25 31 19 37 18 20 25 35 32 18 19 37 27 22 31 35 29 29 21 21 32
38 38 22 25 29 32 18 37 29 28 33 23 33 19 24 36 24 38 35 29 26 22 24 29 37 27 23 38 21 37 20 35 19 30 27 23 34 38 21 28 28 18 38 26 26 18 30 23 32 29 28 30 22 34 20 33 33 18 37 25 31 37 36 25
19 22 26 25 35 28 38 34 29 33 31 38 36 30 29 21 30 21 21 37 28 26 31 36 25 18 29 21 24 28 29 26 25 36 24 29 35 38 33 21 21 20 24 21 34 33 21 25 22 25 34 27 20 31 37 22 30 27 19 24 35 31 28 21
31 35 35 36 20 21 38 35 26 21 36 33 34 25 28 27 19 29 24 25 35 36 35 26 33 36 19 28 27 19 32 19 23 21 38 35 34 23 30 21 30 22 24 34 32 27 19 31 18 29 18 24 32 22 18 34 23 27 32 34 22 34 25 22
24 20 27 22 35 29 28 25 33 25 29 37 35 24 35 25 38 36 29 30 27 22 33 22 18 36 23 23 23 37 24 37 34 28 29 33 34 34 29 29 36 32 18 25 37 34 31 21 19 31 30 33 33 33 22 35 29 24 23 37 25 38 33 33
19 35 22 27 20 38 18 30 30 36 34 24 28 18 19 25 28 29 26 27 32 34 22 22 27 32 32 35 34 34 33 31 29 35 26 29 22 20 33 22 33 30 37 30 36 18 26 36 23 37 19 18 35 18 23 32 18 28 32 38 38 19 30 20
37 27 35 29 36 19 26 19 21 26 29 31 31 31 25 28 28 31 38 21 30 34 30 21 29 19 26 32 26 19 32 29 19 36 32 22 22 35 28 31 32 31 31 18 21 30 35 18 19 38 35 24 22 34 37 35 37 37 33 28 28 31 22 29
25 22 22 28 25 29 29 36 31 23 23 27 18 27 29 36 26 26 25 29 24 35 26 33 23 22 27 28 38 26 24 25 31 31 19 37 25 19 32 20 27 26 36 37 20 32 23 20 35 26 25 27 36 24 24 26 23 22 26 35 30 35 37 34
31 33 30 23 22 38 26 35 27 33 18 29 34 20 38 29 28 30 26 19 37 22 31 24 33 29 31 22 19 38 31 21 36 20 27 21 23 35 27 38 38 19 26 38 36 38 31 24 37 21 23 30 20 30 33 18 18 30 28 28 20 38 25 20
