P2
64 64
255
17 25 23 22 26 22 14 26 17 18 14 21 18 23 15 25 24 24 24 20 22 17 18 19 26 20 20 14 19 17 23 15 26 15 22 24 16 14 17 19 24 20 26 21 23 22 20 26 17 21 24 24 20 26 14 22 21 25 19 14 20 16 21 19
20 17 18 25 26 18 23 17 18 20 22 15 18 16 19 22 23 16 17 16 17 16 16 14 22 17 20 24 24 20 21 16 24 19 24 15 26 14 16 14 17 24 26 21 26 16 19 14 25 16 20 23 16 15 17 23 15 16 24 16 21 20 14 20
19 14 25 26 20 23 22 17 20 20 20 20 14 18 18 23 24 14 17 21 22 20 21 22 26 14 25 21 17 24 22 24 15 20 26 16 16 26 22 24 17 26 26 19 24 25 26 25 26 24 17 23 16 15 16 17 21 16 17 22 15 15 14 25
16 17 21 19 17 19 19 16 24 18 18 26 20 15 20 18 18 25 16 22 18 22 14 21 20 17 26 17 14 15 23 25 23 21 18 18 22 24 22 16 14 19 17 16 19 16 21 23 16 24 15 22 20 20 24 17 15 17 16 25 20 22 14 21
17 25 16 18 22 14 15 23 20 23 23 19 16 19 18 26 21 18 23 24 24 15 17 23 26 23 26 26 16 24 24 16 15 15 25 15 22 26 25 16 20 23 25 26 26 23 26 20 20 22 24 14 18 18 26 16 15 22 14 22 21 19 24 25
21 18 17 18 15 14 25 19 16 23 17 14 16 25 24 17 22 23 18 19 15 19 25 19 23 25 14 19 26 16 17 25 24 17 16 22 16 22 25 20 19 17 17 21 15 20 22 16 17 21 17 21 18 16 14 14 15 24 26 18 20 25 24 17
15 16 26 15 16 14 22 18 26 15 18 23 21 15 20 19 16 15 19 16 16 15 17 24 15 23 21 23 21 14 24 18 15 26 23 19 17 14 24 25 22 15 24 19 26 26 25 21 21 26 14 20 20 17 17 21 21 20 21 16 23 17 20 18
20 15 16 25 24 19 24 23 21 14 25 21 16 16 25 24 26 21 20 16 23 23 20 24 18 18 26 16 18 15 18 25 17 22 23 24 14 20 21 25 14 23 22 21 16 22 19 17 23 24 14 23 25 20 26 24 26 17 20 17 21 18 14 24
23 15 16 26 25 20 19 25 18 20 15 21 20 23 18 25 22 21 15 26 19 26 22 16 22 18 26 14 16 14 22 26 18 22 25 14 16 25 22 15 17 22 20 24 24 20 20 19 16 20 26 26 22 25 26 25 14 22 20 25 19 20 20 22
26 20 26 20 24 14 17 14 26 18 17 25 16 18 26 21 23 19 25 26 24 21 14 21 26 21 17 22 22 21 18 18 23 22 21 24 17 19 26 16 25 22 26 18 14 22 14 26 15 15 19 21 20 15 22 23 20 26 18 19 19 14 24 26
17 15 21 23 21 19 20 26 22 26 16 21 16 21 22 16 24 14 15 24 19 24 14 23 18 17 18 14 22 17 15 15 19 25 15 14 14 25 15 17 22 20 21 21 19 23 18 15 23 18 25 20 23 15 20 23 14 26 19 24 20 16 24 17
21 15 14 26 19 20 19 21 22 15 22 25 19 14 14 22 24 21 21 17 26 24 18 26 25 18 20 23 15 25 19 14 23 25 19 22 15 16 14 24 23 19 21 14 23 24 15 26 16 17 15 22 14 16 19 25 24 16 24 18 25 18 14 17
26 20 16 23 19 21 18 19 21 25 17 21 17 26 14 21 24 17 19 18 17 15 15 14 26 24 20 20 20 15 25 21 21 16 18 20 14 16 22 22 15 17 24 23 24 26 15 19 14 16 14 17 24 16 25 21 26 17 17 21 19 24 25 19
20 21 26 16 21 15 21 17 21 17 17 19 16 18 19 20 15 15 24 19 26 18 25 22 22 22 24 20 21 23 26 25 26 19 22 15 21 16 19 16 19 23 14 14 16 18 24 20 20 22 26 23 24 18 24 20 22 18 16 16 15 26 16 26
14 21 20 25 18 19 19 16 15 26 14 21 22 23 16 18 21 17 20 16 25 24 17 19 21 20 14 20 23 18 18 21 15 20 14 24 24 19 15 18 18 23 19 22 23 21 19 23 15 21 16 15 24 17 18 24 24 21 17 16 20 18 14 23
25 22 17 17 17 15 20 18 21 15 15 19 14 23 16 14 21 17 25 24 22 25 25 26 18 14 18 14 15 19 21 19 14 15 16 15 17 25 20 19 25 14 20 22 18 20 25 15 23 23 18 19 25 14 19 25 18 18 19 25 25 19 23 19
19 15 25 25 16 26 26 19 22 23 22 19 14 16 15 23 16 25 23 17 15 22 14 15 26 25 19 24 18 18 20 20 17 19 20 20 22 25 25 20 24 18 25 17 18 21 19 14 14 24 24 22 24 14 25 26 19 17 24 15 21 26 26 16
17 18 26 18 22 17 26 17 22 24 24 25 22 14 23 16 15 19 14 14 23 24 22 14 15 14 23 25 14 25 21 15 20 17 14 19 23 21 24 23 15 18 14 16 24 22 24 18 15 24 15 18 23 22 21 22 17 25 17 23 22 17 18 17
19 15 17 19 25 14 15 26 16 26 19 21 15 25 19 17 19 16 20 20 23 21 20 26 24 16 20 19 21 19 20 26 15 19 25 15 17 21 23 25 14 26 14 17 19 16 26 19 21 20 21 14 14 22 25 18 18 15 22 15 19 22 16 14
20 20 21 17 19 15 14 16 20 24 14 24 14 23 20 25 25 27 18 24 24 22 20 26 19 18 15 17 20 20 22 18 23 25 22 23 22 20 25 15 18 18 18 25 21 21 27 26 19 16 20 15 20 15 16 19 23 15 19 26 21 15 15 20
14 14 18 25 14 24 16 15 25 18 20 18 18 24 16 17 28 20 27 23 23 34 33 28 30 22 23 15 20 14 20 17 24 16 18 23 21 26 25 18 25 30 33 28 30 31 30 22 19 25 18 26 25 26 22 15 25 14 24 15 14 21 17 20
23 14 24 18 26 25 22 17 23 25 26 16 17 20 24 31 25 33 24 30 35 30 27 33 32 24 29 27 24 21 16 14 22 15 21 26 20 30 27 33 24 24 34 26 26 28 26 29 23 28 31 27 18 24 20 18 21 14 15 21 19 18 22 20
15 19 18 16 23 14 17 18 14 25 26 26 25 24 30 25 30 28 38 33 38 36 31 37 34 34 35 27 28 20 15 16 22 16 22 28 25 29 26 30 34 36 39 38 38 35 39 35 33 28 27 24 21 24 23 19 21 17 15 25 15 16 25 17
21 22 16 20 17 20 24 17 14 21 17 25 26 31 35 37 40 39 39 43 44 33 40 42 37 33 30 33 31 31 26 19 23 17 17 22 34 25 33 38 38 37 35 41 39 43 41 35 31 34 31 33 31 17 21 18 20 24 25 17 17 24 16 15
16 18 15 22 20 17 16 21 19 16 26 31 23 34 40 39 43 45 40 39 44 39 38 37 34 43 37 40 27 26 30 22 25 17 26 25 27 35 37 45 41 37 49 44 48 47 48 43 34 43 33 30 35 30 17 18 24 17 14 25 21 17 26 15
19 20 26 26 23 23 17 19 19 23 23 26 28 30 43 34 39 41 43 44 53 53 45 51 40 48 36 37 32 32 33 21 28 29 32 32 33 40 39 37 46 44 47 46 53 51 46 43 37 39 34 29 37 25 31 26 16 25 23 22 22 16 17 25
24 26 17 24 20 23 26 22 20 21 24 36 39 40 45 43 47 43 44 47 55 54 53 46 53 47 47 36 39 28 32 27 28 29 31 37 42 34 42 40 48 49 56 50 47 47 51 41 42 44 34 31 28 27 26 18 17 20 26 15 22 20 24 14
26 24 19 15 23 21 16 14 18 25 32 30 32 36 41 43 48 48 56 55 51 51 52 58 55 45 41 47 45 33 27 28 27 29 36 34 39 46 39 51 53 54 53 60 59 48 48 56 52 50 47 38 37 39 28 27 17 15 18 19 15 21 26 20
25 20 19 21 23 22 17 25 27 26 35 36 37 47 45 51 52 52 55 61 56 62 58 54 53 50 51 51 38 43 29 34 35 28 34 41 36 45 51 46 53 59 53 60 53 56 57 57 46 43 41 46 38 34 26 31 22 20 19 26 15 23 26 26
16 16 24 19 14 20 16 21 22 33 34 35 33 43 51 48 48 51 55 67 66 68 66 65 50 59 45 52 39 37 33 35 38 40 42 39 39 41 56 50 52 53 62 64 59 63 58 56 47 46 52 49 35 42 26 26 24 20 25 17 17 18 15 24
16 20 24 17 17 20 16 21 20 24 34 31 35 50 44 47 55 56 59 59 68 61 60 60 58 59 58 54 40 44 33 38 40 39 43 43 47 49 52 56 57 61 63 71 69 66 63 53 52 57 47 42 40 39 29 23 21 16 25 23 22 14 18 16
23 20 14 15 24 19 20 17 29 32 28 32 42 44 47 59 56 61 59 67 66 75 71 62 61 58 57 45 43 45 41 39 34 42 44 36 49 49 55 58 60 63 70 70 71 70 64 61 62 57 43 49 40 39 34 31 25 23 17 24 16 16 24 16
14 21 18 14 24 19 17 17 25 33 37 38 45 41 44 54 59 66 68 63 70 66 69 60 55 54 50 45 47 46 45 38 37 34 37 45 45 47 51 55 62 64 75 76 72 69 64 61 59 57 53 47 35 40 34 35 29 26 26 14 15 22 14 22
22 24 26 23 21 22 26 27 24 32 33 32 46 51 47 59 51 65 63 63 64 73 70 58 57 52 54 46 43 42 40 40 35 39 44 37 42 49 57 53 61 59 70 76 76 62 65 56 61 48 45 44 35 32 36 30 27 16 14 24 14 19 22 20
17 16 25 21 21 17 22 16 27 28 39 40 35 44 48 52 52 60 61 61 62 68 69 58 55 60 52 51 46 43 43 43 36 34 42 35 48 51 56 50 65 63 69 69 66 64 61 59 52 48 47 39 40 31 30 30 25 18 15 16 18 18 21 25
24 20 22 23 17 25 25 25 20 31 37 42 39 45 44 50 52 53 62 61 60 63 65 61 56 50 51 48 40 36 31 34 41 38 37 40 47 42 52 58 58 59 64 69 58 62 58 59 49 56 41 41 42 31 32 27 19 25 14 21 17 19 23 25
24 17 26 23 19 17 17 20 19 33 26 33 35 45 45 50 52 49 60 63 55 64 57 62 55 45 50 42 41 41 33 29 34 38 35 37 38 49 51 49 53 61 62 56 56 64 55 58 47 45 42 41 38 40 35 26 27 24 20 20 24 16 16 19
18 16 22 24 19 18 14 25 23 28 26 36 34 39 47 48 54 46 47 58 59 60 50 59 56 53 45 43 42 34 27 25 35 34 35 35 44 40 40 46 54 49 57 57 53 52 55 47 54 47 37 42 32 36 34 21 21 17 24 21 26 21 21 21
17 24 24 22 26 22 18 23 16 22 24 33 30 40 35 37 47 53 52 52 56 48 50 53 50 42 49 41 42 37 30 26 24 26 34 28 37 41 42 48 45 50 47 50 45 47 49 52 40 38 37 41 29 34 21 24 21 21 20 20 26 16 21 18
24 23 29 18 27 20 17 19 26 25 32 38 39 37 39 46 51 45 52 57 50 49 47 46 46 49 43 41 35 35 29 36 26 29 30 40 34 48 41 50 43 44 50 50 47 48 56 49 43 45 39 37 40 32 29 34 22 25 21 20 32 25 22 31
29 23 23 32 24 29 31 24 29 24 24 31 34 36 48 50 50 43 47 45 52 58 56 48 51 52 48 44 43 40 29 27 36 36 31 39 47 48 50 45 54 58 50 52 58 56 49 55 52 55 52 46 35 36 34 36 36 34 29 27 35 29 34 29
26 31 33 25 34 28 24 24 34 36 32 32 35 35 45 48 49 43 49 48 57 54 48 57 51 44 43 46 43 39 40 32 29 39 36 41 42 50 52 46 53 53 59 57 53 61 50 52 54 45 43 52 38 41 34 43 41 43 37 36 34 43 37 38
24 24 26 29 22 31 32 33 23 27 30 31 28 30 36 38 34 35 39 45 42 41 41 43 42 42 33 42 38 26 34 24 27 32 37 32 39 36 46 38 49 45 39 39 46 51 48 38 49 46 40 43 37 30 37 36 36 26 27 38 27 30 34 32
28 19 18 28 20 22 26 28 24 25 27 24 17 24 34 31 38 35 28 41 29 32 37 33 37 26 34 24 29 26 20 22 18 30 24 24 30 28 32 27 32 34 40 36 36 40 38 34 38 33 33 33 19 20 22 28 22 22 28 25 20 29 31 29
20 25 15 15 15 25 20 25 25 26 17 18 23 22 25 17 18 21 23 30 30 28 24 25 26 26 24 15 22 21 22 22 16 14 17 24 17 24 22 28 23 28 23 24 28 31 29 26 28 26 24 21 18 23 22 25 25 17 15 20 16 26 15 16
20 24 23 25 15 20 24 26 16 14 16 19 17 23 16 25 16 24 23 27 26 25 27 28 24 25 21 23 16 19 20 17 26 17 15 15 22 25 24 25 24 29 27 22 23 26 28 19 21 22 18 21 20 17 17 22 23 26 23 22 18 19 16 26
16 17 15 19 14 24 19 25 14 17 24 15 23 21 19 24 26 26 17 26 24 21 17 23 19 21 20 19 21 26 20 23 20 24 15 17 14 19 23 22 22 24 20 22 25 23 15 24 20 20 15 16 23 18 26 17 16 14 16 21 21 24 25 14
16 19 19 24 19 24 18 18 14 16 25 18 21 14 19 19 18 20 18 22 17 20 23 18 26 18 18 17 20 19 20 23 22 22 17 15 24 20 14 22 14 25 15 18 14 24 14 24 21 16 24 20 15 14 20 26 20 15 25 26 26 22 16 19
15 24 14 21 17 17 25 15 25 21 25 25 18 24 14 20 15 16 19 21 21 23 18 26 16 23 14 19 16 22 23 18 21 25 17 16 14 16 24 24 23 14 23 26 26 26 23 15 23 21 23 24 15 20 15 20 16 20 26 17 17 18 14 24
24 18 24 20 18 18 22 24 19 24 23 19 19 22 20 26 26 16 23 18 25 19 23 24 22 24 22 23 17 24 21 14 23 24 18 19 16 18 17 20 20 19 23 20 26 23 25 17 19 14 16 23 25 15 21 22 23 22 17 16 25 26 25 14
19 25 20 16 22 16 26 26 17 20 21 16 18 25 18 18 16 26 25 23 19 26 25 21 20 20 15 26 25 21 21 25 19 26 19 23 16 14 21 25 16 21 20 18 23 24 22 24 19 15 21 22 17 18 21 16 18 14 19 20 14 15 22 17
18 25 24 26 22 24 15 22 15 21 26 19 15 26 17 19 16 16 22 14 25 24 18 15 18 15 15 20 16 23 24 19 21 15 18 26 17 19 14 14 24 18 24 17 14 20 16 14 24 18 22 18 25 16 24 16 25 20 25 26 26 16 25 23
23 24 16 17 25 15 24 15 20 18 21 23 17 19 18 24 18 16 17 18 21 25 21 22 24 17 21 16 14 16 20 24 23 24 25 25 17 20 17 16 15 16 19 20 21 23 20 19 22 15 17 14 15 26 20 26 19 16 26 19 23 21 19 16
21 15 16 22 14 16 14 20 16 25 15 20 19 21 14 14 17 22 22 15 17 14 21 25 18 20 16 24 22 26 18 21 26 21 23 15 18 19 19 19 15 15 19 14 21 17 20 24 14 20 16 23 20 14 21 26 16 23 22 16 25 22 23 19
19 16 17 23 22 23 24 16 19 23 26 17 19 23 25 26 20 22 24 18 16 18 18 25 17 18 20 19 18 15 14 21 23 14 22 21 22 18 15 15 17 14 16 14 21 24 23 15 16 22 17 26 17 17 20 25 21 14 26 16 21 21 25 23
21 23 20 22 15 18 26 17 24 17 16 18 21 20 24 19 19 18 17 16 23 22 16 24 16 18 14 26 26 14 19 16 19 23 24 16 17 19 22 24 21 19 21 22 22 15 21 23 14 24 26 14 21 15 14 20 17 26 19 19 16 25 23 15
26 26 18 17 17 18 15 25 16 25 15 19 20 26 23 24 25 17 24 16 24 22 19 14 14 23 19 14 16 18 16 25 15 16 16 24 18 16 18 26 19 18 25 14 14 21 19 24 19 19 16 25 25 20 20 14 18 24 21 22 22 26 15 16
19 22 20 20 21 21 19 16 24 17 23 16 19 17 18 20 18 23 18 17 25 21 23 14 24 17 16 17 21 20 20 18 21 24 26 24 19 14 19 15 19 23 17 17 26 25 19 22 14 25 21 21 23 15 23 21 20 26 15 21 26 16 22 14
17 20 25 23 19 16 21 22 23 14 21 22 17 19 23 16 25 16 15 21 21 22 16 21 14 16 18 17 15 15 15 21 21 20 14 23 23 22 17 14 19 24 22 19 14 23 24 26 26 14 23 25 14 23 18 15 15 16 16 14 17 14 17 20
23 19 23 22 14 22 16 24 18 24 15 23 22 16 19 24 18 26 20 15 24 14 14 18 19 21 15 25 24 16 17 15 19 15 17 14 17 18 20 18 22 22 18 18 21 24 15 14 23 24 15 16 19 24 15 15 25 17 24 20 25 22 22 22
15 23 22 26 14 26 21 24 16 17 22 22 21 16 14 23 23 18 23 24 19 22 25 17 19 25 24 20 25 18 23 14 22 26 19 25 23 16 25 22 23 26 18 19 20 19 22 22 24 19 22 26 21 19 24 24 16 24 21 20 18 19 26 20
19 17 16 25 20 14 23 18 26 25 20 25 20 20 16 18 22 16 17 23 25 26 14 17 15 14 26 14 21 23 20 26 17 15 23 24 22 25 20 22 18 26 14 21 24 22 21 18 23 16 19 23 22 20 18 24 15 21 19 16 14 16 19 16
26 20 19 22 19 24 14 20 14 20 19 24 24 25 24 18 26 23 18 19 16 20 26 17 14 20 21 14 24 15 18 22 15 20 14 14 14 26 19 20 20 18 16 25 14 17 20 25 19 20 16 18 17 21 26 23 22 16 15 24 19 16 22 14
15 17 21 22 19 14 22 25 16 24 19 16 25 25 16 14 26 25 24 24 14 17 20 23 17 24 22 26 16 18 23 14 20 18 20 15 24 25 20 20 24 19 25 26 21 26 23 15 18 24 16 21 22 20 23 14 22 19 25 19 22 20 17 26
