P2
64 64
255
19 28 28 34 20 30 27 36 34 28 24 24 23 30 38 35 38 24 24 36 24 23 29 22 20 31 20 33 21 18 25 27 19 21 30 20 38 31 27 25 31 19 18 35 35 29 29 25 32 23 33 32 27 26 29 26 22 27 32 38 26 34 31 21
18 31 38 27 34 27 23 31 37 35 20 35 21 21 31 33 26 28 38 19 26 35 20 33 26 26 24 26 28 25 37 23 36 37 26 30 29 23 33 31 37 25 31 24 29 25 30 21 23 38 18 33 29 36 32 20 28 35 36 32 37 31 31 31
18 28 32 38 24 32 28 29 28 21 28 38 28 36 27 19 35 33 28 28 30 18 37 32 21 34 33 21 19 33 32 32 29 31 27 33 21 28 24 20 37 32 23 19 33 29 30 18 28 20 27 31 22 33 33 22 22 28 37 23 31 27 21 23
29 21 35 18 21 26 23 24 37 27 34 19 38 21 18 28 29 32 31 26 25 33 38 19 29 37 27 21 22 35 20 27 35 27 22 32 27 26 20 32 23 37 38 18 18 28 19 32 38 29 26 31 30 24 18 35 36 18 32 33 19 31 30 29
25 19 37 23 27 38 24 33 23 35 27 31 34 19 19 20 34 33 25 20 26 27 38 23 24 24 25 32 28 31 37 36 27 26 18 35 37 29 38 28 30 31 31 32 33 33 37 32 31 31 28 25 34 35 31 34 38 28 33 19 36 38 38 34
37 25 37 21 32 26 27 37 32 28 19 20 37 31 24 34 34 28 22 23 33 26 20 33 19 27 26 35 29 19 30 31 37 31 33 35 29 29 30 30 23 25 38 18 25 28 21 18 30 22 20 37 24 35 33 24 38 34 24 19 36 34 33 27
32 28 28 37 36 24 24 29 34 20 23 36 31 25 38 30 20 24 31 28 35 34 19 24 21 38 32 36 28 29 30 37 23 26 35 34 30 18 26 19 37 26 22 18 36 22 27 37 33 18 30 28 19 22 31 24 27 37 19 30 30 22 25 18
22 37 34 37 23 23 34 18 38 18 33 38 38 20 23 35 23 32 29 35 35 20 32 20 28 34 24 26 23 38 27 31 20 36 25 31 33 29 38 23 28 34 33 34 25 31 34 25 37 25 24 19 20 20 27 26 27 23 36 22 36 21 37 25
32 21 30 35 33 20 30 34 23 18 30 21 22 36 34 26 18 38 29 23 26 33 22 20 33 18 24 38 26 25 35 30 34 25 26 19 25 18 30 22 26 26 22 26 35 21 31 33 33 28 20 38 22 19 35 25 21 25 30 36 26 27 38 25
27 32 25 37 24 35 30 35 21 37 21 22 19 24 34 33 29 25 29 36 28 35 21 34 21 25 32 21 26 26 26 26 38 32 23 23 20 38 26 36 31 22 27 27 20 34 23 34 21 31 29 32 21 32 31 18 27 25 38 20 36 24 28 31
22 21 36 36 27 28 38 24 24 22 25 18 30 35 38 31 21 22 23 21 36 18 30 31 23 24 18 31 23 20 38 29 36 35 38 38 22 25 19 28 22 28 27 38 27 22 20 34 29 28 29 18 23 28 29 32 29 27 19 28 25 25 38 21
37 30 38 38 28 28 37 20 33 19 29 31 27 21 19 24 23 19 28 26 19 33 24 32 19 36 19 35 28 27 24 30 34 30 28 34 33 32 33 26 26 25 37 38 18 19 30 31 28 38 35 30 21 28 21 38 20 24 28 19 32 19 31 22
35 36 33 28 36 24 35 32 30 24 38 24 32 27 22 32 24 37 33 37 31 31 33 23 20 22 30 24 32 31 33 33 18 24 35 23 32 22 32 19 19 22 31 38 19 28 33 30 36 36 28 21 23 27 31 35 38 34 36 18 36 21 36 23
24 27 24 18 27 26 35 33 23 32 23 27 38 38 31 19 30 32 19 24 29 37 21 25 20 24 34 38 24 33 35 30 31 27 27 35 21 33 38 27 19 19 30 27 18 29 27 20 28 20 30 29 22 27 21 32 29 32 38 32 19 23 34 35
34 26 34 32 22 23 24 34 34 38 29 29 18 29 37 18 18 35 28 38 33 37 38 35 38 37 21 27 25 31 23 34 24 27 37 29 21 19 21 30 24 23 34 18 35 36 38 34 18 37 23 28 22 31 24 27 34 28 24 38 19 23 27 26
37 24 34 30 26 22 34 21 28 19 26 36 18 36 27 19 32 21 38 31 34 37 30 25 34 38 36 24 24 19 31 34 33 29 20 18 29 37 31 24 22 30 22 37 24 24 21 32 28 32 23 28 22 33 30 32 27 32 28 32 18 38 30 22
19 37 37 37 27 21 28 33 31 28 25 36 38 19 24 27 25 32 23 30 34 20 30 26 34 27 20 18 36 36 25 22 25 22 37 20 22 33 29 35 19 35 20 38 30 21 26 38 30 37 33 22 35 18 23 34 29 31 20 28 28 22 32 18
30 20 32 26 32 31 21 23 26 23 26 20 30 24 20 29 28 38 25 35 31 26 28 34 35 37 37 34 23 30 30 31 19 19 38 34 32 20 38 20 36 33 18 30 35 22 24 33 38 23 36 20 27 18 26 20 25 22 25 19 31 24 18 38
20 25 38 29 22 28 25 36 37 20 19 33 30 28 27 31 35 19 24 23 25 18 19 30 27 33 31 20 26 25 30 24 24 28 22 34 32 30 33 26 31 28 29 38 29 32 38 29 18 28 19 24 38 35 22 34 27 22 36 22 26 22 31 18
27 23 21 27 28 34 30 28 32 20 29 22 30 19 35 27 19 33 28 28 27 24 29 37 35 20 37 28 27 31 35 22 34 23 23 22 29 29 38 37 37 41 25 28 27 31 40 38 29 35 25 37 19 36 36 36 20 36 25 26 21 18 19 29
20 31 18 18 31 35 29 33 21 38 25 29 22 37 34 26 37 24 30 43 35 38 29 31 29 30 28 39 26 23 33 29 33 35 28 36 38 27 26 26 35 40 34 50 51 40 33 40 41 32 39 28 26 35 29 29 29 38 34 18 37 25 26 18
36 27 38 35 33 38 24 29 24 26 38 34 22 23 33 26 44 33 46 39 46 32 34 47 42 36 41 43 28 36 37 35 35 28 22 25 24 44 35 47 61 50 55 60 63 54 56 41 28 25 24 21 37 28 27 20 22 31 19 34 35 27 21 35
34 26 26 19 23 20 35 21 25 25 27 22 35 43 42 42 40 45 46 41 48 53 46 40 47 43 46 43 41 38 37 21 33 29 23 35 50 39 62 68 59 69 63 77 66 72 50 43 44 36 37 43 30 19 35 24 19 19 18 37 35 38 19 21
24 30 29 19 25 21 31 22 28 36 30 38 36 44 40 32 34 52 42 37 42 50 57 47 35 34 38 50 53 39 38 38 46 24 27 34 46 60 74 65 89 92 90 76 84 75 77 59 57 45 36 40 30 31 23 37 26 38 31 29 20 19 22 31
24 38 20 24 28 32 25 23 37 18 21 32 36 47 42 52 52 48 51 54 41 46 53 57 45 53 46 61 59 54 51 52 50 42 51 58 54 77 87 85 87 105 91 90 91 91 74 71 69 49 51 39 43 35 21 20 29 26 32 21 19 28 19 35
26 29 29 25 35 27 21 27 31 38 28 45 36 41 47 48 57 58 62 58 55 49 62 47 54 68 73 68 67 77 72 63 57 62 66 67 66 77 79 105 93 113 107 118 116 106 93 86 67 60 45 48 41 35 43 28 34 21 36 19 35 32 34 26
24 31 38 25 38 22 37 31 30 29 30 47 49 36 42 46 53 49 50 67 64 51 67 57 72 62 72 82 81 86 77 73 69 63 88 77 81 88 105 104 118 111 117 123 121 107 96 89 73 77 56 42 36 48 38 32 26 35 23 37 31 28 22 23
34 18 25 33 24 21 33 21 34 44 27 43 52 37 49 47 55 54 55 53 71 69 69 64 76 73 76 90 99 88 106 101 79 83 96 89 87 100 99 113 129 139 129 134 134 112 112 93 80 75 65 61 42 39 33 24 35 25 19 21 27 25 36 18
28 19 34 25 32 18 26 24 24 43 30 50 43 47 54 46 66 59 66 60 71 72 65 79 78 79 100 104 99 111 112 104 110 95 108 111 95 110 107 114 134 138 154 140 143 127 108 101 102 87 65 50 50 43 33 40 28 23 26 34 22 20 22 25
19 29 25 26 20 25 24 23 22 29 50 40 56 56 59 58 69 65 70 76 76 70 66 79 78 84 101 116 121 118 130 126 114 107 114 99 99 120 122 124 138 150 152 154 144 129 113 114 103 95 69 66 44 48 30 42 34 39 26 32 38 19 18 33
34 35 33 21 22 29 26 39 32 36 31 52 47 47 59 57 57 75 71 68 66 83 65 91 91 105 114 117 123 131 142 123 121 117 99 104 109 102 107 129 144 146 165 161 147 127 114 118 96 82 74 66 42 49 50 43 31 25 21 35 21 38 30 27
35 24 38 27 18 22 33 40 32 40 44 45 48 62 55 69 60 75 76 83 81 79 72 73 84 104 94 121 109 120 118 124 114 117 97 98 115 103 108 114 127 140 149 153 140 143 119 116 90 94 63 53 55 39 42 42 31 26 19 38 24 25 37 24
21 34 36 27 25 19 18 40 36 31 34 41 48 63 55 67 61 78 70 76 77 84 73 71 86 98 93 101 115 119 120 109 99 91 90 107 103 96 104 127 130 136 144 139 143 121 124 112 93 77 72 63 40 46 48 30 29 35 21 27 21 32 28 18
24 36 35 38 27 18 23 35 33 35 39 44 53 58 67 55 70 78 82 81 83 80 75 82 84 90 87 91 94 93 101 110 101 98 93 103 108 110 111 105 120 122 134 133 135 129 103 105 89 83 58 50 59 41 33 27 44 30 27 19 26 22 27 24
21 31 36 24 30 38 21 25 33 30 36 48 54 44 61 64 58 70 76 76 65 80 75 77 75 85 90 82 96 88 98 101 89 78 87 94 102 103 101 107 125 114 113 116 126 119 94 85 77 77 54 54 48 46 37 34 38 22 30 28 30 20 37 23
37 20 18 21 27 30 37 38 35 40 40 36 37 61 51 48 62 73 60 78 71 72 59 68 62 80 75 87 79 70 81 91 91 85 69 83 80 103 108 113 110 110 107 117 100 101 84 88 77 61 49 47 41 50 42 37 40 20 21 22 25 33 20 36
34 20 38 27 27 29 35 25 36 38 36 50 50 44 47 55 54 57 68 60 58 68 72 58 52 69 70 72 69 82 80 85 80 83 69 78 84 83 99 110 96 100 93 91 96 98 81 81 59 47 60 53 36 38 48 27 37 25 29 31 37 37 20 32
21 27 23 30 28 33 26 24 29 34 41 38 53 39 58 56 56 69 60 72 53 55 54 67 60 62 61 63 57 58 57 77 80 66 67 72 83 97 94 89 92 104 96 92 89 73 72 67 57 45 58 54 42 34 36 41 30 20 18 37 21 22 20 36
28 19 18 31 22 29 24 33 26 26 42 35 50 43 52 42 55 63 51 54 62 52 60 51 52 58 54 59 59 46 51 57 60 77 85 85 81 94 99 92 84 87 93 86 74 53 64 52 53 53 56 44 41 43 30 40 32 33 38 30 33 25 36 30
20 28 38 34 24 28 38 32 20 31 34 33 45 36 38 56 51 60 56 49 57 45 53 54 61 42 44 58 53 50 53 70 72 63 72 82 85 91 91 79 92 80 67 69 67 59 58 57 44 50 37 52 32 32 26 20 25 18 19 32 23 35 20 21
20 34 20 21 26 22 21 22 23 25 22 43 39 32 41 48 53 40 60 50 43 43 57 43 43 56 39 54 51 54 50 69 69 82 72 99 87 85 89 97 89 82 65 67 58 59 56 43 41 40 33 50 32 33 41 28 31 28 36 35 30 23 36 22
18 25 23 37 31 21 28 29 36 24 24 29 36 46 37 39 37 39 45 39 41 46 41 44 50 40 31 38 56 57 61 56 70 82 74 102 96 95 101 82 76 87 71 63 68 52 56 49 52 31 39 30 39 34 33 18 23 24 25 32 31 28 29 18
24 28 23 36 29 23 32 24 37 22 21 39 26 41 40 41 45 42 36 49 46 43 36 52 35 44 48 39 41 45 63 52 76 71 90 88 93 88 98 81 87 79 76 69 48 45 40 42 44 42 43 35 35 37 20 30 30 29 37 29 21 24 32 19
22 33 22 30 28 27 28 25 38 19 36 22 27 25 30 38 34 34 46 30 38 33 32 42 36 26 29 38 34 42 54 58 66 72 86 83 87 95 81 73 84 81 57 52 55 47 48 40 46 35 26 30 29 33 22 24 20 33 33 34 37 21 20 19
23 20 30 30 18 19 18 36 22 18 33 20 28 32 24 31 29 26 37 25 27 41 35 25 41 39 40 34 31 50 49 63 65 65 86 77 83 81 81 71 69 64 68 60 37 50 37 32 30 26 25 18 19 37 35 19 32 27 20 18 27 23 21 24
26 18 19 31 30 35 35 20 23 30 34 25 23 23 18 19 36 20 32 34 39 34 21 27 23 26 36 28 27 42 40 63 54 58 73 66 69 80 70 65 60 63 62 41 50 40 24 25 34 33 34 29 37 20 38 32 21 20 31 27 21 28 38 19
22 29 31 31 35 18 22 34 36 19 28 28 29 35 32 25 35 24 34 18 21 31 22 30 38 25 24 26 27 46 37 54 61 59 56 73 62 72 67 67 66 56 54 51 34 36 35 20 37 38 36 36 31 19 35 18 35 37 26 21 32 31 36 35
22 36 23 23 31 32 35 25 26 18 28 35 21 36 25 34 27 35 18 27 23 32 35 21 31 31 19 30 21 45 50 40 56 52 56 58 65 62 60 66 56 42 44 45 25 25 26 29 23 21 35 35 22 25 37 33 31 35 33 30 25 31 36 29
35 20 28 32 18 34 36 28 27 25 19 26 23 32 27 37 28 38 28 23 21 29 37 38 21 38 34 18 26 26 31 41 47 44 48 62 53 64 50 40 39 32 44 41 30 37 27 28 20 29 22 23 34 25 28 26 26 38 35 38 29 35 23 22
37 30 36 26 23 19 34 29 24 24 34 38 22 28 38 26 18 28 32 37 24 22 33 31 29 34 35 35 27 21 26 41 41 47 50 51 39 56 45 42 32 42 29 23 37 37 37 27 21 26 26 21 27 19 34 25 37 25 35 25 24 36 34 34
29 22 28 27 31 31 35 34 27 23 20 30 18 26 35 30 21 34 32 29 26 35 35 23 28 33 38 37 29 27 36 39 39 29 41 42 48 50 37 39 45 37 37 22 20 24 20 34 27 29 20 32 31 38 21 31 21 25 35 28 33 18 31 38
21 32 34 26 23 26 30 36 23 21 21 29 33 23 25 27 23 23 37 37 23 28 38 28 37 28 23 23 23 28 20 23 36 27 40 41 32 32 40 26 19 29 24 26 24 19 19 35 19 35 28 33 24 35 27 28 35 22 27 21 30 31 33 28
21 25 33 37 38 34 24 27 25 23 26 29 36 21 35 35 34 26 37 31 29 25 23 36 22 29 25 23 27 27 36 27 28 34 31 25 35 19 35 26 33 26 21 34 23 25 28 31 21 27 18 33 36 29 28 36 38 19 21 25 27 23 32 37
27 18 28 19 35 35 34 24 37 25 26 18 28 38 21 23 29 26 34 24 26 35 19 25 26 23 36 34 18 20 20 26 38 18 36 22 36 32 19 22 22 31 25 35 36 26 33 20 20 24 20 21 36 25 23 37 24 18 22 19 26 29 38 20
22 38 36 20 25 18 20 32 20 25 23 29 31 31 26 21 20 27 32 25 27 26 26 26 38 26 27 27 38 22 22 28 25 32 18 33 35 21 37 21 23 36 36 26 36 28 20 22 30 23 38 30 26 25 23 35 18 25 32 21 25 27 32 30
23 25 26 18 37 37 37 38 35 37 30 26 23 30 20 28 37 28 18 31 26 20 21 24 31 19 19 25 22 22 31 18 35 23 27 31 21 18 33 22 32 21 30 38 35 35 27 22 29 26 21 28 28 22 25 23 36 23 26 28 37 26 38 18
34 23 19 21 19 36 36 38 26 33 36 31 19 30 19 23 38 18 18 27 38 24 24 27 29 19 18 26 23 35 20 32 34 35 37 36 36 35 33 37 21 20 22 25 23 26 28 31 26 30 20 27 19 38 37 36 32 25 31 23 36 24 27 29
37 26 37 19 34 32 31 35 23 34 22 37 28 36 29 38 19 32 38 38 21 35 23 35 25 19 18 26 27 19 26 33 22 34 26 37 33 18 36 27 18 36 29 30 26 34 31 37 34 30 36 26 33 23 31 23 36 30 31 28 24 26 25 28
25 21 36 22 30 29 28 22 32 38 35 31 37 23 25 26 35 31 24 30 31 31 34 25 21 34 27 22 32 19 18 22 36 38 29 31 28 33 37 28 28 29 23 33 27 28 21 21 37 30 24 26 31 34 38 32 19 21 34 31 34 24 31 25
27 37 20 22 18 21 18 24 34 34 33 36 24 21 29 33 25 20 21 19 22 27 23 34 23 25 19 37 38 19 38 37 22 25 23 19 25 29 28 31 26 31 33 38 33 21 35 35 22 19 21 32 20 26 31 37 25 24 18 36 21 20 34 36
22 21 36 20 37 29 38 38 32 21 27 30 26 37 31 35 33 27 25 35 36 33 37 26 22 38 27 34 24 37 35 32 38 20 24 32 22 28 23 35 34 21 36 34 35 27 24 29 25 20 27 23 32 22 24 38 18 20 26 32 37 27 31 35
22 32 25 21 33 37 21 36 26 21 35 21 22 28 37 25 28 18 25 32 25 37 29 24 37 23 23 26 26 33 36 31 27 35 19 27 29 28 21 23 38 20 30 25 20 22 35 29 31 37 37 36 29 24 36 38 22 33 36 27 24 37 19 36
33 36 27 20 35 36 23 38 21 29 38 19 30 23 32 25 20 20 34 28 36 28 21 25 34 33 31 31 28 22 32 32 25 36 20 19 29 27 31 38 24 37 21 23 20 18 29 38 32 35 33 19 18 21 35 28 36 31 31 19 30 37 19 25
33 21 38 36 18 18 27 35 25 28 30 19 31 33 20 22 33 19 30 33 19 24 18 18 18 18 27 35 20 32 19 26 34 18 36 29 20 23 38 25 22 29 27 38 38 38 23 26 24 23 26 37 37 37 24 25 27 33 25 18 36 22 23 33
