P2
64 64
255
19 19 23 32 19 25 28 25 27 21 35 26 25 19 36 30 35 23 23 32 18 28 38 37 20 33 29 32 21 36 32 32 21 21 36 38 18 31 22 26 20 23 28 36 23 32 19 22 36 28 24 37 36 18 37 26 24 36 31 34 24 27 28 27
24 19 31 19 26 34 27 33 22 22 32 34 24 36 34 38 33 20 37 37 25 33 32 37 26 36 24 25 27 20 32 33 35 37 23 21 26 27 34 36 20 37 23 37 26 24 19 22 36 18 20 22 21 31 27 25 29 32 25 36 31 21 34 18
33 20 19 23 33 30 31 29 26 30 38 36 32 34 28 24 24 33 19 36 31 38 30 29 32 28 36 34 31 34 32 18 34 27 34 26 25 35 37 35 19 23 32 27 18 31 20 37 34 26 22 25 32 24 19 25 18 28 19 20 23 25 28 19
23 30 19 32 18 38 29 18 27 18 34 25 28 19 26 38 18 37 31 19 35 26 24 26 36 24 19 22 23 20 30 30 27 35 25 31 34 19 36 36 34 24 25 37 36 32 28 22 36 19 20 33 22 29 26 22 27 29 33 32 24 20 25 24
36 28 32 22 34 28 23 20 36 29 36 18 35 26 38 22 32 25 31 21 36 23 38 27 22 29 20 25 28 30 34 18 18 18 31 20 25 34 33 28 33 37 24 29 37 31 25 27 32 30 21 19 23 18 37 23 30 20 30 21 31 23 20 35
29 26 38 22 19 20 35 21 30 38 29 36 27 24 19 21 19 36 19 18 33 32 27 28 19 19 38 20 21 22 29 29 31 30 28 20 18 18 18 24 27 31 35 36 36 22 18 20 38 38 37 20 38 21 23 28 19 34 31 23 21 33 37 26
36 18 21 22 20 21 26 23 38 20 21 23 25 37 23 21 27 21 31 30 18 31 36 26 27 35 37 20 28 38 29 26 33 20 34 23 27 33 20 18 30 38 35 31 29 20 19 34 28 27 29 18 33 20 31 37 35 21 19 37 27 36 29 31
36 37 26 29 22 25 38 33 34 32 35 33 20 34 21 26 19 32 34 36 19 35 18 20 26 30 29 27 28 30 28 30 24 37 34 37 35 28 34 36 25 20 37 24 37 30 30 34 18 32 37 27 20 28 32 25 19 37 27 25 37 38 30 26
29 30 32 35 35 29 27 28 23 21 34 18 27 23 32 29 18 34 22 37 38 29 21 36 28 34 38 24 29 23 28 19 38 37 24 27 25 32 27 36 30 30 23 30 22 35 30 37 34 29 23 22 33 29 27 34 27 31 30 34 25 23 32 28
27 23 18 33 22 22 26 22 19 25 31 27 20 24 19 30 29 18 23 23 28 21 22 34 28 34 22 18 23 35 29 26 37 32 28 33 34 31 24 26 27 30 32 23 38 31 22 35 25 36 26 20 21 38 36 18 18 25 19 34 37 23 29 35
24 27 28 38 30 18 30 20 24 27 19 32 30 35 28 25 19 33 36 21 26 24 38 20 27 27 33 26 30 18 35 20 36 28 31 24 30 20 30 21 31 24 19 19 19 38 33 24 35 30 22 35 34 29 23 21 27 30 20 18 37 37 23 37
19 36 29 34 22 26 26 27 38 24 20 21 35 27 26 19 28 18 35 37 28 19 20 34 24 24 26 28 28 30 30 25 19 33 23 36 34 21 25 31 35 19 34 27 36 32 22 26 20 26 25 21 28 26 25 22 25 30 30 23 38 24 29 38
34 38 25 32 26 30 30 35 30 24 25 32 22 36 24 26 23 34 32 30 23 38 27 38 26 31 26 34 34 28 22 29 18 28 25 32 18 37 21 19 32 26 19 26 37 23 38 36 20 23 30 30 22 23 26 33 27 25 35 18 37 20 21 19
36 35 20 22 37 21 32 28 29 24 19 33 34 33 32 28 20 23 27 35 21 25 38 29 33 27 35 21 32 38 21 27 31 33 38 21 19 36 36 29 21 23 22 25 26 22 27 28 22 21 19 25 25 35 19 28 32 29 28 34 22 37 24 33
19 29 30 38 29 24 30 22 24 35 21 18 35 22 27 23 26 35 31 20 34 28 28 30 27 22 33 37 30 22 26 34 28 19 20 25 24 24 30 27 18 35 30 31 18 31 32 26 27 24 25 22 29 34 31 32 21 33 25 24 31 34 27 23
33 33 22 30 25 20 28 36 25 32 20 38 22 27 33 31 34 31 25 25 28 37 21 21 36 31 35 28 34 33 19 19 31 35 27 35 18 37 36 19 27 24 36 21 20 22 19 21 29 23 34 35 25 27 33 23 36 35 25 27 28 33 37 31
30 30 31 38 34 27 25 28 33 27 23 19 19 26 34 21 26 24 30 35 30 22 23 36 32 20 21 38 27 20 32 36 30 23 27 34 24 19 23 32 25 36 21 21 29 24 20 23 34 19 34 20 26 29 38 33 25 25 36 21 18 32 32 25
27 25 30 27 27 18 36 21 38 31 22 24 22 29 25 23 22 31 38 26 29 20 30 27 23 27 29 28 37 23 37 21 27 19 27 32 24 18 32 24 27 20 35 20 25 25 37 31 27 23 18 38 30 20 31 21 23 37 31 33 23 22 33 18
27 38 36 31 20 28 22 25 21 21 23 22 28 38 19 32 22 37 23 32 18 34 20 37 26 36 19 37 25 30 33 38 20 20 28 28 28 26 24 23 27 27 29 18 23 35 30 36 26 37 21 31 18 36 24 29 25 34 21 36 29 20 37 18
33 22 30 29 21 27 36 23 33 25 26 38 22 27 35 23 21 36 26 34 40 41 30 23 38 23 23 28 26 31 23 24 32 29 32 20 23 30 36 21 26 25 34 33 39 35 38 28 39 25 26 19 34 31 24 27 20 20 31 26 31 28 33 20
21 24 28 22 31 29 35 30 26 29 24 22 31 24 33 28 26 38 45 33 34 42 32 30 33 42 41 34 22 22 37 20 33 23 32 31 18 32 38 36 40 31 42 29 35 45 32 41 27 41 19 21 32 23 20 23 22 27 23 26 24 38 33 31
21 34 35 24 18 28 18 19 29 27 30 23 27 25 39 44 29 44 47 32 32 33 30 36 45 35 32 25 38 24 29 33 26 22 38 23 29 34 41 30 42 45 49 33 39 44 46 45 46 36 30 35 28 27 33 35 21 30 21 23 28 18 24 21
37 30 26 38 22 32 28 26 37 19 36 35 32 37 34 36 34 32 51 53 52 34 49 34 43 50 31 46 34 36 39 26 31 28 22 22 28 43 31 47 51 36 39 35 47 33 45 39 33 45 28 43 31 35 38 28 21 33 35 18 25 34 25 26
36 35 22 37 29 28 35 30 32 30 21 28 43 29 45 32 52 46 36 52 39 45 42 46 53 36 48 37 29 29 29 26 27 33 31 27 28 35 50 52 36 53 50 38 55 39 40 41 43 47 39 43 44 25 26 33 34 21 19 22 33 34 29 33
26 22 24 35 23 38 21 19 22 28 34 36 41 47 45 47 54 41 41 52 48 60 44 42 39 38 55 40 40 30 33 36 22 23 37 33 47 32 48 55 49 47 50 46 42 54 57 53 48 50 45 33 36 43 35 18 30 28 26 23 38 33 27 24
22 29 29 36 31 20 28 35 25 33 38 32 37 47 43 50 44 53 47 47 46 56 65 49 62 53 56 37 42 39 37 24 38 40 37 44 43 39 49 59 55 57 50 53 57 51 59 56 46 51 50 37 32 32 40 38 25 33 22 34 23 25 38 22
27 38 29 27 29 18 36 36 31 23 40 32 50 44 54 47 50 60 57 67 57 69 50 67 59 52 58 42 37 41 34 37 45 43 47 39 45 44 52 59 57 59 64 63 61 59 57 46 59 58 41 54 49 32 45 35 33 25 32 25 21 23 26 30
24 24 28 35 27 35 19 25 39 31 37 32 44 42 57 60 46 54 66 59 66 63 52 71 66 62 55 53 39 42 38 34 39 45 48 41 38 56 60 48 53 56 59 54 55 62 51 62 60 55 42 54 51 33 29 40 36 21 24 18 28 34 37 25
31 25 22 30 30 20 20 24 40 26 41 48 49 39 59 59 50 53 74 65 77 63 75 62 72 50 59 48 53 55 35 33 44 41 43 53 41 46 63 55 62 66 66 58 61 66 57 60 63 62 60 48 56 47 33 37 26 23 26 38 27 31 36 21
25 32 28 33 24 26 30 19 30 43 44 54 42 58 46 63 51 61 76 60 77 61 78 66 62 63 62 61 54 38 38 40 42 51 35 44 56 62 53 63 63 63 77 62 62 72 77 57 71 51 50 44 47 41 47 34 38 29 32 27 24 21 38 21
37 19 36 29 35 33 27 20 31 33 48 48 38 49 55 57 66 77 67 79 64 71 80 75 76 62 68 64 60 58 43 54 40 39 51 57 46 54 69 62 58 72 74 82 74 81 65 58 63 68 60 55 40 40 38 27 30 37 21 20 29 31 22 37
21 20 29 18 38 29 25 21 30 29 36 36 50 51 55 51 65 68 69 81 80 73 72 71 68 57 67 55 46 44 41 51 50 40 39 49 59 65 69 58 74 73 77 73 78 68 69 71 57 68 62 45 57 39 33 47 39 26 34 23 30 21 35 38
19 18 38 26 38 19 38 27 28 28 36 39 39 48 66 56 63 75 75 68 83 86 71 81 76 61 69 53 57 48 57 39 47 37 48 54 63 59 68 75 69 68 87 75 89 79 65 71 56 52 62 56 39 36 50 35 42 23 32 38 19 37 20 18
37 31 18 19 31 36 21 25 27 29 39 55 58 57 51 63 65 65 77 68 87 75 82 64 70 64 61 48 43 41 39 52 54 48 50 47 56 51 70 59 58 66 69 75 68 85 69 73 72 58 53 51 42 50 41 34 33 39 35 29 18 21 30 25
35 27 29 29 30 30 35 36 32 32 34 38 52 45 64 53 68 68 77 77 80 83 65 77 62 65 52 54 57 45 37 40 55 38 40 46 46 55 58 66 72 61 66 75 64 82 64 73 58 63 56 56 52 48 33 34 37 39 23 18 29 29 21 31
22 27 26 26 29 24 35 31 38 31 32 45 49 42 54 52 62 61 70 76 72 68 70 60 67 58 55 63 57 53 53 34 42 52 37 57 49 55 63 51 74 65 76 78 62 78 77 58 67 57 52 46 57 50 30 40 24 31 18 18 33 37 22 25
36 32 33 28 27 30 38 35 22 33 48 48 52 52 48 59 60 54 66 68 75 69 73 54 60 65 47 52 54 44 35 40 44 45 36 54 48 49 51 52 63 57 72 75 58 70 57 60 56 63 49 40 56 52 30 28 36 28 32 30 19 36 31 22
19 20 33 29 32 18 23 34 39 27 40 47 35 51 58 63 47 58 68 67 57 72 71 57 53 48 50 40 46 46 30 45 31 48 38 52 40 50 50 52 51 71 68 58 59 53 55 61 49 55 43 46 48 51 43 36 20 35 30 19 32 21 26 32
27 26 19 33 21 23 26 35 33 41 37 49 50 38 50 61 60 49 61 57 67 54 61 61 64 55 48 38 45 51 48 31 35 30 35 49 38 53 49 58 64 53 50 62 49 56 53 50 51 43 55 46 47 42 30 25 28 19 37 35 21 37 22 30
31 25 39 34 38 38 37 39 41 24 36 36 35 42 44 59 46 48 54 53 52 55 51 58 51 45 45 44 54 52 31 31 43 35 31 41 40 59 57 54 51 67 58 70 57 58 48 57 47 64 44 40 49 51 46 40 40 24 31 37 44 31 32 28
25 31 27 25 29 34 38 27 45 27 30 46 44 52 52 58 63 47 60 59 62 62 62 54 58 54 47 52 58 51 37 44 43 50 50 44 51 62 52 66 64 53 71 70 68 68 52 50 62 63 46 60 54 47 49 45 49 42 47 49 38 41 48 34
47 33 37 28 33 36 47 33 48 38 44 42 45 54 57 55 62 55 54 61 66 70 59 63 50 48 48 44 49 51 51 36 44 42 51 44 48 55 62 61 68 68 59 59 61 58 62 56 63 57 62 46 44 48 53 36 51 49 38 54 46 42 57 57
30 42 29 31 42 38 40 26 25 45 33 30 43 42 46 39 47 59 58 55 51 52 41 50 57 55 44 45 39 36 40 32 29 40 42 41 46 45 58 56 49 45 54 61 64 45 49 60 52 47 41 38 42 37 45 45 43 31 39 46 39 50 50 30
25 32 35 38 30 28 34 21 37 37 37 24 36 39 28 27 48 40 34 48 44 51 35 49 44 35 39 41 31 33 36 40 32 34 29 25 30 35 38 50 45 53 35 46 41 47 53 39 41 40 37 26 28 26 26 25 43 35 36 42 37 33 31 42
36 34 19 25 25 36 20 36 34 32 18 30 24 19 37 33 30 28 35 28 46 26 38 38 42 33 37 25 38 28 34 37 30 27 37 30 32 19 34 36 40 30 39 43 43 26 27 32 27 29 37 36 22 31 31 28 28 31 19 22 20 28 32 36
35 38 33 28 37 31 18 23 18 37 26 24 18 23 36 22 38 27 39 32 31 23 37 33 39 29 37 35 19 19 22 22 20 34 36 25 25 34 36 35 20 30 30 41 36 36 41 27 34 32 18 36 35 32 21 28 28 32 30 33 28 34 31 35
29 26 20 27 25 20 31 22 33 35 22 19 24 37 38 38 21 34 21 32 37 31 31 19 23 34 18 20 36 37 22 24 18 37 20 38 29 25 26 36 32 31 34 35 26 25 37 35 31 19 27 25 24 36 32 32 18 30 31 27 36 19 38 36
36 21 18 22 20 23 34 28 25 37 32 23 25 32 22 22 25 20 33 34 32 28 28 24 36 18 21 30 35 19 32 38 30 35 27 21 31 37 26 31 34 33 33 37 22 29 25 21 19 19 35 33 24 21 18 34 34 20 36 28 28 36 32 22
32 38 38 23 24 36 36 34 29 32 36 36 25 18 30 37 20 38 31 35 31 27 30 27 36 33 28 22 28 23 23 23 33 18 21 19 31 34 21 27 21 36 22 18 21 36 20 38 31 30 18 19 37 32 19 24 29 18 19 35 30 37 34 29
26 34 30 31 26 33 18 22 37 18 38 38 19 19 29 28 30 24 26 38 24 35 24 35 30 28 33 32 23 30 34 35 32 28 23 31 24 37 32 35 22 28 25 26 35 32 35 29 21 30 23 20 33 28 24 21 35 30 37 33 30 30 23 32
18 23 37 31 36 20 37 33 24 30 29 34 24 35 20 26 22 29 18 38 34 27 34 29 23 24 34 32 25 37 22 27 20 35 31 21 36 31 33 21 25 24 29 37 25 21 19 33 24 18 36 19 36 24 34 21 18 35 23 22 28 36 37 36
29 31 24 30 26 18 23 19 37 27 20 26 22 22 20 28 22 24 36 30 37 29 37 31 32 24 37 36 25 25 33 37 22 29 31 23 23 38 38 38 36 19 20 22 22 32 38 20 23 38 31 37 38 27 34 35 19 23 31 35 33 34 30 28
34 30 38 21 24 22 33 30 31 38 35 24 33 33 33 27 19 27 25 37 21 30 19 29 25 24 26 24 21 26 33 19 20 28 33 30 18 24 28 34 29 20 38 37 31 19 18 25 31 32 28 35 25 26 24 26 33 18 21 27 29 34 18 27
22 21 19 32 21 24 19 37 20 23 38 30 30 35 18 31 27 30 30 33 35 34 34 32 18 20 25 20 32 30 31 25 34 30 30 22 22 33 32 21 23 20 33 18 29 34 22 19 33 28 38 21 21 37 29 31 27 37 30 32 38 27 36 28
32 27 30 23 36 30 26 23 38 28 23 27 28 34 31 36 28 37 20 24 37 25 25 26 37 29 36 21 30 20 37 22 29 25 23 31 38 26 26 33 26 34 20 27 33 29 28 19 29 22 18 24 24 33 36 38 27 35 31 36 37 30 31 29
27 24 37 34 33 27 32 36 30 38 25 28 23 22 28 33 25 27 36 30 33 38 34 23 22 36 26 18 24 32 37 32 34 37 36 30 37 35 38 33 32 37 38 38 35 30 21 30 30 21 33 29 38 23 38 25 28 24 26 34 27 24 21 33
19 21 32 31 22 27 18 31 37 19 22 29 37 23 18 36 36 37 25 31 38 27 21 35 24 29 22 25 23 21 28 33 27 28 28 18 21 23 32 38 34 19 34 37 37 21 29 32 22 19 23 18 38 19 25 35 35 38 18 23 34 27 26 19
35 27 19 30 27 31 24 37 21 28 38 36 38 36 37 33 31 36 23 25 37 37 26 25 37 18 18 29 22 35 26 24 24 37 19 21 18 31 35 18 37 32 35 34 24 24 38 18 30 31 28 25 26 26 37 38 36 21 26 38 25 28 22 19
35 33 33 23 29 20 28 31 38 22 21 19 29 34 35 26 37 22 26 29 22 23 22 36 32 25 21 34 20 34 26 23 31 32 19 28 38 37 35 36 27 25 20 38 37 36 22 28 27 23 21 29 37 20 31 29 33 20 37 38 23 20 29 22
36 21 24 34 19 18 31 25 36 19 21 18 38 31 38 35 38 34 18 33 38 36 38 37 29 38 27 30 36 32 23 32 22 33 33 37 25 36 23 26 33 27 38 33 23 35 29 37 25 32 28 25 25 24 23 38 33 34 18 23 35 31 27 34
28 27 26 35 32 32 26 25 18 20 19 23 20 20 22 29 33 33 29 30 24 34 33 29 31 19 36 20 36 37 23 34 21 26 32 20 21 23 33 26 33 37 35 19 36 38 25 38 27 36 18 34 26 31 20 21 19 24 26 22 31 33 22 35
37 24 30 28 31 33 34 38 22 19 28 24 29 25 37 24 21 31 24 27 27 37 22 25 27 37 26 30 18 38 19 23 26 23 19 23 34 32 38 33 38 35 37 36 36 22 21 28 35 31 32 29 37 25 23 28 20 20 36 22 27 21 37 23
29 34 19 24 32 27 34 30 20 36 25 26 24 23 38 24 37 20 36 26 32 25 27 35 25 26 27 32 23 28 33 19 30 32 37 25 23 31 22 34 31 36 33 25 33 24 28 38 33 26 33 18 24 37 36 36 28 24 28 31 30 35 23 20
33 36 29 22 27 24 20 23 25 29 36 38 25 32 25 29 35 36 25 19 31 21 23 37 32 20 34 37 29 18 26 20 33 23 30 33 21 33 36 26 23 26 35 30 22 24 30 32 27 36 30 26 31 32 31 38 38 25 19 34 26 34 20 25
