P2
64 64
255
31 37 37 32 38 23 30 35 21 26 33 24 21 38 29 34 27 22 27 29 27 35 35 27 33 19 23 30 27 21 32 30 19 30 32 33 24 22 30 25 32 38 38 33 22 27 30 38 34 35 24 33 28 32 21 33 30 29 21 22 23 27 28 23
35 31 32 25 25 25 32 26 36 37 28 28 31 24 24 26 29 19 30 31 33 23 22 30 26 25 24 35 28 30 36 24 27 36 18 26 32 26 29 19 26 19 31 24 18 23 19 23 34 19 19 29 27 31 25 37 22 24 21 25 38 25 29 19
20 31 20 38 28 25 24 23 29 27 21 36 24 30 28 37 35 36 22 35 22 24 21 34 36 19 38 24 32 37 18 33 28 31 22 36 37 21 31 22 20 28 34 35 37 20 35 25 20 18 32 34 23 28 18 29 19 38 18 19 26 25 35 30
31 21 20 37 23 30 29 20 33 25 29 20 35 20 35 35 38 38 30 25 35 26 28 23 18 34 31 26 32 28 37 18 33 24 32 30 33 22 34 36 24 20 24 32 37 37 23 35 18 36 18 19 31 20 23 35 29 22 30 21 35 31 32 36
33 31 31 35 26 23 20 35 24 18 36 36 27 31 31 23 24 28 19 19 18 37 23 27 35 28 18 28 26 29 32 34 38 37 18 27 35 26 29 29 34 18 24 21 22 33 20 18 28 27 21 24 24 28 27 31 33 35 19 37 27 38 23 30
20 22 28 36 38 28 35 20 20 35 23 26 38 18 23 38 36 37 31 34 38 36 19 19 26 33 38 23 33 23 19 29 35 27 31 30 30 28 37 31 20 30 18 34 26 30 29 26 29 28 35 20 20 33 28 32 25 37 27 32 27 20 34 21
32 29 36 29 36 25 25 34 24 33 19 30 26 28 38 24 20 27 33 26 34 36 32 34 19 37 24 22 19 19 34 37 36 27 19 23 38 29 36 26 22 38 23 18 22 38 38 25 20 31 26 20 34 18 30 30 27 35 26 29 18 20 37 30
31 32 30 22 23 19 23 19 28 24 19 31 32 19 33 26 38 37 34 35 19 30 22 35 21 36 30 27 27 37 28 23 23 19 23 25 28 34 34 33 29 31 19 26 23 25 28 29 18 18 23 24 28 38 33 38 20 35 24 28 38 27 32 26
27 27 26 38 29 20 25 35 37 24 37 21 20 21 29 37 29 30 22 26 31 38 26 24 36 25 25 38 25 37 38 22 30 31 26 27 26 37 32 32 30 38 24 18 31 36 22 18 35 38 38 19 37 37 19 27 21 31 26 19 38 25 21 35
37 18 19 28 33 22 22 28 23 29 21 24 27 28 24 22 27 34 35 20 25 37 37 25 23 22 32 29 28 18 25 20 29 33 18 33 24 27 24 32 31 23 28 21 20 34 20 34 30 34 38 22 26 30 38 23 19 32 21 32 23 20 38 35
27 24 26 35 27 31 35 33 23 23 37 30 38 32 22 27 19 38 33 37 27 30 28 29 23 19 26 32 23 27 32 36 31 24 19 28 26 26 32 23 28 24 20 29 26 36 21 35 25 27 32 30 22 33 21 35 28 26 36 32 20 30 30 27
24 22 29 24 23 37 20 27 27 18 29 24 22 23 26 29 25 36 19 37 31 20 30 21 28 36 25 38 28 18 29 21 29 32 31 34 25 28 34 36 30 19 21 33 35 36 18 33 32 19 20 29 25 27 19 35 31 18 23 23 38 23 21 20
34 24 27 34 36 20 32 38 18 20 28 27 33 38 31 38 21 19 20 20 21 26 28 32 35 34 29 31 30 38 27 30 37 34 26 32 28 34 19 19 34 25 31 30 18 28 38 23 32 25 23 37 23 18 31 24 37 34 31 30 35 28 31 32
29 30 35 32 34 34 18 21 30 26 36 38 29 22 30 28 36 34 32 26 38 34 26 25 20 21 32 35 37 24 22 26 23 25 20 32 28 25 20 26 37 30 32 24 30 22 19 36 22 31 38 24 24 18 35 22 20 23 38 22 37 33 28 37
28 21 29 25 18 20 20 18 23 33 29 29 23 22 22 18 25 35 33 35 19 22 25 31 22 29 35 35 23 29 24 20 37 34 35 32 34 32 20 30 33 33 31 33 22 36 29 27 23 37 18 35 38 20 35 18 22 30 32 33 35 20 33 25
28 31 23 36 18 25 21 34 33 28 20 32 35 36 18 24 34 37 18 20 22 23 21 37 33 32 35 22 28 36 25 21 29 29 30 18 32 35 20 30 38 34 31 19 27 24 28 28 27 36 31 24 23 35 31 34 20 24 38 22 18 22 29 36
26 21 34 32 22 18 33 34 21 26 34 38 21 28 22 19 32 21 28 31 37 18 26 35 29 29 36 29 23 22 36 18 37 22 22 32 20 20 31 27 33 23 32 18 18 20 25 20 22 31 28 35 22 23 26 23 36 22 27 27 29 34 19 36
32 18 19 19 20 37 21 27 35 32 28 21 25 38 21 29 29 24 22 33 26 20 18 38 22 26 23 31 27 34 29 33 25 18 19 25 27 33 34 36 37 21 27 37 32 22 29 22 28 34 23 27 19 34 30 32 26 21 36 19 33 31 38 25
32 25 20 19 30 18 29 29 29 18 34 26 38 22 18 22 32 33 23 29 18 19 38 25 26 29 34 36 25 29 25 36 36 21 22 25 19 30 35 24 21 27 18 22 20 38 34 21 21 29 30 28 22 35 28 38 36 37 34 26 37 20 33 26
28 21 22 28 34 36 24 28 32 28 37 38 27 18 30 30 33 33 41 25 38 34 32 22 22 31 29 18 18 27 22 25 38 32 20 25 28 19 26 35 35 35 29 30 36 33 35 27 29 20 24 28 30 27 27 38 28 30 23 22 22 37 31 25
22 19 30 28 33 22 26 30 20 34 38 20 27 25 35 36 27 27 26 34 31 33 26 31 30 41 37 21 24 18 26 21 30 20 23 31 38 24 29 40 31 33 26 31 28 30 28 43 31 31 21 19 18 18 34 38 29 21 26 31 36 29 22 36
20 34 32 30 19 22 30 32 27 38 18 24 21 37 32 42 42 33 48 36 35 47 42 44 36 39 29 31 33 28 31 34 34 33 32 37 21 35 33 34 27 37 46 31 34 36 46 46 44 40 37 21 22 33 19 38 19 35 30 36 22 35 27 38
24 27 25 37 29 22 21 33 18 36 22 35 39 37 37 36 50 48 45 49 38 52 36 50 43 32 40 38 43 38 47 40 33 42 37 46 46 39 32 47 41 32 42 46 37 49 44 37 50 29 35 26 40 23 26 22 23 22 23 32 32 36 28 30
38 38 33 32 24 30 35 22 31 30 22 32 35 30 36 38 51 39 54 41 54 37 54 56 38 45 53 50 39 46 48 49 46 46 52 56 52 43 41 37 38 44 47 53 50 56 45 39 41 32 36 43 25 40 22 29 22 37 37 26 33 18 27 22
29 24 37 18 19 18 18 26 19 20 28 31 31 43 32 39 49 46 47 45 51 57 56 60 61 49 48 51 61 65 44 61 47 60 59 51 60 53 65 61 62 44 46 57 50 53 52 57 54 37 36 30 33 29 32 22 30 20 22 20 24 38 28 34
37 35 21 25 23 23 30 27 26 35 23 34 49 37 51 42 58 45 58 47 53 45 48 61 60 61 58 63 75 62 53 52 51 59 59 74 60 67 58 64 73 59 61 54 50 47 43 44 53 57 35 49 48 31 39 36 33 26 23 19 33 24 32 33
27 37 23 23 23 23 35 19 34 33 27 45 32 46 49 41 59 61 61 51 53 60 61 77 64 72 84 69 66 71 75 69 66 69 61 78 75 80 75 76 81 78 69 61 56 56 49 62 53 47 54 52 33 41 44 28 38 23 21 29 22 38 28 32
23 19 36 29 19 30 20 25 34 38 43 33 51 46 46 47 59 56 53 59 61 60 75 83 90 82 71 85 74 90 73 68 76 73 75 74 72 77 72 73 71 81 78 74 56 63 57 51 56 49 53 46 44 36 33 25 35 19 27 26 18 27 28 23
20 20 38 22 19 29 23 20 38 28 38 43 42 49 58 46 53 54 58 76 75 68 88 77 89 86 85 97 84 80 86 81 97 79 76 97 88 85 86 89 89 87 92 87 69 67 58 72 58 50 63 53 53 36 35 26 29 37 31 24 19 37 23 38
35 32 30 19 30 23 35 37 25 42 32 34 49 53 45 67 59 65 60 67 71 85 93 90 86 99 97 86 93 96 93 90 89 91 92 94 89 97 93 88 88 92 79 77 82 73 69 64 64 60 57 57 56 39 42 37 25 37 19 34 19 18 34 34
19 32 33 35 23 22 28 25 24 30 45 43 44 59 64 69 69 72 70 80 95 84 100 101 100 106 104 102 97 93 105 113 98 97 112 94 95 99 96 111 104 104 102 86 95 69 80 68 55 59 65 43 56 55 51 39 24 25 24 36 28 32 24 33
18 19 30 34 33 20 23 21 35 31 39 48 57 43 54 67 73 58 66 83 99 100 95 103 112 103 112 104 100 114 116 101 107 113 107 114 105 102 116 102 112 93 98 99 86 75 77 70 58 61 64 50 52 55 41 44 32 36 32 23 34 38 33 34
33 22 32 25 38 34 38 35 39 44 35 39 51 55 62 66 59 72 85 83 97 112 102 117 109 117 102 123 104 105 111 119 109 124 115 121 114 107 117 115 100 113 108 103 91 88 68 66 68 64 56 63 52 40 41 37 33 40 20 28 38 28 19 25
25 21 33 26 31 23 18 22 33 41 31 41 44 44 53 60 56 73 86 89 106 111 95 118 108 104 106 117 109 123 119 112 119 130 117 121 127 109 111 120 102 104 112 96 102 94 71 59 60 63 66 55 51 48 49 38 32 31 36 30 30 22 29 23
22 36 25 35 30 21 31 24 43 38 47 37 56 59 66 64 73 68 87 79 86 110 112 105 118 111 109 127 123 112 132 123 124 135 126 117 122 108 126 104 112 110 108 92 93 92 87 61 68 60 63 56 54 48 50 40 33 33 26 25 38 30 20 29
24 23 29 20 20 18 30 24 23 39 42 48 42 49 60 55 59 76 83 87 85 88 109 98 107 115 106 124 127 119 131 135 133 122 119 112 115 127 123 106 99 98 91 97 93 88 65 62 70 55 63 53 49 48 47 34 26 36 34 26 28 21 32 36
23 33 20 21 22 20 38 21 36 45 47 42 46 43 44 57 65 66 62 71 83 83 91 101 103 120 116 114 124 121 122 123 126 129 125 121 109 124 105 102 104 99 101 91 89 75 64 63 49 53 55 58 52 38 49 30 29 26 32 30 29 37 25 37
19 32 29 29 36 33 26 30 38 26 30 49 53 53 57 44 50 53 75 67 84 81 90 106 108 99 109 106 116 128 110 127 135 134 110 124 113 118 113 104 114 90 97 87 93 84 65 69 47 60 57 42 51 44 33 30 32 38 23 36 35 28 30 25
21 22 30 28 33 38 19 24 31 35 45 44 51 48 57 56 49 63 61 73 74 84 84 96 93 93 96 101 114 123 118 119 119 125 112 120 115 100 114 92 99 88 93 91 82 62 65 56 50 46 49 38 39 45 33 25 19 22 24 30 19 20 19 18
24 29 27 38 26 36 33 37 34 32 24 26 42 49 37 43 51 53 53 73 74 70 84 79 93 93 94 103 95 117 107 97 111 110 104 107 111 94 110 87 95 79 86 78 63 77 50 47 59 46 55 49 41 43 37 28 34 21 28 37 22 30 38 24
38 36 38 31 22 32 22 29 20 25 34 40 31 47 34 50 54 57 49 54 72 65 79 91 83 97 98 91 108 107 101 101 100 94 100 92 98 105 92 90 79 90 78 83 61 63 49 50 40 48 52 47 33 33 28 37 35 34 25 30 35 33 21 34
30 28 29 33 35 26 30 30 33 21 34 21 27 43 29 35 52 36 48 51 56 64 73 71 72 79 89 99 94 102 91 83 91 86 89 84 99 92 84 94 72 78 71 76 57 57 53 54 38 51 44 41 37 25 33 20 24 29 26 36 28 25 36 30
20 31 26 20 26 22 27 30 36 19 23 23 37 38 34 34 33 44 41 57 59 54 63 79 67 78 86 78 84 83 87 93 74 81 91 84 90 91 88 71 69 66 65 61 46 46 51 50 42 45 29 27 30 34 24 20 33 26 25 27 28 30 26 30
31 26 38 26 26 30 37 28 30 37 26 32 33 27 29 41 34 40 47 46 38 61 49 68 58 67 62 72 64 81 81 77 86 83 77 68 64 73 69 69 73 64 53 61 54 33 41 33 30 30 31 38 33 35 30 24 31 21 36 32 28 37 34 33
28 19 28 33 23 22 37 21 28 23 18 33 18 37 19 29 33 27 35 29 36 41 51 59 66 50 69 71 66 63 77 62 65 80 76 59 67 74 72 60 50 54 58 52 38 38 42 30 26 22 29 34 35 38 33 23 34 32 22 23 25 20 25 19
36 36 20 30 19 28 19 38 36 21 33 25 24 33 29 38 21 29 37 38 32 41 41 49 39 47 55 62 67 60 59 67 72 73 55 57 62 61 50 58 48 41 41 38 38 35 27 34 32 25 34 26 23 29 18 36 23 31 35 20 24 20 23 18
35 30 29 22 30 32 24 38 22 26 21 19 27 29 20 28 19 24 18 29 18 25 36 38 46 48 58 55 59 50 63 55 62 65 60 63 56 62 41 39 52 31 27 20 28 32 24 27 27 32 30 18 36 34 27 33 29 31 26 26 23 33 30 34
29 21 29 28 19 23 25 28 26 32 37 24 18 36 37 29 22 34 35 37 19 25 39 27 44 48 49 53 48 60 42 63 45 50 45 43 46 54 38 42 30 30 32 18 30 24 21 18 34 25 20 30 25 25 25 38 33 20 34 22 27 34 36 26
26 23 26 23 23 19 25 31 30 18 38 33 33 21 37 29 31 25 23 27 26 23 36 30 23 38 30 46 44 39 50 50 43 56 41 36 40 46 49 45 27 27 28 24 29 22 35 29 18 38 26 30 36 19 36 21 32 31 26 34 26 18 32 26
31 36 36 30 20 29 21 25 35 24 29 29 32 36 33 37 37 34 38 22 19 38 26 22 38 20 35 45 41 47 38 43 43 49 44 40 37 34 23 33 23 32 20 24 35 22 23 18 36 21 24 30 38 35 35 31 29 28 37 37 29 29 22 30
26 27 23 30 20 22 37 21 19 27 22 23 22 36 34 38 35 19 34 38 33 30 33 24 31 22 25 22 35 40 34 28 34 26 26 42 37 22 32 35 28 24 32 26 23 27 25 29 30 19 21 33 33 36 19 30 19 27 32 23 25 23 38 22
36 29 26 38 35 36 38 20 21 34 23 33 19 21 19 28 31 28 20 31 30 32 35 30 20 33 36 20 32 23 37 20 22 37 28 26 34 38 33 34 25 36 34 29 21 35 22 33 20 33 33 26 28 20 37 26 28 29 37 37 22 36 27 33
32 28 38 19 30 31 34 18 32 38 34 32 25 30 31 38 20 29 27 31 37 38 33 20 22 21 38 25 36 27 38 21 18 18 23 38 21 20 31 25 19 27 23 33 24 21 36 18 34 28 23 26 25 24 34 23 35 29 26 37 23 24 20 30
24 23 31 19 20 35 33 37 37 27 35 24 23 33 22 37 27 37 19 28 34 38 36 20 20 33 36 27 26 38 38 22 18 32 21 36 27 23 32 18 30 31 38 27 36 34 31 23 35 25 21 32 34 38 24 36 32 33 38 30 34 18 23 19
34 26 24 27 21 26 38 33 33 23 32 19 22 33 35 26 38 19 31 23 34 24 35 27 37 21 24 27 38 36 18 34 24 18 29 27 19 24 28 38 34 18 33 34 27 34 35 29 30 26 22 28 30 30 33 20 29 24 20 18 19 19 29 33
36 19 37 27 34 33 26 23 38 28 37 23 35 27 29 31 22 28 18 22 25 28 31 27 32 30 38 28 32 34 21 22 28 29 27 37 31 38 28 34 20 28 28 34 38 32 19 26 33 27 37 18 30 38 36 23 21 34 27 21 24 29 32 38
23 36 33 23 30 30 21 25 33 34 18 33 29 19 34 32 30 20 26 38 29 36 24 22 19 37 37 22 25 37 22 23 26 32 32 19 38 18 37 26 38 23 27 18 23 23 18 25 33 34 33 18 30 18 35 18 34 32 26 30 26 18 34 38
24 25 33 33 31 22 35 19 19 25 29 33 30 28 30 36 23 25 22 38 24 24 28 38 26 22 33 25 30 26 24 34 35 22 28 18 32 19 35 18 18 38 23 18 29 18 31 37 36 34 32 27 34 26 31 30 22 20 22 31 38 24 25 24
36 22 27 21 30 23 34 25 35 29 22 23 34 30 32 20 31 32 18 19 21 29 38 29 32 19 32 36 18 21 18 34 33 25 21 20 20 19 21 20 34 24 37 24 18 32 28 35 20 31 30 38 33 26 33 21 22 35 22 26 38 23 27 32
22 37 20 36 31 21 26 33 38 18 32 26 22 22 22 29 23 35 25 28 30 38 25 20 27 18 38 32 33 38 21 34 33 22 32 24 21 30 20 20 29 25 23 33 35 29 18 26 36 21 28 26 35 23 25 34 22 26 31 28 35 33 28 22
21 20 18 21 19 24 19 36 34 25 21 27 29 20 33 33 31 18 35 20 23 25 35 31 20 22 32 26 19 24 38 24 34 28 38 34 34 33 25 37 29 28 35 19 37 26 23 21 30 31 20 25 18 36 26 33 27 35 27 31 20 22 32 35
22 19 38 32 23 35 38 32 20 22 30 29 30 32 33 26 23 21 23 21 24 30 27 19 28 30 31 27 31 35 24 25 32 31 21 27 30 33 18 28 37 19 35 36 31 35 36 36 22 32 22 20 24 19 20 34 25 35 27 34 36 29 23 33
22 21 37 31 31 27 29 31 19 34 30 38 28 33 18 35 37 38 31 23 37 27 32 26 28 19 21 38 37 32 23 19 30 36 28 38 38 35 31 37 26 19 32 19 27 33 18 22 33 18 34 27 34 24 31 27 22 20 30 28 33 26 18 20
18 30 28 18 26 31 24 35 33 38 35 26 28 20 18 21 21 18 31 30 35 30 34 19 24 24 25 24 37 22 19 31 24 38 24 31 28 34 28 32 22 32 37 37 20 36 29 31 24 18 37 24 35 33 18 27 37 25 29 34 25 25 35 19
