P2
64 64
255
25 16 15 19 16 15 17 19 18 24 24 21 19 20 18 22 15 22 14 19 16 16 25 21 17 16 18 24 24 22 23 17 18 14 19 22 19 16 22 14 18 14 21 14 20 15 17 21 19 16 17 24 19 15 24 17 16 18 14 16 14 22 21 24
26 17 14 21 17 22 21 24 15 16 14 25 26 18 14 26 15 17 21 15 15 18 24 17 19 21 24 15 17 25 21 23 15 18 24 16 19 15 26 18 25 14 18 24 18 24 26 17 26 26 14 21 25 21 19 15 17 20 18 14 17 23 19 16
19 22 23 24 19 19 16 21 20 17 15 19 19 24 21 26 19 20 17 22 25 15 23 19 16 21 18 23 20 16 18 18 22 25 23 14 15 17 18 17 22 16 21 20 21 18 24 15 25 19 23 21 26 23 16 17 20 26 15 24 24 19 22 21
19 18 22 19 16 21 18 16 19 16 23 23 25 23 26 20 26 24 18 21 26 21 22 23 25 23 23 23 19 26 21 16 21 21 20 16 20 20 15 23 26 19 15 14 20 19 26 17 23 15 18 15 26 23 22 17 18 17 15 26 18 14 14 16
20 24 18 26 17 22 17 20 20 18 19 22 24 18 16 24 17 24 16 19 18 24 25 18 14 21 26 16 24 20 26 23 19 19 26 18 15 23 23 15 22 25 26 25 23 24 18 21 25 17 22 24 19 21 21 24 16 25 22 20 21 21 16 23
18 20 23 17 26 17 16 17 21 14 26 22 22 22 17 25 16 21 16 18 20 17 16 23 23 23 18 25 21 17 15 26 23 18 22 22 20 15 19 18 14 18 23 24 21 19 18 14 22 25 16 25 20 16 25 24 21 20 15 19 16 21 22 21
20 26 15 23 21 14 23 17 14 24 14 22 25 24 18 14 14 14 18 17 19 15 24 19 24 21 21 15 23 18 19 15 14 16 15 19 23 18 25 17 15 17 23 15 22 21 19 14 16 19 21 15 23 24 15 14 18 25 16 17 23 16 23 17
18 16 21 24 26 20 21 25 14 25 22 14 24 25 22 20 25 16 17 15 19 14 19 26 16 26 20 20 21 23 16 16 15 23 18 19 25 16 14 24 22 22 24 22 26 20 21 24 22 24 15 24 18 23 21 23 23 19 19 15 15 23 18 21
15 20 17 15 18 14 18 21 25 18 14 22 15 20 25 25 18 22 18 16 21 20 20 19 22 23 22 21 20 23 22 17 18 18 16 25 16 20 18 22 19 26 26 15 23 24 17 26 23 16 19 20 19 15 20 25 16 25 14 16 18 19 26 15
20 23 21 19 14 15 19 25 16 23 24 24 21 16 16 24 15 18 23 16 24 17 15 24 22 23 22 14 22 24 15 18 18 22 17 24 15 22 23 15 15 21 26 24 24 20 25 18 26 16 18 20 24 20 17 17 17 21 21 19 18 16 26 16
20 19 21 16 19 14 18 18 23 22 21 23 15 17 16 20 22 18 23 25 16 22 25 21 26 20 15 16 15 18 17 25 17 21 16 19 19 16 16 26 23 17 18 19 25 14 23 23 21 20 25 14 26 26 23 20 23 18 18 16 16 18 25 23
24 21 16 25 26 14 20 15 21 22 26 23 24 26 25 26 19 14 17 19 20 25 23 21 16 25 15 15 17 19 25 23 16 23 23 24 26 21 15 22 16 25 24 21 14 22 19 22 26 22 16 19 21 24 17 25 20 15 22 19 20 18 14 25
21 23 25 26 25 20 25 16 22 14 19 19 25 26 24 15 24 16 18 15 23 18 14 25 15 15 18 24 19 25 25 21 17 21 20 15 26 20 26 24 20 20 14 15 20 20 18 15 20 18 25 26 26 23 16 20 16 20 24 26 20 17 24 21
18 25 17 21 20 19 17 16 15 14 18 24 25 14 23 24 23 22 23 22 23 17 14 26 20 20 23 18 25 15 24 19 18 15 17 24 22 18 18 20 25 15 25 25 20 14 22 14 25 18 19 20 19 14 15 19 25 22 15 25 24 24 22 19
24 21 22 21 19 21 17 21 16 21 16 16 23 15 26 24 26 14 18 19 23 15 22 20 24 24 23 24 17 17 24 20 14 19 17 18 19 14 25 20 20 20 21 20 16 24 15 14 14 19 25 26 16 22 15 14 17 21 21 20 26 17 22 23
17 14 24 26 19 26 16 24 23 24 15 26 26 16 17 15 15 16 18 16 19 23 25 22 15 20 15 21 25 16 22 14 21 20 21 19 19 20 25 18 15 25 19 26 26 23 18 17 15 26 19 26 20 20 19 21 14 21 20 23 24 17 20 17
21 15 18 25 24 26 20 21 21 17 26 21 16 17 20 24 21 23 25 15 18 20 23 17 20 23 22 19 22 23 17 15 24 21 16 22 25 23 23 14 18 18 14 25 17 26 17 19 16 17 23 22 14 23 19 19 25 26 25 25 24 18 26 17
15 16 20 25 24 26 21 19 14 14 17 20 15 21 21 21 23 24 22 21 22 18 15 22 16 23 17 24 16 21 22 21 14 24 17 20 17 23 22 16 19 26 24 14 24 16 22 20 18 26 20 19 15 17 17 20 20 15 22 14 21 22 20 18
15 24 25 14 26 14 21 17 16 25 21 23 17 20 15 15 24 16 16 16 16 25 26 20 24 25 22 21 19 16 17 15 26 23 17 21 20 22 26 18 19 15 17 23 20 21 14 21 18 22 20 20 24 26 22 24 23 22 22 14 19 22 17 17
16 22 15 20 22 15 23 19 18 19 21 17 24 23 19 24 20 27 20 17 25 27 25 26 16 15 21 26 25 24 15 24 25 19 16 17 16 23 24 25 24 20 22 30 22 20 17 16 20 14 24 17 14 22 14 24 14 16 20 16 14 15 22 24
15 18 15 24 14 14 18 22 17 17 23 22 26 22 19 24 24 21 23 32 32 25 26 22 26 30 25 22 18 19 14 18 24 14 15 22 23 15 23 20 30 24 29 23 33 22 28 32 26 26 21 22 25 24 19 21 23 24 20 26 21 15 26 16
15 23 15 26 14 24 18 26 19 24 16 23 18 24 26 29 23 23 27 30 27 31 26 35 23 26 28 28 25 22 27 22 18 28 20 19 27 21 24 31 26 27 26 35 29 33 24 30 23 27 27 21 26 20 19 24 24 16 16 16 16 16 15 20
24 20 19 25 21 17 16 22 25 20 23 21 24 20 33 27 37 30 35 40 31 36 38 33 33 28 33 35 36 24 32 33 33 27 25 28 37 34 29 38 39 37 29 32 34 39 38 29 30 31 22 26 22 24 21 19 15 22 17 26 16 17 14 15
14 14 24 25 15 26 21 19 24 22 15 20 29 27 35 32 40 36 37 45 38 38 34 33 37 42 42 38 42 42 41 41 32 29 32 38 34 40 34 34 39 36 41 44 38 33 36 42 29 30 33 31 30 26 21 15 22 24 24 24 15 26 25 17
22 25 22 24 26 23 14 18 15 22 26 28 31 31 39 41 35 45 43 43 44 37 48 45 49 46 52 52 52 50 49 47 36 48 47 45 47 50 47 54 47 41 47 42 37 44 36 44 44 42 32 36 28 32 17 24 17 19 15 16 24 21 14 21
18 25 17 26 18 17 26 23 18 28 30 26 37 39 40 35 36 47 42 46 44 49 51 51 58 56 60 63 56 53 50 50 57 52 57 50 56 52 53 56 49 53 56 45 49 41 40 40 42 45 34 33 32 30 21 25 25 15 16 18 14 15 22 14
21 18 15 22 17 26 26 18 26 28 21 31 40 40 46 49 43 47 47 56 52 52 52 67 67 68 72 69 68 71 69 57 65 54 59 61 64 69 63 66 68 66 58 51 47 45 47 41 43 46 39 43 34 26 23 26 14 26 25 16 22 23 20 18
19 18 23 24 22 20 22 23 26 22 34 34 42 35 40 51 54 48 50 56 63 56 61 70 73 69 68 78 79 79 66 70 71 70 64 68 70 73 73 75 67 73 71 59 52 57 56 45 52 42 46 44 37 29 30 30 17 25 19 23 22 20 21 22
20 21 15 26 15 24 18 26 17 23 25 31 38 45 51 50 52 60 58 55 60 68 76 79 84 81 76 78 87 78 80 79 78 81 76 76 80 88 84 85 80 72 77 67 66 56 50 55 55 51 43 47 32 35 31 29 22 26 25 22 18 25 23 23
15 15 20 21 17 26 20 21 28 30 28 42 33 45 43 45 52 53 65 64 73 79 84 90 80 84 88 83 88 86 83 88 86 92 81 90 85 82 94 83 86 83 85 78 68 71 59 56 47 56 48 38 37 36 38 31 20 16 15 22 19 26 14 24
19 22 25 14 21 14 22 20 26 26 34 32 34 46 42 50 56 60 66 68 81 84 91 85 87 95 89 93 90 93 90 93 93 95 88 93 92 101 91 99 91 90 86 84 72 73 63 65 50 47 52 39 35 40 34 25 31 25 22 21 24 17 16 25
20 24 26 21 16 15 16 23 30 27 39 40 43 46 55 54 61 54 66 74 86 84 94 92 94 100 94 95 98 98 97 104 102 108 95 96 95 100 101 99 98 89 93 96 84 78 66 54 53 48 43 51 42 31 29 27 26 25 22 20 26 24 25 26
20 24 15 14 19 20 25 24 27 28 37 43 45 43 53 52 58 65 70 85 85 93 92 97 105 104 107 105 106 107 113 110 111 114 112 101 110 102 103 100 98 94 99 99 95 79 69 62 59 53 54 41 35 42 39 35 22 26 15 23 15 17 23 17
20 15 23 23 18 17 16 20 28 33 37 32 36 49 46 51 61 66 71 75 88 90 101 105 107 106 108 106 109 107 111 114 115 113 109 115 106 104 109 105 105 105 95 93 86 79 75 57 57 49 51 46 35 38 30 34 20 21 22 17 23 25 18 17
18 19 18 23 23 24 24 20 23 25 27 34 46 48 52 49 50 57 66 75 90 86 102 106 105 110 103 116 117 110 113 116 126 118 114 110 114 107 110 101 107 96 96 97 84 78 68 54 49 50 47 44 44 40 39 33 26 19 20 14 15 24 20 15
14 26 22 24 23 25 23 23 28 26 33 42 43 37 51 51 51 65 69 71 84 95 92 94 99 99 107 103 115 109 118 116 124 128 118 119 108 111 106 107 102 98 87 85 77 80 73 59 58 54 42 40 36 40 33 28 22 19 16 19 19 15 19 18
19 22 19 22 19 25 16 20 18 27 35 30 43 41 44 45 51 62 68 78 79 84 87 90 101 99 109 112 108 113 110 127 122 122 111 119 114 103 102 107 97 92 97 85 78 70 62 56 52 50 50 37 37 36 36 29 26 17 19 26 18 16 15 20
14 18 25 22 21 17 23 15 21 30 32 32 40 37 43 43 51 51 55 70 80 82 90 95 97 104 101 104 114 112 118 120 122 120 118 114 109 106 104 101 95 87 84 79 72 68 61 47 45 50 39 43 41 35 27 30 19 24 23 17 18 17 26 25
25 21 14 26 23 17 15 22 20 19 22 29 29 37 35 41 50 43 61 60 76 80 79 88 92 89 93 98 104 103 112 113 103 105 106 112 101 97 101 91 91 86 83 80 70 58 58 43 43 40 42 31 28 34 26 21 14 18 20 15 18 25 21 21
22 20 22 21 24 21 22 17 24 18 31 22 38 28 40 43 46 43 53 63 69 74 76 82 83 94 99 95 98 103 96 102 93 96 100 103 101 93 96 84 85 75 79 66 60 63 56 42 47 35 34 40 26 34 27 19 14 24 19 21 21 22 25 16
19 22 26 19 21 19 26 17 21 24 23 24 33 33 31 40 41 36 50 59 65 59 65 81 81 89 83 83 89 91 96 86 86 94 91 87 90 82 88 79 83 71 66 70 55 48 45 38 44 36 39 31 35 20 24 24 22 16 17 17 24 19 21 16
24 14 24 22 24 26 26 14 23 21 18 19 24 25 26 36 37 36 36 49 51 62 69 68 75 73 75 84 82 78 87 80 88 82 85 90 89 77 78 71 68 71 65 56 55 51 36 33 41 34 33 25 27 28 24 17 22 19 15 25 21 22 23 21
24 18 23 19 16 23 21 17 14 24 16 27 23 29 28 35 37 33 34 46 50 57 58 64 63 68 66 69 73 80 76 76 70 78 74 73 71 69 73 66 64 65 56 46 48 36 37 34 30 36 32 32 18 25 14 20 20 21 19 19 16 26 16 17
17 16 24 14 20 16 24 16 22 20 18 20 18 19 31 28 31 32 35 38 34 38 53 55 62 62 59 68 63 62 73 69 67 68 69 71 71 59 66 60 62 59 44 49 44 31 27 27 30 22 30 17 26 25 21 26 18 23 25 25 16 22 16 24
23 23 26 25 21 14 19 18 17 15 15 25 15 22 21 19 27 26 26 29 28 42 45 44 50 54 53 55 62 64 63 59 66 70 61 61 61 55 59 49 46 43 39 36 32 29 21 21 24 23 15 17 14 14 26 24 16 19 17 26 22 14 15 17
14 18 22 25 16 18 17 20 25 17 24 16 21 16 17 24 17 26 22 26 30 24 34 37 47 40 41 55 57 50 59 58 61 60 57 58 51 48 43 40 40 41 38 31 20 28 27 17 23 22 19 14 25 23 14 22 21 20 24 21 15 15 26 19
17 19 19 21 22 21 21 22 16 22 17 22 21 14 17 20 21 21 19 24 22 16 21 37 40 34 41 49 51 52 53 52 53 49 46 49 52 40 39 37 39 29 31 16 21 16 14 23 18 26 23 26 19 24 16 17 21 23 24 20 16 19 26 19
25 23 19 19 16 24 15 21 15 23 20 25 20 22 16 23 16 18 16 16 19 19 27 31 31 39 40 33 36 49 48 44 51 50 45 47 42 39 40 34 27 24 16 26 16 26 26 24 26 14 22 18 20 25 14 18 23 24 22 25 20 19 25 26
22 26 19 20 22 26 19 26 14 21 26 19 16 15 18 23 23 20 16 26 21 17 18 22 30 23 35 32 37 31 35 37 43 33 40 41 40 36 25 30 25 18 25 17 15 16 17 15 26 19 16 23 26 20 19 14 25 23 16 24 17 20 15 24
26 23 15 22 16 17 17 23 22 26 25 20 14 18 15 20 16 14 26 19 22 18 20 19 22 18 30 22 34 26 38 33 34 29 38 36 30 25 23 16 18 26 17 18 24 26 26 17 18 18 15 19 22 17 15 22 23 23 26 17 24 16 15 16
24 16 21 15 24 25 19 19 25 23 18 19 15 23 16 18 16 15 22 21 21 16 18 24 20 16 21 25 22 22 20 31 33 33 20 20 29 26 17 25 25 24 16 18 24 25 18 18 16 25 23 15 22 19 18 26 26 21 16 24 24 18 15 22
18 23 22 19 15 18 25 24 14 21 22 21 23 25 26 17 25 22 19 26 17 15 25 23 19 14 26 21 16 25 14 19 24 16 16 14 23 19 20 15 16 16 26 20 19 20 20 19 23 23 20 21 25 26 26 19 26 26 15 26 26 22 22 15
18 26 16 19 18 26 14 25 15 18 19 14 17 20 25 22 14 26 24 16 23 14 24 23 19 17 18 24 16 25 15 22 15 17 20 24 20 23 26 23 14 26 14 17 18 22 15 21 18 19 19 20 22 14 15 23 16 20 17 20 17 17 19 15
17 21 17 14 17 19 16 20 17 23 14 17 20 25 18 16 17 22 26 26 24 25 24 18 16 24 18 18 22 19 15 14 25 17 24 16 25 15 14 16 23 23 14 17 18 26 20 19 16 18 17 18 21 25 18 16 17 23 24 19 23 18 24 16
25 20 19 14 16 16 23 22 14 23 18 23 23 25 23 25 18 22 15 22 14 17 15 16 19 22 22 20 17 14 23 21 15 21 18 16 17 17 17 14 19 20 15 21 14 20 19 16 26 23 17 14 18 16 19 22 19 23 23 18 26 24 20 19
26 24 25 15 17 16 16 14 21 16 23 22 21 14 26 25 22 23 18 16 23 26 18 25 20 22 15 24 21 14 20 21 22 17 16 17 25 24 18 23 16 25 19 15 14 23 21 23 23 15 20 21 20 22 21 15 15 15 15 15 18 26 24 21
17 21 17 20 26 20 21 19 24 24 23 20 17 14 23 15 19 25 22 18 15 23 26 15 14 15 17 16 21 23 18 24 18 23 21 21 25 19 25 25 18 17 20 16 18 18 16 17 18 18 25 24 23 16 25 18 21 20 14 17 21 19 16 15
21 25 26 21 19 25 15 20 20 26 20 24 26 18 16 25 25 17 20 17 18 18 18 23 24 20 15 26 19 17 15 24 23 25 14 22 14 23 22 15 17 19 22 14 24 20 18 15 14 19 23 17 18 18 24 25 24 20 14 21 14 19 19 19
23 26 25 16 14 19 23 19 26 17 24 26 25 22 21 18 19 19 17 21 22 23 24 20 19 17 26 16 20 21 24 26 25 19 17 26 15 25 20 23 16 19 23 22 15 24 15 20 19 21 17 19 26 20 26 25 21 16 14 14 20 19 14 19
26 19 17 19 20 23 17 26 26 26 18 15 16 26 22 17 26 17 17 14 18 19 15 23 16 16 24 24 20 15 24 17 14 25 25 22 21 21 17 23 26 14 16 25 18 17 23 17 18 19 16 25 23 20 26 19 25 20 18 21 20 14 26 14
16 18 26 24 22 23 24 18 15 19 20 22 26 26 18 20 16 20 17 15 14 14 17 15 20 17 18 18 20 19 23 17 25 17 22 18 16 16 17 25 19 15 19 24 18 19 16 15 17 26 24 17 23 25 14 18 21 20 23 24 20 17 19 15
18 18 15 18 14 18 17 18 16 24 14 18 25 25 17 24 26 18 26 15 25 18 24 17 25 19 25 18 22 19 16 15 20 26 23 14 16 14 17 16 23 23 16 19 20 14 16 25 25 15 16 26 20 26 22 19 17 17 23 15 17 16 18 24
21 25 24 18 25 18 25 18 25 21 19 22 25 20 15 26 24 19 19 21 24 26 26 17 15 22 24 15 21 16 17 20 22 22 24 26 19 24 23 25 15 22 26 24 26 24 24 21 25 17 26 17 21 20 16 20 26 26 24 19 22 16 17 24
14 18 20 20 19 22 15 21 17 18 14 21 24 23 17 26 16 15 24 19 24 26 16 22 21 24 20 22 18 23 15 22 21 17 21 22 18 16 15 17 26 25 26 22 19 17 15 25 24 21 25 26 16 23 21 21 20 21 24 20 18 19 21 21
