P2
64 64
255
19 15 15 19 19 18 14 26 26 25 14 26 14 22 23 23 20 19 23 16 14 22 15 15 14 15 15 24 18 19 25 24 23 19 18 20 18 26 25 24 17 22 23 19 14 25 16 24 22 16 20 18 22 16 18 18 20 24 26 14 22 17 20 15
21 23 14 18 20 16 18 19 20 18 14 23 21 22 20 15 14 26 24 22 19 19 21 22 18 17 25 25 24 16 21 15 25 26 21 23 22 15 19 25 19 15 14 19 23 15 19 22 21 25 19 15 16 23 19 17 18 16 14 15 25 16 24 17
14 17 25 18 19 17 26 25 24 22 20 20 20 19 18 25 24 19 15 18 23 20 20 17 21 15 25 18 18 26 23 21 24 22 19 23 22 21 26 26 22 25 17 22 23 16 26 21 26 26 17 14 15 22 15 22 23 14 18 17 20 22 18 24
26 16 21 14 21 14 23 25 17 24 26 18 14 26 16 25 19 26 16 23 26 17 17 22 26 22 16 21 19 17 21 24 19 17 24 21 16 19 15 23 19 25 24 26 25 20 15 24 21 22 15 21 19 20 17 21 17 23 25 26 14 24 18 15
22 15 17 25 17 26 14 16 16 19 21 21 20 19 14 17 17 15 21 20 14 19 26 24 23 25 20 18 14 18 25 18 17 17 23 24 17 24 20 19 14 22 16 24 20 17 18 22 25 26 18 18 24 22 20 25 24 18 16 21 21 20 19 25
26 21 16 26 18 26 22 22 20 24 21 21 21 24 20 17 22 16 17 24 25 25 20 25 26 21 26 18 17 25 14 23 16 18 25 26 24 26 22 17 19 21 24 20 16 25 25 18 14 21 23 26 24 24 14 23 23 18 23 17 15 23 26 21
17 19 26 24 20 22 15 18 16 17 23 19 20 15 26 22 16 16 26 22 24 23 18 21 20 21 23 23 16 18 20 14 18 24 24 14 19 23 20 21 25 18 18 25 25 14 14 17 25 24 18 17 24 16 24 17 21 26 14 17 14 25 14 24
18 24 23 23 17 25 15 17 16 15 20 22 22 15 22 18 23 20 25 26 24 17 22 23 25 20 23 18 20 17 15 22 20 26 21 15 22 14 26 14 26 22 24 22 15 19 24 16 22 17 14 15 26 25 19 22 23 20 17 23 20 17 14 18
19 14 21 17 23 16 23 20 22 20 16 26 18 25 14 24 20 17 18 22 18 16 22 22 15 20 15 19 18 15 15 20 14 26 21 18 26 14 22 22 18 24 20 26 16 18 16 26 26 16 22 24 16 16 14 17 22 24 23 20 20 20 15 19
26 16 15 20 25 14 17 20 17 22 18 22 24 23 20 15 14 20 15 26 25 23 23 15 22 25 22 20 15 24 25 22 24 17 22 23 21 19 15 25 15 25 16 23 15 19 16 22 17 15 23 15 21 18 24 25 18 22 26 20 14 17 23 16
23 17 17 20 26 18 18 20 17 22 23 16 21 18 17 24 15 22 26 17 22 18 24 18 26 15 25 14 15 15 18 18 19 14 20 15 14 21 20 15 21 24 24 19 19 24 22 15 25 17 26 23 25 20 25 21 17 21 24 25 20 22 24 15
22 20 19 26 19 25 15 14 23 16 22 19 18 26 22 17 16 16 14 18 26 24 25 18 25 15 24 19 26 14 24 18 26 16 22 20 25 20 25 26 20 26 17 19 14 21 18 25 17 26 15 17 21 20 15 18 18 14 26 18 16 22 15 20
23 24 14 15 22 17 19 18 15 19 23 17 18 25 22 16 18 14 20 24 24 19 15 14 25 25 19 22 18 23 20 19 21 19 19 20 22 19 15 16 14 21 25 21 17 24 14 19 18 22 15 15 17 24 21 18 23 26 22 25 19 22 24 24
19 16 15 19 21 19 15 24 16 17 25 17 25 21 20 25 23 17 23 25 24 23 21 23 17 15 15 22 16 26 15 24 15 23 22 17 23 26 19 20 22 20 25 24 17 22 22 16 17 17 19 22 15 25 16 20 17 18 20 25 26 22 21 17
25 22 14 24 23 23 26 18 15 16 16 20 19 19 15 22 23 14 25 19 16 16 15 14 17 24 18 23 14 14 23 16 20 23 16 17 15 16 26 24 17 26 15 20 23 26 25 24 21 24 18 18 15 20 14 21 25 22 16 20 14 18 25 19
23 14 20 20 25 18 19 22 15 24 24 26 22 25 20 24 16 17 19 22 19 24 25 14 24 14 20 19 26 14 21 17 24 14 26 18 21 26 19 16 25 22 15 14 15 24 17 15 21 16 25 17 16 26 18 16 17 21 20 22 19 19 15 21
23 18 14 18 23 23 21 23 16 16 18 19 24 17 20 18 14 21 23 20 23 14 17 26 21 25 15 26 25 23 14 19 21 14 20 15 26 14 21 15 17 15 21 21 21 20 21 25 21 21 15 23 22 16 14 19 14 16 14 21 20 23 16 14
23 25 22 23 20 22 18 20 26 17 26 23 18 14 20 18 22 24 21 14 21 24 21 21 18 23 20 16 15 22 25 26 20 22 24 16 24 22 19 16 19 20 20 15 18 19 16 26 18 21 26 26 24 16 14 20 21 18 21 14 20 15 24 17
22 25 14 16 21 17 16 25 23 20 16 18 18 18 21 22 26 26 22 25 20 26 26 24 19 20 26 17 19 14 24 25 16 18 26 20 18 26 18 23 15 22 21 22 26 22 23 20 14 25 24 24 24 16 25 25 20 20 19 21 16 26 17 20
15 16 25 22 23 22 25 22 24 20 16 24 17 15 21 16 23 27 28 27 19 20 27 24 21 15 17 21 26 24 21 15 26 23 14 26 20 19 24 26 25 23 17 25 27 18 21 18 23 15 18 24 21 20 22 15 19 24 22 16 14 23 21 15
20 21 22 19 22 16 15 20 19 22 25 24 17 14 15 24 29 22 33 27 27 33 31 29 25 26 28 18 20 23 17 18 14 18 17 25 25 23 19 18 20 27 29 23 31 29 21 24 18 21 17 25 19 26 26 24 24 16 20 26 26 26 19 19
23 14 16 18 25 18 21 15 19 22 20 19 16 26 21 20 24 30 26 31 28 25 31 28 34 30 25 21 27 15 17 14 24 25 19 26 19 27 30 30 32 26 31 37 36 29 25 24 30 31 22 27 25 16 23 16 22 18 23 18 15 23 26 25
14 26 26 19 19 26 14 15 16 26 24 20 22 28 32 30 32 28 38 34 37 30 40 31 32 29 32 32 31 18 25 26 15 18 27 23 25 27 35 34 31 34 30 39 40 36 37 34 30 27 28 32 20 16 17 24 20 14 21 24 25 19 17 19
21 20 14 14 20 18 16 19 23 14 20 28 23 33 25 35 30 36 41 34 35 40 36 38 42 29 39 33 30 32 26 18 24 20 27 22 23 26 35 35 41 35 35 42 38 34 32 33 40 37 36 30 25 22 17 25 23 25 24 20 23 17 23 17
14 16 23 17 21 23 24 21 24 24 28 26 23 30 40 35 39 44 48 43 48 42 42 37 44 45 39 29 26 30 23 19 19 27 25 33 34 40 36 44 45 48 43 49 48 45 39 34 45 38 39 28 35 28 26 19 15 26 21 23 25 22 22 14
18 23 26 22 14 15 22 26 25 16 29 33 27 30 41 35 41 45 48 47 47 47 46 43 48 36 45 32 36 25 26 21 26 22 28 30 30 42 36 39 43 39 48 45 43 42 50 40 46 38 37 28 35 22 20 17 26 19 25 22 24 23 21 15
24 23 25 19 23 15 26 18 18 30 23 36 30 33 39 47 45 46 50 46 56 48 53 49 46 49 45 38 34 37 37 23 29 24 33 31 33 37 41 50 47 51 52 45 46 45 52 43 39 37 41 35 28 31 22 22 20 19 15 25 22 20 17 24
15 23 15 14 22 25 24 22 19 22 25 38 34 38 42 43 44 51 55 59 56 52 49 47 57 45 39 43 33 35 27 31 35 25 35 42 38 37 41 53 47 58 54 51 57 52 47 52 43 40 40 38 36 38 24 26 27 15 15 25 16 16 14 24
17 14 20 14 19 18 15 21 18 23 28 38 35 36 46 51 57 50 51 59 64 61 53 54 49 55 53 41 44 41 34 30 28 35 35 38 36 41 46 46 51 55 54 65 54 58 54 56 55 45 49 37 35 31 29 28 19 14 24 26 22 18 22 19
24 23 24 18 23 16 20 25 19 27 30 38 41 42 45 53 55 63 54 57 67 60 58 65 59 52 47 50 40 35 40 32 40 30 42 37 49 46 46 54 60 59 58 60 68 61 61 57 48 53 44 38 34 36 37 26 26 24 19 22 24 18 20 22
14 19 19 26 25 18 21 22 26 33 30 35 42 50 46 54 49 58 64 70 60 60 62 59 64 58 58 51 49 45 34 40 37 44 38 38 44 48 49 55 55 58 67 70 60 66 68 61 57 52 42 49 45 37 37 25 24 15 19 19 20 25 16 23
19 24 23 20 20 17 18 22 29 25 37 33 39 49 53 54 63 58 68 73 67 73 69 65 55 62 58 44 50 35 35 35 38 35 34 38 43 43 54 60 63 66 71 64 75 70 69 59 58 57 43 44 41 37 39 29 25 18 24 14 24 23 20 17
16 24 17 16 14 14 26 27 31 34 30 37 37 41 50 50 52 55 67 63 70 72 64 67 63 57 57 47 43 40 35 34 35 40 40 43 50 48 52 56 57 65 73 67 79 71 69 56 58 53 44 40 45 42 31 26 21 24 22 20 22 26 25 14
23 22 21 16 17 15 25 28 30 30 36 36 37 49 45 59 62 59 65 65 74 65 66 58 58 58 58 52 46 45 40 42 36 36 35 47 50 52 59 54 55 62 70 64 67 71 61 66 56 49 52 50 35 43 29 35 27 20 15 19 22 14 18 19
19 21 19 15 18 24 19 18 19 27 37 41 46 40 46 57 54 62 61 64 69 61 68 62 63 58 46 44 39 44 44 41 34 42 35 41 44 44 49 57 64 63 71 72 62 63 56 65 56 52 47 44 46 39 30 34 28 16 20 16 14 14 26 17
25 14 25 14 20 25 22 17 30 34 38 41 40 44 48 47 58 63 55 62 69 58 66 62 61 59 48 46 44 35 34 37 31 31 32 43 38 49 55 58 52 58 55 64 68 55 53 56 53 51 52 49 40 34 38 26 27 25 21 16 15 24 17 21
22 18 17 23 20 26 21 16 29 29 37 29 36 46 39 51 48 60 52 60 53 58 60 57 57 46 45 41 43 41 31 37 35 36 38 42 41 49 54 50 51 60 63 63 63 54 55 52 57 46 51 39 36 33 37 24 26 17 25 23 16 22 16 15
15 26 16 24 16 16 22 19 20 24 30 36 32 39 47 40 50 53 52 51 55 59 49 53 57 42 51 45 42 38 33 33 36 27 37 30 35 36 46 49 46 57 60 57 61 51 54 52 53 47 41 36 39 37 27 27 26 23 17 16 21 18 18 17
24 14 16 25 24 19 22 20 26 21 31 25 33 42 36 43 47 41 54 53 51 53 54 50 44 49 42 44 35 34 33 23 28 22 31 28 39 36 45 45 42 49 53 46 53 54 52 44 42 49 38 33 40 26 33 29 23 26 17 16 23 25 16 15
20 28 17 22 22 24 24 21 25 28 25 31 38 33 41 44 50 44 51 46 55 57 49 45 44 48 38 39 37 37 38 33 27 26 38 34 40 38 49 48 51 54 53 56 50 48 48 45 49 45 39 45 44 30 37 29 30 25 26 20 24 22 29 24
30 27 29 33 28 30 26 24 25 25 35 36 32 42 41 39 42 43 52 48 57 47 46 46 55 44 49 40 38 39 30 29 26 34 35 41 42 40 46 52 51 57 58 55 57 57 59 52 46 54 49 38 45 33 41 36 33 34 35 31 34 28 30 32
27 27 25 26 36 34 25 32 29 29 30 34 37 42 49 51 42 43 54 47 46 56 57 46 45 54 48 46 49 36 38 40 33 39 37 38 48 42 54 49 59 48 59 61 61 57 54 59 58 55 50 46 48 42 40 40 43 43 44 36 35 33 44 37
20 22 22 31 26 27 33 25 24 26 24 29 31 30 35 42 42 36 36 39 42 44 46 37 44 43 34 40 29 35 33 28 32 33 37 32 35 43 46 38 43 45 40 50 41 43 44 50 46 41 42 32 36 34 34 29 31 34 38 38 31 37 33 33
22 19 19 28 25 17 17 17 19 28 24 26 28 23 30 23 29 29 34 31 41 40 38 31 39 36 25 34 30 20 27 28 26 30 20 23 32 31 35 38 40 38 41 41 40 40 31 34 31 30 31 26 25 28 20 20 30 30 25 29 20 23 25 24
24 14 22 14 16 19 19 18 21 21 20 22 22 24 26 17 28 22 25 28 27 27 25 25 32 30 20 19 25 21 21 17 15 26 24 22 17 18 29 27 23 23 26 30 28 31 21 20 22 21 20 20 16 19 23 15 14 14 22 24 26 16 18 21
22 21 22 14 14 17 21 18 20 18 22 16 23 22 18 19 25 27 24 24 24 25 22 20 27 24 19 16 19 23 19 18 24 23 26 20 24 19 22 27 28 28 17 26 23 17 23 21 15 20 21 20 17 23 19 24 14 16 17 24 20 22 23 22
18 14 19 24 19 14 24 19 17 17 25 23 14 14 17 22 21 20 22 15 19 15 18 19 18 26 23 18 16 26 15 15 18 16 17 24 19 20 24 17 20 20 15 14 23 25 24 23 19 21 22 26 25 15 20 24 16 23 18 23 21 21 19 26
18 16 18 17 16 25 25 17 24 26 15 22 17 25 23 20 22 23 25 25 21 17 17 17 16 20 16 26 14 26 24 16 18 19 17 14 15 26 21 21 25 21 17 21 16 18 22 25 16 15 17 26 19 21 14 26 26 20 14 20 16 20 21 19
16 24 22 26 15 22 15 19 24 14 22 16 17 14 16 22 17 21 20 25 22 16 25 26 20 25 25 18 14 18 15 14 14 16 22 17 18 18 26 15 18 24 23 14 21 22 14 19 19 18 20 25 22 14 17 16 16 20 19 20 22 26 16 25
23 21 20 18 18 20 18 21 15 18 22 26 17 20 21 23 14 18 25 26 16 21 24 26 14 16 25 15 16 14 17 15 19 22 25 23 20 15 22 18 17 24 14 24 20 20 22 22 24 22 21 26 25 25 22 25 23 22 15 21 25 16 21 18
18 25 16 24 17 18 18 21 24 17 25 15 21 23 24 14 15 15 17 20 22 17 14 26 19 18 23 20 16 20 15 15 26 18 21 17 20 22 16 25 24 23 26 23 16 22 19 18 15 24 17 25 21 20 21 19 17 22 22 19 16 24 25 18
21 20 20 21 23 17 26 23 16 16 20 23 25 23 16 26 17 17 17 18 25 14 20 22 26 25 16 19 21 26 17 21 18 25 17 19 26 21 26 24 17 24 22 25 14 24 20 24 23 21 17 20 14 26 20 16 14 20 22 21 16 19 14 20
24 25 20 17 21 20 18 17 22 17 19 15 20 22 20 18 24 21 18 15 17 14 23 22 15 21 19 23 18 23 16 20 20 23 15 23 14 25 22 20 23 26 25 17 18 17 15 19 17 18 21 22 23 21 16 21 18 21 17 16 20 25 22 21
17 19 22 17 18 24 26 15 14 14 18 22 15 20 22 15 20 20 25 15 18 25 19 25 20 15 21 22 18 18 26 21 17 15 21 18 17 25 16 24 18 22 24 15 16 21 21 17 19 21 24 22 19 22 26 26 23 22 20 26 21 25 16 21
15 16 16 19 19 19 17 21 23 25 26 19 21 17 21 26 24 18 26 22 16 14 26 26 22 25 22 24 26 26 23 23 15 26 25 25 17 16 20 18 23 16 25 17 15 15 25 17 22 14 23 24 23 25 22 15 19 14 17 14 19 22 18 17
16 26 24 22 22 22 18 21 22 23 18 15 17 17 15 21 23 17 20 19 22 25 21 24 17 25 17 15 18 20 14 14 22 21 16 15 25 18 20 14 17 16 18 24 19 17 17 24 21 19 14 19 26 26 16 15 19 23 14 19 18 16 16 21
19 15 14 25 23 18 15 14 24 22 23 19 21 18 21 21 14 24 18 23 25 15 17 26 23 23 22 24 14 22 22 26 15 24 14 18 14 18 23 18 23 23 19 23 14 19 18 23 15 16 18 24 25 22 25 16 22 24 18 18 14 22 18 14
18 15 22 17 16 20 19 19 26 20 24 25 24 19 15 23 14 22 25 24 26 23 22 18 18 18 24 17 19 18 15 24 24 21 23 16 14 25 16 19 25 17 19 22 23 15 14 16 20 25 21 19 24 22 22 14 20 19 18 19 23 16 17 26
14 17 22 15 17 18 24 18 26 14 18 26 16 21 17 16 17 20 24 19 14 17 26 21 16 19 24 19 14 25 20 14 24 19 22 24 17 25 14 19 19 17 14 23 17 15 25 26 15 24 26 14 20 17 26 25 23 14 19 19 20 21 17 21
16 19 26 20 18 23 24 24 25 25 18 24 20 17 22 26 24 15 15 21 20 15 17 21 22 14 21 16 18 26 22 15 23 22 16 14 22 19 19 15 19 26 14 18 21 20 18 15 21 23 24 16 17 16 17 15 21 20 22 15 14 16 22 26
23 18 14 18 21 19 23 25 23 15 17 25 24 24 16 24 18 14 15 15 16 17 19 26 22 22 20 25 26 22 20 15 26 23 19 15 18 16 25 15 16 15 15 24 25 16 18 15 22 24 20 14 19 20 21 18 17 20 15 18 21 23 25 19
19 26 18 16 18 24 22 18 25 14 24 19 16 22 20 23 14 14 14 22 17 16 20 23 15 17 25 19 23 16 19 26 26 17 14 20 23 18 25 21 22 16 25 18 23 17 15 22 21 14 21 18 16 16 19 15 23 17 21 26 24 17 16 21
23 23 19 21 23 18 26 20 23 18 22 18 18 23 25 16 23 17 25 21 24 15 20 21 22 25 21 25 24 21 23 15 23 21 26 22 19 17 15 18 15 14 25 16 14 16 14 15 22 17 15 15 24 23 22 23 15 21 20 17 17 18 22 23
16 20 26 14 22 18 21 26 19 14 15 22 16 26 19 18 17 22 15 17 16 25 15 19 18 17 14 21 16 22 17 15 17 17 20 19 21 26 20 16 19 20 14 16 26 24 15 26 15 19 16 24 19 17 25 24 22 26 14 26 15 15 20 18
