P2
64 64
255
29 18 26 19 38 23 32 26 22 38 28 21 38 20 28 37 19 23 33 32 36 18 21 21 30 19 34 37 26 33 27 19 34 27 27 19 22 38 27 18 34 24 37 34 28 19 38 20 28 37 31 31 38 19 29 25 31 19 23 26 19 37 19 35
29 34 26 31 23 38 32 38 28 19 19 34 34 37 35 29 33 38 37 19 25 20 37 37 18 22 19 34 38 38 23 30 31 20 32 26 25 20 29 33 25 38 21 27 21 31 26 36 19 23 35 37 27 33 21 20 35 25 32 25 29 31 18 33
34 38 29 21 33 37 38 25 22 21 18 23 27 28 29 26 18 33 38 24 28 23 31 18 20 33 19 24 30 21 29 30 21 37 18 37 31 20 22 23 29 35 25 37 34 36 28 28 23 22 35 34 20 24 19 23 28 28 30 30 29 33 25 29
28 25 20 20 20 24 27 35 27 27 22 34 24 36 34 27 27 26 28 36 21 35 25 38 27 21 34 31 34 20 38 24 21 36 25 22 31 22 20 29 24 21 21 33 21 23 34 34 25 37 27 36 28 29 23 35 21 24 25 30 30 31 28 25
36 21 21 18 30 27 21 37 37 37 21 31 23 21 38 24 33 32 20 26 19 28 33 22 30 36 34 23 36 35 25 31 21 20 27 33 30 23 31 30 24 25 27 37 31 37 30 31 23 27 35 36 31 29 38 30 27 34 21 27 37 28 19 19
27 25 26 19 21 35 33 31 35 37 20 20 38 24 31 33 27 30 33 18 27 29 35 24 33 38 28 28 25 24 32 22 21 24 37 30 22 23 36 38 30 19 35 34 27 28 34 32 34 18 18 27 27 21 18 25 33 23 24 29 23 22 34 18
35 36 22 38 37 31 22 19 28 31 33 30 18 28 33 23 26 23 25 38 19 38 36 38 38 28 33 30 21 28 27 33 20 19 18 18 29 27 34 27 30 19 38 19 24 26 22 24 35 18 36 20 20 24 31 29 29 23 24 35 28 28 25 25
25 21 21 18 38 29 22 31 37 27 37 31 25 38 26 28 27 23 20 34 23 28 22 25 33 25 24 35 28 28 32 23 26 32 27 24 30 25 19 32 32 30 38 24 22 36 20 33 31 35 18 36 33 19 18 27 28 21 18 27 22 21 32 32
26 33 22 23 34 32 32 25 24 34 31 18 35 32 35 33 36 21 31 18 18 19 35 27 27 33 22 22 34 29 28 38 19 23 27 25 21 35 18 25 23 29 22 32 20 34 28 29 24 38 38 37 22 27 23 36 18 18 34 27 35 36 31 18
32 19 35 32 18 31 26 25 30 23 35 25 24 23 36 19 23 35 26 33 18 34 36 18 26 29 33 27 26 21 32 27 30 24 37 22 37 29 26 27 31 19 29 21 34 23 28 32 26 20 18 33 27 33 25 22 34 34 34 23 18 18 25 18
38 32 35 27 23 21 33 25 31 33 37 24 22 36 38 24 25 29 22 22 37 35 25 38 25 31 34 23 24 37 28 38 32 22 23 28 21 21 26 35 34 22 22 18 35 25 20 30 37 27 38 32 36 35 19 32 36 20 27 22 30 38 32 30
37 31 35 23 24 38 29 21 31 19 38 27 20 32 25 36 24 23 27 34 34 33 22 37 37 34 28 26 24 31 21 24 22 35 27 19 29 18 31 35 37 29 29 26 30 36 21 32 38 27 25 27 34 37 29 33 22 19 22 35 18 36 38 34
30 33 22 30 25 38 34 37 29 22 29 33 38 36 37 26 18 32 30 32 25 34 21 30 36 33 31 32 31 25 26 35 37 29 35 28 37 30 23 37 18 26 36 24 30 37 36 21 21 26 38 33 32 33 27 18 37 30 35 32 36 24 38 21
27 29 33 28 34 38 26 22 37 26 36 36 37 26 27 29 26 20 27 38 19 36 26 18 28 27 20 30 19 35 34 26 32 28 21 34 38 31 28 33 38 37 24 32 20 28 34 34 34 27 18 32 20 24 28 38 30 26 37 24 30 35 22 22
25 19 27 28 23 21 23 30 33 36 24 23 28 32 30 24 32 29 35 21 22 32 30 25 21 34 23 38 22 20 29 34 25 28 30 20 34 27 19 37 35 27 27 30 35 33 25 23 28 26 28 21 20 18 35 22 36 32 32 21 19 35 24 38
32 19 23 28 24 21 38 24 36 18 23 32 27 22 30 22 26 20 35 36 24 30 22 29 25 24 34 35 27 21 18 30 27 21 21 35 25 19 28 22 31 38 24 35 20 24 27 32 33 21 36 36 32 37 27 33 28 19 25 19 38 30 26 27
28 26 20 23 18 29 38 32 36 32 32 21 32 19 22 27 23 19 19 31 38 35 21 19 27 36 28 29 33 23 30 20 20 26 20 37 33 18 18 19 22 27 30 24 23 27 36 30 38 26 32 21 22 28 38 33 32 24 19 28 25 29 23 19
22 37 29 34 35 28 31 30 30 22 28 26 20 37 31 20 19 22 32 35 38 34 29 38 25 32 38 37 29 35 30 19 28 30 31 32 38 22 38 26 36 27 35 35 37 20 28 27 31 38 38 24 35 37 36 24 18 29 31 38 35 38 26 25
36 33 18 24 34 35 19 23 34 23 30 26 25 25 27 22 32 28 34 19 29 36 38 20 34 25 27 32 18 36 27 33 34 45 47 28 29 33 31 28 19 21 30 23 26 25 37 28 36 27 32 28 26 36 32 28 24 33 29 21 29 18 23 31
31 28 29 18 22 37 35 36 23 32 33 35 19 35 22 37 27 29 24 31 27 39 33 37 38 38 21 29 42 43 59 49 56 60 44 54 45 47 41 33 32 30 31 34 23 23 39 30 27 29 22 29 18 22 26 38 36 27 26 22 35 18 31 38
18 18 19 29 37 22 22 33 34 19 18 33 19 25 21 27 42 34 42 44 30 31 29 35 47 40 32 58 60 55 60 75 70 64 67 50 47 54 39 37 30 39 34 31 27 37 45 41 33 39 27 31 29 25 27 25 37 21 32 37 31 23 26 29
28 22 27 29 18 19 27 24 32 24 38 37 18 25 34 36 37 42 40 32 49 37 49 32 45 59 58 68 74 88 88 91 88 95 81 73 68 56 62 50 39 34 36 40 40 38 34 29 39 38 35 23 28 20 18 33 37 33 32 18 19 22 34 32
20 21 18 20 31 33 27 35 37 18 26 29 35 26 39 34 47 39 33 44 43 50 41 48 58 55 66 76 101 109 114 118 101 106 91 87 84 79 68 56 46 50 33 36 39 43 49 46 44 28 46 41 24 28 33 25 18 23 26 30 29 30 35 21
27 23 31 19 30 28 37 32 34 25 37 30 30 34 30 49 38 46 44 38 42 50 62 60 59 69 90 111 120 120 119 118 137 116 127 105 107 83 78 62 51 43 50 55 39 53 39 53 34 35 47 40 34 33 37 25 18 28 28 36 23 35 19 36
22 27 29 33 23 25 20 18 18 25 33 41 43 32 47 44 40 38 56 56 43 57 64 62 81 77 110 106 126 134 152 151 136 135 130 130 118 100 79 72 69 65 46 42 53 61 60 55 55 49 37 47 43 30 31 34 20 25 22 18 21 34 32 29
20 18 34 18 18 19 24 29 19 40 27 45 33 50 41 40 51 47 60 48 51 53 63 71 74 107 113 129 134 148 163 151 166 155 161 135 122 109 86 81 73 68 63 64 64 60 61 55 58 55 35 47 40 38 26 25 26 36 23 30 20 19 24 37
25 25 30 30 21 34 35 18 33 38 35 36 48 46 45 58 58 58 59 65 57 60 63 89 84 94 115 134 151 164 167 170 175 188 160 138 136 106 106 78 84 73 68 53 56 60 49 64 56 48 57 45 46 39 41 24 21 18 30 28 23 36 34 18
34 20 36 27 20 34 29 25 30 40 33 45 42 50 61 44 63 61 63 60 55 72 80 88 99 98 118 131 164 164 170 164 166 166 151 138 124 105 102 95 85 79 65 57 62 59 69 61 65 49 59 48 42 49 35 26 23 21 32 29 38 37 28 38
28 25 29 23 23 38 25 37 34 28 47 47 39 47 48 53 51 66 62 65 69 74 87 91 86 110 115 136 150 156 173 168 167 172 159 145 137 114 106 86 77 78 70 68 58 71 58 52 67 46 56 53 53 49 31 25 33 36 37 27 24 20 38 26
29 19 20 38 21 18 28 36 32 26 45 52 54 56 45 60 70 71 71 76 70 85 84 94 86 107 122 129 144 153 164 148 148 146 141 130 117 117 103 79 88 81 78 75 69 72 57 69 69 58 51 57 57 51 37 38 41 22 26 37 33 25 19 38
36 21 24 20 38 18 22 29 34 35 45 49 58 59 60 60 57 70 71 83 72 75 91 95 95 94 99 114 134 142 129 147 141 133 121 114 106 98 89 94 72 78 68 64 65 71 69 73 71 70 59 52 40 45 48 31 24 20 28 27 36 25 36 32
22 32 32 20 30 34 32 29 37 37 33 39 57 57 51 61 74 61 68 66 80 70 73 86 91 88 101 113 112 117 113 127 130 127 114 110 88 78 89 68 71 68 73 69 86 71 77 71 64 52 59 54 47 37 39 39 25 31 32 18 35 24 18 28
24 34 33 22 21 34 37 33 36 42 39 44 45 58 47 63 72 59 71 79 87 78 82 88 83 91 99 105 93 104 97 112 106 99 88 87 88 68 78 72 74 76 75 82 75 72 82 59 75 67 53 56 54 48 44 31 37 30 31 24 36 38 22 37
19 24 28 18 38 23 23 40 41 45 51 46 42 51 64 61 55 60 66 66 77 89 91 93 91 84 83 92 84 93 98 84 88 86 68 83 79 71 65 63 75 64 82 85 83 66 65 71 70 60 66 52 39 51 33 43 38 40 24 18 28 36 19 20
20 38 24 19 33 27 18 37 24 35 44 42 48 53 50 54 63 61 69 75 85 92 76 93 82 79 95 91 94 73 77 84 80 63 58 48 52 51 61 73 75 74 81 79 76 81 68 65 69 67 62 53 43 54 37 40 41 35 20 19 38 32 23 24
24 36 35 25 35 37 22 21 31 27 39 42 46 46 64 61 67 67 72 76 80 78 87 95 87 88 80 85 81 84 79 62 57 48 45 37 45 51 65 55 64 76 79 75 81 63 66 68 52 53 45 42 37 44 44 36 27 21 19 30 21 28 35 32
32 33 34 33 25 21 30 21 38 44 49 33 51 56 56 55 59 59 62 80 77 86 99 96 102 101 95 82 71 71 62 62 47 41 44 44 58 47 60 55 58 54 67 68 77 60 68 66 60 66 48 44 54 49 29 26 22 37 34 26 32 25 20 25
29 28 31 32 30 23 32 36 40 36 35 38 38 42 42 56 66 55 71 83 86 95 93 96 100 103 94 97 90 78 76 53 59 52 51 45 44 42 49 53 58 70 64 64 61 56 67 50 56 54 54 45 52 33 46 28 27 30 36 25 18 31 26 28
27 22 28 34 27 36 24 36 33 26 40 41 35 50 43 56 56 67 61 68 80 86 97 101 100 96 96 103 97 87 77 56 50 54 58 52 46 56 50 46 47 67 65 54 56 61 49 63 47 55 56 51 44 30 39 23 30 26 35 27 24 27 20 29
36 30 38 31 26 34 28 20 36 38 39 33 49 50 42 52 42 50 60 66 88 83 82 103 94 105 97 87 80 89 65 66 61 54 48 40 42 43 53 47 54 55 56 59 63 55 44 44 54 48 54 41 34 40 23 33 35 35 29 26 33 25 23 18
32 36 32 29 22 35 24 31 36 35 40 32 35 32 50 37 43 48 72 63 82 84 92 96 110 99 110 92 92 83 80 73 54 41 42 46 50 41 52 50 55 52 60 42 49 42 51 49 55 51 33 40 37 24 35 34 20 31 36 21 22 35 31 26
24 19 25 24 34 38 27 20 29 21 29 28 44 36 45 40 36 61 64 75 73 86 87 99 93 103 117 92 82 81 66 56 50 39 52 40 27 44 44 39 44 43 50 37 47 50 55 55 47 45 48 35 32 39 28 34 19 35 34 36 20 33 29 18
36 22 31 37 21 27 26 18 32 36 27 22 36 32 31 30 34 48 45 54 76 85 77 88 85 93 88 87 83 85 59 67 57 52 37 28 40 44 48 47 42 51 46 46 46 52 46 48 41 33 43 41 26 37 34 18 30 18 22 32 32 23 30 26
32 24 19 20 27 23 26 20 35 22 24 34 25 35 31 39 26 50 46 52 53 77 78 89 89 83 97 94 87 76 65 60 47 49 43 42 30 33 28 33 46 44 49 32 45 30 33 45 28 29 28 31 33 23 18 34 34 19 27 33 33 22 35 23
31 36 26 30 27 26 35 31 25 36 38 32 30 35 38 34 26 46 35 42 52 53 76 71 66 86 84 70 78 71 53 48 43 42 37 27 38 23 25 28 29 40 30 38 27 33 34 38 41 34 25 24 21 23 38 22 35 34 30 37 18 37 32 27
37 22 27 33 29 31 33 27 31 27 23 30 36 18 22 25 29 39 28 47 49 63 62 57 72 61 78 71 69 52 61 46 44 50 39 30 21 23 32 26 38 28 36 24 38 35 34 32 34 24 33 20 26 20 18 36 27 30 32 34 20 32 29 34
18 31 34 31 28 33 27 31 27 37 18 30 33 29 24 27 21 22 41 43 47 42 62 46 51 66 56 68 48 63 55 54 47 46 24 24 24 30 27 34 36 26 36 35 35 24 18 33 21 27 20 31 28 34 27 29 18 19 33 22 23 28 33 33
19 20 30 37 35 18 27 27 30 34 18 37 30 18 31 25 29 36 25 42 28 40 53 47 58 64 52 63 62 54 48 45 29 39 29 32 31 28 18 18 19 36 34 25 29 22 38 34 25 27 34 29 22 35 33 35 19 37 27 22 31 29 25 26
30 29 27 32 23 37 34 34 22 18 24 32 28 35 31 21 19 26 33 32 39 35 34 33 54 56 54 40 36 53 50 35 40 25 31 38 35 34 26 24 27 36 37 20 25 21 35 20 20 29 35 30 18 31 37 27 18 21 20 30 28 36 21 22
18 23 30 21 21 22 20 20 18 36 23 35 21 28 36 34 22 38 34 38 28 40 37 35 42 38 47 36 38 32 28 41 31 19 28 35 19 35 28 23 34 20 19 20 22 26 32 20 25 22 24 33 26 37 21 22 18 34 18 31 25 31 25 35
27 36 38 19 25 33 21 29 30 25 27 23 33 24 31 24 30 26 18 37 29 29 26 27 29 24 26 27 28 30 23 20 27 20 18 29 23 18 22 34 37 20 34 22 23 23 26 32 35 20 27 31 30 30 35 32 34 38 32 22 19 33 23 37
20 25 28 33 28 25 36 24 34 19 36 22 33 24 38 36 23 36 28 27 19 18 38 35 18 32 23 21 19 36 28 22 23 34 34 32 21 30 38 30 31 23 22 32 18 38 29 19 29 37 36 23 19 26 34 34 31 18 38 21 26 38 34 28
25 25 24 29 32 19 31 30 26 28 36 37 21 38 27 33 24 33 18 19 18 33 18 22 26 31 24 31 21 38 37 23 33 19 37 26 29 26 38 30 20 28 36 35 26 23 34 19 21 32 25 25 30 31 35 22 24 30 26 21 18 23 20 20
30 28 32 31 27 38 18 35 30 34 22 25 26 22 29 29 26 23 33 28 37 28 34 20 38 30 25 35 22 36 36 37 38 24 25 27 34 32 23 21 30 23 30 28 28 23 20 31 24 37 32 19 36 19 27 20 30 34 24 28 32 23 25 31
37 22 23 29 29 38 37 23 30 28 19 35 29 30 30 35 28 27 38 33 33 24 36 20 28 30 33 25 31 25 20 29 32 23 30 25 27 36 33 21 35 19 25 36 37 23 28 20 32 35 31 26 26 21 27 38 28 32 24 27 22 18 33 34
27 21 19 29 21 32 19 34 35 18 28 21 28 35 21 21 35 35 27 22 22 18 37 29 33 38 27 20 20 24 19 30 30 20 36 30 32 26 28 38 34 28 24 29 36 19 20 21 21 22 36 25 30 36 36 18 18 36 20 38 38 36 32 27
26 30 33 21 18 35 22 38 34 38 19 35 38 27 33 34 32 33 18 37 31 24 27 18 27 30 27 24 37 28 33 36 30 36 35 25 20 37 37 29 35 18 35 29 36 23 27 23 33 38 24 34 29 27 26 30 24 30 19 29 34 27 26 28
37 30 29 22 28 22 35 38 25 38 33 31 32 38 37 21 18 24 27 30 30 28 34 20 38 37 32 26 21 22 27 30 38 30 33 29 36 27 33 25 20 32 34 28 20 38 29 25 34 28 34 25 27 19 26 25 33 31 30 25 20 37 20 28
29 27 20 25 29 20 32 20 35 27 19 30 32 33 32 33 19 22 32 32 33 19 32 32 31 36 20 28 33 37 36 35 27 21 38 25 38 36 30 29 25 34 35 31 27 19 24 28 26 26 32 34 30 29 37 18 26 25 34 34 36 23 30 24
18 32 26 18 32 18 29 37 19 26 29 19 18 29 32 29 21 37 23 37 30 24 30 29 22 28 18 23 32 31 34 24 23 32 36 29 25 34 38 23 30 19 38 35 27 22 36 27 30 20 20 18 37 34 29 18 29 22 25 26 28 25 18 29
37 34 27 34 27 29 38 38 36 23 38 24 27 21 20 38 25 21 23 22 33 25 22 20 21 24 38 34 31 32 34 37 35 29 30 18 31 25 23 27 19 31 28 31 34 19 22 24 23 31 31 27 24 26 28 28 21 28 21 27 30 26 35 25
28 30 28 31 24 38 37 28 18 27 25 34 29 31 28 32 28 23 21 26 37 19 29 31 36 33 25 27 33 20 30 22 23 31 38 33 23 30 22 32 21 35 34 29 18 35 30 30 22 18 27 24 33 37 38 29 24 21 25 23 35 38 21 35
19 34 38 19 32 28 20 35 22 28 34 21 37 26 30 34 23 23 33 28 27 18 27 23 26 24 33 36 26 32 27 32 34 33 20 37 33 28 30 28 28 27 29 27 37 28 18 27 35 33 22 28 21 23 38 21 25 24 37 24 31 33 31 35
23 38 33 37 29 30 32 36 19 33 29 34 30 31 28 28 21 26 19 23 23 19 20 33 23 28 20 27 22 30 28 25 21 26 22 29 30 38 24 24 18 30 24 37 27 27 21 18 35 32 25 19 32 32 20 34 38 28 31 28 28 18 36 26
