P2
64 64
255
26 22 21 19 16 14 16 17 22 20 22 25 18 18 25 17 21 17 17 14 14 22 23 26 24 25 24 24 26 24 22 15 18 24 19 23 24 15 17 23 25 22 15 15 23 18 25 26 19 24 15 25 24 15 25 26 19 24 24 19 21 25 14 18
14 26 17 19 18 24 18 25 26 20 23 19 21 24 14 25 17 26 21 17 17 22 14 20 24 20 26 26 26 20 14 16 19 17 18 22 17 22 21 15 15 21 16 22 17 25 21 16 19 26 26 14 22 18 16 14 23 18 18 14 20 25 18 21
21 21 16 21 18 23 16 14 21 15 22 21 20 22 15 25 21 24 20 20 21 18 23 22 24 14 22 18 15 16 17 24 14 23 22 17 14 14 16 19 16 17 15 21 22 22 21 22 26 18 21 25 25 16 18 20 18 19 15 23 14 18 24 21
14 17 24 24 20 14 23 20 22 20 25 24 20 14 26 17 20 25 22 25 22 24 18 25 24 16 26 14 24 20 17 14 22 16 23 23 14 23 21 21 16 21 21 21 14 24 16 24 26 19 22 20 25 16 24 18 17 21 22 24 16 24 19 20
21 18 24 20 22 25 23 18 15 17 15 26 24 16 21 26 26 23 22 19 17 17 17 22 15 22 26 23 18 25 24 17 14 23 18 20 17 15 18 20 17 19 23 20 26 16 19 25 16 26 24 23 23 20 25 20 18 22 19 16 18 25 26 19
14 20 23 20 24 18 21 26 16 23 14 14 22 20 22 25 22 17 18 14 20 20 18 20 17 25 18 23 22 15 15 21 16 25 15 25 18 23 18 20 26 20 17 15 22 24 17 21 26 15 17 24 24 15 14 15 14 23 17 25 16 14 15 17
14 25 22 17 17 23 20 17 21 23 19 21 20 20 22 19 20 24 24 20 18 22 24 17 22 16 22 14 22 21 22 19 19 18 14 18 17 20 14 25 15 14 24 25 18 15 16 26 17 18 18 20 26 21 16 22 23 20 24 24 14 17 16 22
14 21 24 25 23 23 16 21 17 16 14 20 17 23 18 19 16 25 20 23 15 24 23 17 19 24 22 24 25 24 14 14 20 14 18 15 14 14 22 20 18 23 16 20 16 26 24 24 19 23 17 19 26 22 24 20 15 23 21 18 23 21 20 24
25 19 22 18 18 23 25 15 19 19 19 18 15 26 23 24 17 14 14 26 24 14 23 15 25 24 26 26 18 20 21 14 22 14 19 18 15 26 23 18 25 16 24 21 23 20 26 18 18 14 22 26 20 23 25 25 25 17 20 20 18 18 24 16
18 22 18 25 21 19 18 19 14 26 25 19 25 15 16 20 20 16 25 21 25 26 18 25 14 18 26 19 24 15 24 24 14 19 14 18 18 14 17 23 14 14 26 19 18 26 19 21 17 25 14 15 15 25 22 20 14 21 16 26 23 17 24 25
16 19 14 19 24 18 16 19 15 23 18 25 26 24 21 26 20 23 18 17 21 24 15 26 23 20 20 19 23 20 22 26 21 25 16 17 24 18 18 20 18 20 16 22 14 16 17 26 24 23 20 15 18 21 24 24 21 22 23 17 17 20 18 22
15 17 15 24 26 17 19 24 26 22 25 25 17 24 19 26 17 24 23 21 15 18 24 20 25 14 22 21 19 20 17 15 24 22 26 24 21 18 14 25 16 19 25 17 19 16 19 14 16 15 25 24 21 18 22 26 20 23 20 20 16 18 20 21
15 23 24 19 17 15 15 16 23 25 23 20 15 18 17 17 21 14 14 17 17 24 22 18 18 23 26 17 26 21 16 22 19 22 23 25 18 22 22 22 26 25 25 18 18 18 15 15 16 14 21 22 18 14 22 20 25 23 26 17 14 16 18 25
15 24 22 21 22 16 18 26 19 17 26 17 19 25 20 14 21 24 19 24 23 26 23 15 22 23 26 14 15 16 15 19 21 20 14 16 15 16 24 20 23 20 21 21 23 25 24 23 22 14 24 25 16 25 25 15 20 25 25 19 22 18 25 18
26 24 22 25 23 15 26 17 26 20 18 26 18 25 22 18 26 21 15 18 18 25 21 22 17 22 20 24 15 16 24 14 23 17 19 15 26 16 23 22 25 17 21 14 25 25 17 22 15 21 19 16 22 16 20 24 23 20 24 22 18 19 16 24
23 23 14 26 17 22 21 24 15 19 21 19 21 26 24 19 26 18 14 24 25 16 19 25 14 26 16 17 23 24 23 23 22 25 24 24 18 19 17 19 25 26 14 15 21 15 21 17 14 25 26 17 17 24 15 22 18 18 26 23 16 23 15 22
19 14 14 24 25 14 20 19 23 26 26 20 24 18 24 16 15 19 20 21 14 14 20 22 25 19 18 17 22 18 23 23 21 20 25 22 22 22 17 22 19 18 26 17 20 17 22 24 15 22 16 23 26 23 14 23 19 26 25 25 24 26 14 26
15 24 17 22 23 23 22 14 22 23 23 17 24 23 26 20 18 22 19 15 26 15 14 25 20 19 25 26 26 19 22 16 16 21 14 23 19 17 19 24 15 15 26 24 21 25 20 26 16 15 19 20 25 16 26 20 15 23 20 15 16 19 15 23
20 19 21 20 14 14 20 16 18 22 19 20 19 24 16 22 22 23 15 21 24 14 26 18 15 18 20 25 22 23 25 14 21 14 19 23 20 14 16 24 15 19 26 24 15 15 15 24 25 22 25 15 24 25 22 19 18 19 25 26 26 18 22 14
14 25 20 25 18 18 20 18 21 16 21 22 17 23 26 24 19 19 23 17 22 26 25 22 16 20 17 20 19 20 14 20 21 24 24 24 19 21 16 22 25 29 21 24 18 18 18 16 16 26 15 22 25 16 22 18 26 23 14 18 18 16 22 24
18 22 18 25 15 22 16 18 20 17 25 21 18 25 24 17 25 25 32 30 29 25 25 28 30 25 26 24 15 20 15 23 22 22 17 15 14 27 17 19 24 26 21 22 29 29 23 31 25 24 22 14 22 14 23 22 17 26 26 14 15 19 14 25
21 22 25 26 14 24 21 17 20 18 26 21 14 27 26 23 24 34 26 36 36 29 33 36 26 22 32 24 22 19 17 16 20 24 19 17 24 30 27 34 30 28 28 37 31 26 36 35 22 31 25 25 17 24 19 14 22 20 22 17 15 15 15 21
20 20 15 24 14 25 24 18 21 25 15 18 28 32 24 25 32 27 37 34 31 41 35 29 36 33 28 29 23 26 27 24 23 17 18 27 24 22 29 27 38 31 35 34 41 40 29 27 26 25 25 29 23 22 22 21 17 21 22 21 15 26 19 25
25 17 22 20 19 16 26 21 25 19 22 26 23 33 33 31 31 34 38 34 45 33 35 40 38 39 39 33 26 24 24 19 25 14 21 22 32 36 34 41 34 33 44 38 39 43 34 41 35 37 36 29 24 19 24 16 16 25 22 22 18 25 15 21
25 17 20 15 21 22 16 19 18 18 21 22 32 29 39 43 36 46 47 44 42 43 46 44 41 33 43 31 32 32 30 19 24 19 21 33 26 35 42 38 46 44 48 38 48 45 44 42 37 37 33 36 23 30 18 26 15 19 18 15 22 20 19 18
24 15 20 23 24 26 18 16 26 18 21 27 28 29 41 45 37 44 47 44 53 53 46 44 39 48 36 34 38 34 26 25 21 24 32 26 33 35 40 39 48 42 47 50 45 41 41 47 43 36 32 38 28 31 26 17 15 21 26 24 14 17 20 15
18 16 24 26 15 19 23 20 21 22 27 34 37 41 36 44 43 46 45 49 48 54 48 48 50 45 38 37 38 39 25 22 28 22 26 38 40 36 46 39 49 44 46 55 48 49 54 49 44 44 44 31 30 25 27 26 16 16 15 17 25 18 18 22
25 24 16 14 25 23 21 19 23 28 31 34 30 40 48 45 50 55 50 57 55 61 59 49 55 42 44 36 38 32 27 35 31 33 35 30 40 39 39 49 57 50 56 52 52 56 47 50 54 47 41 38 34 27 31 23 24 17 26 21 25 22 17 21
22 26 25 20 24 18 18 19 19 31 30 37 36 42 39 49 57 54 57 61 59 58 62 58 55 55 48 43 36 36 39 36 33 30 38 41 36 40 47 51 56 58 62 59 59 52 51 54 53 50 47 42 43 39 30 28 25 25 14 18 24 15 16 21
15 24 24 18 18 16 18 17 26 24 37 32 44 46 42 49 54 55 58 61 66 58 67 59 61 57 52 43 38 41 40 36 30 35 36 33 44 51 53 54 60 63 67 63 66 63 60 61 59 45 51 49 34 35 38 23 20 25 15 25 23 16 20 24
14 23 22 25 24 26 20 17 25 32 38 40 35 47 50 48 53 63 64 68 62 63 62 66 64 56 51 45 48 37 35 37 35 35 40 37 39 46 53 57 61 56 71 67 61 62 64 56 57 49 51 49 38 32 36 30 19 27 26 16 15 19 15 26
20 18 17 21 19 18 26 27 22 26 37 31 45 51 44 51 60 66 70 73 72 75 68 67 54 50 51 50 42 38 41 41 33 34 37 43 41 55 54 53 59 59 67 64 67 68 63 60 63 47 43 46 35 32 34 34 30 18 18 16 24 17 18 16
20 19 22 19 24 25 14 26 26 32 40 33 38 44 45 47 60 60 67 64 78 69 74 60 65 52 58 52 45 43 37 34 41 33 44 35 47 46 57 58 57 68 68 72 79 71 68 67 59 51 49 50 44 32 39 28 22 19 20 17 16 25 23 17
22 19 14 19 26 23 15 24 31 30 38 36 41 43 54 50 60 65 65 68 74 74 66 63 54 52 53 49 43 37 34 43 37 42 34 42 39 54 51 50 64 67 64 74 73 72 61 61 56 57 49 39 40 35 32 26 24 16 19 23 18 16 23 15
22 20 20 17 17 20 24 25 21 26 38 42 46 44 43 47 57 62 68 63 63 70 62 61 55 51 53 54 38 36 32 43 36 42 36 38 45 44 58 54 62 59 70 61 60 62 59 54 53 57 50 49 39 36 27 33 28 21 18 14 17 15 25 20
26 20 15 21 23 17 18 18 23 31 36 32 39 47 44 52 49 52 55 57 66 64 55 61 51 56 45 50 37 43 36 35 31 35 40 36 46 44 56 47 50 60 64 58 60 60 58 57 57 49 42 38 37 40 28 30 30 17 24 18 15 17 23 17
19 24 21 24 26 19 17 23 27 26 25 33 33 37 39 51 51 50 52 54 58 54 52 62 56 55 51 51 44 38 39 36 35 38 31 40 44 39 43 57 60 53 54 53 65 64 62 48 48 46 43 39 38 29 27 24 21 20 26 24 22 23 16 20
26 16 23 20 20 16 26 19 24 21 23 33 35 40 48 47 43 53 56 57 58 55 56 50 45 48 41 41 43 36 33 35 34 25 36 33 34 36 48 44 52 56 49 50 60 59 47 48 51 42 45 41 38 33 27 22 28 14 18 21 24 14 16 14
20 23 18 16 26 26 26 15 18 30 31 27 31 35 35 49 50 53 53 52 47 56 51 47 44 43 47 44 37 39 37 26 32 25 33 32 41 36 44 44 42 45 55 46 54 45 45 46 47 38 36 40 28 36 22 23 21 20 23 18 21 14 14 15
26 21 29 26 18 20 22 21 27 29 26 29 39 42 46 41 44 42 51 45 45 55 56 46 46 40 41 45 36 31 33 27 23 24 38 38 43 36 48 47 43 48 48 52 53 56 56 52 54 45 43 42 34 32 36 30 29 26 27 27 22 21 24 21
28 32 27 26 22 32 24 32 23 25 34 38 35 43 46 41 52 47 44 56 54 48 54 54 53 46 41 38 37 37 33 39 27 31 35 40 37 47 45 45 54 55 53 51 55 57 58 48 56 50 40 49 36 39 40 35 33 28 26 38 28 35 35 33
24 31 29 25 29 27 35 27 33 31 28 32 35 37 37 40 44 50 50 48 54 47 47 49 47 52 43 50 48 42 40 34 40 29 44 45 49 40 43 49 53 54 52 56 52 57 48 50 46 54 46 50 44 43 38 35 36 37 41 37 38 40 44 38
28 21 22 21 23 27 23 28 29 26 26 34 30 29 33 42 36 40 43 37 40 44 40 42 46 41 35 31 38 37 31 23 31 26 31 35 32 35 36 45 47 42 42 51 41 40 45 45 46 44 35 31 30 32 31 30 26 27 36 26 31 36 34 37
28 29 17 20 29 19 19 27 18 26 20 21 23 32 22 28 29 36 28 41 41 41 40 35 31 26 35 32 27 29 26 23 24 21 29 25 33 35 30 28 33 37 34 35 33 34 40 29 36 32 36 29 26 26 20 26 22 23 25 25 30 32 20 29
17 17 15 19 23 14 20 20 15 16 26 15 14 19 22 17 24 25 23 24 34 30 26 22 22 26 26 21 23 23 25 20 18 20 18 24 17 20 28 18 32 28 23 22 30 33 32 31 28 17 23 14 16 20 19 25 20 19 17 18 14 17 14 16
18 15 21 24 15 18 22 19 21 19 26 23 23 22 26 22 20 25 19 22 21 19 23 29 22 27 22 19 20 25 25 14 24 15 24 19 15 22 23 21 23 29 28 18 26 21 17 19 25 19 15 23 15 22 14 21 14 21 23 16 20 21 19 18
26 20 22 15 20 17 23 26 20 19 24 19 18 14 14 15 14 14 23 23 17 24 22 23 24 19 16 22 23 24 14 14 22 17 19 15 25 19 19 20 16 20 16 14 22 15 15 20 16 26 18 23 26 17 22 23 17 22 17 21 23 15 25 14
15 17 14 17 18 26 19 26 21 16 24 22 18 21 20 23 20 19 14 24 20 24 26 16 19 18 23 25 24 26 22 21 16 20 21 14 26 18 14 20 23 16 26 17 14 19 26 24 21 18 26 18 21 24 23 21 16 14 16 21 25 20 17 18
26 18 26 20 16 21 20 15 23 14 16 20 15 17 26 23 23 16 26 16 20 20 24 19 16 18 20 26 22 24 26 23 21 26 24 24 22 22 20 20 18 21 19 16 18 21 15 18 17 24 14 16 20 17 25 22 22 22 23 16 22 19 18 18
26 19 16 21 15 25 16 24 24 19 15 23 20 24 18 24 22 14 23 14 26 16 22 19 15 17 21 14 14 14 21 15 17 16 16 19 19 23 20 22 20 26 20 15 25 26 25 20 24 25 15 23 23 17 20 25 18 26 24 25 21 24 14 14
17 19 14 19 17 25 22 15 18 19 25 22 22 22 22 16 25 26 24 22 14 18 22 25 26 19 21 26 23 23 23 20 15 14 19 18 25 17 21 14 20 26 26 23 20 15 20 22 19 25 19 25 21 22 20 23 23 24 18 19 23 16 15 23
17 19 21 21 14 23 18 17 24 16 15 18 22 17 19 24 21 22 16 18 16 16 14 21 25 17 16 15 21 22 14 26 19 25 17 14 20 17 18 15 22 16 21 15 15 15 21 25 24 19 18 24 18 22 21 20 25 15 20 15 18 17 14 25
24 25 17 14 16 17 25 21 20 16 23 18 26 19 25 20 20 15 14 21 22 25 18 17 24 16 17 17 17 23 18 15 19 26 22 25 15 23 14 23 18 19 25 23 25 24 24 24 26 18 25 15 20 19 21 15 14 24 16 15 21 21 17 14
18 23 19 26 22 22 18 18 19 21 26 19 14 17 25 16 17 22 14 25 15 22 21 23 18 20 19 19 18 16 18 14 26 20 16 21 18 16 17 23 26 23 26 23 26 17 22 23 24 24 18 22 23 25 25 21 23 19 22 21 21 26 14 23
22 26 18 23 15 25 26 24 20 14 22 23 20 14 19 20 15 17 22 24 21 15 24 25 26 16 23 25 18 19 15 20 25 18 14 18 21 18 15 26 18 26 21 23 18 23 26 15 15 24 14 14 14 20 15 20 15 19 17 15 21 17 17 24
25 23 17 23 17 17 26 18 23 14 25 20 21 21 20 22 19 19 24 20 26 23 24 24 15 23 23 24 26 17 18 20 18 20 21 24 23 19 25 22 17 25 15 22 16 24 20 14 25 14 16 22 20 20 25 25 19 14 14 24 21 15 22 14
17 14 18 25 14 14 19 19 23 17 14 25 26 19 14 24 24 19 15 17 15 25 16 23 20 18 26 20 19 17 26 18 26 17 16 24 19 16 22 20 23 24 18 14 20 20 20 20 25 14 24 19 26 17 25 15 17 17 14 24 23 25 26 18
16 24 15 22 15 22 22 19 15 24 18 19 17 21 25 17 16 23 19 15 24 23 14 23 25 14 22 15 18 20 16 20 14 20 16 17 19 24 18 23 14 15 20 14 23 22 14 22 24 17 18 17 18 25 16 20 18 19 19 19 19 23 15 15
14 16 18 14 20 21 25 14 18 14 22 22 23 23 24 16 24 23 23 17 18 21 23 23 22 25 23 18 25 24 24 23 14 22 18 14 22 15 24 19 20 14 17 16 26 20 23 24 17 19 24 24 19 17 21 19 17 17 14 16 25 20 25 17
16 24 16 24 19 26 20 26 18 21 20 16 25 26 24 20 17 22 19 25 14 23 17 25 24 18 25 16 15 19 24 18 19 14 23 16 17 22 25 17 25 17 24 25 26 15 24 17 16 16 20 26 23 19 24 14 22 17 24 25 19 22 17 21
23 22 18 21 15 14 22 24 24 18 22 26 26 14 15 22 15 16 14 19 17 17 26 16 14 18 21 26 18 14 26 22 19 18 26 22 21 16 25 25 21 25 22 20 17 17 24 22 19 17 20 18 14 18 17 21 21 17 18 20 15 24 17 19
21 22 26 18 21 22 19 16 22 17 23 24 25 26 14 14 17 25 21 14 22 24 18 23 16 19 23 25 15 17 16 17 24 20 20 26 18 21 20 23 17 23 16 15 19 16 19 23 20 15 18 15 26 19 17 24 21 26 15 17 23 26 24 23
15 18 22 14 20 23 14 17 16 17 17 22 25 19 15 23 24 15 20 15 14 25 26 16 21 19 19 14 16 22 26 26 23 22 19 18 14 17 19 21 20 26 18 14 25 18 15 21 21 22 25 26 23 21 24 22 19 23 26 21 26 25 23 21
23 23 17 24 23 26 26 18 21 26 15 17 26 20 14 16 19 14 23 19 22 23 17 16 17 21 20 25 16 16 25 23 26 14 20 17 23 18 24 16 16 26 17 19 16 23 24 14 19 20 18 23 15 16 25 15 25 26 16 19 25 26 20 14
