P2
64 64
255
21 18 29 20 31 24 28 36 27 37 37 37 19 35 37 19 29 31 26 37 30 30 22 24 36 24 36 32 24 28 19 26 32 33 18 31 26 20 25 27 20 18 35 34 28 34 24 34 26 26 27 22 27 28 24 30 27 18 37 28 27 30 23 31
23 19 25 31 23 31 29 37 31 22 19 24 24 28 20 24 31 36 27 26 22 19 27 37 32 23 19 37 20 33 38 23 18 30 31 36 32 23 25 18 20 19 18 34 32 36 34 24 33 26 18 37 20 31 33 25 36 35 31 35 36 27 25 31
20 29 23 19 32 29 37 25 26 25 26 23 37 37 37 18 25 19 19 23 24 25 34 28 38 31 28 26 34 31 20 20 33 23 37 33 38 19 30 32 35 22 29 29 33 32 25 18 18 35 27 18 32 33 24 24 38 19 22 36 19 35 33 32
22 34 27 34 25 27 26 20 33 27 23 31 35 21 26 32 19 19 25 29 27 30 30 18 33 37 38 27 20 19 19 38 37 37 20 23 37 30 23 18 24 33 28 18 30 21 37 38 36 31 28 34 27 27 21 24 25 21 28 34 35 38 24 27
27 22 23 33 34 29 20 19 35 35 31 24 30 20 22 38 33 25 26 38 21 30 25 30 38 35 35 25 27 22 23 31 28 19 38 28 23 34 27 19 32 35 28 24 38 37 37 38 37 18 36 37 25 26 34 37 18 31 34 34 19 25 38 22
26 30 21 25 25 29 29 38 21 36 21 18 23 38 24 23 31 26 24 27 24 18 28 38 37 28 36 36 36 32 18 34 38 38 19 32 18 28 32 26 26 31 19 23 20 29 36 26 31 31 20 28 31 31 37 35 22 18 22 19 35 34 34 32
32 27 21 29 25 18 31 34 33 29 30 23 32 38 25 29 23 37 18 19 21 25 38 18 18 21 30 33 18 31 21 29 24 30 36 35 28 22 34 18 31 18 18 34 26 23 34 30 26 33 28 21 20 24 27 22 31 22 27 28 27 21 29 35
23 24 32 22 31 29 36 29 26 23 36 23 33 31 31 36 36 35 37 25 34 20 22 37 34 21 29 19 22 28 21 20 23 25 20 18 25 30 22 37 36 33 35 18 23 29 31 29 37 19 18 34 32 31 33 36 32 22 35 26 37 19 35 29
30 22 27 18 37 20 29 33 30 30 20 27 20 26 22 33 38 36 20 23 31 28 38 34 19 19 26 37 27 27 30 24 35 31 29 36 21 37 26 35 38 19 18 30 37 34 26 33 34 22 28 20 30 19 22 29 30 33 19 30 35 28 29 27
36 19 27 22 26 34 20 28 38 36 21 35 34 30 27 19 37 19 26 25 21 38 19 31 32 31 38 37 30 27 31 32 29 30 24 28 27 20 37 36 36 26 19 24 20 35 20 26 23 26 22 22 21 25 33 21 24 23 33 33 19 26 18 29
28 18 18 22 32 31 33 30 22 36 19 20 27 34 35 38 30 30 23 38 26 18 24 31 25 29 37 23 32 34 35 26 27 22 32 21 28 31 26 37 21 18 22 32 18 18 27 21 26 37 25 21 34 38 27 32 24 21 26 34 23 22 18 31
19 29 28 36 24 31 37 38 28 23 21 32 21 28 26 35 34 19 32 37 22 31 34 19 31 24 22 29 25 23 35 36 34 25 26 37 37 22 22 31 34 36 26 32 20 34 37 35 23 19 27 37 28 30 21 35 26 30 22 31 38 19 27 23
19 36 23 22 36 21 32 23 30 21 18 21 22 33 37 20 22 23 31 28 27 18 36 35 28 29 34 33 38 18 32 26 30 35 22 21 30 35 21 32 22 34 24 33 23 32 38 20 28 18 26 20 38 36 18 35 26 29 25 18 29 31 20 32
36 28 34 22 19 25 34 30 31 38 23 35 33 18 36 32 29 24 31 29 22 27 24 22 22 29 34 28 20 18 38 18 35 24 32 30 24 30 26 29 28 24 20 21 19 30 27 26 25 34 21 26 18 29 31 27 28 22 32 21 23 21 30 24
23 24 36 31 33 38 31 25 23 20 28 23 26 28 27 27 32 38 26 24 22 24 23 23 28 34 38 18 28 21 24 25 33 29 20 24 20 33 37 21 32 26 33 33 32 34 31 29 24 27 28 23 38 38 26 34 28 28 24 21 18 23 34 38
30 29 23 20 34 19 30 36 34 27 18 33 24 27 32 19 30 23 24 37 23 27 36 36 35 32 25 20 32 27 20 18 18 38 30 32 30 22 29 37 32 31 29 38 33 27 18 36 25 22 27 32 24 30 31 37 32 37 33 26 28 21 33 22
22 26 25 38 38 32 28 18 33 38 36 35 18 34 27 33 18 27 22 36 27 32 34 37 35 20 19 38 37 18 25 23 29 36 36 28 32 23 25 29 29 22 30 27 30 24 30 33 18 37 30 35 28 18 30 26 22 29 20 20 27 23 30 32
28 25 30 18 24 34 24 37 25 29 31 38 27 33 27 22 21 27 36 22 37 26 27 35 28 30 34 36 23 37 21 27 28 38 29 38 18 27 34 28 34 33 21 18 19 20 23 22 18 30 34 29 22 29 19 32 26 36 18 32 22 34 34 25
35 20 33 21 29 25 18 34 28 34 36 33 31 29 24 34 34 27 35 25 31 18 31 25 24 34 29 29 29 22 34 21 37 21 23 34 19 28 28 36 37 34 22 26 34 38 35 35 38 30 19 19 23 19 30 28 37 25 34 33 32 24 21 29
21 25 25 29 33 24 33 30 18 26 18 29 25 37 26 33 30 39 24 28 36 24 24 38 22 27 22 23 32 18 23 33 30 27 23 29 29 30 18 39 26 32 33 25 30 21 25 24 30 38 38 27 33 19 30 19 29 22 32 23 28 33 29 31
19 37 35 30 36 23 37 34 28 25 18 38 25 23 27 37 26 39 41 38 31 44 33 45 28 25 32 24 29 18 23 36 24 29 33 28 27 29 30 38 30 42 28 42 30 42 43 38 25 27 29 20 32 31 21 32 34 34 18 24 18 26 37 25
21 32 27 19 20 28 31 29 23 22 35 22 32 25 35 33 26 30 47 40 34 36 32 44 29 36 44 30 37 26 36 31 37 37 34 32 24 23 39 35 29 35 47 45 31 46 28 37 35 31 34 39 30 20 18 24 36 25 18 23 28 38 31 28
33 36 35 24 30 34 24 34 23 34 25 23 38 32 34 33 38 42 36 53 47 41 45 47 32 39 32 39 42 22 30 23 24 26 31 35 27 30 30 40 51 41 51 45 46 42 43 39 39 40 35 24 32 28 28 21 30 31 23 21 22 24 36 18
24 24 21 36 23 36 22 22 28 35 30 26 39 39 41 32 44 47 45 55 44 52 50 44 38 51 49 39 43 41 30 25 37 37 37 33 33 38 39 41 41 40 45 42 49 57 39 47 37 34 30 36 36 36 29 29 28 30 19 26 25 29 18 24
23 22 19 38 18 33 19 37 18 32 31 34 35 40 50 44 55 44 41 41 51 59 57 53 53 48 52 33 44 39 32 31 29 40 34 37 43 52 42 51 53 55 59 45 45 52 42 41 42 55 45 30 39 28 27 27 24 27 32 37 20 35 25 25
35 19 19 26 38 32 37 34 24 27 34 32 31 51 53 51 50 48 63 61 62 63 63 55 45 51 38 36 33 43 42 30 22 37 32 41 44 48 46 52 56 45 51 59 47 50 54 42 57 45 45 42 36 32 25 20 28 25 23 33 33 19 27 26
36 24 35 29 30 18 30 18 18 32 43 45 42 44 56 52 62 50 63 48 49 58 49 61 54 54 49 49 51 32 32 32 38 43 43 32 42 53 51 55 48 58 60 50 50 55 52 61 62 47 58 44 43 39 42 36 30 29 31 23 27 29 18 28
35 21 20 33 30 30 37 30 33 33 42 42 45 55 54 54 47 63 59 53 66 58 66 66 49 60 57 41 50 42 30 40 39 35 46 41 41 59 60 55 68 61 57 62 58 72 59 64 61 47 43 40 52 31 29 36 24 24 33 34 21 30 36 20
38 24 24 24 21 38 19 20 24 25 48 44 51 43 48 66 54 68 63 63 67 65 73 74 71 68 60 62 50 43 42 35 41 46 34 48 46 46 62 56 68 65 57 59 76 59 66 64 49 51 63 55 53 45 39 30 32 25 20 23 29 21 32 27
24 37 29 38 31 31 23 36 38 31 31 36 39 55 58 61 66 55 72 77 64 67 65 61 66 67 68 59 42 43 44 41 42 43 46 55 44 44 64 54 63 60 73 68 72 77 77 72 64 58 56 53 57 41 39 40 28 39 25 37 30 32 36 36
21 20 35 36 24 28 21 34 26 37 40 46 46 59 51 59 55 61 74 75 78 65 77 70 58 55 53 64 54 43 48 47 36 38 52 48 52 48 55 53 59 72 71 80 70 66 74 70 54 55 54 48 52 43 37 42 23 27 27 35 20 32 30 33
25 34 32 23 34 26 22 30 40 33 44 48 48 50 51 53 73 63 75 84 88 72 74 72 68 54 60 57 44 41 38 52 44 41 37 40 53 53 53 71 72 82 76 77 70 70 67 66 70 57 53 54 42 49 49 45 37 36 28 25 35 24 26 26
32 35 30 22 32 27 32 35 26 41 34 43 48 44 67 71 57 75 69 74 71 78 75 82 75 75 59 51 59 40 57 50 45 42 56 43 58 60 67 73 78 70 72 88 73 71 72 79 74 51 54 56 46 54 45 42 44 22 29 24 34 34 29 20
38 22 23 28 35 23 24 29 41 46 51 42 49 56 53 59 72 59 63 68 71 82 83 67 71 66 54 61 49 47 42 49 43 45 40 49 46 64 65 56 73 68 68 86 84 73 77 63 56 62 62 54 54 40 46 43 32 40 31 24 20 26 22 24
25 24 37 33 38 30 18 30 38 31 50 35 57 54 59 52 53 66 72 75 84 65 70 75 58 60 50 50 55 52 43 36 54 41 44 54 50 48 50 60 62 75 77 83 74 64 76 75 56 62 47 50 43 52 35 37 41 30 19 26 38 27 22 25
26 25 25 36 22 32 22 35 29 36 31 42 46 44 52 68 57 70 59 72 72 65 79 66 64 70 68 47 59 49 38 38 51 37 45 46 41 63 64 57 54 73 76 68 81 75 69 69 69 56 65 58 53 53 32 36 37 26 35 28 19 24 38 28
31 24 19 34 29 21 37 37 32 40 40 40 51 47 58 47 64 67 64 57 74 71 62 73 55 62 52 49 57 46 32 46 33 51 51 38 49 52 49 49 71 60 66 70 76 74 72 55 55 66 50 55 48 32 46 43 40 34 21 21 29 36 26 27
25 20 27 28 37 21 37 29 32 37 29 40 38 40 48 45 61 58 60 56 65 59 66 71 60 62 50 47 54 52 48 47 39 41 49 38 52 40 57 62 60 58 61 53 61 72 65 49 54 61 53 46 44 49 31 25 23 24 21 23 37 27 34 21
20 35 31 24 29 26 20 34 31 22 26 31 46 43 55 54 51 65 63 54 52 62 60 63 56 51 53 47 49 39 40 42 35 28 39 51 37 51 57 57 58 57 55 62 49 58 66 47 62 45 47 47 34 45 30 22 27 32 38 18 18 26 38 30
36 22 32 27 34 26 40 39 40 34 39 49 50 43 54 51 59 61 58 56 65 68 54 52 63 62 59 40 49 39 48 32 42 33 37 43 43 41 48 52 67 59 68 58 52 56 63 57 62 50 54 46 53 45 36 34 40 33 29 37 25 30 43 33
31 40 29 44 37 26 42 30 32 30 45 40 46 39 51 62 57 57 48 54 53 54 62 59 55 55 58 41 45 55 36 49 46 51 43 52 49 51 64 50 66 70 54 69 63 53 56 52 58 54 64 60 42 46 40 34 36 34 44 46 38 43 49 32
29 38 36 45 32 42 29 33 41 43 42 34 50 43 57 44 48 60 65 54 53 58 66 59 57 49 52 58 52 52 53 43 52 34 56 54 57 47 61 60 58 63 66 70 55 65 62 72 65 55 62 50 42 41 37 53 48 48 48 56 37 55 53 54
28 35 32 39 33 37 34 38 34 28 29 41 34 32 52 45 39 55 59 58 49 52 46 51 39 54 57 35 41 32 34 42 33 33 37 50 35 51 47 57 42 48 54 46 55 62 45 43 61 51 42 36 47 37 36 48 49 39 35 45 41 39 43 30
35 33 37 27 41 30 33 34 30 28 24 23 35 36 33 46 40 47 35 37 36 51 44 35 40 30 40 30 42 24 40 26 34 29 30 26 42 47 37 51 46 51 36 49 38 51 46 34 51 31 36 35 35 36 39 31 35 41 35 30 29 37 25 30
18 29 27 20 24 37 20 27 35 30 18 18 35 28 24 39 29 39 26 43 37 28 33 44 41 33 26 38 28 27 35 35 28 29 32 36 27 19 33 31 36 40 25 46 46 39 37 37 40 21 24 21 23 30 36 26 28 24 23 19 31 23 37 23
26 24 18 20 35 35 25 31 21 20 23 20 36 27 19 33 30 29 27 30 26 41 24 23 24 32 33 20 38 18 23 21 28 36 26 26 23 28 25 24 31 34 39 24 26 31 40 37 23 27 20 34 24 31 28 23 24 33 20 23 37 26 19 21
20 37 34 31 32 26 31 23 37 28 37 24 33 23 21 34 28 24 28 19 28 31 38 31 25 19 38 18 23 30 27 21 34 19 18 38 26 23 38 26 22 29 19 24 28 21 21 19 37 21 24 29 37 18 19 21 24 30 27 32 37 29 18 28
27 29 27 28 38 18 21 27 33 29 28 18 28 19 36 22 23 31 34 27 22 31 19 37 34 25 26 22 21 26 18 30 30 33 28 21 34 36 30 29 22 30 34 18 29 27 27 32 34 20 37 20 35 32 29 18 22 24 30 29 30 28 24 23
27 19 29 29 38 32 20 35 26 38 32 27 19 24 27 28 30 18 22 31 19 36 36 25 36 38 24 35 34 36 29 31 21 20 25 21 36 21 30 24 20 31 23 29 27 27 31 24 27 28 36 34 36 27 24 25 38 38 33 32 34 23 31 38
30 34 34 36 36 38 18 29 19 33 32 36 19 32 32 19 35 28 33 22 23 33 32 24 19 25 22 24 26 25 19 36 20 24 35 30 22 24 37 29 33 34 38 24 22 19 32 30 29 23 27 24 29 31 35 28 25 21 21 29 19 22 38 20
20 23 24 22 25 25 34 20 29 20 37 23 25 28 26 28 25 33 34 32 18 33 32 25 32 25 26 25 38 20 29 24 34 26 25 24 18 24 32 25 22 24 38 30 21 30 18 23 31 18 28 37 32 19 35 22 25 22 38 29 26 33 30 24
36 27 28 21 22 32 24 24 25 31 22 24 35 25 37 35 35 28 22 28 35 18 23 30 38 24 27 22 23 32 33 34 26 32 37 18 30 29 21 37 20 23 33 28 30 27 37 38 21 19 23 37 28 35 29 18 33 29 24 30 23 20 23 33
31 19 29 19 27 24 26 36 36 34 27 36 23 32 24 33 22 26 24 30 30 34 29 32 18 19 36 31 31 24 34 35 35 21 37 22 33 21 22 32 25 23 36 20 18 22 32 35 20 26 27 24 31 32 26 37 28 36 24 34 26 34 31 24
26 35 26 36 27 27 32 22 21 30 35 37 25 18 20 37 33 19 25 19 35 36 32 25 23 21 24 19 26 27 29 27 37 38 38 33 28 26 27 18 21 20 32 23 27 37 33 30 19 24 24 29 36 23 33 33 27 29 37 24 21 22 18 34
24 38 32 32 23 36 28 33 29 35 35 23 38 27 35 30 28 27 21 30 36 30 35 35 29 37 29 33 35 24 33 35 36 38 36 20 25 20 26 23 18 33 21 22 35 26 27 34 32 38 26 35 33 36 28 24 38 25 36 21 36 26 28 38
33 27 38 37 33 27 22 21 38 32 31 33 28 27 37 32 32 34 20 23 24 35 20 36 32 34 22 25 32 35 38 36 38 22 25 18 21 37 32 23 22 38 21 33 32 26 20 35 18 32 24 36 29 23 26 18 24 35 20 21 19 28 23 23
36 19 30 26 22 37 32 21 38 37 23 35 20 27 28 25 29 24 19 22 22 31 29 38 37 20 18 38 35 25 21 35 19 26 34 19 31 29 32 36 18 31 28 24 22 22 27 22 21 34 34 32 38 22 18 29 23 28 36 24 26 32 37 26
36 33 26 30 34 18 34 32 34 18 29 20 36 29 20 31 24 34 38 31 19 31 27 35 20 20 28 29 26 26 36 37 37 29 20 18 26 24 25 32 34 19 25 37 26 22 27 33 38 19 31 19 34 35 34 25 29 37 18 33 32 25 33 22
38 29 28 30 24 21 36 26 26 19 27 36 18 38 29 31 31 23 23 24 21 33 26 21 38 34 22 23 27 34 29 38 19 31 31 29 22 32 21 26 21 21 29 38 37 24 36 20 32 18 38 24 38 38 23 38 21 37 21 20 19 31 35 18
18 20 21 24 38 35 27 20 29 26 20 32 29 19 23 31 28 27 23 22 38 21 22 29 28 20 37 27 26 31 30 18 27 36 36 36 35 36 36 32 38 20 36 25 31 35 28 19 26 21 34 28 23 18 32 27 29 26 25 23 33 25 21 28
35 34 21 29 29 26 30 33 31 27 19 34 36 20 29 25 27 34 26 29 21 18 18 24 33 31 28 29 26 27 34 34 30 37 23 26 27 19 35 21 25 25 18 26 18 23 31 22 20 29 19 30 20 32 31 36 33 29 27 25 33 18 29 24
22 32 21 20 23 34 36 27 21 19 28 19 38 19 32 19 21 27 23 20 32 34 20 34 27 33 27 27 21 18 18 26 32 21 29 26 36 26 38 26 35 26 25 30 26 31 31 36 24 23 31 32 24 22 25 20 34 19 31 37 27 26 30 37
22 37 28 28 36 24 25 27 31 24 22 21 23 32 26 21 20 34 32 23 32 32 19 36 21 26 32 20 35 24 30 32 30 24 33 36 32 32 24 32 35 22 35 37 29 19 30 20 36 34 34 18 34 30 38 26 36 30 25 37 23 22 25 36
24 27 35 27 28 34 32 19 37 18 38 36 20 38 33 37 24 23 25 35 20 27 31 26 35 20 31 33 18 19 19 37 31 32 34 36 34 31 27 38 32 38 25 30 24 21 32 31 22 37 35 31 38 37 24 24 31 18 34 33 37 29 28 23
