P2
64 64
255
26 18 24 32 38 22 25 33 18 27 38 20 38 35 36 28 28 31 24 20 22 25 34 20 18 24 38 35 24 20 19 21 25 36 25 32 32 18 24 32 20 37 26 33 31 28 32 36 33 32 22 36 36 21 30 24 33 24 34 36 20 22 21 23
20 20 22 37 18 26 31 34 24 26 19 37 26 29 26 32 33 36 34 25 20 28 20 31 27 28 24 27 23 33 29 26 22 37 24 35 27 33 27 26 23 38 22 24 32 19 20 20 27 29 25 28 34 21 36 35 22 34 26 24 25 24 21 34
25 18 31 19 30 27 22 37 35 18 32 19 38 24 34 22 27 32 19 37 19 23 21 18 37 33 25 31 36 20 32 29 27 30 22 26 28 22 27 36 31 19 32 31 35 33 36 34 33 35 22 28 36 28 18 38 36 29 22 25 18 37 35 20
37 22 30 20 29 26 21 36 36 27 37 32 28 21 35 32 27 35 27 18 18 37 33 34 19 22 33 36 30 20 32 32 22 32 22 24 29 36 36 19 21 34 37 22 37 27 31 21 27 37 27 37 21 20 32 37 22 30 22 36 28 37 25 32
36 32 18 26 18 31 38 34 24 19 36 29 32 19 34 27 20 33 28 24 19 38 26 24 33 30 26 34 24 37 28 38 18 34 33 19 29 33 38 21 22 38 34 23 28 23 33 26 26 24 37 18 36 18 38 22 28 31 29 31 33 37 18 27
30 25 31 25 26 21 34 25 21 33 35 23 37 36 29 26 21 33 25 19 31 33 24 32 19 27 25 35 22 21 23 24 26 37 33 29 27 34 25 21 18 38 18 32 38 19 19 26 22 22 33 28 37 28 22 33 24 37 37 37 30 34 32 38
35 38 25 27 32 26 18 31 33 26 37 30 23 22 24 18 37 23 27 23 23 29 38 30 25 26 21 21 38 32 23 31 29 30 31 18 36 29 19 32 31 38 19 35 34 23 27 22 20 28 30 26 27 18 24 30 27 20 29 35 20 22 18 25
34 25 33 30 37 23 38 36 28 33 18 20 29 29 36 25 24 26 34 26 36 35 37 32 26 32 29 31 37 29 30 18 29 38 24 35 34 21 30 19 23 30 36 18 36 32 30 37 36 28 32 32 22 36 29 32 36 28 25 27 27 18 28 38
22 36 34 25 18 20 19 19 19 35 32 22 23 21 30 25 35 20 23 29 32 20 27 35 32 37 19 29 28 28 23 33 25 34 24 32 30 38 28 30 33 31 21 32 33 22 27 38 24 29 36 35 21 24 27 38 38 30 31 33 30 26 25 32
36 36 18 24 27 36 27 21 27 35 25 28 37 31 21 19 21 18 25 38 23 25 28 30 20 33 24 26 28 38 21 23 22 36 35 38 36 33 33 33 36 32 33 26 20 28 22 26 27 28 19 19 18 27 30 19 24 33 30 31 33 25 34 29
38 35 26 33 35 29 28 36 29 28 34 28 38 35 24 35 28 27 18 36 31 24 30 19 24 23 29 34 30 30 36 32 23 33 30 34 34 18 20 27 24 32 27 37 23 30 28 24 31 34 22 26 28 20 33 27 35 28 37 25 37 33 25 30
35 30 33 20 19 26 28 32 25 25 36 19 23 20 24 35 24 28 25 38 30 23 18 32 30 37 29 21 20 23 31 20 18 27 32 32 28 36 34 28 27 28 28 29 21 24 33 26 33 38 18 21 36 20 27 27 35 30 25 27 23 28 27 26
30 36 19 36 26 28 30 33 21 33 38 34 23 28 19 30 35 30 29 33 26 19 19 22 20 18 29 26 18 21 25 21 20 34 33 27 27 34 20 19 38 31 32 23 38 32 36 35 19 34 27 19 29 37 32 37 38 26 24 34 34 30 33 22
27 32 31 22 21 31 37 23 32 34 27 27 30 26 25 20 19 35 37 23 25 31 18 36 35 20 21 23 31 25 29 38 24 23 26 33 23 35 37 18 21 24 37 19 33 20 32 33 18 26 27 32 24 37 35 32 18 33 25 38 35 25 37 34
34 36 23 37 19 28 27 28 24 26 31 32 26 24 18 21 18 28 25 22 31 28 19 34 30 31 25 27 38 36 34 30 19 20 29 22 18 24 28 31 29 19 22 31 26 31 22 20 20 37 21 34 22 27 34 18 25 32 20 27 38 37 30 20
23 35 36 21 35 18 22 36 27 32 19 29 18 27 32 34 27 38 18 19 22 36 25 28 25 29 34 36 18 30 31 20 31 35 22 38 22 33 34 21 19 31 36 36 36 29 34 30 31 29 24 32 26 28 38 36 36 19 21 34 25 31 34 25
24 35 24 23 22 22 36 34 19 25 23 18 22 36 33 23 36 21 33 31 21 32 36 31 20 27 21 31 31 38 32 35 23 20 31 21 19 27 18 30 27 25 37 22 23 21 34 37 36 31 35 29 24 31 37 18 20 24 25 28 18 22 18 24
18 23 27 37 38 19 37 21 30 28 36 31 25 37 37 22 18 35 29 28 30 31 37 21 29 34 29 38 23 18 38 19 29 18 21 18 27 33 19 22 28 19 36 34 28 38 36 24 20 38 37 25 35 19 24 18 25 20 32 20 27 25 36 25
19 26 32 24 19 31 18 29 35 22 19 29 31 22 22 31 23 20 26 27 27 30 38 35 18 29 31 34 18 20 38 23 20 38 27 22 21 33 22 25 21 37 29 33 27 20 22 30 35 33 19 19 38 19 19 25 37 18 31 37 21 31 38 37
18 22 29 37 22 32 34 21 38 35 20 27 27 35 19 19 37 40 26 22 23 41 39 22 23 26 28 33 24 32 26 38 24 19 19 29 38 27 33 32 26 24 26 41 24 32 40 20 26 18 23 26 30 38 19 20 37 24 35 22 28 33 37 35
25 22 38 18 32 34 38 34 34 32 18 34 28 23 24 38 32 41 35 31 28 28 33 25 34 38 31 35 30 31 31 33 21 27 22 30 25 38 33 42 43 29 37 26 38 31 37 37 35 35 21 27 20 35 23 22 25 27 30 32 36 29 24 18
32 29 34 22 31 22 28 22 28 32 23 30 28 29 35 35 44 29 39 47 30 36 33 28 37 34 39 37 21 36 28 22 29 21 28 25 20 33 28 46 47 40 34 34 41 37 43 29 28 42 38 22 25 31 27 35 38 38 34 30 26 26 27 21
27 24 22 38 25 24 28 19 22 38 36 24 25 35 29 35 39 47 41 48 51 53 39 40 49 31 44 29 37 25 38 36 25 35 39 35 42 26 38 45 38 35 38 34 42 53 35 49 35 33 33 38 36 37 31 20 35 35 37 34 35 38 19 31
18 18 21 22 38 37 35 32 33 34 25 23 29 38 35 49 41 37 52 46 57 46 42 51 44 36 49 29 38 30 37 35 35 38 24 34 46 42 47 43 48 53 40 41 45 49 37 36 40 46 34 27 36 25 30 34 23 25 26 29 33 29 19 25
25 23 25 38 30 22 25 24 32 34 27 32 44 49 44 40 57 39 41 48 44 61 55 45 39 39 44 50 32 31 31 36 32 36 30 44 36 38 50 55 48 60 52 43 49 55 50 44 48 44 32 31 33 35 31 27 30 26 31 31 32 21 29 32
36 18 30 32 37 23 25 28 28 23 40 26 42 51 43 41 53 55 47 57 45 55 64 63 54 49 42 42 36 38 40 37 25 29 41 29 34 44 52 52 43 45 53 62 48 58 55 58 55 53 46 40 36 39 33 40 23 34 25 30 26 38 29 34
24 25 32 33 34 30 38 22 18 31 44 39 35 53 45 53 47 55 49 63 57 50 48 60 53 56 49 55 43 41 38 43 45 37 36 34 38 50 57 46 53 55 61 65 49 64 62 51 50 50 38 48 40 36 43 34 31 20 37 27 36 33 37 30
28 29 30 34 28 37 38 38 24 34 31 46 49 56 56 63 61 68 55 60 71 61 72 61 53 61 53 44 46 39 31 30 33 41 45 52 37 54 47 57 64 65 58 71 67 57 57 52 58 45 56 46 45 32 39 28 29 32 26 36 38 35 25 29
31 36 20 30 19 19 35 35 23 43 32 46 52 52 58 63 69 70 70 65 69 75 73 67 59 54 54 60 50 43 37 48 44 41 43 52 46 57 56 53 72 56 67 74 60 68 66 60 63 66 45 48 45 35 46 32 28 32 31 25 21 18 37 37
27 35 35 32 34 28 27 19 39 35 33 34 50 46 59 55 55 61 64 65 74 77 66 71 54 70 57 47 53 42 39 45 48 48 35 42 41 54 54 58 58 66 60 62 72 65 75 72 66 52 54 61 49 52 43 46 40 30 32 34 18 22 24 38
37 23 35 26 34 35 31 23 40 37 35 42 56 46 55 55 73 71 66 71 68 65 69 62 70 61 58 57 56 42 39 50 49 44 48 39 61 57 61 54 61 71 64 70 78 83 68 67 64 55 65 49 54 46 34 40 37 38 28 23 37 24 31 22
22 20 31 34 34 23 32 36 28 39 34 46 54 53 50 62 67 75 79 70 73 84 76 68 59 65 54 66 55 48 56 36 54 48 54 39 44 59 57 58 65 65 79 75 87 70 77 58 55 53 49 59 57 54 33 30 33 26 19 21 34 23 38 37
20 33 28 30 21 33 33 31 29 29 42 41 46 45 67 65 67 69 79 72 75 90 87 63 61 59 53 54 51 43 50 44 46 55 42 39 61 57 69 67 75 76 68 89 79 77 78 64 67 52 55 63 44 42 32 38 34 21 35 25 24 38 18 34
18 38 20 20 22 28 23 29 29 42 44 45 56 50 55 64 59 58 71 80 76 78 76 63 64 59 69 48 43 48 45 52 40 52 43 52 56 67 59 73 61 68 70 84 79 68 77 59 55 53 58 60 57 47 43 28 36 30 31 34 32 31 35 29
23 33 18 35 20 29 24 19 39 36 45 41 50 42 60 66 72 69 76 78 69 68 79 65 64 61 67 59 46 52 36 52 48 43 56 41 44 59 51 65 61 72 68 66 72 63 66 61 72 62 49 42 56 45 44 43 25 29 18 37 34 38 23 24
29 37 37 29 28 35 19 28 34 46 49 40 43 52 64 53 57 73 66 76 63 71 68 77 61 55 58 48 44 49 35 34 39 54 41 45 54 50 65 68 71 60 74 71 65 64 59 70 61 68 46 53 51 37 41 31 42 36 25 23 27 23 27 25
38 34 18 20 33 27 27 34 22 27 39 39 44 52 56 51 60 53 56 60 58 59 65 68 54 61 57 44 41 41 43 44 46 38 42 51 55 51 52 64 68 64 58 68 73 64 61 54 53 54 43 43 51 52 48 31 33 34 26 24 25 24 24 25
26 19 24 22 36 23 36 36 27 25 37 47 50 38 53 58 53 49 65 55 62 70 56 71 63 57 53 60 44 50 46 42 38 34 35 42 48 50 63 50 57 71 64 58 57 57 53 66 58 48 44 48 42 35 33 40 32 20 29 38 34 30 34 31
34 22 35 18 32 31 37 31 23 31 27 35 41 40 43 54 47 53 47 59 64 58 55 66 57 58 44 56 41 52 45 33 40 27 31 46 35 51 42 46 64 55 53 57 66 60 60 51 55 48 47 52 48 37 43 29 27 36 31 19 30 25 27 32
21 40 31 37 36 40 27 34 28 25 30 37 47 39 39 47 54 62 51 54 61 55 63 59 52 53 44 46 42 53 41 45 30 45 45 40 56 60 53 47 48 61 50 53 70 59 52 60 54 45 51 48 39 35 46 27 31 26 33 35 42 32 30 44
34 42 45 33 45 42 32 33 30 28 33 46 51 47 47 53 47 51 64 62 58 56 60 52 67 54 58 55 45 47 42 50 45 47 34 42 48 49 61 65 66 69 58 61 68 66 56 67 57 54 46 61 55 56 38 31 33 30 50 37 38 35 50 50
41 41 32 41 32 41 35 46 40 40 45 41 39 52 51 60 56 57 58 62 61 68 50 49 54 52 49 44 60 43 55 33 42 42 42 55 62 48 63 52 52 67 68 54 55 55 56 72 63 65 60 47 51 52 44 48 47 37 43 53 54 54 40 54
24 30 41 36 35 41 34 42 36 27 34 46 32 33 53 39 43 55 56 57 61 56 58 51 48 51 48 41 49 33 40 31 27 29 36 47 52 56 43 41 50 54 54 59 51 56 56 43 60 39 48 40 41 37 48 47 47 31 42 32 37 32 41 33
23 37 23 24 41 26 25 31 35 27 25 29 40 28 26 35 42 43 38 46 34 53 37 36 34 32 37 44 42 35 38 34 24 32 40 35 27 31 31 41 46 39 50 37 49 51 49 37 39 49 42 30 35 41 37 30 44 27 33 39 28 40 40 36
36 19 23 28 37 37 35 30 38 25 20 33 27 20 22 34 30 31 26 39 42 38 34 40 24 24 35 39 37 36 22 38 21 27 18 32 29 29 34 29 29 32 33 37 40 37 28 26 26 36 24 33 24 37 27 33 26 38 30 37 23 22 21 29
32 35 31 28 23 19 38 20 36 22 28 35 19 31 24 38 19 25 41 21 35 32 40 25 27 37 36 32 32 33 38 35 27 28 27 20 25 28 21 21 34 24 38 30 38 28 30 29 28 38 30 24 22 18 38 29 20 33 34 21 36 25 33 18
34 27 19 20 30 31 32 21 30 29 25 27 30 27 28 37 30 22 26 29 27 26 20 36 18 27 27 22 35 35 28 30 37 22 30 29 34 33 38 30 23 31 34 19 32 19 26 30 31 26 38 24 20 35 38 20 26 18 29 19 24 18 35 19
38 28 36 22 28 26 25 24 37 33 29 29 27 31 32 30 27 30 38 27 36 38 35 27 23 29 37 23 35 21 27 33 37 22 25 23 21 37 30 36 20 31 35 32 26 29 26 32 36 31 30 31 32 26 23 34 25 27 34 35 36 18 31 32
36 25 27 36 29 31 33 22 36 23 19 19 28 20 20 19 19 22 28 24 29 26 35 18 22 22 24 30 27 29 22 27 30 18 26 35 38 31 25 28 18 30 38 37 19 30 38 27 28 18 29 18 25 31 33 30 24 19 18 37 31 24 34 28
22 23 26 29 22 29 23 31 29 30 18 36 36 23 31 28 21 30 37 20 33 18 22 24 34 25 37 19 22 33 29 37 20 30 28 20 36 33 31 21 24 36 32 30 28 30 21 21 27 26 35 28 30 21 28 38 37 25 20 28 38 27 24 27
30 27 30 23 38 29 23 27 24 38 24 23 30 26 21 29 26 27 25 23 23 26 20 24 29 28 35 35 19 23 35 20 33 24 29 26 37 37 32 22 37 20 32 31 23 23 21 23 25 30 34 37 23 23 33 32 25 21 30 22 24 38 22 18
18 29 26 28 25 20 20 31 23 35 19 26 33 35 32 18 27 18 22 29 29 23 35 32 22 33 29 20 32 19 32 33 27 29 18 21 32 34 19 35 18 36 23 33 36 30 30 20 27 30 34 25 34 24 35 37 29 18 31 37 26 32 34 20
35 37 35 29 28 29 33 36 20 32 33 18 35 25 32 37 34 26 33 38 23 29 31 32 25 36 19 31 34 28 26 28 25 37 19 22 26 18 35 35 26 28 31 19 22 19 29 34 29 20 27 33 30 27 32 34 25 31 29 24 28 26 36 35
27 32 20 37 33 29 26 32 37 19 36 25 26 28 35 36 28 23 26 37 29 35 37 29 33 24 20 27 28 24 24 32 28 38 37 19 24 38 26 21 21 18 29 21 20 20 22 34 25 32 35 29 29 33 20 19 31 19 36 18 38 24 28 33
18 33 38 33 33 32 20 30 23 27 35 19 32 30 37 23 36 31 30 24 38 31 18 35 29 35 36 20 28 27 28 32 36 34 25 24 18 18 36 34 28 32 23 18 34 33 34 33 26 26 37 25 23 19 31 32 35 25 24 32 33 37 35 30
25 32 37 34 33 22 25 21 31 27 38 28 22 33 30 38 37 24 22 36 34 22 22 32 26 27 32 30 24 33 23 32 20 29 26 35 29 33 36 29 20 29 38 24 29 38 22 31 24 19 29 28 33 18 34 33 32 29 37 37 36 34 37 30
36 28 22 21 28 35 26 28 30 35 32 24 38 27 28 38 21 35 33 25 27 25 31 35 34 33 31 38 37 24 24 38 22 29 38 24 36 22 31 29 20 25 29 36 19 26 35 38 28 24 25 18 22 27 24 20 21 31 37 36 34 36 18 38
28 23 27 25 33 36 21 23 27 24 26 38 32 31 21 38 31 27 18 26 31 28 22 29 18 24 28 33 32 23 21 26 28 27 31 26 21 37 25 19 36 30 23 29 26 31 22 29 38 20 20 22 37 23 38 35 31 29 28 30 37 21 36 19
37 20 20 30 20 34 26 20 19 21 28 22 32 35 29 24 31 38 35 36 27 25 27 31 30 30 30 33 32 34 27 30 31 37 25 25 24 18 31 32 32 36 18 34 32 30 33 20 20 21 21 21 30 25 36 32 20 28 21 28 36 25 26 27
24 25 34 36 34 36 35 23 27 32 26 33 18 19 32 25 29 26 26 29 23 19 25 30 36 32 36 29 21 18 19 33 20 27 38 27 35 36 21 26 23 20 22 26 35 36 26 33 35 38 27 28 35 34 23 30 27 21 19 33 31 37 26 23
28 27 18 19 26 28 38 29 32 31 34 35 21 29 25 30 33 29 34 24 18 18 34 27 23 30 19 33 19 22 23 21 28 30 31 34 20 35 29 18 37 27 19 19 22 24 28 23 32 25 35 29 34 26 38 21 20 26 20 34 26 38 18 18
35 29 29 23 20 33 27 20 23 34 36 25 18 18 27 24 18 28 32 28 36 18 34 21 36 24 29 23 36 26 21 35 22 33 38 26 38 24 27 38 32 29 25 19 24 37 35 25 30 27 37 29 33 27 25 38 25 22 34 23 19 19 33 30
33 23 33 31 19 38 29 23 29 27 28 28 18 27 25 30 23 21 38 32 36 20 21 31 30 19 27 21 37 36 32 20 23 25 21 24 32 34 23 29 29 36 37 22 34 37 36 33 20 31 31 31 36 19 18 36 23 32 38 28 19 27 35 23
23 21 19 38 18 27 38 35 36 28 35 18 26 24 27 26 31 26 19 32 25 38 29 31 28 26 34 35 22 29 21 29 25 30 29 22 29 33 33 20 31 24 34 31 30 25 27 29 21 27 36 19 31 37 33 20 20 30 22 27 27 23 23 31
