P2
64 64
255
24 30 18 31 21 33 19 37 26 35 23 37 20 23 31 32 34 20 25 19 34 33 26 22 38 24 18 28 37 35 34 37 26 24 24 21 26 19 26 29 30 20 29 34 33 37 32 26 25 32 32 27 31 34 37 32 32 38 21 22 35 18 18 20
37 33 29 28 36 28 28 30 35 35 18 37 31 22 26 38 35 33 34 36 26 24 33 21 27 31 25 29 30 35 27 28 29 33 35 30 27 28 26 21 24 24 31 31 28 24 37 19 35 35 20 36 20 35 36 30 25 21 24 24 29 35 18 32
32 38 20 34 24 26 30 29 19 35 27 24 22 37 22 33 37 35 18 25 18 32 32 38 34 35 21 22 25 34 20 27 26 18 18 20 20 28 32 37 23 32 19 36 31 38 36 34 18 21 30 24 19 20 32 24 36 36 21 36 24 29 25 30
27 36 34 27 34 20 26 28 23 35 24 28 24 19 27 34 38 20 32 23 24 30 33 29 32 31 25 21 32 37 18 37 24 21 20 30 31 34 24 21 18 27 22 35 21 38 24 22 22 24 29 23 20 34 20 31 23 35 29 31 19 38 31 24
34 21 27 31 34 32 21 27 30 34 25 35 18 21 20 21 21 18 32 29 23 34 18 25 21 26 33 24 36 23 24 30 32 26 36 22 34 22 35 21 35 22 31 25 24 38 31 37 18 35 27 25 34 33 24 35 18 36 32 36 23 37 32 21
19 24 29 24 30 18 34 33 26 27 32 38 25 34 23 24 34 30 22 30 26 38 18 36 36 34 33 35 25 24 25 24 22 34 31 33 23 37 20 31 21 32 20 21 31 29 37 20 22 38 20 25 31 31 28 18 37 24 27 26 22 28 27 31
38 26 37 37 33 38 31 38 20 35 21 33 30 32 31 32 32 34 31 37 34 30 26 36 23 36 29 33 19 27 23 35 19 19 23 38 23 35 20 35 38 33 38 28 27 32 24 30 22 22 19 36 20 20 23 33 35 23 20 33 25 22 21 31
30 18 28 33 38 35 18 22 26 24 27 20 30 30 21 26 36 36 21 26 31 18 38 29 21 28 32 34 31 33 18 38 37 18 34 22 19 30 37 25 36 22 29 29 29 18 36 33 31 19 22 18 36 21 37 38 33 35 19 30 31 25 22 25
26 27 18 20 20 23 19 26 32 28 22 37 38 22 24 23 31 35 25 36 25 23 36 34 22 23 21 37 34 34 33 32 31 28 31 35 20 21 30 36 18 35 37 23 27 26 19 33 37 19 29 27 27 37 34 18 38 31 29 22 32 21 34 30
33 19 27 19 19 36 30 27 34 27 31 23 38 36 27 23 25 25 23 30 31 18 33 25 36 30 23 18 19 19 20 38 38 27 33 37 20 37 18 38 24 27 25 18 27 29 32 23 27 26 34 27 21 38 36 28 34 31 26 19 23 33 24 20
36 29 38 26 23 20 26 37 37 27 32 34 27 24 18 32 38 33 35 36 31 36 33 23 30 31 20 19 29 31 31 26 36 26 38 35 21 23 33 24 26 25 34 31 24 30 32 20 32 20 35 32 36 19 19 25 21 36 32 36 28 24 28 23
27 21 18 32 24 32 21 22 21 29 24 20 21 35 31 28 29 31 21 33 32 24 18 26 31 32 25 19 24 20 37 29 19 35 24 32 24 18 33 31 35 29 32 21 36 32 34 38 32 29 24 19 32 25 38 23 24 23 18 33 19 33 21 35
36 19 23 32 35 26 20 30 23 30 18 33 25 29 19 34 30 23 37 20 18 34 33 20 35 28 31 24 18 36 36 36 35 29 36 30 33 24 38 36 31 18 33 21 18 26 18 34 32 25 22 32 23 29 36 19 20 32 20 35 34 34 30 29
19 30 31 36 24 20 32 30 30 32 35 26 30 34 27 27 37 30 25 28 33 20 19 33 33 25 19 29 31 21 18 23 26 37 28 35 32 34 27 28 34 37 33 20 32 25 26 19 26 31 21 25 18 38 36 20 29 30 26 23 30 37 28 23
25 24 21 27 24 21 23 25 34 26 24 18 34 38 29 28 34 19 38 26 38 35 24 37 23 32 29 35 34 38 30 37 18 23 21 27 26 36 38 32 36 33 29 29 24 20 36 38 25 27 18 28 21 21 21 21 28 38 27 18 25 38 19 29
20 32 28 31 22 21 23 20 37 22 37 27 28 36 27 22 38 34 34 36 38 36 27 20 34 25 24 38 20 38 20 23 19 38 30 26 34 26 32 34 24 38 37 26 30 21 34 19 29 25 20 19 21 33 22 29 28 31 33 26 23 27 35 34
31 34 20 32 35 22 28 33 34 21 32 20 24 29 35 24 25 20 33 32 26 23 27 21 29 34 38 19 29 33 36 36 29 25 20 18 31 38 34 18 20 23 24 24 33 22 32 35 36 37 32 27 19 21 37 19 28 38 34 34 32 26 19 22
22 24 20 26 22 35 36 18 23 25 28 29 21 24 38 25 30 25 19 35 26 35 38 29 31 24 29 25 35 34 34 36 18 23 26 22 22 21 21 29 34 35 21 31 19 30 32 26 20 33 38 19 32 26 28 27 29 18 20 24 29 18 36 29
35 29 28 18 31 23 37 37 24 28 21 21 26 21 22 20 37 36 21 30 23 37 32 35 28 29 32 20 32 35 34 37 25 37 35 30 20 35 19 26 19 29 32 34 34 18 35 24 23 30 20 32 35 24 26 31 35 26 23 32 32 36 31 21
31 37 21 32 32 18 29 26 28 34 37 28 23 22 24 28 39 29 35 22 31 37 36 39 26 36 22 26 27 29 24 25 25 38 21 38 36 24 27 32 22 30 32 42 36 34 36 30 24 28 26 32 35 33 35 24 30 28 24 27 28 31 18 28
37 24 36 23 38 38 23 33 31 32 31 36 22 20 38 38 28 26 41 45 38 41 33 28 38 28 33 24 36 37 22 28 23 19 19 32 38 20 41 27 35 40 42 44 36 25 43 38 24 36 38 32 34 23 34 22 36 31 21 37 28 30 27 32
21 24 33 23 37 31 38 21 33 37 31 25 27 36 35 41 35 33 34 39 47 47 44 48 28 38 35 23 40 19 30 25 27 19 32 109 23 32 42 37 42 35 35 41 40 39 40 44 26 26 31 22 35 36 32 37 36 38 28 22 24 29 35 21
24 25 23 37 37 36 24 21 29 21 19 34 29 28 41 35 31 46 45 38 51 38 51 41 44 34 44 35 26 28 22 30 21 34 38 33 123 44 33 33 41 51 53 37 47 44 41 32 47 44 40 37 39 20 35 32 26 28 30 31 22 31 38 25
20 18 28 20 38 32 34 20 21 28 31 33 44 28 36 39 33 39 44 52 51 42 45 43 46 48 46 35 41 28 21 116 36 29 21 35 36 133 44 40 41 45 52 45 39 37 51 47 48 44 39 38 28 38 32 32 24 18 25 29 35 18 29 29
36 38 26 31 25 29 36 27 36 37 33 29 44 34 49 44 40 43 44 52 59 60 53 55 45 42 47 33 30 41 37 22 123 32 25 29 34 123 44 52 56 49 58 61 46 53 40 52 43 41 47 30 29 43 28 37 21 21 19 19 20 38 29 32
28 38 37 19 35 34 34 36 25 24 37 43 32 51 55 53 53 43 54 45 60 58 57 54 61 54 51 53 38 30 127 38 120 38 41 42 48 55 134 60 57 44 60 50 45 59 52 50 56 58 48 51 38 27 40 21 37 23 18 27 30 38 28 21
21 25 29 18 35 24 36 24 18 28 30 48 51 45 41 49 46 47 60 61 69 55 55 47 50 56 61 46 55 39 132 40 41 110 32 44 40 140 48 46 62 48 58 57 64 62 64 64 51 51 57 54 32 29 39 32 24 18 26 20 27 22 18 30
36 26 27 24 32 34 28 28 38 44 44 37 54 38 57 64 54 61 62 63 64 65 58 55 54 60 62 55 45 130 32 36 127 45 125 41 47 129 63 55 66 57 54 73 61 54 71 51 66 64 52 47 39 45 40 44 23 21 18 29 21 38 26 26
18 24 24 20 34 27 31 36 26 25 32 34 54 44 54 56 52 53 67 65 58 70 72 56 62 58 54 48 39 46 129 33 33 128 49 134 57 144 46 59 70 59 67 61 62 75 60 71 49 63 57 45 43 41 41 32 41 29 23 36 37 18 32 22
29 34 37 21 20 36 20 22 23 32 46 51 39 61 62 51 61 66 64 79 72 81 60 57 62 55 62 58 54 52 130 44 128 46 137 41 221 54 65 52 66 73 71 66 63 66 69 60 69 67 53 44 55 35 44 27 26 28 22 37 20 37 30 18
19 23 35 24 27 21 19 32 29 27 33 55 44 62 51 60 64 76 79 80 69 80 73 73 64 70 70 49 54 136 42 36 41 207 39 129 129 59 50 55 69 74 74 80 79 70 62 75 62 51 51 50 44 48 35 36 34 27 30 30 18 19 25 35
22 38 24 38 20 37 20 25 41 28 38 49 47 46 67 65 63 75 65 73 69 69 78 75 73 68 59 67 62 59 124 48 139 39 137 126 129 66 51 61 74 76 66 75 73 79 78 72 60 66 66 60 41 53 33 39 39 26 31 18 34 23 35 32
33 35 19 22 31 30 28 38 44 46 40 45 56 54 55 62 68 75 63 73 71 76 75 80 78 61 69 53 50 49 46 138 127 50 128 125 60 143 66 66 74 81 86 82 84 71 65 62 67 57 59 50 51 47 35 34 27 29 38 28 23 28 19 37
20 26 27 22 25 28 38 27 39 46 45 39 57 44 55 68 65 67 65 73 83 76 75 63 68 57 65 54 51 49 56 138 51 139 134 130 135 66 59 64 63 81 65 82 72 72 75 78 70 58 59 61 43 53 38 37 28 25 20 38 37 19 33 26
40 33 28 30 41 23 30 39 42 45 49 58 48 64 59 62 62 83 75 79 82 86 87 67 82 74 59 73 67 47 140 43 55 134 145 130 55 148 62 64 81 72 79 72 77 84 75 67 73 64 72 65 56 50 48 45 43 29 40 42 43 39 41 44
44 32 46 46 29 49 33 41 35 49 49 55 59 61 63 65 74 80 89 85 89 91 93 91 79 68 81 71 61 67 50 136 68 139 139 144 73 145 74 88 83 92 94 92 78 82 88 74 86 80 68 67 66 70 56 46 60 53 41 54 53 38 55 40
45 41 35 40 40 44 51 45 57 48 57 56 55 70 71 84 89 83 80 88 95 98 88 94 82 85 84 83 69 60 153 70 160 66 65 248 155 68 90 75 91 98 88 104 98 102 96 84 93 94 83 70 66 78 63 68 51 52 62 52 66 69 57 63
59 57 55 41 51 42 46 46 49 61 52 68 59 83 76 73 80 80 97 94 83 86 97 89 97 82 83 81 72 81 79 251 79 73 159 238 73 79 83 97 104 88 100 104 104 94 93 90 85 89 93 91 91 79 71 75 70 74 76 68 78 60 66 69
52 49 50 43 46 50 40 48 49 58 59 68 60 69 76 74 67 76 81 83 81 79 89 79 75 67 79 74 75 74 145 137 57 54 143 242 62 77 88 78 82 84 95 78 82 78 95 95 82 71 89 76 70 70 68 64 65 67 69 56 70 53 56 54
34 31 39 34 32 38 35 46 48 36 40 53 47 52 55 62 60 73 71 75 60 71 79 78 60 67 57 63 65 56 128 134 59 132 64 149 135 71 76 64 78 75 81 65 71 85 69 65 78 68 63 72 57 59 54 59 43 49 51 45 56 45 53 49
31 27 36 40 30 29 38 26 25 40 40 41 41 52 42 61 61 55 56 67 53 58 67 53 66 54 44 53 52 51 118 133 33 134 135 37 128 48 51 63 67 66 58 60 67 53 54 63 61 46 48 57 44 38 51 42 49 45 42 39 38 33 32 47
19 26 24 33 37 18 20 30 18 35 30 40 41 37 47 32 43 52 36 44 55 44 49 36 38 40 33 48 38 121 119 35 38 119 24 198 40 32 34 46 49 43 51 55 44 39 44 53 40 47 50 32 41 39 21 19 19 36 24 19 32 31 25 39
26 27 28 20 24 38 23 28 25 28 27 36 26 39 38 38 50 46 35 53 50 38 51 36 38 43 29 32 39 39 198 27 38 23 195 116 27 35 34 33 49 34 34 45 51 40 35 33 49 38 26 36 37 39 32 25 33 23 27 29 37 21 28 30
35 34 36 20 21 35 35 27 30 26 32 27 33 33 34 28 43 33 30 42 41 31 39 29 33 34 42 23 21 195 22 32 34 192 116 27 37 35 42 42 39 39 39 42 37 49 43 27 30 41 33 40 33 27 20 23 20 31 24 27 20 30 31 35
29 28 31 18 22 28 36 27 28 33 36 26 32 35 39 23 32 41 38 26 39 41 27 40 44 38 23 29 121 25 121 34 37 199 104 37 35 39 37 39 27 45 40 43 36 26 40 38 31 29 33 38 19 20 20 38 23 25 20 18 25 29 36 29
33 21 37 30 24 28 26 33 25 24 38 19 37 19 33 26 23 28 22 33 35 28 29 34 35 32 31 29 23 191 22 20 106 188 24 22 37 28 31 24 36 29 30 42 37 32 40 27 25 26 30 20 34 36 32 23 20 22 18 18 32 34 29 24
29 34 19 38 36 35 31 30 33 26 21 21 35 27 38 27 19 36 26 34 37 28 35 32 27 26 24 38 198 26 19 119 208 32 37 33 28 24 36 21 31 23 32 24 22 25 32 20 22 38 22 31 31 30 19 24 28 18 26 24 22 36 27 28
33 35 20 27 32 19 28 30 19 31 36 22 37 31 19 34 22 20 33 23 25 38 30 32 21 30 27 33 116 120 113 32 115 108 35 22 28 28 34 20 36 30 26 25 35 33 28 19 27 33 19 20 33 24 18 27 36 34 19 37 27 38 34 36
33 30 37 22 29 24 22 34 23 21 24 30 36 31 27 25 18 36 38 29 22 21 32 20 23 30 24 19 120 199 38 38 121 33 112 20 24 37 21 21 26 28 18 27 35 35 18 36 27 21 27 22 28 31 31 28 24 34 34 36 18 32 27 24
35 25 18 22 28 37 27 34 32 18 19 33 27 21 37 20 32 25 29 19 22 32 27 21 19 35 27 25 255 38 24 31 18 119 118 34 33 34 30 27 38 29 25 27 21 36 23 34 18 18 30 30 25 37 23 25 34 35 26 38 18 35 33 30
18 20 26 27 28 31 21 27 23 18 37 22 33 29 24 20 20 33 25 25 20 33 28 20 19 30 35 195 104 21 31 30 111 27 108 21 27 37 29 29 31 26 27 26 28 20 25 32 32 25 22 37 32 28 30 22 38 37 25 26 21 30 25 33
28 20 33 35 36 35 35 18 19 29 19 24 36 32 18 19 32 18 34 20 34 36 20 25 21 19 194 36 114 35 19 36 121 27 118 18 36 28 37 37 32 18 20 34 22 32 31 20 22 27 21 32 27 36 24 20 31 28 35 35 28 28 35 25
36 33 34 27 19 33 20 32 29 37 33 27 34 18 36 26 29 26 37 26 20 24 24 19 20 122 103 24 38 112 18 21 18 123 33 119 23 32 33 24 20 28 24 37 29 20 24 19 27 24 22 22 24 30 27 29 36 20 28 21 36 19 18 28
35 36 30 23 30 38 20 32 30 30 27 38 26 36 36 28 34 34 37 22 34 22 38 30 103 31 30 36 22 107 23 21 25 112 28 110 29 33 33 24 36 21 35 20 32 22 28 22 24 35 29 27 28 20 19 34 23 32 31 36 31 23 33 34
18 24 30 30 34 25 36 21 37 24 36 27 29 38 31 34 32 33 36 21 36 38 35 120 20 28 27 30 20 111 21 22 112 36 23 36 118 37 18 38 33 35 36 21 29 28 20 18 18 19 32 22 35 26 30 26 25 21 25 25 21 26 19 32
38 27 18 19 25 28 23 21 32 22 22 38 31 23 19 31 19 36 26 22 21 27 122 22 34 27 37 26 33 36 20 36 26 110 27 112 37 26 38 30 26 34 29 28 27 32 21 26 37 35 26 22 24 35 34 20 20 28 19 20 24 36 34 29
19 32 25 35 25 22 38 18 28 20 29 22 29 33 38 27 24 34 24 30 33 21 38 111 38 33 23 27 18 37 27 33 33 24 123 34 107 35 31 22 36 21 18 35 28 29 38 36 31 32 20 18 30 32 38 21 24 31 36 27 20 37 25 28
26 34 35 36 23 32 33 32 31 21 26 24 20 27 18 21 32 35 28 34 23 28 34 24 24 37 36 24 22 19 27 31 20 112 36 113 34 22 21 23 26 24 36 18 27 36 26 34 33 27 18 26 34 37 34 28 24 35 35 26 34 25 30 21
26 37 33 24 29 20 18 29 30 36 34 23 23 22 20 30 20 21 31 26 31 22 19 19 23 36 20 23 33 19 38 30 114 37 37 32 114 25 21 30 35 19 38 38 25 20 31 25 18 35 30 32 19 27 33 34 24 24 33 34 35 25 26 26
28 18 29 18 29 22 38 32 35 35 26 21 36 27 30 18 22 32 18 25 34 31 34 21 18 26 21 20 29 29 32 26 33 26 30 32 118 37 38 20 34 31 27 27 29 27 37 18 37 34 19 23 20 38 36 27 18 28 37 26 26 31 20 35
25 33 24 29 18 34 31 21 22 32 19 30 30 32 33 21 23 34 38 38 25 22 24 38 25 24 29 36 31 20 37 19 34 30 28 114 21 28 35 18 24 37 21 33 23 37 25 20 35 22 32 24 33 21 22 23 37 21 19 21 38 27 18 31
21 36 25 31 23 34 29 19 30 38 18 21 33 24 19 30 24 20 32 34 24 29 33 29 31 23 23 31 37 24 23 32 32 38 32 18 28 35 29 25 32 21 25 24 28 18 27 21 27 33 23 25 26 36 33 18 18 20 35 26 38 25 25 38
35 37 28 34 37 26 35 23 29 20 37 36 25 33 35 24 23 22 35 38 18 18 35 19 37 26 33 22 28 36 26 38 26 30 22 35 27 23 30 33 25 35 27 33 27 30 23 21 21 36 20 20 27 33 20 36 22 35 24 33 27 27 22 21
37 20 38 19 33 33 33 18 27 21 34 37 36 30 26 31 22 25 18 27 30 35 19 25 33 20 38 29 20 21 28 25 29 29 34 24 38 23 19 21 21 22 24 19 35 35 24 26 28 18 25 19 30 29 30 28 23 27 36 38 33 25 25 36
