P2
64 64
255
34 23 34 36 18 33 22 20 38 37 28 38 25 21 38 18 28 38 19 26 21 37 29 22 23 36 18 19 19 24 28 22 21 25 32 37 18 23 20 32 24 36 28 31 29 19 35 22 32 33 33 25 24 30 38 35 20 31 18 30 38 33 36 33
28 36 26 19 29 29 29 37 27 35 20 30 21 34 28 22 19 29 18 36 31 22 20 25 37 35 38 26 38 24 29 19 27 24 21 35 38 23 26 26 23 33 38 28 30 26 35 20 34 26 23 27 38 18 31 30 30 23 36 32 20 29 31 31
30 25 33 30 35 38 23 35 31 18 28 38 34 26 38 34 18 29 29 27 38 31 34 30 31 23 18 21 30 38 30 26 32 29 35 30 27 22 25 26 34 24 18 37 20 34 37 18 30 22 29 24 20 25 23 32 24 34 27 24 29 21 36 19
22 31 29 22 21 31 28 22 21 29 19 19 37 27 29 31 21 38 27 23 28 35 33 19 32 24 35 23 29 18 37 26 33 21 36 24 37 34 19 33 31 23 36 21 30 31 30 19 21 25 20 22 20 30 20 23 23 36 32 26 28 33 36 33
37 22 21 28 18 25 19 18 37 21 19 33 24 21 26 36 27 25 18 34 23 30 29 21 24 19 27 21 37 19 20 24 30 32 26 19 28 34 33 36 20 26 38 30 24 23 32 20 36 26 35 26 31 24 35 31 21 21 35 32 35 35 34 35
20 38 37 23 37 25 28 21 38 26 24 28 29 30 30 31 31 28 25 38 32 30 25 28 32 20 29 28 23 38 28 24 31 20 29 36 30 20 31 34 38 28 30 26 31 27 25 26 29 21 26 19 22 19 20 33 24 31 33 26 21 25 33 25
36 37 23 18 33 19 37 37 35 38 31 19 29 25 25 38 19 24 35 30 33 31 37 24 25 20 27 30 31 31 29 33 25 38 21 32 24 30 25 37 38 38 37 36 33 30 19 31 38 38 29 31 25 28 37 37 36 31 25 27 23 35 30 28
20 18 33 26 19 35 28 36 25 25 30 20 22 24 19 36 34 31 25 38 36 26 24 31 35 38 24 33 18 29 24 37 18 27 24 38 22 38 30 18 24 32 26 38 37 38 25 34 34 18 35 19 28 27 30 30 36 23 21 33 27 30 38 25
22 31 33 34 28 20 22 28 38 20 24 33 38 34 19 32 32 30 38 22 38 23 32 33 28 20 23 20 30 37 36 26 25 28 34 24 19 19 36 21 21 33 20 22 34 36 38 37 34 31 27 23 27 35 20 26 24 31 26 20 37 27 28 31
29 23 30 25 24 18 31 23 33 27 19 19 22 20 25 20 19 24 31 21 25 30 34 35 32 25 21 22 29 29 28 38 24 20 31 28 34 29 20 30 30 19 24 30 25 29 19 20 25 28 37 38 30 36 19 34 30 23 25 33 30 32 18 20
23 26 19 32 27 27 34 34 26 25 26 31 22 27 36 30 27 28 20 37 21 31 35 37 18 26 35 36 34 28 27 36 24 32 23 30 29 32 31 33 21 35 33 21 19 38 35 30 19 20 28 38 25 20 19 37 23 26 22 22 25 24 25 28
21 38 36 26 27 24 19 38 38 26 32 18 18 19 27 18 29 33 38 34 30 38 31 33 28 27 25 25 37 29 18 35 35 27 21 36 29 31 25 26 30 26 27 20 29 34 32 29 27 20 21 30 38 29 28 22 29 28 29 33 35 29 31 36
27 27 38 21 34 27 20 31 37 34 35 23 18 34 31 26 27 34 28 24 37 30 36 35 29 31 34 32 28 29 33 21 20 24 36 26 37 37 35 32 20 26 25 21 31 27 22 20 34 21 29 28 18 29 19 30 18 36 36 21 33 20 36 20
28 36 34 28 38 27 37 28 31 23 26 31 38 29 23 23 36 31 30 31 36 25 19 30 37 37 35 25 37 25 35 20 27 19 23 23 38 28 26 31 20 21 37 25 18 20 19 27 28 27 22 18 20 25 30 20 30 25 25 36 27 21 38 34
18 38 18 25 28 29 18 30 37 23 23 35 35 37 28 33 36 22 37 28 21 23 36 23 21 27 28 34 23 30 23 32 22 19 23 36 34 37 21 30 26 27 35 37 35 19 27 27 34 37 28 34 22 35 31 29 29 37 29 30 38 28 38 37
36 25 23 20 19 20 21 35 26 32 25 23 27 33 38 19 28 35 29 18 33 19 23 23 31 35 27 20 29 22 37 31 29 34 28 35 27 20 25 19 38 36 31 18 36 38 32 27 23 34 25 26 37 36 19 33 38 29 19 38 35 29 22 24
29 20 28 19 30 27 19 36 23 30 18 28 18 29 31 24 34 32 32 32 30 32 35 22 29 38 25 29 19 33 36 18 23 37 28 25 30 22 19 29 34 24 34 33 38 24 21 33 37 29 34 31 32 26 34 32 24 26 38 23 38 21 30 35
29 22 33 22 22 27 21 33 35 36 28 32 27 23 32 19 21 27 27 38 27 33 21 25 36 22 37 21 34 24 33 27 37 35 35 37 37 31 32 38 34 36 19 37 32 32 35 20 25 37 32 24 18 25 22 23 30 35 34 23 29 32 21 25
23 27 20 26 33 19 24 30 19 22 29 19 19 24 31 25 19 27 20 23 22 18 32 20 34 19 23 31 23 19 38 23 19 18 20 24 26 22 23 30 20 25 38 26 37 37 35 30 27 34 22 18 27 35 21 30 19 18 30 36 22 22 36 27
34 25 38 37 36 38 27 33 37 27 33 36 36 38 37 26 23 20 27 36 31 31 34 26 31 30 33 37 25 18 19 27 30 24 33 37 20 33 33 33 25 22 21 27 41 31 33 22 28 27 36 28 27 35 31 27 18 25 27 36 21 23 25 36
27 33 18 37 32 27 30 20 20 32 26 27 28 20 36 25 39 32 32 33 29 32 37 45 24 29 23 20 27 29 28 28 35 36 31 38 37 28 24 41 44 29 41 34 44 40 38 44 35 24 34 25 31 33 36 28 32 26 32 31 24 21 21 30
24 27 32 34 24 24 38 19 31 20 25 30 24 28 26 34 28 30 34 43 33 44 45 32 46 40 35 33 24 25 35 20 31 28 20 123 38 39 36 36 34 33 35 33 33 36 36 46 29 40 24 21 31 21 28 36 32 35 29 31 30 20 34 25
19 30 35 27 29 20 37 25 33 33 23 30 41 27 26 30 38 47 51 51 42 36 36 34 39 30 30 41 38 31 28 37 26 27 123 32 38 37 44 45 50 47 51 49 41 37 36 49 39 30 35 35 25 23 32 21 28 33 34 18 26 35 22 32
31 23 33 28 24 20 35 37 31 34 20 36 41 43 41 36 51 39 41 44 47 38 37 55 37 35 39 31 42 126 41 36 31 18 39 111 32 38 36 46 50 40 56 50 50 48 41 42 45 49 33 47 29 38 27 31 25 31 19 22 32 26 28 21
32 36 24 24 28 26 30 33 18 23 27 28 40 31 47 43 39 38 57 47 42 48 58 58 43 37 51 51 45 113 43 23 19 24 124 35 50 32 43 48 38 46 60 61 49 45 49 52 39 46 51 45 32 24 40 27 28 24 37 28 19 20 20 27
37 28 27 20 22 20 38 28 27 32 30 26 49 42 52 43 43 58 53 58 65 65 56 47 60 50 53 36 43 118 42 42 116 26 42 114 37 40 48 50 49 58 56 48 46 53 48 54 43 54 46 33 30 45 26 26 27 31 35 18 29 36 20 28
35 38 28 33 28 30 37 25 35 24 42 44 33 37 52 47 61 48 58 65 54 54 58 60 58 59 49 46 138 51 31 38 120 43 33 131 42 51 44 61 48 54 58 67 53 59 48 48 56 46 46 35 35 36 27 32 33 18 25 30 37 36 25 37
22 36 28 30 35 20 23 32 21 43 28 38 50 38 58 59 62 60 54 68 65 60 67 70 56 65 43 127 57 124 33 42 126 32 31 121 44 53 44 55 67 51 70 63 66 65 55 63 58 44 45 56 42 37 45 43 22 30 24 25 35 24 35 34
25 34 28 38 38 32 24 19 29 29 31 40 38 49 59 60 63 64 55 59 68 59 57 67 60 69 142 54 136 52 38 35 47 122 50 135 43 47 58 57 71 57 60 70 77 57 71 53 67 54 61 43 56 40 31 44 39 27 22 25 31 35 31 35
25 21 31 36 27 33 31 39 30 37 44 39 46 50 62 55 67 65 66 60 79 69 79 72 61 144 61 55 61 134 39 37 136 50 209 48 54 51 64 62 74 75 64 73 64 65 77 60 56 62 64 61 51 43 48 30 35 27 33 37 38 22 29 25
18 31 18 36 34 27 37 29 33 30 32 37 54 61 53 66 56 63 75 70 78 65 68 74 64 149 53 48 47 136 47 44 130 128 40 131 58 61 62 69 59 73 67 65 72 81 62 73 60 54 60 61 44 42 40 46 25 37 29 28 18 33 36 35
34 30 23 21 38 37 19 35 39 39 42 45 44 47 50 56 63 63 66 69 84 80 77 80 75 159 54 50 61 124 57 56 127 121 39 56 145 60 56 61 74 75 69 77 88 69 68 59 56 57 58 53 43 55 40 42 40 38 34 36 22 21 28 19
26 18 37 29 26 35 25 27 25 38 49 39 41 48 56 54 69 77 74 78 85 74 84 64 79 65 150 58 146 43 49 122 123 52 42 135 54 66 55 66 68 71 67 82 74 72 79 73 65 56 59 46 51 54 33 40 24 40 23 28 28 38 20 33
18 21 19 37 23 22 31 37 34 29 36 43 46 58 66 55 75 60 77 70 78 79 70 69 68 140 64 58 133 56 39 124 130 47 37 143 59 65 60 56 73 70 69 81 78 86 76 73 70 60 52 57 58 41 36 28 30 28 19 26 35 20 19 34
26 27 23 23 39 25 37 38 37 37 56 48 49 61 68 63 62 83 70 73 84 82 85 70 80 153 56 156 62 50 62 45 147 143 60 150 62 63 69 80 85 75 77 83 77 72 77 70 75 65 61 58 65 62 47 44 44 30 39 33 35 28 38 40
39 33 45 49 46 40 47 37 44 47 44 52 63 56 58 78 77 70 86 87 79 81 76 74 88 161 70 66 155 71 60 60 152 139 61 70 152 62 76 69 71 87 91 78 93 93 85 78 71 77 81 63 56 56 52 58 58 42 46 48 49 42 48 52
49 46 35 41 41 42 43 44 48 43 50 67 73 60 68 71 83 72 77 94 81 86 96 80 159 78 72 81 155 68 66 58 146 148 71 70 153 82 89 91 97 85 99 98 96 99 81 95 88 91 81 83 73 63 65 72 59 66 49 50 69 56 50 52
40 45 56 57 60 41 45 49 51 48 66 70 72 63 76 78 74 85 86 85 94 88 83 88 170 94 76 159 77 81 72 74 65 236 67 153 88 80 96 87 98 90 94 90 102 104 97 103 94 91 98 92 89 82 86 68 66 69 70 60 73 75 79 70
42 49 53 47 41 51 52 50 52 44 61 59 60 66 70 82 74 84 71 75 82 91 74 83 170 82 82 165 74 63 55 55 149 147 74 150 81 77 75 83 88 93 96 84 84 85 92 92 84 85 74 69 76 68 68 59 50 69 62 69 61 54 54 67
48 45 35 46 46 45 40 46 32 41 56 49 55 47 63 57 64 61 72 73 74 63 67 79 65 161 68 147 60 49 58 43 143 134 60 47 154 58 62 69 80 76 83 75 71 69 69 70 72 62 71 66 64 63 47 42 56 50 47 40 48 43 52 41
44 38 43 33 36 36 28 43 38 30 33 39 39 44 48 43 64 55 51 65 60 54 56 57 136 55 45 125 55 52 36 37 31 126 118 130 57 60 50 55 58 67 51 52 65 60 57 56 49 64 60 45 42 50 34 45 36 32 30 35 46 32 45 47
33 19 30 29 29 35 19 33 22 27 24 38 26 34 39 40 45 54 47 53 51 53 43 131 52 33 33 115 41 41 31 34 28 120 120 120 38 42 48 34 53 44 47 46 56 54 43 53 37 35 42 35 43 38 31 26 25 34 39 28 22 32 34 35
27 28 29 18 20 26 31 19 22 26 19 22 37 44 43 29 47 49 36 41 44 53 35 33 133 50 33 42 120 36 24 36 116 33 107 22 115 27 39 30 49 34 35 34 37 49 43 34 30 46 41 27 37 22 18 32 31 30 24 32 38 38 22 32
32 31 36 35 27 20 32 21 34 27 36 36 34 26 26 43 40 38 46 30 30 32 38 122 33 46 31 119 28 35 20 28 28 190 26 36 25 128 35 36 35 37 43 41 37 32 35 28 30 43 36 36 29 23 33 35 25 31 22 35 33 36 18 31
34 34 25 35 26 31 28 30 33 21 28 19 33 23 20 34 29 34 36 43 39 34 42 31 125 24 30 39 115 28 27 31 121 27 113 31 120 33 40 40 30 38 30 45 46 37 25 32 36 36 29 24 35 22 28 27 29 33 22 35 22 38 29 29
34 30 26 31 26 35 21 18 34 38 38 38 36 34 32 35 27 29 26 29 39 33 28 30 118 25 30 104 26 27 37 115 22 104 25 31 118 18 26 36 39 39 41 42 34 33 25 36 25 30 25 27 23 26 19 24 23 27 29 23 33 19 29 19
25 20 29 38 21 26 29 27 36 25 36 24 35 30 20 25 30 37 20 30 24 23 38 110 25 38 22 37 123 21 105 33 105 24 30 22 27 121 31 24 36 34 24 30 31 34 34 37 32 26 35 26 21 32 20 23 32 28 24 38 36 26 34 33
19 24 35 30 22 19 34 30 18 38 25 33 28 26 33 32 36 23 25 29 36 28 118 33 34 25 26 22 19 208 34 34 18 103 21 22 27 30 118 18 30 32 31 18 35 19 29 38 20 18 36 19 20 28 19 28 27 29 28 25 21 31 32 21
35 26 21 32 34 35 26 20 28 21 23 32 29 19 27 29 26 36 38 30 29 38 29 122 29 22 21 18 111 123 19 26 28 24 103 23 24 19 117 36 30 27 35 38 23 20 24 21 21 24 38 25 34 20 22 19 18 21 35 24 21 29 38 33
22 35 24 38 37 31 27 23 31 30 30 37 36 33 27 20 18 19 25 18 31 22 123 26 32 19 32 30 18 107 123 33 33 21 114 26 34 113 21 26 27 28 32 32 34 34 30 24 25 30 36 37 27 31 20 19 25 38 21 18 19 33 37 21
30 32 37 24 37 38 27 34 31 34 36 24 32 19 30 26 38 37 35 35 24 106 22 21 32 19 28 27 31 200 20 22 34 37 114 31 34 107 31 33 24 21 28 37 29 37 23 19 30 33 22 20 23 20 28 27 24 37 27 33 34 37 25 35
22 21 29 38 31 24 19 21 30 24 30 23 29 22 35 22 23 24 22 18 24 18 115 26 25 31 33 31 33 204 38 38 32 29 33 115 108 38 34 32 31 23 18 21 28 19 29 19 34 38 22 30 20 31 26 29 34 19 24 28 19 18 31 33
28 33 22 35 26 24 37 35 19 20 25 37 24 28 21 31 26 34 26 34 34 33 22 113 38 38 28 29 120 38 108 36 26 30 37 23 117 107 29 21 34 20 34 25 20 19 20 28 24 37 24 20 23 24 22 23 36 37 30 35 26 35 34 24
37 18 34 38 21 31 24 35 27 29 34 19 28 18 31 38 26 20 32 32 21 30 106 32 20 22 35 32 24 34 117 18 20 36 28 32 26 111 121 30 29 37 27 38 31 29 30 34 20 36 20 31 36 28 24 20 36 26 36 24 23 23 21 36
37 23 35 22 25 19 36 37 37 32 21 38 27 21 38 23 20 30 20 38 31 38 26 104 23 37 19 38 18 28 109 27 37 29 28 35 121 18 112 30 21 35 38 26 25 35 22 29 37 29 35 26 24 27 28 30 22 34 21 20 18 27 38 27
23 20 33 32 38 37 34 35 23 35 30 38 33 34 23 32 27 38 37 29 30 30 23 34 31 32 34 24 36 26 111 31 24 22 25 31 24 110 119 33 24 30 21 36 36 20 20 24 35 19 22 18 25 34 30 32 20 21 36 30 20 20 30 37
25 27 32 35 28 33 31 21 23 20 35 38 38 22 32 35 19 28 31 28 21 32 21 18 22 30 38 33 22 34 26 109 29 21 38 33 25 117 103 34 19 26 35 24 35 18 38 19 26 24 26 22 21 35 18 19 29 25 32 29 19 28 34 25
37 20 25 31 27 28 32 31 32 35 22 20 31 36 36 20 30 33 18 27 23 27 31 37 35 36 24 26 25 33 37 34 103 32 35 33 31 112 19 30 31 32 29 29 31 20 30 35 31 20 21 36 35 24 35 36 34 18 28 27 19 29 31 19
21 38 28 26 36 27 30 31 22 26 22 37 19 27 19 31 29 38 33 18 30 28 19 27 21 21 37 34 20 20 19 35 35 114 30 30 26 30 118 23 34 26 32 38 23 26 33 34 21 35 33 28 33 25 33 28 31 23 24 19 30 27 23 18
26 38 33 28 34 35 18 35 38 29 21 21 21 23 28 36 23 33 27 22 33 34 38 25 29 20 20 21 33 18 35 28 28 38 23 28 22 120 28 27 26 18 20 29 38 18 18 18 19 37 31 26 27 35 21 24 19 29 23 19 24 18 36 37
22 24 30 28 29 35 35 26 23 25 20 22 19 21 25 27 37 21 24 21 36 30 38 19 29 30 32 22 31 37 35 18 26 19 33 23 26 117 21 22 23 30 18 24 20 22 23 21 22 18 38 28 35 26 20 36 31 22 21 23 31 34 31 37
22 25 24 33 29 28 29 22 30 21 31 27 30 28 25 25 28 26 19 28 29 28 38 24 32 20 24 33 29 18 25 27 26 22 21 37 26 35 31 18 23 24 33 26 31 23 33 23 35 27 37 24 18 32 30 29 32 32 38 33 29 36 24 25
31 32 33 26 26 31 30 27 36 34 25 27 19 31 32 33 35 31 24 30 31 31 30 25 38 30 30 21 20 27 30 22 22 31 37 35 36 21 37 22 27 25 19 26 19 24 34 38 36 20 33 28 25 37 37 29 27 21 18 33 37 30 18 28
21 28 34 34 22 28 38 26 30 38 19 26 22 22 32 23 32 32 31 30 32 28 32 27 24 35 38 23 28 29 33 18 31 23 27 20 21 32 19 36 22 33 33 22 18 31 25 35 35 31 35 27 23 26 31 22 35 29 24 21 20 26 20 18
