P2
64 64
255
19 34 34 36 19 20 26 35 31 25 33 34 28 30 27 30 29 28 34 21 20 24 34 37 32 31 25 23 35 22 28 18 26 24 33 31 21 18 38 26 32 32 20 24 19 21 26 32 20 31 23 27 19 22 28 26 20 19 21 36 35 35 18 21
27 20 27 27 24 37 28 38 22 36 19 19 36 26 20 24 37 21 31 31 30 23 18 35 18 37 34 36 34 36 37 21 34 28 18 31 38 33 36 23 22 23 25 18 36 32 36 24 33 27 22 34 36 37 28 31 38 25 22 37 25 32 29 25
31 26 21 27 36 25 29 38 36 30 31 26 33 27 18 20 21 32 35 28 25 27 35 34 34 31 30 30 35 20 18 32 34 35 38 33 21 26 33 25 25 36 20 19 31 25 38 18 22 20 32 30 35 35 33 27 28 35 22 35 26 26 35 19
28 28 36 37 28 23 18 18 28 20 21 25 28 33 22 32 31 37 23 26 23 38 30 37 23 37 28 19 30 25 23 23 18 20 20 23 34 23 19 34 28 27 38 34 33 28 29 22 35 22 28 28 21 32 28 33 37 29 31 33 37 37 20 35
34 21 38 18 25 28 18 32 34 27 35 31 25 38 21 32 34 34 36 28 36 35 37 23 25 37 21 28 23 36 33 38 26 38 24 27 33 26 31 27 33 34 23 22 38 24 18 37 35 18 35 38 27 20 38 22 36 19 34 35 22 26 34 28
23 18 28 33 29 25 34 18 27 24 27 30 27 23 26 19 34 38 24 38 37 34 25 31 26 31 20 27 26 31 22 37 36 38 22 20 23 36 18 35 37 38 36 31 19 38 19 37 22 22 27 23 32 24 37 19 34 26 33 22 34 19 19 34
26 23 36 23 38 24 25 23 34 21 23 32 32 24 37 35 35 22 20 19 22 36 20 19 24 25 33 32 22 27 31 32 28 23 36 25 34 21 23 18 31 28 23 36 33 23 38 22 22 22 20 20 20 29 33 26 34 25 37 30 32 25 29 18
32 21 33 25 20 33 26 33 37 26 22 26 37 21 24 24 33 34 35 35 18 23 18 36 23 19 19 37 31 19 33 21 32 36 26 33 36 20 36 28 30 38 25 19 22 18 35 23 23 34 37 38 27 30 24 33 35 38 32 28 21 38 24 31
27 22 24 36 27 33 18 27 20 29 25 20 22 29 27 29 36 36 32 32 35 29 25 21 26 29 32 27 20 26 18 36 26 26 33 29 26 30 23 19 26 29 38 20 24 33 28 20 38 36 30 23 25 19 31 22 37 26 23 22 29 18 37 23
25 21 28 23 36 19 38 25 19 23 22 23 19 21 35 33 33 35 21 18 19 23 21 23 35 28 32 18 34 30 20 25 33 34 28 19 21 27 19 37 28 24 25 27 26 36 21 19 38 38 36 37 28 32 22 34 28 38 29 18 19 22 30 35
27 27 30 28 37 21 18 25 34 29 32 22 28 30 34 28 35 27 38 38 32 22 35 37 18 26 21 35 23 36 26 22 19 24 30 33 21 19 36 19 27 33 34 35 20 34 27 18 35 24 34 18 20 31 34 29 30 31 20 20 35 23 20 31
27 29 19 27 35 20 38 35 36 31 30 33 31 18 33 30 32 19 30 32 36 26 32 35 25 19 35 32 32 36 32 38 22 38 31 20 20 22 24 30 37 35 24 33 29 28 32 18 28 34 27 37 22 28 18 23 27 36 34 30 34 34 18 31
20 37 32 29 21 34 32 19 25 18 23 27 36 36 30 21 18 18 22 33 20 27 27 38 25 33 27 25 37 38 37 19 34 35 26 35 33 30 24 37 22 34 35 18 26 36 25 22 30 27 23 32 29 23 18 24 33 35 20 23 24 21 28 26
20 23 30 22 29 23 36 36 36 26 33 24 30 34 31 35 22 22 19 37 32 34 33 38 27 20 36 36 25 19 38 24 25 25 18 29 25 25 21 25 31 31 27 23 27 19 25 28 27 37 31 22 31 18 32 20 34 32 19 34 22 38 26 31
34 20 31 30 34 26 22 33 21 31 34 27 36 18 22 18 37 35 37 35 24 20 24 38 20 22 20 19 37 28 34 19 22 23 32 24 28 33 31 28 32 26 22 33 32 37 33 23 24 36 36 27 35 24 38 31 25 20 28 20 33 27 33 20
30 27 32 36 30 29 38 32 36 22 34 34 21 38 23 25 35 26 27 27 22 23 24 37 22 27 18 32 24 28 22 23 21 23 21 31 23 35 36 23 25 30 38 25 25 26 35 34 35 27 38 35 36 31 25 38 31 27 30 28 34 33 33 28
18 35 21 28 29 31 18 25 27 24 34 23 26 21 37 24 26 37 36 29 20 33 21 37 26 32 29 26 29 24 36 35 37 26 37 19 35 23 34 38 31 20 31 35 20 35 36 31 26 38 32 26 29 29 23 36 37 22 34 21 32 38 35 26
22 27 19 25 32 28 23 33 34 36 21 26 23 36 26 24 18 31 26 36 27 18 25 32 35 23 34 23 23 18 32 24 37 31 22 33 28 21 19 35 21 18 29 35 34 27 18 30 27 30 23 32 27 25 23 31 36 27 21 19 29 35 25 30
27 28 31 37 37 24 23 38 29 23 38 18 19 23 34 27 18 30 18 20 18 25 28 28 20 21 22 23 24 29 34 21 19 20 34 33 31 32 38 26 22 31 31 28 28 28 23 38 35 35 33 19 33 25 38 22 36 24 21 32 19 19 19 28
37 18 33 21 25 25 33 32 18 24 35 31 29 33 18 23 19 28 34 23 29 27 27 41 31 35 26 32 25 44 34 45 46 31 34 30 38 24 21 32 34 41 39 42 42 35 31 21 30 30 22 35 28 32 18 24 37 21 32 28 38 35 23 34
26 20 32 32 27 29 38 23 32 33 31 35 29 22 34 22 40 35 31 43 40 41 40 44 26 33 29 34 49 53 63 64 59 55 41 37 19 19 28 41 33 27 37 34 27 34 30 28 27 24 20 35 32 35 22 38 30 22 24 22 22 24 31 33
32 38 19 27 34 19 26 35 29 37 26 35 27 21 41 27 34 36 42 43 33 40 45 34 29 38 37 44 62 59 78 88 86 67 63 49 31 28 42 40 39 47 39 41 38 36 30 37 44 38 31 34 20 25 25 27 32 19 35 32 32 22 30 25
37 20 24 33 35 33 19 37 18 21 24 33 30 35 33 30 50 45 36 40 36 38 46 42 36 34 56 64 68 87 103 87 95 72 74 53 45 46 28 41 44 43 41 48 43 38 35 34 41 34 32 28 29 21 31 19 33 37 37 31 22 22 21 34
24 21 34 23 23 30 32 33 35 36 20 33 40 47 38 42 53 48 53 57 57 48 44 44 52 41 65 62 80 99 100 115 110 89 71 76 57 47 48 53 39 41 48 48 46 52 38 52 38 40 36 44 44 34 26 26 26 19 22 28 18 20 31 18
19 23 24 18 29 25 23 34 35 27 31 27 32 44 45 45 38 41 58 48 46 61 43 47 49 46 71 66 90 109 119 132 107 96 88 72 56 48 40 42 45 47 53 49 42 44 60 56 45 35 36 34 32 38 35 38 34 20 22 31 26 27 36 25
28 36 21 38 21 37 21 28 27 33 27 30 42 52 47 40 42 57 47 48 48 45 61 60 50 48 61 73 88 94 122 113 109 96 90 75 54 38 54 59 56 56 48 57 63 49 45 42 41 54 51 36 48 42 34 30 35 31 37 24 28 36 32 29
28 25 27 24 29 34 21 30 19 38 41 32 50 38 55 57 44 56 56 60 51 59 55 49 47 48 68 80 88 90 98 98 111 105 93 89 79 59 70 50 64 53 66 53 64 66 63 62 51 59 52 35 44 45 31 30 25 24 29 23 31 21 31 23
37 21 21 34 27 38 26 29 21 44 41 31 50 40 48 50 60 60 51 54 67 58 62 57 54 64 53 73 83 83 102 97 102 123 113 104 91 90 86 68 78 72 68 65 64 63 67 57 57 52 55 49 34 40 28 39 29 34 24 25 30 21 21 28
24 19 29 24 29 29 38 20 25 29 46 34 53 45 45 59 63 67 70 58 57 64 72 56 72 68 59 59 75 79 92 105 127 114 121 106 104 109 105 83 86 73 59 59 70 61 55 60 68 66 58 39 52 49 30 31 26 37 19 31 28 22 22 23
22 19 26 23 37 28 28 34 37 41 50 34 53 59 65 53 59 60 73 76 74 80 78 74 56 70 59 61 60 75 91 101 130 124 139 125 141 137 118 120 103 80 88 81 80 73 77 69 59 62 54 56 44 45 39 38 39 19 33 29 35 34 26 35
30 37 37 33 32 38 19 27 26 34 41 55 38 45 56 65 67 61 76 71 75 77 78 80 65 67 67 55 58 74 92 115 134 146 144 162 159 152 150 129 115 103 81 69 75 70 63 62 73 56 57 60 58 35 33 33 33 31 34 27 27 27 18 27
29 29 25 23 32 22 33 37 34 27 43 36 56 43 49 63 72 61 76 77 74 82 73 81 73 68 58 49 57 82 98 119 147 158 170 186 180 165 160 131 128 102 94 96 70 73 76 67 73 53 53 55 46 46 51 46 34 31 21 23 37 31 23 32
25 24 19 28 28 34 21 31 41 33 32 38 41 51 54 52 64 77 63 85 90 84 77 82 63 55 71 60 64 79 109 124 145 172 197 196 194 178 170 138 135 104 101 90 72 74 71 73 68 59 63 55 41 50 52 44 44 21 19 21 33 29 23 38
20 32 20 25 37 19 27 35 25 46 45 36 44 53 53 56 75 62 64 72 87 88 84 82 62 71 59 48 61 78 97 116 138 156 186 193 213 181 169 145 122 113 103 99 78 76 80 66 65 55 62 60 47 36 39 31 41 40 32 35 22 23 37 28
27 29 23 30 37 38 36 26 37 40 47 50 47 61 61 67 60 72 60 78 83 83 80 62 61 73 66 54 48 81 97 106 143 157 174 180 178 181 152 140 133 115 94 86 64 65 71 72 67 55 46 43 41 53 36 32 40 27 18 23 33 20 37 31
33 20 19 19 20 28 32 26 30 31 31 36 46 61 65 59 61 72 74 77 74 79 60 67 54 61 60 63 61 69 94 105 112 138 159 153 160 162 138 126 114 110 90 72 64 71 71 58 57 53 58 57 45 49 33 39 32 31 19 20 38 23 18 34
36 29 31 26 26 23 22 38 24 32 42 48 48 59 57 65 68 68 72 75 58 76 61 65 61 67 58 56 45 61 64 91 104 128 129 135 140 137 122 114 101 86 85 79 70 58 73 59 57 56 59 57 45 52 45 35 37 25 35 35 37 21 32 31
33 18 18 31 35 18 31 25 35 37 34 45 54 40 59 53 48 66 67 69 66 53 65 63 62 58 46 58 44 45 52 77 76 101 102 111 111 107 97 102 89 76 73 69 55 52 70 52 49 62 49 42 40 40 32 41 26 26 25 31 21 37 19 18
35 21 35 25 25 26 19 26 32 38 33 41 32 52 49 51 52 62 59 60 69 54 57 50 54 49 41 44 48 36 39 44 69 80 86 86 86 84 79 87 70 68 64 51 64 65 49 46 45 42 44 40 48 38 37 28 28 29 34 38 18 21 23 38
20 26 36 21 23 26 25 28 27 24 32 45 49 39 35 55 46 52 52 60 48 59 61 56 57 57 58 48 48 45 35 43 36 43 51 62 75 67 71 62 68 64 51 55 60 51 47 42 53 48 39 32 46 41 39 23 20 30 20 18 21 19 26 36
25 29 21 32 24 33 21 21 33 19 36 40 47 44 51 38 57 48 44 47 58 55 52 40 44 57 53 33 48 45 40 21 36 42 37 46 63 49 45 45 43 47 61 41 57 59 46 58 42 41 48 45 39 28 23 18 19 19 29 32 23 32 38 26
34 31 27 34 27 25 19 30 27 31 36 29 33 29 41 31 41 47 53 54 48 37 42 55 54 48 37 42 43 42 26 18 32 29 24 31 38 46 50 50 52 42 43 39 43 56 53 45 36 43 30 32 42 29 26 31 23 36 20 24 30 30 20 18
33 20 36 34 29 33 24 26 27 25 35 21 36 30 39 34 43 34 46 52 47 51 42 47 51 33 39 37 26 41 31 37 28 23 33 21 28 45 31 45 43 36 51 48 51 43 52 31 30 36 30 28 31 37 33 29 18 22 22 19 19 36 24 25
38 36 31 18 21 38 21 26 26 26 30 37 27 31 23 24 37 45 31 45 31 37 41 36 39 43 33 39 40 33 34 18 29 29 22 27 22 38 32 33 35 48 36 34 37 34 31 36 42 25 40 40 35 18 18 33 32 21 28 20 38 25 21 27
26 33 26 38 33 32 33 18 33 26 20 33 27 27 19 31 22 26 37 31 33 30 33 31 37 31 37 20 30 36 35 23 37 20 32 36 27 35 39 42 33 34 40 40 43 42 43 33 37 35 39 26 26 21 38 32 22 35 29 28 37 24 21 23
32 29 34 22 32 24 21 26 34 19 25 37 24 38 35 24 27 27 40 35 33 27 24 35 21 29 38 35 36 33 18 35 31 31 30 32 24 18 18 34 32 40 23 32 34 25 32 33 38 22 28 31 37 37 18 28 21 22 27 24 35 28 28 24
30 34 36 38 26 21 29 25 18 32 34 36 23 31 23 33 21 22 26 38 20 33 20 18 18 26 20 21 38 31 36 27 21 25 34 22 19 18 30 25 31 35 36 28 38 37 20 35 35 27 27 36 31 31 25 32 33 29 30 20 36 24 18 37
25 37 25 30 25 31 35 36 21 22 20 20 35 33 31 30 32 20 24 35 28 19 30 36 22 37 28 21 19 34 22 26 37 29 35 36 29 20 28 38 23 28 23 21 25 22 28 24 27 31 19 20 34 18 35 18 20 18 25 22 27 35 21 28
32 23 37 19 26 22 22 20 26 18 21 29 19 27 18 20 20 27 28 29 32 33 36 23 24 26 28 25 21 23 36 34 32 30 20 26 32 35 22 30 26 30 37 27 31 36 34 32 18 31 33 37 33 29 38 28 28 31 26 30 27 22 31 18
30 32 26 22 27 22 30 25 26 31 37 35 36 34 35 38 26 18 18 21 25 28 24 38 20 29 22 30 33 18 30 25 18 23 32 38 18 26 38 32 27 27 22 28 33 33 28 23 26 38 36 21 38 24 30 37 35 38 37 32 31 35 25 23
21 31 20 24 24 38 35 25 34 37 21 21 21 33 37 31 27 28 30 37 25 33 34 34 18 21 23 34 25 30 30 38 30 22 18 20 35 26 34 26 20 31 35 25 19 24 19 19 31 29 36 20 23 21 27 35 31 30 34 24 18 24 26 23
27 29 28 20 23 35 35 21 26 19 32 38 22 36 24 34 25 30 18 25 34 30 19 20 35 27 34 33 37 35 19 18 28 18 35 37 29 36 32 36 19 23 30 21 37 22 18 19 32 31 33 22 20 20 35 20 25 26 34 20 35 24 37 20
19 26 32 29 31 25 20 23 34 26 36 32 38 26 27 29 31 32 18 21 18 20 38 21 28 37 25 37 37 33 35 20 19 25 23 30 28 29 34 23 37 24 28 22 32 36 18 36 37 24 31 36 37 29 18 18 19 20 21 31 26 22 20 32
22 19 31 36 27 35 32 26 22 20 21 27 30 18 30 31 33 37 33 27 25 31 21 27 26 24 29 21 28 32 23 34 30 26 19 18 28 23 32 36 30 30 18 26 21 27 30 23 26 29 36 27 30 23 23 26 29 28 34 34 21 26 37 33
20 18 30 20 21 31 36 28 21 28 33 24 32 36 27 20 18 37 24 38 36 27 18 34 19 21 22 31 32 31 21 24 29 31 24 30 27 21 32 20 21 30 30 29 25 22 22 25 22 20 19 26 32 23 27 30 25 36 21 30 29 21 29 32
18 19 38 36 18 27 37 18 21 35 38 38 34 33 21 21 23 18 33 35 35 27 34 37 36 27 25 33 31 23 24 18 24 26 32 28 25 22 27 29 37 21 32 27 18 33 33 23 32 30 29 31 19 24 30 36 25 37 38 22 19 26 33 36
25 34 36 24 29 24 21 37 35 35 22 19 35 33 20 27 36 29 28 22 33 31 32 19 34 29 19 25 24 37 19 23 25 34 18 33 22 19 23 27 35 32 19 25 27 30 28 23 28 18 28 35 20 21 38 20 36 25 31 27 18 20 26 18
28 29 29 24 30 32 29 35 19 24 35 37 31 26 32 22 30 29 32 26 21 28 32 18 34 29 18 20 37 29 38 33 23 25 36 20 33 21 26 24 30 29 29 21 37 21 20 27 38 21 36 35 32 19 34 19 18 37 35 32 22 19 18 23
30 27 38 37 32 31 18 27 37 26 18 35 28 19 23 18 29 32 38 30 37 35 26 21 30 32 38 34 27 20 24 34 30 26 31 37 22 32 38 32 35 29 23 38 30 23 26 28 23 20 28 35 35 21 22 18 32 29 19 34 25 21 23 26
25 27 33 37 24 27 23 18 25 34 24 24 27 25 31 33 20 21 21 23 32 33 19 25 27 32 19 22 38 26 31 24 22 27 33 27 26 25 36 35 23 23 27 19 18 30 33 19 33 20 23 35 25 37 25 20 34 22 25 25 23 27 22 19
34 34 21 32 18 38 37 28 30 32 19 21 32 19 24 31 34 37 28 24 23 20 25 36 36 38 38 22 20 32 20 33 38 37 22 27 19 26 36 28 28 26 37 27 26 19 34 31 36 34 23 18 20 25 18 36 30 20 27 23 29 24 31 25
36 35 32 25 20 37 19 27 38 21 29 36 29 24 34 36 18 36 34 35 28 28 34 34 24 34 27 37 25 33 32 28 21 20 24 22 23 27 29 21 27 20 23 24 21 36 32 32 23 36 36 36 36 19 19 37 20 31 38 38 21 19 37 37
35 30 36 20 19 23 32 33 25 35 25 24 30 37 31 18 34 27 29 19 23 23 37 30 19 28 18 23 19 36 31 30 23 30 25 26 29 32 32 24 21 23 38 20 35 24 31 36 35 25 36 29 38 27 21 31 26 21 32 33 27 18 23 34
20 30 38 20 25 34 24 25 30 19 25 19 28 34 28 33 30 28 37 22 22 20 22 22 32 38 38 36 32 37 35 36 34 30 24 23 37 22 21 22 21 29 19 25 29 28 37 33 30 38 29 31 19 34 36 27 29 26 27 23 30 24 25 18
