P2
64 64
255
16 22 20 25 18 23 25 16 25 16 18 20 19 16 19 24 17 20 19 26 22 23 19 25 25 25 19 17 22 14 23 20 21 19 18 17 20 17 18 19 26 15 23 25 23 22 16 17 24 23 15 26 18 17 17 25 17 26 14 16 14 18 18 25
25 24 25 20 22 23 19 20 16 14 17 20 18 21 24 24 21 24 20 17 15 14 15 20 22 19 20 25 21 24 21 22 20 25 14 16 26 16 26 15 20 22 14 17 26 18 24 25 17 15 14 22 21 20 21 17 16 16 16 25 24 16 20 19
22 21 24 26 16 24 16 21 24 18 23 17 15 17 25 17 15 22 20 25 14 20 21 25 15 16 19 22 18 25 21 18 17 23 14 15 21 14 16 15 17 23 25 26 23 18 14 15 15 14 14 15 25 26 18 21 23 19 21 19 15 24 20 21
22 18 21 15 23 16 24 26 26 21 24 26 16 25 20 22 22 20 21 21 24 17 23 18 19 18 22 18 21 26 23 19 16 23 21 21 15 15 24 25 25 23 18 17 14 16 14 17 18 20 20 23 21 15 23 22 26 21 18 22 23 24 18 24
21 17 21 25 19 25 26 23 19 17 18 19 23 14 25 15 21 20 21 14 14 19 23 26 26 19 16 23 23 16 24 16 17 19 22 14 20 19 23 23 14 17 25 14 20 21 26 17 14 15 26 24 22 18 16 18 22 25 22 17 16 14 19 20
16 16 25 16 22 22 25 23 24 22 16 15 23 21 26 17 14 20 18 25 25 23 23 18 16 21 20 17 23 26 22 19 14 21 23 20 14 20 19 19 16 25 19 19 22 23 17 15 15 19 24 14 24 16 19 22 26 24 23 22 24 18 21 26
22 17 15 16 20 23 26 20 14 17 18 15 17 19 19 16 26 20 22 20 18 21 19 15 14 20 17 22 24 18 15 25 22 24 23 21 14 23 15 22 15 21 20 26 14 26 18 15 23 26 23 24 19 21 25 14 25 20 26 20 21 18 21 26
21 19 19 25 20 22 14 14 20 14 26 18 26 23 18 14 20 19 18 16 22 19 16 24 21 22 26 26 18 15 24 16 23 20 16 14 26 21 14 25 16 19 21 18 23 26 21 23 21 15 18 15 22 20 15 19 26 18 16 17 15 25 19 14
16 24 25 22 22 15 14 16 25 14 15 18 15 17 19 15 17 16 16 21 18 23 24 23 14 15 24 15 18 15 14 26 20 18 14 19 22 15 20 18 17 19 17 21 16 18 22 14 14 18 26 19 18 21 24 20 23 22 14 21 19 17 14 15
21 22 15 24 14 19 24 22 20 20 18 16 16 21 18 24 15 26 20 17 14 15 19 18 20 19 21 14 23 21 20 14 20 23 14 26 24 25 21 16 15 18 16 18 18 14 17 14 26 25 26 18 22 21 24 16 26 25 16 18 14 23 26 21
15 25 23 20 24 25 14 18 19 25 16 14 23 18 20 15 25 24 14 20 25 24 21 21 19 18 14 16 14 20 24 14 15 20 26 24 19 26 15 20 24 15 25 15 22 19 25 19 18 26 26 17 14 21 24 21 22 15 25 26 25 16 20 17
20 18 14 25 16 21 25 23 22 22 22 25 18 25 21 20 22 21 26 23 14 14 22 20 26 25 14 16 21 23 14 14 20 19 25 15 25 26 26 22 20 23 17 21 16 20 24 16 16 17 16 21 14 15 23 26 20 15 25 14 18 18 24 25
14 24 15 21 24 16 17 18 19 14 22 21 23 26 14 21 25 25 16 16 23 14 23 18 15 26 20 20 14 21 24 26 20 24 26 24 19 20 22 15 16 17 19 26 21 20 22 25 18 17 14 18 19 19 19 20 20 23 24 24 14 24 20 21
14 23 15 21 14 26 22 24 14 16 26 15 17 17 22 22 17 19 22 24 25 26 17 19 25 16 19 20 20 15 20 24 18 19 20 17 16 23 25 21 17 24 21 25 22 22 16 21 20 20 17 25 18 17 23 23 22 15 22 19 20 16 21 18
18 25 16 16 19 19 19 25 26 20 26 25 18 18 22 16 19 16 18 17 21 22 25 16 23 14 15 26 16 19 17 19 22 14 18 17 20 25 22 25 23 16 23 25 15 23 26 24 14 17 17 16 25 19 15 23 24 26 22 15 25 18 24 22
22 26 17 25 18 25 19 20 22 19 20 21 21 24 14 19 24 25 21 18 21 15 14 22 14 20 23 21 23 17 23 24 17 25 26 22 15 15 22 25 15 18 26 21 24 17 26 16 15 20 23 18 18 19 19 18 18 21 18 17 22 22 24 17
17 15 15 17 24 19 14 23 20 19 15 17 21 19 26 15 16 21 23 24 26 26 15 23 23 26 25 26 25 25 15 20 22 24 25 16 19 18 24 26 21 21 17 26 14 24 20 15 17 22 19 21 18 22 26 15 25 18 14 19 18 22 26 23
24 26 22 25 25 20 14 15 17 20 15 24 23 20 23 19 26 20 16 22 26 21 25 25 22 21 24 21 21 26 14 16 20 22 14 26 22 14 17 22 17 25 19 20 16 24 25 17 21 16 14 16 20 17 16 22 19 23 14 19 24 23 14 18
19 15 26 24 25 14 20 23 21 25 26 14 17 23 23 23 19 16 26 18 20 16 20 24 23 26 25 23 25 14 23 23 25 23 21 25 22 21 17 22 21 23 20 21 25 24 15 14 23 22 22 19 23 17 14 22 20 21 21 17 19 16 25 16
23 22 14 21 23 21 16 26 17 23 18 17 20 18 25 23 20 20 24 29 19 19 28 21 26 22 24 20 20 22 19 25 22 16 24 21 17 20 22 22 21 28 25 23 23 23 22 20 22 22 17 14 19 23 16 22 20 23 26 24 14 26 17 15
21 26 23 23 18 15 18 25 16 17 25 22 14 21 23 22 27 32 33 30 33 33 23 33 30 29 28 25 18 20 19 18 14 22 26 25 19 20 20 30 25 30 23 22 23 25 25 30 23 27 15 22 17 18 22 14 24 18 22 18 17 15 24 22
19 16 20 16 18 16 24 15 20 23 22 19 22 20 29 30 31 25 25 37 32 35 32 36 34 27 32 24 26 23 26 25 22 18 20 22 21 26 28 30 23 35 29 27 27 31 24 32 34 21 26 20 14 16 18 17 14 26 20 22 17 26 16 16
19 22 22 14 25 15 14 23 21 19 22 19 27 20 29 36 33 28 28 29 31 40 34 33 37 28 26 29 32 27 31 30 23 26 26 24 28 37 29 34 28 37 40 30 33 30 39 35 38 30 34 22 22 27 16 25 26 15 26 20 21 14 15 23
26 24 25 19 20 26 21 16 16 17 17 25 22 26 37 35 36 42 38 41 35 44 38 33 43 39 46 39 43 33 34 31 30 34 43 40 43 36 34 33 37 32 38 35 40 35 43 38 37 30 35 27 21 24 19 20 14 20 23 21 25 17 15 15
21 22 23 17 23 23 20 19 16 19 26 28 30 29 38 43 35 38 43 40 47 40 47 41 47 44 50 48 50 50 50 43 47 38 45 51 55 50 45 48 44 46 41 44 47 49 40 45 36 39 36 32 26 22 27 14 15 20 17 14 20 16 20 19
17 22 21 21 18 22 26 21 16 16 19 26 37 34 34 40 39 44 43 41 53 53 50 51 51 57 56 58 57 51 59 55 47 57 52 54 63 58 64 59 57 54 46 43 43 48 42 49 45 41 31 38 30 32 25 25 19 21 16 19 22 25 20 14
20 17 14 16 26 16 14 25 22 18 22 30 39 36 43 48 49 50 54 46 57 58 53 65 57 61 66 63 63 59 65 55 57 56 64 68 61 72 61 61 62 61 62 50 57 56 47 47 49 45 41 35 29 30 23 30 15 24 21 15 18 22 21 19
20 15 15 25 14 15 20 17 23 21 32 32 36 37 46 43 43 54 59 52 61 58 65 75 66 78 70 80 68 77 66 74 74 75 75 77 73 78 77 68 67 72 60 59 51 55 51 56 46 41 45 45 40 31 35 31 20 17 21 19 20 14 25 16
23 17 21 16 14 14 18 25 17 22 27 37 40 41 42 42 52 49 55 57 60 74 73 80 80 80 84 83 77 78 73 86 86 78 76 82 83 76 84 77 75 77 74 73 70 53 55 53 47 48 51 39 43 31 35 28 23 20 17 24 22 17 26 23
23 16 23 20 23 20 19 25 20 25 30 40 41 38 43 49 48 58 57 70 71 77 85 87 85 84 87 85 82 84 85 93 82 93 90 92 94 88 87 91 88 85 78 78 78 65 55 63 58 47 50 47 43 42 30 27 26 23 20 20 14 19 21 20
19 26 17 22 22 21 23 25 20 23 38 40 38 43 42 52 59 53 67 69 75 78 92 92 92 94 89 98 89 97 95 99 100 98 89 91 96 90 97 98 88 87 92 83 75 67 57 57 56 57 44 38 41 37 29 35 25 18 15 19 24 21 17 20
19 14 23 25 14 24 18 25 21 33 28 33 42 42 53 48 62 65 62 79 84 84 99 91 91 96 95 102 102 100 106 96 97 97 97 105 99 95 103 96 97 98 96 95 89 71 66 59 57 53 44 45 40 37 36 26 26 25 21 16 15 18 17 26
22 14 25 23 21 25 23 23 29 36 39 31 46 46 45 49 57 64 76 84 93 99 97 102 95 99 106 99 101 100 112 111 113 110 109 101 106 108 100 102 106 95 94 95 89 80 74 65 59 57 45 45 36 38 35 35 28 26 24 17 18 26 26 20
15 22 23 19 16 23 17 27 20 23 38 43 38 46 45 48 53 62 68 77 88 90 97 94 98 99 110 103 110 108 112 120 117 113 116 108 109 111 102 104 102 105 101 92 86 79 72 58 51 51 54 44 41 33 32 25 28 23 17 23 16 14 26 17
16 21 18 26 18 17 15 25 23 29 37 38 42 42 50 50 49 54 75 72 86 96 93 105 99 105 113 112 109 119 115 126 127 114 121 110 111 104 112 102 100 97 93 90 88 77 64 57 51 54 49 40 41 39 30 28 28 21 21 23 24 21 14 20
20 26 22 25 16 18 14 23 19 27 29 34 41 44 44 44 57 55 62 79 81 89 92 100 98 105 103 107 116 116 114 125 129 117 112 114 117 114 112 108 95 99 94 92 88 74 62 60 54 55 45 47 42 35 37 25 23 20 24 14 14 25 25 21
25 22 24 14 19 23 24 15 24 28 28 34 40 46 44 46 46 54 67 74 74 91 95 99 95 100 106 110 107 108 115 124 132 119 115 116 106 106 107 105 99 89 88 79 77 71 61 51 52 52 43 41 34 32 36 29 21 25 22 23 17 18 23 23
22 17 23 19 21 21 14 14 18 27 30 32 34 42 37 49 45 53 58 67 78 85 92 86 101 93 105 99 109 116 107 113 115 113 118 115 108 100 97 103 95 85 89 76 73 63 66 58 51 43 47 43 39 32 29 26 28 20 25 16 22 19 25 14
22 26 19 16 16 19 16 26 24 18 28 36 39 37 46 43 49 43 60 63 76 81 85 90 94 93 100 102 101 109 101 111 109 111 108 101 109 99 98 95 84 91 84 76 67 57 60 49 42 40 35 31 28 32 25 26 18 15 24 16 22 20 14 16
17 18 15 16 26 18 19 26 14 23 21 31 34 35 32 38 37 46 54 64 69 73 80 78 86 93 97 97 100 103 98 102 97 105 98 93 97 97 96 94 80 87 79 70 60 53 47 38 36 39 42 38 35 34 21 22 19 21 16 20 26 26 26 17
19 22 17 26 19 26 15 17 14 22 24 25 34 26 37 39 38 38 50 47 53 69 66 76 83 81 80 91 91 88 90 88 95 91 95 96 91 89 84 87 76 77 71 68 57 53 49 35 39 34 40 32 28 21 20 16 19 20 16 15 14 19 21 19
17 19 19 14 25 15 23 17 19 26 22 25 32 29 36 37 35 43 39 46 53 52 65 65 77 81 81 81 79 87 77 83 89 86 86 82 89 80 83 72 71 70 69 60 57 41 34 41 35 32 27 33 23 21 17 22 20 25 26 24 25 15 26 18
25 14 19 23 20 17 16 22 23 14 16 23 23 25 32 33 35 31 37 44 50 58 54 57 68 65 68 72 76 80 80 70 78 79 73 75 69 68 76 65 69 60 58 47 43 45 29 36 37 27 26 21 25 27 24 21 21 23 24 22 21 21 16 22
15 15 18 23 18 17 23 23 26 22 24 19 24 26 30 24 26 34 33 39 43 50 49 53 61 66 65 68 60 71 73 65 67 76 70 67 70 69 69 55 63 49 47 43 41 39 24 33 24 29 23 25 23 21 26 23 26 16 15 21 22 23 21 23
25 24 22 15 17 14 21 25 19 25 23 25 20 22 17 24 28 29 31 29 38 44 48 43 46 52 57 62 58 63 62 61 66 59 58 57 60 50 60 48 49 50 39 34 27 27 27 27 27 19 25 14 21 14 18 22 23 24 25 25 14 21 23 15
19 26 26 26 22 19 21 24 19 22 17 17 18 22 21 26 16 24 26 25 26 35 28 34 42 44 45 45 58 53 60 58 53 58 54 58 48 48 46 40 37 37 39 26 21 26 24 17 23 16 15 14 24 26 26 20 20 24 16 23 22 23 16 24
17 16 19 15 15 15 15 19 26 16 20 20 24 18 21 26 16 23 24 20 20 25 27 27 34 33 43 40 42 54 49 50 48 45 46 45 48 48 36 33 32 29 26 21 23 18 18 18 18 14 22 21 15 22 20 14 24 17 18 14 16 24 19 25
14 25 25 15 15 25 23 16 18 23 23 14 21 14 23 14 14 25 26 26 25 19 20 27 29 39 31 37 39 47 45 47 40 42 45 43 46 35 31 28 25 26 21 20 23 18 24 20 14 18 15 24 15 24 18 23 21 19 23 14 17 24 19 22
23 19 14 26 14 19 18 24 15 17 14 21 18 17 26 26 24 20 15 24 24 22 19 25 18 25 35 32 31 31 38 44 40 44 43 36 30 37 30 29 29 22 23 17 22 18 18 17 21 24 26 26 18 18 14 26 17 24 19 17 20 25 16 26
24 16 19 15 25 26 17 14 17 16 20 25 17 23 19 19 23 17 15 26 14 24 19 15 20 22 25 21 31 34 37 28 31 38 34 25 24 27 27 25 26 22 17 24 22 22 24 20 21 22 21 18 21 22 20 24 19 17 17 26 17 23 22 19
17 26 20 24 15 17 18 16 21 22 15 18 24 14 24 19 18 19 25 14 20 22 17 17 16 23 20 20 29 21 29 21 27 28 29 21 23 16 25 22 26 21 22 23 17 20 20 15 17 21 26 14 15 24 24 17 16 25 25 18 26 14 23 17
17 16 20 18 23 25 23 14 17 24 26 19 24 15 23 24 23 22 20 14 15 26 21 14 26 23 23 16 23 22 21 19 27 25 24 15 20 25 26 21 15 20 18 14 20 14 19 16 22 14 16 26 26 25 23 21 21 14 24 21 20 25 26 16
25 23 14 14 16 21 17 25 23 17 18 24 20 18 15 22 16 14 20 26 16 23 19 16 21 20 23 14 15 19 18 17 24 21 22 24 17 19 14 26 14 24 23 25 17 14 15 21 17 19 21 26 17 19 21 15 22 24 21 14 21 20 22 20
16 16 17 20 17 20 20 22 23 19 19 25 19 18 26 20 23 16 16 23 17 15 23 14 15 22 17 26 26 26 24 22 14 21 14 24 22 15 15 23 19 14 14 17 25 19 20 20 20 15 25 17 24 17 15 22 19 24 25 15 25 17 15 16
22 14 24 17 14 23 25 14 23 14 21 14 19 21 19 26 18 25 17 15 20 22 20 21 22 18 18 17 18 20 26 26 14 14 19 22 26 24 16 20 23 18 14 24 19 17 17 26 22 21 14 18 19 26 18 21 24 16 20 24 17 16 19 25
18 23 15 24 26 17 17 24 15 20 25 16 14 20 17 18 17 14 25 18 25 22 26 24 19 17 19 22 21 18 22 17 25 18 26 21 21 21 17 21 17 24 19 26 20 19 24 18 25 25 19 22 16 20 15 22 19 21 19 20 18 14 16 26
24 16 17 25 20 19 21 17 26 19 26 24 19 17 15 16 19 21 21 22 17 19 17 21 18 20 20 16 16 15 19 18 19 21 17 21 22 19 20 17 24 19 20 25 18 26 22 24 20 21 14 14 14 20 18 21 24 15 17 26 19 17 22 17
19 25 22 21 14 23 26 20 17 14 18 25 22 15 25 23 19 19 16 25 24 17 26 15 21 24 17 25 23 24 21 18 22 15 21 23 20 24 24 19 15 14 20 21 16 22 19 20 24 16 23 20 14 16 23 22 19 14 14 25 14 16 16 21
21 14 20 16 26 17 25 18 22 16 22 18 14 24 20 23 22 15 19 18 14 19 17 22 20 24 22 15 18 22 26 23 19 15 25 22 23 19 23 19 18 21 17 17 26 25 24 21 19 19 22 19 15 17 26 25 16 20 21 21 17 19 25 16
18 17 25 22 21 14 16 24 20 16 20 17 15 25 17 21 19 26 14 16 14 24 16 26 16 24 21 26 24 17 21 18 21 20 20 16 24 24 15 17 23 18 26 22 25 21 26 20 22 26 22 17 14 19 26 21 25 15 17 23 18 19 19 26
14 20 21 16 25 19 21 22 21 17 14 19 24 19 14 15 19 18 26 22 21 20 24 24 22 20 16 23 19 26 25 17 20 16 18 14 17 25 22 18 24 17 15 22 16 24 22 18 18 14 19 21 18 19 19 15 15 17 20 25 14 24 18 18
18 17 22 16 20 19 22 16 21 24 14 15 17 16 21 15 16 26 14 20 24 14 24 14 21 20 14 19 24 23 17 23 14 25 18 26 22 22 14 26 22 17 25 19 18 17 15 18 23 26 25 15 22 21 25 17 25 24 25 21 19 23 21 18
18 22 19 15 15 19 14 19 22 15 20 18 23 16 24 23 21 15 19 22 22 25 15 21 19 21 18 20 22 18 25 16 26 18 21 24 23 22 20 20 15 18 23 20 14 15 19 17 22 17 26 15 15 18 14 24 18 18 24 21 22 20 19 22
25 14 15 26 25 18 22 18 19 18 18 23 26 14 16 25 14 14 14 23 19 24 23 15 25 20 24 25 22 16 26 17 26 14 14 24 17 20 20 14 25 25 16 24 25 18 22 22 26 21 16 17 14 16 24 20 16 14 19 17 20 14 24 24
