P2
64 64
255
26 23 25 25 18 33 29 28 18 21 21 32 27 24 31 26 30 24 28 38 25 19 23 38 30 32 18 23 32 23 21 34 25 21 24 19 38 30 30 29 27 37 26 20 22 19 24 37 34 27 33 37 18 28 19 27 28 33 33 24 29 23 33 28
25 37 21 35 18 36 21 22 20 23 27 18 29 24 19 30 21 36 30 29 23 35 26 20 24 38 22 23 34 36 24 20 23 18 31 36 31 24 31 38 35 37 20 19 26 21 38 31 35 35 25 23 27 31 29 27 34 30 37 21 28 28 27 27
34 36 38 18 22 31 35 37 20 23 30 24 26 19 38 28 32 37 21 24 33 31 27 23 31 30 20 26 21 29 30 34 36 36 34 18 23 23 36 35 31 24 24 23 32 33 28 18 30 34 24 20 36 25 29 36 25 33 21 36 22 21 19 37
18 26 22 25 24 21 30 34 32 33 19 34 35 23 20 20 28 22 23 34 37 21 22 37 28 21 35 26 33 35 22 25 32 23 28 33 26 23 28 24 30 33 22 34 24 35 34 29 32 19 37 28 25 27 28 23 20 21 23 28 18 23 20 32
36 37 18 27 38 37 36 20 23 30 31 36 23 18 29 18 19 23 18 30 26 31 37 28 36 31 23 26 38 27 19 26 24 34 38 23 37 23 21 30 20 26 22 18 28 30 20 24 36 32 32 19 19 22 28 35 29 35 19 26 22 30 28 19
34 22 30 36 34 34 24 22 26 19 34 30 34 26 18 21 37 37 33 37 30 27 38 35 36 32 31 30 30 30 30 33 38 24 32 29 36 26 24 20 27 30 22 32 34 21 28 22 27 28 23 37 25 18 20 26 22 27 34 21 33 36 35 35
35 23 30 34 31 31 18 22 24 38 32 29 27 31 33 33 26 31 26 37 35 36 24 31 22 23 26 36 25 22 34 29 23 27 21 25 32 21 29 33 21 20 18 24 30 33 23 23 32 25 22 29 25 24 23 24 31 34 20 34 18 30 34 26
31 26 32 27 38 26 21 31 24 26 35 33 21 22 33 19 37 33 24 26 20 26 27 37 22 36 30 38 28 26 33 33 27 28 35 31 30 20 34 38 37 24 23 23 29 19 36 30 22 38 31 30 38 22 20 23 28 27 20 18 35 34 30 20
28 22 33 30 28 32 30 34 25 21 27 19 18 36 20 20 26 38 23 31 23 33 21 36 28 35 19 25 26 24 34 19 32 27 31 37 25 34 22 24 31 32 36 31 24 23 28 18 35 24 35 23 29 34 26 37 38 22 19 22 38 21 28 33
36 35 20 27 25 36 18 28 26 19 22 35 20 37 30 37 28 31 32 34 27 30 31 37 33 33 18 33 30 38 19 37 36 19 21 25 25 23 37 37 35 19 36 38 24 18 32 26 31 36 34 38 38 19 26 38 24 38 37 19 21 35 22 32
20 32 33 32 30 35 29 32 21 38 23 20 18 32 19 31 25 25 24 29 27 38 26 25 20 36 20 21 36 28 32 28 19 32 35 34 20 35 36 27 26 26 32 18 20 35 18 22 31 36 30 32 38 37 30 18 29 29 22 25 20 25 22 21
29 28 25 28 18 27 27 33 20 38 27 28 31 36 34 25 35 36 32 25 22 32 21 27 32 28 29 23 25 19 27 26 38 32 22 18 24 31 21 36 19 20 32 26 37 33 19 33 19 27 31 22 28 19 29 36 33 22 32 36 37 30 33 34
29 35 32 18 29 30 26 35 29 34 35 21 36 21 33 22 30 18 37 36 29 24 27 22 31 38 23 26 18 28 25 28 36 30 34 35 35 28 28 29 35 18 28 28 30 19 25 36 19 37 36 19 20 35 29 37 27 34 18 24 35 36 37 24
37 36 21 32 22 27 23 21 36 27 26 36 26 31 22 19 27 21 30 31 35 30 23 38 19 37 31 37 38 25 34 33 21 29 35 20 34 30 33 30 34 20 32 22 22 19 31 20 38 38 33 22 37 18 24 38 22 30 25 19 35 22 29 19
33 27 20 23 22 33 19 20 36 21 38 38 31 20 38 24 26 38 31 31 19 36 34 36 26 19 38 36 25 28 27 36 30 27 30 28 31 30 24 18 18 34 23 34 26 18 28 34 30 29 29 35 27 21 34 30 28 18 34 30 30 20 25 37
38 31 27 37 33 20 35 23 23 29 22 26 30 32 31 29 34 34 19 26 33 34 38 31 28 31 25 21 33 32 27 30 26 24 32 20 23 33 20 24 22 22 18 28 21 19 30 36 37 36 27 18 36 18 34 22 18 22 27 31 25 21 20 30
37 20 35 29 34 36 18 24 26 33 38 35 29 21 24 20 28 29 26 26 26 20 19 18 31 32 21 31 27 28 34 33 38 35 36 23 23 34 29 38 35 27 36 32 34 21 29 21 35 27 34 19 38 32 29 22 19 20 29 21 18 18 33 22
23 25 23 35 37 27 19 30 35 37 38 20 30 20 36 27 35 20 36 21 38 30 35 21 24 32 22 37 22 35 38 26 30 37 23 38 37 35 29 33 37 31 23 27 18 31 18 26 26 18 25 22 29 36 35 34 34 35 36 32 34 18 35 20
31 24 34 26 29 20 34 18 33 20 25 18 18 35 18 22 18 29 24 20 33 34 23 20 18 25 32 37 28 24 25 29 34 30 18 26 18 27 22 38 30 23 23 22 23 38 38 23 26 30 29 36 20 29 18 24 34 38 33 26 36 18 21 38
31 34 23 32 30 38 26 27 26 23 24 20 27 27 36 31 23 25 24 30 39 29 32 35 34 28 32 35 30 21 37 30 25 25 27 23 35 23 25 30 25 23 23 34 28 35 21 32 27 34 22 21 30 20 33 23 23 27 28 26 30 38 21 23
32 36 25 32 32 23 36 26 18 34 27 35 19 23 38 41 41 30 25 43 46 45 28 31 44 38 26 37 25 37 33 32 34 38 26 26 21 37 40 27 39 43 40 36 39 39 38 36 38 35 21 21 28 32 31 35 18 32 19 23 33 29 26 19
32 20 28 34 18 32 25 22 21 28 22 32 33 30 32 27 39 27 29 48 31 45 37 33 36 44 31 36 35 22 30 33 18 26 105 33 28 36 41 40 30 31 39 44 36 46 44 43 32 24 25 30 28 28 32 18 23 18 31 26 27 27 33 20
31 37 32 38 24 37 35 23 24 22 30 25 41 40 45 35 33 32 41 42 42 40 43 52 49 46 40 26 26 22 30 33 31 32 39 114 26 45 37 36 37 35 43 47 36 52 49 50 48 29 30 38 24 25 34 20 33 34 38 28 26 23 20 27
32 26 30 31 24 20 25 38 23 25 22 38 40 34 37 43 53 49 39 46 43 42 56 40 50 46 48 44 38 34 33 109 22 27 21 128 27 42 43 34 45 48 44 51 45 45 52 35 50 34 37 36 34 26 28 36 26 29 22 28 33 35 22 31
27 24 24 38 26 21 33 30 27 23 28 43 34 31 46 43 40 55 46 54 59 47 46 53 45 56 52 41 43 46 40 109 34 32 25 47 117 51 53 51 41 56 44 49 55 54 53 50 43 49 42 33 27 40 22 33 21 21 36 19 38 35 29 27
18 34 29 28 19 21 35 27 37 38 30 33 40 33 53 38 46 52 46 59 46 61 62 63 55 45 50 46 32 34 117 124 41 24 36 44 45 124 51 55 57 59 59 49 47 59 62 42 49 54 54 45 33 43 29 35 38 32 31 29 21 21 28 20
18 30 35 33 27 28 32 25 26 36 43 36 47 35 48 58 44 61 61 64 54 63 66 60 49 51 47 52 35 127 126 26 46 30 38 41 43 132 60 51 51 52 53 51 69 54 57 60 54 57 40 35 40 45 29 24 19 33 29 36 24 28 20 24
19 18 34 22 37 33 36 29 26 26 31 31 48 57 51 63 51 66 56 60 53 64 72 58 50 58 55 54 47 48 213 31 39 48 132 50 57 125 52 57 54 52 59 70 57 60 59 60 59 61 50 43 45 44 40 43 38 24 36 27 25 25 23 18
31 26 19 22 26 23 26 31 38 25 38 36 46 47 57 48 55 54 68 69 69 73 63 70 56 67 54 49 43 134 132 36 32 39 130 40 137 43 58 64 61 74 68 63 68 76 69 56 58 65 57 39 52 39 37 40 38 19 21 38 32 31 23 19
19 35 30 18 25 38 30 31 34 31 50 42 45 53 58 60 57 63 57 65 77 63 74 60 63 63 51 63 46 46 126 215 40 45 53 214 55 51 67 60 54 60 76 75 67 73 62 74 52 65 63 51 52 51 31 35 30 33 21 38 29 29 22 27
22 22 31 37 30 28 34 19 28 45 36 42 46 59 56 62 66 70 60 74 82 70 70 68 59 57 70 64 53 46 124 51 212 52 225 53 62 57 61 67 58 78 82 80 73 81 78 77 70 55 51 61 49 43 41 33 30 26 18 28 31 25 35 34
19 28 36 33 22 28 27 36 41 30 50 47 50 61 59 57 63 70 71 69 73 84 65 64 60 58 53 58 56 134 54 43 133 139 129 140 54 48 69 61 64 68 72 77 84 74 63 68 56 68 60 59 50 42 39 47 33 31 28 24 21 21 24 24
36 30 35 28 20 20 34 25 27 34 50 47 44 59 67 58 56 76 66 73 73 72 86 70 61 72 65 52 61 54 128 37 133 214 139 57 50 50 65 67 59 76 86 85 73 77 83 76 62 57 67 59 41 38 39 44 30 40 37 30 27 22 21 28
36 23 29 34 37 32 33 28 35 40 36 40 57 62 55 66 61 61 77 69 84 80 69 63 59 74 55 47 53 45 50 135 138 138 213 43 62 51 54 57 69 77 65 88 80 69 70 74 55 60 66 56 39 54 38 43 38 24 32 38 22 24 27 25
23 40 38 39 28 37 34 43 44 49 51 49 53 61 58 65 61 67 69 70 75 79 72 83 77 70 67 72 50 49 62 137 61 216 139 130 65 63 61 77 71 71 84 74 92 75 79 85 65 58 65 66 48 56 45 54 35 42 45 34 46 43 47 31
48 44 47 29 49 35 49 39 51 42 47 55 69 55 70 61 68 83 71 84 93 94 83 86 71 77 63 66 63 70 50 152 54 70 255 149 59 73 66 84 72 74 76 86 81 86 80 90 79 70 81 80 74 57 69 57 50 53 55 42 41 51 46 56
45 38 42 35 38 47 40 39 55 58 55 66 60 69 69 66 84 80 89 82 84 79 87 85 86 79 72 78 69 72 55 152 60 147 246 153 84 71 86 78 93 92 86 100 89 101 101 82 84 77 85 71 79 62 65 56 68 64 58 54 56 54 58 61
44 51 50 46 46 52 52 48 50 59 69 62 77 83 82 85 84 82 97 80 86 94 90 83 81 82 91 83 69 79 151 66 158 159 73 251 76 91 93 88 96 102 98 105 92 89 96 105 90 85 99 79 74 77 69 83 77 77 66 76 66 77 66 77
50 35 55 45 42 54 49 46 50 53 63 62 62 64 64 69 71 82 88 74 91 79 86 84 74 85 68 80 68 68 62 145 230 51 67 231 62 81 77 90 76 75 87 93 88 79 79 91 80 88 78 77 79 81 59 72 69 58 59 70 60 68 69 52
35 33 32 31 42 41 31 49 46 50 39 53 61 52 64 63 61 73 68 72 73 73 81 62 60 61 74 52 66 63 58 130 217 53 56 53 231 67 75 69 81 74 72 75 79 78 75 73 66 73 58 61 54 63 47 56 60 40 49 52 59 61 49 42
25 35 27 26 32 24 39 33 39 45 39 34 35 46 55 58 56 49 62 66 68 53 60 53 57 63 51 56 51 50 44 125 206 32 47 138 135 56 45 49 54 59 64 71 70 60 52 50 65 64 60 61 45 40 40 46 30 43 44 35 32 47 35 37
35 30 25 23 22 23 19 24 23 20 29 39 25 47 43 38 52 38 48 48 45 49 52 48 35 37 41 30 27 43 38 116 105 111 42 45 117 118 36 54 38 52 53 56 52 56 55 40 44 40 44 42 35 26 40 31 25 28 38 20 25 39 25 35
28 29 32 33 29 37 23 38 34 18 36 34 23 41 28 47 39 33 38 35 47 33 41 50 31 49 35 36 27 27 38 191 27 18 107 41 128 46 131 49 31 36 49 52 53 50 47 31 33 32 35 43 39 36 33 38 33 26 18 38 19 24 35 27
26 20 20 26 30 35 21 26 29 19 33 24 20 41 32 25 38 32 36 47 36 32 44 37 40 28 31 34 26 20 33 203 37 111 34 25 105 34 112 32 42 40 30 31 37 43 41 36 30 26 34 35 38 26 21 21 27 30 35 24 25 36 31 36
31 38 23 31 23 26 26 28 18 30 26 20 24 18 19 24 23 35 37 32 43 30 34 36 44 29 22 26 32 20 198 37 26 108 34 25 120 36 38 118 41 37 36 36 36 36 42 34 40 41 30 23 23 21 21 28 29 25 36 28 32 22 34 26
31 26 31 20 21 32 31 23 29 19 31 30 24 21 33 36 26 30 21 25 26 31 33 27 38 20 28 20 29 32 117 116 35 29 120 114 29 25 34 107 30 31 22 42 40 39 29 32 27 18 20 28 38 20 33 32 36 18 26 29 23 29 26 22
38 21 21 28 38 37 26 27 21 25 35 18 28 36 37 30 28 33 38 32 33 27 28 28 37 36 37 28 38 32 31 200 35 37 109 18 113 34 25 26 105 35 19 34 26 30 31 37 33 26 25 27 35 19 30 30 18 32 25 26 25 28 20 30
36 18 20 21 20 28 26 38 21 25 27 33 33 26 38 23 35 20 24 32 33 24 33 31 23 24 22 24 34 29 38 204 33 32 24 190 24 21 19 27 115 33 38 25 28 38 34 24 31 36 33 27 26 26 21 23 35 38 35 32 19 29 25 32
28 31 28 29 24 23 34 20 23 31 36 20 27 20 33 24 25 37 36 18 38 34 38 19 26 21 19 23 37 29 201 32 38 32 37 27 194 19 21 111 29 31 38 29 24 32 21 21 22 29 22 19 32 35 31 38 21 24 29 33 24 29 36 34
18 37 30 28 24 36 24 21 37 29 35 21 27 20 23 20 23 22 27 27 31 35 21 23 33 26 25 32 25 19 118 116 19 22 27 32 111 104 122 35 36 28 31 22 33 31 26 38 37 25 28 24 18 23 20 28 36 38 25 31 33 34 33 25
26 33 34 32 20 36 21 35 30 28 28 20 36 26 19 23 20 36 25 23 25 36 27 18 37 23 29 38 36 111 107 31 28 18 21 36 103 21 195 28 35 27 38 38 36 36 18 18 33 22 30 36 31 28 20 18 23 30 27 33 35 23 21 38
32 21 31 23 38 23 28 22 36 18 21 20 18 27 28 28 37 38 30 30 20 32 22 20 27 37 38 21 24 109 112 27 34 19 19 105 21 204 38 24 21 38 31 19 28 33 27 23 34 25 18 18 37 32 37 38 36 37 29 27 33 25 23 22
34 34 22 25 29 31 26 19 25 31 25 38 23 38 25 34 26 20 28 20 34 35 37 28 26 23 25 18 103 33 107 24 29 32 105 18 25 203 19 20 31 35 20 30 37 27 20 38 23 31 30 30 29 25 19 22 23 26 18 23 34 38 20 20
29 32 38 32 38 25 37 21 31 27 29 28 33 35 38 31 34 26 24 34 20 25 28 25 37 33 34 111 34 106 37 27 26 21 107 29 21 112 27 31 20 21 33 25 37 23 33 19 35 26 20 26 34 29 36 25 23 36 34 33 36 38 36 30
18 20 23 38 24 29 28 36 19 25 23 33 28 30 37 23 36 37 19 29 37 35 30 28 21 21 22 109 114 23 23 31 33 109 38 36 21 35 122 18 37 24 23 36 28 32 20 20 30 31 37 21 31 36 36 18 21 30 34 38 20 28 24 25
18 36 21 20 18 19 32 19 34 38 38 26 19 28 30 29 27 36 32 37 32 19 18 25 33 19 22 35 26 105 19 35 34 121 25 35 26 37 121 29 36 19 27 37 32 23 18 20 28 25 21 35 19 32 33 27 34 27 34 37 37 24 24 26
25 19 19 26 30 19 37 26 33 27 24 28 23 20 21 27 22 37 30 37 38 24 34 32 37 37 22 28 20 113 20 23 108 22 36 35 29 26 113 21 37 22 20 31 27 33 23 38 34 35 28 28 22 34 29 25 32 32 29 24 24 29 27 28
25 19 33 19 27 18 26 29 38 18 29 24 34 32 25 31 35 23 18 31 29 24 37 32 25 33 34 27 38 120 22 31 105 37 26 30 28 38 37 26 26 30 36 19 33 25 35 31 31 30 20 38 38 23 29 24 25 20 21 21 27 24 18 26
25 27 28 31 30 23 26 38 34 22 30 35 27 36 38 37 29 20 35 38 21 19 18 20 30 18 19 32 19 35 123 32 116 25 19 27 34 23 31 34 24 27 36 36 24 26 32 35 32 28 19 33 25 32 37 32 26 29 35 33 29 22 36 26
21 31 23 32 25 23 35 29 21 29 28 29 30 34 21 37 35 21 26 18 36 24 32 25 33 22 38 33 26 19 33 19 34 114 22 30 31 31 24 28 21 22 31 20 26 19 25 20 37 19 26 28 28 30 34 33 19 36 37 30 29 26 35 38
24 22 33 34 36 35 30 21 24 26 29 25 34 24 24 33 25 25 38 32 37 22 31 21 19 37 27 35 19 25 35 33 23 108 25 34 27 20 33 24 37 25 20 31 36 25 32 21 37 27 26 37 36 24 28 33 21 26 27 32 29 27 38 36
26 26 21 37 34 31 32 22 36 32 35 24 23 19 30 38 36 26 19 36 25 23 25 28 35 37 21 25 38 32 34 28 28 35 23 27 33 24 23 22 23 28 18 28 32 24 29 24 30 35 18 33 29 20 27 28 33 26 18 27 18 34 37 36
28 28 32 35 35 18 38 37 37 36 18 37 19 27 23 32 21 21 24 28 25 34 27 20 29 33 33 35 18 26 34 38 26 28 37 28 37 29 31 36 36 25 38 29 28 35 22 29 36 24 23 18 24 38 38 24 29 25 27 25 27 38 38 18
19 21 20 33 36 23 34 33 18 34 26 23 33 34 34 38 38 38 37 22 37 24 26 21 21 30 18 36 21 22 37 29 26 25 26 28 26 31 18 31 23 36 37 33 27 24 32 19 38 23 31 27 25 23 28 32 23 29 24 20 37 33 26 35
