P2
64 64
255
16 16 19 20 25 24 23 20 22 20 19 15 18 21 26 22 21 21 14 15 21 17 23 22 15 16 26 20 19 20 14 20 16 18 19 24 15 21 20 18 18 21 18 26 26 22 22 17 25 20 23 23 26 23 26 16 18 14 14 14 26 18 15 21
23 20 26 18 20 19 25 26 14 23 21 14 23 18 15 18 25 14 22 17 14 15 23 22 24 17 19 16 14 14 25 20 16 21 21 23 21 16 22 17 18 14 26 20 26 26 21 19 20 26 20 16 16 20 19 22 23 21 15 19 26 24 25 22
15 20 22 18 25 17 15 16 17 16 24 18 14 22 14 24 18 18 26 14 21 21 26 17 19 22 22 16 15 23 15 26 17 23 19 15 15 25 19 17 23 18 15 22 14 21 17 24 22 14 20 23 15 22 19 14 16 22 15 25 26 26 23 16
18 20 23 14 15 23 14 14 17 14 21 14 21 21 22 18 16 24 18 18 17 22 23 25 24 24 24 24 23 20 21 14 21 24 22 14 16 15 18 15 19 24 16 15 16 22 23 22 26 23 23 19 19 20 19 19 21 15 15 24 14 19 19 23
19 22 25 19 23 21 18 22 19 15 15 26 16 24 14 19 21 21 14 19 23 25 24 23 25 17 23 17 19 21 21 23 21 20 19 15 22 21 14 16 16 21 15 24 14 20 14 18 26 24 20 20 22 19 14 19 22 18 18 24 16 25 22 15
19 16 14 21 25 19 16 17 23 18 24 25 19 15 15 18 21 15 21 15 18 19 23 26 15 23 16 21 17 26 15 22 15 18 25 16 19 18 26 26 18 15 23 15 22 22 24 16 17 22 15 17 17 24 23 24 24 21 15 21 25 15 25 21
15 24 22 16 14 16 18 16 19 21 14 21 23 23 22 17 25 17 16 18 26 14 25 15 22 24 18 15 22 20 23 21 23 25 25 26 15 19 14 24 24 22 22 16 21 21 26 21 21 25 23 20 25 17 20 15 14 22 17 15 20 21 23 22
19 25 15 23 15 14 18 15 19 18 26 26 22 22 19 25 18 25 21 26 19 24 17 14 15 17 17 15 22 24 20 21 22 15 23 16 20 19 22 16 24 23 17 15 21 17 14 23 25 14 21 18 25 19 14 14 20 15 24 15 21 18 20 16
17 16 26 24 20 15 18 19 20 24 14 25 14 25 24 17 19 18 20 26 22 18 22 26 14 14 23 21 18 14 17 15 19 26 15 24 24 26 18 22 18 16 17 25 25 15 21 16 16 18 25 22 22 19 19 15 16 26 20 22 26 19 16 20
26 16 26 25 25 22 14 25 23 15 19 19 17 26 22 14 24 18 20 21 18 18 26 23 20 26 22 25 17 23 16 24 21 21 18 16 22 20 26 15 14 21 14 26 17 26 14 21 22 24 24 16 19 24 14 16 22 21 19 18 19 17 24 17
17 24 26 26 22 24 18 24 14 23 18 22 20 21 20 22 15 25 17 25 19 25 26 15 26 23 24 24 26 25 19 19 26 24 24 24 21 15 23 14 19 14 15 19 14 16 17 18 16 19 21 17 21 26 14 24 26 14 25 16 18 24 21 16
16 23 15 21 26 16 24 15 14 26 19 25 22 26 19 23 21 25 26 21 21 14 18 26 20 22 15 24 22 25 21 23 25 15 25 17 22 16 18 24 24 16 21 24 24 15 14 15 26 22 25 20 20 18 24 25 19 25 20 26 23 25 24 18
14 25 20 26 16 22 18 24 22 17 21 18 25 15 23 18 26 16 25 16 17 21 24 16 25 23 19 15 15 17 15 15 25 25 19 14 16 14 18 19 20 25 25 25 24 20 17 18 22 22 14 23 18 16 21 14 20 17 21 23 14 16 19 23
15 22 22 16 17 15 22 24 26 16 18 25 19 24 22 22 20 20 26 17 26 14 24 17 21 14 21 18 15 23 18 23 15 14 20 25 26 18 26 24 24 25 14 16 23 24 19 16 24 17 19 14 17 16 23 24 22 23 19 23 20 21 18 25
26 26 16 17 17 19 24 17 19 18 17 15 24 26 22 22 17 20 21 19 14 19 22 17 21 19 21 16 18 18 14 19 16 14 14 23 18 26 16 19 14 16 23 23 26 22 15 17 23 21 24 21 23 25 24 17 17 22 19 19 19 15 26 16
20 16 20 26 21 25 24 19 19 22 18 17 26 19 24 22 16 20 19 15 24 22 22 15 20 17 18 22 19 17 22 14 18 20 26 17 24 16 23 24 19 18 26 16 24 18 24 24 25 22 18 20 26 17 14 14 19 22 20 17 23 18 16 16
15 22 18 21 21 18 19 16 20 18 24 26 21 23 22 22 16 20 22 17 14 17 21 16 26 22 14 21 23 16 26 18 25 21 23 16 23 14 18 14 19 18 15 16 24 26 16 15 16 26 17 26 23 22 22 23 23 26 23 14 17 22 15 15
23 26 25 20 22 16 20 21 19 25 18 23 16 17 26 21 18 16 19 21 16 14 23 14 18 21 23 16 16 17 14 15 14 17 22 24 20 15 25 23 15 24 25 25 17 14 21 20 15 16 21 18 21 16 22 14 21 15 25 15 21 21 17 24
25 19 24 19 18 17 16 17 15 23 15 25 14 22 22 22 23 25 18 21 18 20 14 19 26 20 23 26 25 19 15 26 17 23 23 14 14 17 18 17 17 16 15 23 24 18 15 23 15 22 18 20 25 15 23 14 15 25 14 20 18 20 17 23
17 17 25 25 22 23 23 19 17 24 20 20 16 15 14 19 20 23 18 20 19 20 29 24 28 26 26 19 22 15 25 25 20 25 14 17 21 19 16 17 25 29 20 25 30 22 29 23 27 15 19 14 20 23 14 20 20 14 15 18 23 26 16 23
19 16 19 15 26 22 15 17 20 14 15 26 18 24 21 25 23 31 33 22 34 28 27 22 20 29 20 27 14 19 21 19 15 23 23 21 19 25 25 18 21 33 30 33 25 32 32 21 23 29 17 21 17 25 25 19 14 21 21 15 25 18 25 22
19 21 16 19 15 26 21 17 19 19 22 19 20 26 21 20 30 29 27 25 26 37 31 34 25 26 32 28 23 17 26 26 20 19 22 18 23 30 22 34 32 34 25 26 34 25 27 26 28 25 19 26 17 15 17 24 22 21 24 22 20 14 26 21
22 25 20 26 15 26 15 15 24 26 14 18 19 29 28 26 31 39 38 39 34 41 41 36 30 28 24 29 28 26 23 23 22 24 21 25 32 29 33 35 27 30 39 34 30 29 32 27 27 36 30 24 22 25 21 22 19 15 24 22 16 22 23 25
25 22 23 19 15 16 17 16 24 14 22 20 22 30 26 35 37 32 38 44 42 33 37 43 39 31 33 30 25 26 25 23 14 15 26 20 24 33 33 30 32 35 40 38 38 41 42 34 37 29 32 24 27 21 21 24 17 15 15 22 25 26 25 25
17 26 15 19 16 16 26 16 15 24 26 28 23 35 31 39 45 42 39 41 38 40 46 44 40 35 31 38 29 30 25 25 24 24 32 23 36 31 42 45 45 36 49 40 39 37 39 46 33 38 33 37 26 24 27 25 15 16 26 16 19 18 22 26
16 19 17 24 17 18 14 18 26 20 25 33 29 30 40 45 46 43 49 52 45 45 46 43 40 42 34 31 39 27 30 30 23 21 29 35 29 43 34 40 41 42 47 47 51 50 45 46 37 37 35 35 31 34 19 27 24 20 19 20 19 24 15 15
23 14 16 23 19 19 21 21 25 29 26 30 29 34 38 42 49 41 54 49 51 55 45 45 42 42 47 41 43 32 31 21 22 29 30 40 34 43 42 39 45 44 49 49 48 53 47 46 48 49 35 37 33 26 26 26 14 18 22 23 25 21 18 16
18 18 22 19 15 21 15 20 28 29 35 29 31 39 41 41 50 46 57 59 61 60 51 52 52 44 49 42 37 42 34 32 25 32 35 41 41 44 45 50 57 59 49 54 61 58 52 51 45 40 44 39 30 27 31 23 27 19 25 26 19 15 16 24
20 25 22 16 15 17 14 23 23 25 31 36 36 45 43 48 48 48 57 60 55 63 61 62 58 49 46 46 43 34 29 40 35 35 28 37 36 51 43 47 60 58 61 53 60 59 60 48 57 44 47 39 34 30 26 25 28 15 15 14 20 25 19 14
25 20 16 15 26 24 26 22 28 29 37 31 44 46 46 45 55 57 57 64 59 59 60 63 59 50 48 51 48 35 42 42 36 39 38 36 47 51 51 58 55 63 55 63 67 58 55 61 55 48 50 42 42 31 26 24 28 19 18 23 24 23 20 18
20 14 15 14 21 15 20 17 28 35 37 38 43 48 50 49 53 64 58 62 69 66 65 65 60 58 48 54 41 36 33 37 32 40 35 38 48 49 58 50 57 62 65 67 72 62 68 63 58 58 47 38 36 38 38 27 27 18 19 23 16 24 19 22
24 17 19 21 14 14 20 28 28 33 34 37 39 41 51 59 52 56 64 64 68 69 68 70 58 55 56 52 51 37 36 44 44 41 36 38 44 50 57 52 59 70 65 75 65 62 67 66 62 52 45 45 41 40 35 26 29 17 19 26 18 15 25 25
16 14 21 24 15 22 18 21 25 33 32 31 40 47 52 59 61 62 68 70 71 76 65 68 65 57 59 47 42 37 40 41 40 38 37 36 42 52 59 60 59 68 71 78 73 65 62 62 63 57 50 45 39 43 30 32 20 19 19 26 18 21 17 26
19 25 16 24 19 25 14 16 24 26 28 41 46 51 51 52 58 57 67 65 69 68 64 62 59 59 58 49 46 39 45 39 37 34 36 40 43 45 53 60 64 69 72 72 72 70 59 62 53 49 52 46 36 37 37 24 21 23 26 26 24 14 22 16
24 18 23 26 23 23 26 17 29 26 37 41 43 39 48 46 57 62 62 63 71 63 64 57 53 53 50 52 49 40 37 44 41 43 36 37 43 45 47 54 65 65 62 66 69 60 66 54 59 46 46 45 37 38 33 30 25 18 17 16 23 16 22 26
18 24 15 26 25 20 19 19 29 22 32 41 33 37 43 56 48 62 54 65 66 63 61 54 62 54 50 45 42 37 31 30 38 34 33 41 45 40 54 47 54 61 59 60 69 63 54 60 48 51 49 44 45 33 29 30 21 21 15 24 22 18 24 22
23 23 24 21 19 15 16 17 25 31 26 29 39 46 45 44 56 55 52 54 54 53 54 55 52 47 46 42 40 40 34 29 31 30 29 33 40 43 51 47 59 54 63 61 55 61 55 51 51 51 42 47 44 36 29 32 19 26 24 19 15 21 14 17
21 25 26 17 19 17 21 19 16 31 23 32 30 34 48 45 45 46 56 51 61 61 54 58 48 43 42 36 41 37 33 27 28 28 38 33 45 38 39 44 46 47 48 51 59 58 53 53 44 43 46 38 40 39 26 26 23 19 18 24 26 14 21 23
26 26 23 23 17 21 16 17 26 26 33 28 33 35 37 43 43 48 47 44 54 55 56 53 42 44 37 36 40 30 35 27 26 22 31 29 36 39 39 43 45 52 48 45 54 55 49 50 49 49 41 42 38 32 23 18 19 16 14 16 24 15 21 17
18 28 20 28 26 20 23 19 22 26 30 33 36 40 35 49 46 45 46 54 56 49 47 45 43 50 42 36 40 36 37 33 24 34 28 31 34 45 45 43 54 49 54 53 57 57 47 52 42 49 47 35 40 38 25 33 30 31 20 20 23 23 20 22
22 32 29 28 30 30 29 26 26 28 35 28 34 39 41 50 45 50 52 46 46 53 47 50 48 42 41 40 39 35 37 38 30 33 39 33 39 39 43 53 51 54 52 55 56 48 52 47 51 54 43 47 37 38 30 29 38 36 31 31 28 28 28 29
30 31 33 28 36 29 35 32 27 32 31 32 31 39 49 50 41 49 55 54 53 53 55 57 52 42 50 51 46 34 42 37 29 29 34 46 48 45 42 48 47 56 60 56 50 61 49 48 48 48 42 41 42 43 42 39 40 38 37 34 42 37 34 34
32 31 21 26 26 33 27 24 31 24 21 25 24 30 39 33 46 47 44 43 41 38 48 47 35 37 33 43 34 35 36 34 33 25 26 36 35 44 40 48 44 44 42 51 47 52 39 50 45 47 33 39 30 36 28 35 29 36 37 28 37 31 36 38
17 23 20 27 26 29 24 19 25 21 17 21 28 20 31 24 34 38 40 33 36 41 32 39 33 38 27 34 32 20 28 18 25 28 22 23 22 29 28 33 36 40 35 42 38 36 36 33 33 36 31 28 25 21 23 21 21 30 23 28 30 26 31 24
22 16 22 19 21 19 26 14 14 20 17 19 15 19 15 29 24 22 21 28 34 34 27 24 21 27 20 19 19 18 26 16 17 20 16 21 24 24 17 26 27 25 24 29 24 33 31 30 20 25 19 19 16 20 24 18 19 26 18 24 23 20 15 17
20 16 25 16 20 15 23 20 20 21 26 26 20 23 22 14 18 17 29 24 23 21 17 23 28 18 18 19 18 23 16 21 15 21 17 19 19 21 20 23 28 24 21 21 18 28 20 26 23 26 22 20 24 15 26 22 19 23 16 21 26 24 24 23
14 20 23 26 21 18 21 22 20 19 18 16 19 21 26 15 15 21 18 23 21 23 14 19 16 19 23 26 16 18 15 14 21 16 19 17 26 15 21 18 20 14 26 22 20 15 14 25 25 26 22 15 25 24 17 14 25 24 23 19 16 25 24 19
14 25 26 26 18 21 14 23 17 18 16 17 22 16 19 20 20 17 14 19 17 15 23 15 15 22 15 24 17 19 19 17 23 19 20 14 26 24 25 19 20 23 18 26 25 22 26 24 20 17 24 20 16 17 23 22 19 16 19 24 15 21 15 24
17 15 16 22 25 19 21 21 22 19 21 24 20 16 22 18 26 18 15 19 23 21 21 16 21 26 21 22 26 22 14 24 19 14 19 24 16 19 18 26 15 23 23 20 16 19 22 22 26 20 19 24 15 19 17 17 24 16 25 26 25 19 14 23
22 19 15 25 17 17 25 14 22 22 16 21 26 26 21 18 26 18 20 20 25 23 22 25 16 14 23 26 20 20 25 17 18 25 19 23 22 23 22 24 16 20 25 23 19 20 24 18 16 18 26 21 21 16 21 24 17 22 19 15 26 14 16 23
16 26 17 25 17 15 26 16 23 19 19 20 21 22 14 18 18 15 20 26 24 14 22 23 25 24 21 17 22 14 18 16 16 25 19 19 24 23 21 14 25 16 19 14 23 18 14 19 25 25 17 25 17 20 15 14 21 17 22 15 24 22 14 20
14 22 19 25 19 16 26 16 14 20 25 21 22 22 15 18 18 16 26 23 24 17 16 16 25 18 24 25 16 24 14 24 15 15 15 21 21 21 16 24 23 15 17 25 17 22 14 26 19 18 23 18 15 24 26 22 19 23 15 17 22 20 25 19
22 22 20 21 18 17 15 26 23 25 26 15 23 20 26 26 14 22 24 22 26 17 21 19 18 26 19 14 15 20 22 20 20 18 19 26 23 19 18 23 25 16 15 25 19 22 15 26 25 18 19 23 19 16 15 25 19 15 17 22 19 22 23 19
14 23 20 21 23 15 14 16 15 19 21 26 15 25 14 16 26 17 14 21 16 20 17 22 14 16 22 25 21 25 14 14 18 26 19 22 15 19 22 26 17 18 18 18 14 22 21 22 17 20 14 19 26 18 19 15 19 18 17 20 16 22 22 24
19 14 24 15 19 14 22 17 19 15 14 24 14 25 24 15 18 23 19 18 22 25 24 26 25 15 19 15 20 22 18 26 22 26 20 18 15 19 25 23 23 20 17 22 25 17 25 23 17 25 14 26 18 20 17 21 26 18 26 18 18 16 23 25
22 14 17 24 26 15 20 23 24 26 25 18 14 17 17 14 21 19 25 17 18 26 22 26 17 25 14 16 24 16 24 20 17 25 24 22 23 20 14 22 16 21 26 19 26 20 19 24 18 15 15 16 19 20 17 18 23 20 23 22 26 23 19 14
17 19 14 16 14 19 16 26 14 23 14 24 16 17 14 26 22 20 20 17 21 25 21 26 24 17 16 20 22 18 22 23 24 23 17 16 26 20 20 14 20 26 20 15 17 16 26 23 15 15 22 15 16 15 17 24 26 25 25 22 23 18 24 23
22 16 17 21 17 25 24 16 23 17 19 14 25 14 23 21 19 20 26 15 14 24 19 19 23 26 23 24 24 15 22 20 15 25 20 17 26 19 18 18 25 24 20 14 19 20 19 26 18 19 17 21 18 20 23 26 14 20 18 23 14 26 26 22
20 15 15 19 17 22 25 21 16 22 26 14 24 19 20 14 14 23 18 20 21 16 17 21 26 25 18 14 14 23 18 22 17 24 21 18 17 20 25 17 18 23 14 22 16 17 25 20 20 24 14 14 16 17 15 19 25 25 25 16 20 23 14 23
19 26 14 14 20 20 18 16 22 24 26 20 14 14 19 15 18 15 26 14 26 14 19 21 17 16 17 20 16 14 21 21 14 14 23 23 19 19 22 24 22 14 22 15 16 17 14 24 26 16 17 14 14 21 18 17 24 25 26 18 17 18 25 21
20 15 18 26 26 18 25 19 24 24 21 22 21 15 16 17 22 21 23 25 22 21 15 16 20 25 25 14 20 19 16 21 19 20 23 23 25 15 26 17 24 21 18 15 21 22 23 23 17 16 18 20 15 23 17 15 19 17 26 26 20 19 22 22
14 16 17 20 19 25 19 25 17 25 17 22 21 16 25 19 25 18 25 16 23 17 25 26 14 25 22 20 15 22 15 23 18 26 21 15 20 25 21 14 22 18 20 23 24 19 17 26 15 17 26 21 14 24 21 19 20 24 24 21 18 16 14 18
18 15 26 20 25 26 25 16 22 17 26 18 15 18 15 24 25 16 25 14 23 19 25 17 25 26 22 20 22 16 20 18 15 14 22 20 17 18 24 20 17 20 17 22 24 25 26 22 23 26 23 20 15 23 17 26 26 23 20 23 16 15 24 21
18 16 19 18 19 26 16 17 23 16 26 18 18 16 15 23 25 19 20 20 21 26 16 15 23 20 20 22 24 23 24 24 14 26 25 20 22 22 18 23 17 18 21 14 25 18 19 24 25 21 20 24 26 24 18 15 19 26 16 26 20 16 24 19
