P2
64 64
255
25 16 22 26 16 25 21 26 17 16 25 19 18 19 15 15 15 15 19 18 22 20 21 22 25 18 25 14 26 21 26 18 22 20 21 16 21 14 19 20 24 15 20 26 25 15 17 25 16 17 19 23 20 16 21 16 22 18 16 20 16 26 14 21
21 26 17 25 21 25 25 20 16 14 24 18 22 19 22 14 19 16 14 20 16 22 21 19 15 14 19 20 26 26 20 16 17 14 19 20 25 21 25 26 22 25 23 16 21 25 20 15 15 26 19 18 15 26 15 16 21 23 21 22 19 22 19 18
15 24 24 24 19 15 19 24 21 26 26 25 22 23 22 22 21 18 16 18 14 24 25 15 14 24 23 19 17 15 19 17 20 25 25 22 19 26 25 14 25 16 26 18 21 21 24 17 19 17 23 19 16 20 17 14 20 18 15 26 14 18 21 23
23 21 21 15 19 26 25 21 20 19 24 16 14 23 17 16 21 22 24 18 23 18 17 15 26 22 22 21 22 15 18 17 15 21 19 21 17 24 19 14 20 25 20 22 22 25 21 25 26 23 25 22 15 21 20 21 20 22 21 21 17 23 19 16
24 15 24 15 20 21 25 15 25 15 17 18 24 15 19 15 17 17 14 18 21 17 22 17 18 20 19 19 26 24 23 17 21 22 14 22 14 20 18 22 23 19 24 17 26 24 17 23 17 20 14 24 16 15 14 17 15 17 14 17 14 25 15 15
15 19 23 17 16 19 16 19 17 21 23 20 20 17 19 16 16 15 24 24 23 15 16 26 19 23 22 14 14 21 16 19 24 24 22 22 24 20 16 17 22 21 17 21 14 17 23 17 24 20 26 23 14 18 18 24 23 23 24 14 16 17 14 25
24 25 26 25 20 23 15 26 15 17 23 17 18 26 22 25 19 19 18 25 14 25 14 25 15 15 20 17 20 21 25 22 23 15 20 18 14 14 23 14 23 24 24 22 17 17 26 25 19 17 23 25 20 23 25 26 22 20 25 16 15 14 16 14
25 18 22 16 18 19 21 16 18 25 16 14 21 15 18 24 23 25 21 14 23 15 19 18 20 22 16 23 20 20 23 14 20 23 23 18 20 19 19 15 22 24 18 24 24 15 18 24 26 18 26 16 16 21 24 14 16 25 25 22 18 15 14 17
18 25 16 18 16 19 25 21 22 25 22 14 21 19 26 25 14 19 24 20 14 14 21 22 15 18 16 22 15 22 22 21 17 19 24 21 22 21 14 16 25 18 25 26 25 26 21 15 23 26 16 14 22 16 22 15 21 23 26 14 26 20 21 15
19 23 19 15 18 25 26 22 24 24 26 22 22 20 20 19 24 20 20 15 21 16 18 22 24 19 17 21 15 17 16 17 25 23 18 20 25 18 25 20 19 22 25 24 17 23 22 18 17 15 21 23 21 20 20 25 26 16 23 16 16 18 17 26
25 23 23 22 23 26 22 23 16 18 20 25 25 16 16 20 15 26 17 16 20 24 24 14 26 22 19 22 17 24 20 14 26 14 18 16 18 15 21 25 16 23 24 23 25 26 23 25 14 26 14 20 16 19 19 14 14 20 15 20 21 15 23 24
26 18 20 23 25 17 20 17 17 25 22 21 17 17 24 15 18 23 21 17 19 15 23 25 23 25 18 18 15 14 24 26 23 23 14 23 24 20 26 17 25 25 14 19 15 22 19 23 16 19 23 21 17 24 21 14 19 18 21 15 25 21 24 21
18 22 22 26 18 20 16 24 17 17 19 20 21 24 20 19 25 17 18 16 17 25 18 24 26 25 20 16 14 17 20 19 24 25 24 20 21 15 17 16 19 16 24 19 14 20 18 25 17 19 21 23 23 25 15 23 19 22 20 19 21 26 18 26
19 17 18 23 17 18 15 17 26 26 15 14 18 20 23 23 20 23 16 22 25 16 16 26 14 17 26 16 22 17 17 17 23 16 26 21 25 18 24 25 20 14 14 15 23 15 16 19 19 20 26 23 15 14 26 18 21 22 21 17 22 25 15 14
15 14 23 17 15 17 14 21 20 23 17 19 26 22 23 14 21 26 15 15 16 19 14 24 15 18 14 25 21 15 14 26 17 20 19 24 15 16 19 20 20 16 21 24 23 15 17 20 16 22 23 22 21 24 23 26 19 15 15 21 23 23 18 24
22 14 25 23 15 15 17 17 15 19 20 18 25 20 22 16 26 24 15 17 17 16 16 20 21 14 16 26 19 20 19 21 25 16 21 14 20 20 24 21 21 24 20 14 14 20 19 21 19 21 26 22 21 15 20 25 19 14 25 14 23 23 23 14
25 25 20 26 16 22 24 16 26 22 22 26 25 24 14 23 17 19 22 20 16 18 25 24 24 15 15 24 15 25 14 24 18 23 17 26 25 26 16 26 20 20 16 15 18 25 14 14 17 24 22 25 18 14 23 26 23 16 19 26 16 14 20 18
18 25 15 15 20 19 24 24 19 16 15 19 20 17 17 22 16 15 21 22 25 14 18 18 25 14 25 25 18 21 23 16 19 20 20 18 18 25 24 21 25 24 21 14 14 18 23 22 15 17 20 20 15 20 24 21 18 16 15 17 18 25 23 26
26 26 17 21 21 15 19 19 25 15 26 21 23 15 17 19 18 17 17 21 23 22 22 26 26 19 19 14 26 23 25 17 21 21 18 21 22 23 19 25 15 22 23 14 25 17 26 18 14 23 25 21 23 20 21 19 19 22 22 16 14 24 17 22
26 22 20 14 17 17 16 19 18 19 19 17 20 25 17 18 25 28 24 18 30 30 19 19 24 27 22 14 26 23 21 20 24 26 24 20 23 18 18 17 28 29 26 29 27 24 21 22 20 18 16 19 15 23 25 20 25 24 25 14 19 18 15 18
20 15 26 18 17 17 14 14 26 18 19 19 19 20 27 20 29 31 31 25 25 30 21 22 31 22 18 19 19 17 19 19 21 15 20 15 21 23 29 18 21 26 24 32 31 26 21 26 24 21 18 26 22 22 26 22 22 23 25 25 21 15 14 24
16 19 24 24 16 17 18 23 21 20 18 20 19 20 21 21 32 23 35 28 26 37 33 36 26 28 24 26 18 16 19 20 23 19 22 16 28 28 28 25 24 28 33 27 25 36 35 27 34 27 26 28 24 21 14 14 16 15 14 18 22 26 18 21
18 14 24 25 20 17 25 25 17 20 15 23 26 29 33 25 28 32 35 35 31 35 29 38 38 31 30 24 20 28 23 20 24 15 24 23 28 29 27 28 33 39 33 32 35 40 37 37 34 27 26 24 21 26 18 23 24 14 19 19 19 19 22 14
17 14 19 15 25 15 16 22 15 22 16 22 29 27 26 37 33 41 36 34 44 33 42 39 35 37 38 33 26 30 23 14 14 21 25 27 25 33 28 35 31 32 37 34 33 44 39 31 30 28 34 31 27 24 27 15 19 15 18 16 26 18 20 17
20 21 16 23 16 26 23 14 19 21 25 30 29 27 34 37 34 35 38 47 46 45 41 43 36 39 34 31 29 27 31 23 14 18 30 27 28 36 41 37 40 45 40 46 46 47 36 45 33 31 30 29 33 21 23 20 14 16 16 24 24 20 15 21
16 20 22 18 16 22 25 26 25 17 27 31 38 36 38 45 45 45 45 45 47 53 48 51 50 42 37 37 33 34 26 30 30 24 27 32 31 39 46 36 47 44 46 41 45 52 49 49 45 43 38 34 31 26 31 28 16 14 20 21 21 25 14 26
15 25 23 20 18 23 17 19 23 23 32 29 29 32 35 40 42 48 44 48 48 50 53 44 46 44 44 38 40 38 26 33 34 28 28 29 40 34 43 43 46 50 53 45 54 56 49 48 42 38 39 39 37 34 33 20 23 21 16 23 22 26 21 21
18 14 23 14 17 20 21 21 17 28 29 33 37 44 43 51 52 48 57 60 57 59 51 47 47 42 47 41 41 42 31 36 28 25 30 30 39 44 43 50 49 57 59 55 61 56 55 52 51 51 49 45 37 28 35 32 26 19 14 14 20 14 18 25
26 24 26 20 20 21 17 25 29 26 36 33 41 38 46 45 45 55 58 62 61 56 61 59 55 54 49 43 41 35 35 32 34 30 32 36 36 43 48 53 58 55 60 53 53 52 54 55 53 51 48 44 41 38 27 32 17 25 17 17 14 25 15 24
16 15 25 20 21 21 16 26 25 25 30 42 37 44 53 55 54 61 57 62 67 57 60 61 54 52 45 44 45 44 35 30 30 39 32 37 47 43 46 57 62 61 55 69 58 67 59 63 59 47 43 38 35 35 37 22 28 22 16 18 16 21 18 15
21 21 17 17 16 25 19 19 19 28 35 35 34 40 50 48 49 65 66 68 68 66 68 58 62 60 50 51 48 34 41 32 35 34 37 40 47 54 58 58 65 67 59 70 67 62 60 57 60 46 42 46 42 42 31 28 23 19 23 23 22 23 26 23
14 26 21 24 15 25 24 27 30 35 29 40 39 40 50 50 58 55 64 66 73 75 62 62 54 52 49 52 50 37 42 43 34 34 39 35 48 46 49 57 66 65 62 76 71 68 69 60 55 55 46 47 44 41 34 32 24 27 23 17 18 17 17 14
22 22 15 19 26 24 18 27 22 32 38 35 47 49 55 47 51 59 71 66 68 77 71 71 57 51 52 53 42 36 36 33 38 37 45 47 49 48 48 52 55 67 65 68 68 69 65 65 52 50 47 43 37 41 39 25 30 28 18 16 22 18 25 19
23 21 15 24 26 21 14 27 24 32 39 31 41 42 51 48 59 63 63 73 73 70 67 70 55 50 48 48 41 37 39 35 34 35 43 38 49 47 47 55 64 63 67 76 75 66 64 58 51 52 53 45 43 43 29 27 30 23 15 16 14 25 15 15
17 20 23 21 21 22 14 17 20 26 39 38 45 40 54 57 50 61 56 68 65 63 69 67 65 51 46 51 49 34 39 35 33 43 36 42 40 47 56 52 64 59 70 62 64 60 56 58 54 51 42 41 37 36 31 23 20 23 14 25 25 21 19 14
18 21 20 17 16 21 17 27 20 23 37 31 42 47 45 46 58 51 59 57 57 69 61 59 53 55 50 49 42 40 31 33 34 37 40 35 44 40 52 59 58 64 59 60 65 60 58 62 53 44 50 47 41 33 37 23 18 17 19 23 26 21 22 21
16 21 26 16 23 17 25 16 26 23 37 30 43 47 46 47 50 58 51 54 58 54 54 62 59 48 44 43 43 32 29 37 30 32 34 36 39 46 42 53 50 59 58 56 53 58 51 53 46 44 44 42 39 36 35 27 23 15 19 26 16 18 15 18
14 23 14 23 26 17 22 16 16 27 26 38 35 45 43 52 53 57 54 52 51 61 60 51 45 46 51 42 36 32 32 28 26 30 38 37 44 40 41 53 49 58 60 53 51 49 48 47 54 49 47 45 40 28 32 22 21 24 25 26 18 17 23 15
16 17 15 17 14 15 17 18 14 27 28 27 31 31 45 44 46 45 48 49 51 47 54 50 41 41 43 35 33 33 30 26 25 33 28 36 36 40 41 40 52 49 54 52 55 45 47 49 50 42 45 39 40 37 26 18 26 21 20 19 21 24 26 25
24 27 22 27 18 29 27 18 17 25 29 31 32 43 46 49 51 43 45 47 57 46 51 51 42 44 44 47 42 39 34 35 28 31 27 36 44 41 47 45 53 52 51 47 56 52 49 53 54 42 41 39 44 32 37 28 28 32 25 22 21 21 32 26
21 23 21 23 21 30 32 24 21 33 25 36 35 40 45 46 51 52 56 48 49 54 56 51 50 49 52 37 40 34 31 39 27 33 42 34 38 41 52 46 57 57 58 55 57 48 51 45 50 49 41 49 43 39 30 29 35 37 35 35 38 35 33 29
26 31 34 26 28 35 29 28 34 26 27 29 40 40 46 42 41 49 56 52 56 54 53 53 44 51 48 39 37 42 43 39 34 36 35 37 39 45 54 47 55 59 52 50 57 50 54 53 53 55 52 41 42 41 34 32 37 39 32 38 42 43 38 42
32 21 29 20 24 32 23 22 25 31 26 28 33 32 41 40 42 35 43 37 44 44 45 45 43 45 42 41 30 33 33 31 30 31 29 29 42 39 46 47 43 50 47 46 48 52 45 48 46 44 34 43 34 33 37 31 33 26 26 30 30 28 28 29
22 28 23 28 29 22 25 18 27 27 27 21 19 23 26 34 30 27 39 29 29 34 38 37 36 37 26 35 26 25 21 25 20 29 29 29 21 28 30 36 28 39 34 36 31 34 31 39 38 30 30 32 27 21 25 31 28 23 24 29 22 27 27 32
15 17 15 21 19 23 25 25 26 14 19 24 22 20 17 28 29 23 28 21 26 23 22 26 32 27 20 23 17 14 17 14 15 26 23 20 14 21 28 29 21 21 29 26 33 27 25 32 25 18 22 21 18 25 17 18 16 23 16 26 19 16 21 23
17 14 16 24 21 24 21 17 19 25 21 25 21 20 25 20 18 22 21 20 29 26 28 25 19 22 17 19 24 16 21 15 16 23 14 16 16 15 25 15 25 26 24 23 30 21 26 17 26 19 14 24 22 24 21 17 15 20 23 15 21 17 17 23
22 23 22 24 18 16 19 20 21 16 15 16 23 14 22 17 22 22 14 15 26 18 17 25 21 20 26 17 14 19 19 18 17 14 24 24 22 20 22 19 23 24 22 25 25 19 18 18 15 15 18 16 24 24 15 22 18 26 26 16 26 19 26 19
25 21 19 15 22 14 20 20 16 25 24 17 25 20 15 16 19 17 24 20 20 20 17 18 16 21 23 20 22 15 18 20 23 19 21 17 24 26 21 15 25 24 22 15 14 24 23 26 21 16 20 24 19 24 23 15 26 14 21 21 18 23 16 22
14 14 21 24 16 25 22 19 25 15 25 19 22 21 22 24 25 22 25 19 19 19 15 17 16 26 19 25 19 25 23 14 23 22 23 14 17 15 20 15 26 21 22 20 25 23 18 21 15 19 14 19 15 19 15 25 14 18 15 20 26 15 23 26
23 18 15 18 24 21 16 18 21 26 23 22 24 21 18 25 22 26 21 20 19 23 22 20 22 26 17 18 25 14 25 20 15 25 19 17 20 24 23 22 23 26 19 20 14 26 16 14 19 18 22 16 17 21 19 14 20 25 25 17 15 19 25 15
26 20 25 21 21 24 23 14 18 17 15 25 15 21 17 23 16 17 24 18 22 19 15 18 14 24 26 22 23 23 21 24 25 20 20 22 17 25 15 21 22 16 20 23 25 15 24 24 24 15 24 23 23 17 22 18 26 19 20 17 14 17 17 14
21 26 17 14 24 21 19 26 23 23 25 17 26 22 17 24 16 23 19 20 23 20 23 22 25 25 26 24 26 18 22 19 25 18 18 23 15 17 22 23 19 19 19 15 20 14 19 18 17 16 18 17 15 23 16 19 23 25 16 14 20 21 15 23
15 17 14 25 26 23 14 20 18 17 21 21 17 26 18 16 18 25 16 16 26 20 18 20 19 26 24 25 19 22 15 25 16 16 18 16 16 17 18 25 20 21 19 16 24 24 15 22 26 25 23 16 18 25 23 23 24 25 16 21 25 24 22 24
25 21 15 15 19 21 19 14 17 25 21 22 14 19 21 22 19 18 18 23 19 16 17 24 18 25 15 25 24 26 17 23 21 16 14 17 26 22 14 21 17 22 25 18 16 19 26 26 23 23 24 16 17 17 20 14 14 21 16 25 22 14 26 16
19 17 22 21 14 24 25 20 15 20 15 16 20 20 18 20 14 26 19 18 14 23 23 14 16 24 19 24 20 22 16 24 14 25 24 26 17 24 22 24 14 22 15 21 24 16 23 20 17 26 23 26 23 22 23 17 22 26 16 14 25 22 18 15
17 21 21 17 15 20 14 19 21 20 25 22 23 17 16 17 15 22 18 16 16 20 21 19 18 15 19 21 16 24 25 26 26 19 17 17 16 21 23 14 20 25 21 14 15 24 26 17 20 19 22 25 19 18 15 20 17 23 22 24 21 20 16 20
22 19 18 21 22 24 22 21 25 26 18 15 15 14 24 15 23 16 25 14 20 21 15 21 18 18 16 22 23 25 25 21 18 14 23 14 18 20 19 25 15 14 14 24 16 21 26 25 19 15 16 20 23 17 23 16 20 20 22 17 20 14 14 22
18 17 21 15 16 25 14 22 24 22 21 21 19 24 23 24 14 17 23 24 16 18 21 18 20 20 24 16 18 26 17 20 18 25 14 22 25 18 16 21 20 18 25 24 15 23 19 19 20 14 26 18 21 14 26 24 23 15 14 19 25 21 26 16
19 16 20 26 23 21 26 25 20 16 21 17 22 20 23 15 18 14 18 22 19 25 15 18 26 24 15 18 26 22 14 24 23 14 20 20 16 24 20 22 20 21 23 25 14 26 23 19 21 15 16 15 19 25 17 14 25 17 23 16 24 16 22 17
15 16 22 21 18 14 14 21 14 23 19 18 16 19 23 17 19 26 20 16 20 15 18 16 25 19 21 15 17 24 15 20 23 23 19 20 16 21 15 18 25 19 24 24 20 19 21 26 25 24 21 25 22 23 16 22 20 15 14 19 16 23 18 24
18 16 19 20 19 16 23 18 26 20 18 18 20 14 20 14 14 26 21 17 20 25 24 21 14 17 22 19 14 20 24 16 20 25 14 26 22 16 26 25 16 18 18 26 26 19 25 16 16 15 20 21 17 25 18 14 26 16 23 20 19 23 25 19
21 20 24 16 21 16 16 25 20 14 21 19 22 23 19 15 24 22 23 16 20 15 21 25 19 24 15 20 21 22 20 26 22 14 20 25 14 14 19 23 26 19 16 17 19 21 21 14 15 26 17 17 14 24 19 25 19 21 16 25 16 23 15 15
16 21 24 22 24 18 17 19 16 19 17 14 20 18 21 16 26 24 26 26 25 14 16 18 18 19 26 21 14 18 21 16 18 20 14 26 14 22 24 25 21 26 14 23 17 26 22 26 23 22 14 24 18 23 26 20 26 18 15 17 24 23 23 24
26 17 24 14 15 20 16 14 23 19 18 14 18 24 23 18 14 17 14 22 15 21 17 23 14 26 20 23 16 19 25 15 14 21 18 22 15 26 20 15 16 19 18 23 18 14 18 14 21 18 22 22 17 26 25 22 15 24 23 17 24 16 18 16
