P2
64 64
255
34 24 30 33 23 29 27 28 24 25 35 26 38 33 19 33 34 36 30 34 20 31 26 36 36 30 34 37 25 22 32 19 22 23 19 35 36 30 37 32 23 36 21 31 37 30 23 19 24 30 30 24 34 37 25 27 29 22 32 28 35 31 25 31
22 20 18 31 35 37 25 19 27 30 18 37 29 27 36 33 32 31 25 27 18 18 19 25 28 28 23 30 24 26 27 29 34 36 29 30 22 25 34 36 37 30 22 20 38 19 24 19 25 26 35 25 36 32 34 29 22 24 23 37 36 38 18 33
20 29 18 34 33 24 20 36 24 27 19 34 33 28 23 29 37 20 29 34 22 26 33 24 29 28 19 35 36 18 25 30 19 19 31 28 19 20 18 34 22 20 23 32 22 25 21 38 27 35 38 37 19 36 32 30 35 36 22 26 38 35 29 28
19 36 32 28 24 19 30 27 35 31 24 27 20 31 33 26 19 18 18 38 22 18 35 23 29 37 26 23 35 24 20 21 26 35 27 19 34 36 26 21 26 24 35 25 23 20 27 37 22 26 38 26 28 34 38 21 21 30 38 18 31 28 30 33
28 31 38 30 29 29 22 24 25 33 33 32 23 37 19 24 31 29 21 18 21 25 21 26 29 38 19 18 29 24 35 33 31 32 36 33 30 25 30 34 33 28 23 37 29 22 25 32 38 28 25 35 35 35 38 21 23 29 19 32 27 29 30 22
22 27 34 19 23 33 32 19 38 30 38 32 22 33 30 20 22 24 37 18 22 37 29 30 26 18 24 21 38 38 32 38 18 38 29 24 18 19 30 28 33 31 20 26 22 28 34 27 18 22 32 36 22 29 28 32 21 37 29 29 19 28 20 25
30 33 36 38 25 24 20 18 30 38 37 37 21 26 25 30 30 27 33 21 21 29 33 36 24 23 33 35 25 30 19 20 31 18 28 25 37 32 34 25 36 29 36 18 33 37 19 26 36 20 19 38 23 34 26 30 24 22 30 34 32 38 38 18
27 25 27 19 30 38 20 30 19 32 28 32 32 24 18 20 31 29 30 18 26 37 35 28 38 30 23 27 32 26 26 18 19 34 34 37 38 21 23 29 27 33 35 22 30 25 24 24 37 35 19 31 33 34 18 37 20 26 27 29 23 19 37 38
21 34 28 21 32 19 20 23 30 20 28 18 31 32 24 21 25 29 36 18 28 18 37 36 33 38 20 25 31 36 27 24 24 36 23 23 23 26 20 25 27 36 35 32 30 37 30 29 30 20 21 30 36 37 18 30 30 27 32 35 22 18 27 21
26 26 24 29 18 36 35 28 27 36 38 38 27 36 24 31 34 20 27 29 23 24 25 26 23 18 36 20 35 25 38 26 37 35 19 32 36 21 19 27 34 35 27 32 27 25 18 19 19 30 31 37 34 30 38 35 26 29 29 23 34 29 25 29
28 18 34 28 26 37 28 34 22 37 35 23 29 38 35 29 34 35 36 19 18 33 38 28 23 33 35 20 34 23 18 35 33 33 28 25 20 31 37 24 36 31 35 32 35 27 24 21 18 31 37 28 31 28 32 35 38 22 38 34 23 31 20 30
21 18 36 35 28 30 28 18 35 29 32 38 20 30 27 30 26 19 35 23 36 35 18 33 38 21 20 30 34 35 24 20 29 37 34 28 29 38 26 29 25 34 32 31 22 37 19 20 26 28 19 23 35 32 35 26 30 31 22 30 32 21 25 19
26 32 27 36 35 20 38 37 18 19 22 34 20 24 38 36 23 24 30 38 35 21 38 36 25 25 37 34 34 21 31 26 24 33 27 35 23 29 35 34 19 38 27 34 27 38 24 29 23 35 29 34 18 32 18 19 29 29 38 37 23 31 33 38
37 23 37 32 34 37 28 33 29 28 25 36 24 20 23 35 24 25 19 38 37 19 36 32 28 22 21 36 25 23 29 20 23 37 18 25 20 38 19 37 37 18 25 37 37 24 36 20 32 18 22 28 27 25 23 34 20 32 21 29 29 37 37 29
33 23 23 20 23 31 35 24 19 26 38 26 36 31 29 32 26 32 38 22 34 32 34 38 23 33 21 35 38 22 27 34 27 26 28 26 33 31 32 31 27 24 33 29 22 25 19 30 26 30 36 23 19 26 32 22 37 25 26 27 27 29 25 25
30 38 20 29 31 25 26 21 18 30 37 24 22 34 19 32 23 19 19 37 23 36 27 22 31 33 19 35 30 23 38 25 37 25 22 25 30 30 28 29 21 38 35 35 18 19 34 37 30 37 21 20 38 24 22 29 36 31 22 34 36 36 32 38
26 23 30 27 25 21 28 32 30 25 25 33 36 24 23 29 18 31 31 38 33 38 19 33 32 36 34 22 38 30 25 20 36 20 32 24 20 34 36 21 35 19 31 35 34 23 34 19 38 21 33 35 36 26 38 19 24 37 24 37 33 35 29 28
30 18 35 27 27 33 27 25 35 23 22 35 25 34 19 20 31 36 18 33 38 37 20 21 35 26 18 36 25 33 20 28 29 27 27 33 19 19 30 30 36 19 21 18 35 27 21 19 25 21 33 36 35 21 26 35 29 34 33 38 38 23 30 37
21 29 25 25 25 30 28 34 28 36 31 20 22 25 26 18 18 23 23 31 34 27 21 22 32 38 30 33 20 35 23 31 30 37 38 38 30 21 29 36 36 20 28 38 27 31 28 32 18 37 32 27 35 24 35 23 22 36 33 35 19 30 34 33
33 36 34 21 38 29 37 38 28 26 34 21 30 24 25 36 34 21 26 34 26 29 32 37 36 38 36 18 34 19 25 37 26 38 24 38 23 20 30 32 38 40 30 36 32 36 37 36 31 30 36 30 29 24 32 20 30 36 20 33 34 38 23 35
18 31 38 19 28 33 25 18 23 32 34 26 21 37 37 32 32 38 41 41 45 43 33 36 25 29 29 19 34 35 34 27 34 21 25 24 32 37 27 31 34 29 39 33 29 29 28 34 25 40 22 22 30 37 18 26 18 28 24 28 35 36 32 32
24 22 29 27 36 18 28 35 26 19 20 26 24 38 42 40 36 30 47 45 49 32 39 33 38 29 33 33 35 26 22 33 37 33 23 37 29 30 40 31 38 33 31 47 45 34 40 33 40 24 25 36 25 20 24 34 34 31 26 33 37 26 19 34
31 38 35 24 21 21 32 38 19 19 34 33 28 31 37 45 36 49 44 41 51 52 50 36 33 35 42 48 39 30 36 38 29 27 29 43 36 34 37 39 43 36 33 43 33 36 42 40 33 46 32 27 26 30 23 24 27 20 19 21 24 19 36 29
20 24 35 25 29 34 37 29 38 30 20 39 33 47 35 44 50 47 46 37 48 40 48 39 38 38 45 56 47 39 44 35 35 48 44 57 54 52 49 43 45 56 45 41 44 51 54 54 43 50 40 28 30 34 24 32 31 21 19 32 23 36 35 19
26 20 18 33 22 26 30 25 25 38 27 27 34 50 41 42 56 57 42 47 57 41 41 59 59 60 57 59 64 55 58 60 51 43 44 66 59 65 55 61 45 58 44 58 56 43 60 47 43 52 38 50 45 33 34 20 36 29 36 35 26 18 37 33
28 36 20 30 26 25 23 28 29 35 29 31 44 34 54 50 58 57 59 53 49 65 49 51 62 69 69 64 75 71 52 62 55 57 57 74 57 75 56 68 64 68 60 53 48 49 62 53 60 58 45 51 37 29 38 31 18 32 24 20 32 33 23 36
33 29 29 35 25 28 18 32 34 35 31 41 43 46 44 61 43 54 47 61 64 66 62 66 73 65 78 69 83 79 74 72 63 63 71 68 64 82 69 64 79 63 73 72 68 51 49 56 55 56 44 46 49 40 40 41 27 19 27 24 23 26 32 18
34 33 18 20 29 21 36 35 35 37 33 51 43 45 48 57 53 55 64 52 64 76 64 73 79 91 77 87 83 86 80 68 78 79 84 89 88 91 78 76 74 68 70 69 55 58 69 52 51 55 52 51 53 48 34 29 26 31 30 18 29 34 27 28
26 31 31 31 29 34 30 27 41 34 40 36 54 48 50 57 63 69 72 73 74 87 88 77 91 80 84 94 80 84 80 95 87 90 79 88 99 80 90 83 78 80 86 87 63 74 58 63 65 47 50 56 40 51 48 33 28 31 22 23 25 23 37 24
19 24 31 25 25 30 35 26 31 42 42 34 53 56 62 65 62 57 61 63 71 85 94 92 93 92 92 104 103 90 95 93 103 95 85 92 105 91 96 101 101 84 80 75 82 72 76 74 61 59 46 53 48 52 44 33 24 28 29 22 34 19 27 34
33 28 26 20 36 18 30 36 35 44 40 50 44 52 56 52 68 74 75 84 81 95 99 90 110 95 107 113 106 112 104 96 106 109 94 99 97 106 98 95 106 89 91 101 92 80 62 67 53 57 54 61 58 36 32 31 36 22 18 30 34 20 37 22
38 22 30 30 19 21 31 21 44 41 31 43 52 62 54 55 56 69 78 85 88 101 99 104 100 105 111 116 105 101 101 100 112 109 111 114 106 115 103 98 110 96 108 104 82 95 66 59 68 52 56 52 48 37 49 35 27 23 21 22 36 21 18 22
30 24 37 34 22 22 21 20 28 41 32 54 56 58 64 58 63 66 69 91 92 96 113 117 111 118 109 119 115 111 119 117 109 123 108 104 116 121 120 104 117 105 112 105 99 93 83 71 70 61 48 60 44 53 49 36 26 31 21 29 25 26 22 32
27 21 24 19 30 18 20 31 38 36 44 38 48 49 67 57 57 58 68 82 90 111 102 108 109 116 116 118 126 125 115 119 114 124 128 127 115 117 108 119 106 106 104 108 87 94 68 66 67 60 62 60 40 50 36 35 30 36 27 21 34 21 21 36
26 22 20 29 33 19 23 39 24 39 35 52 53 50 56 67 67 68 68 81 83 102 102 114 105 116 113 123 126 118 122 129 136 127 123 118 115 121 113 109 115 111 111 110 86 95 71 64 59 68 65 50 45 48 34 39 42 36 20 38 38 35 24 21
21 31 18 21 35 25 28 19 31 46 50 38 53 52 45 50 67 70 85 92 82 96 101 100 106 121 108 116 122 128 135 136 139 128 122 118 123 120 106 103 104 111 95 97 84 88 70 74 59 51 45 50 44 36 50 32 26 19 23 30 30 28 18 25
28 27 32 31 30 22 32 31 38 25 36 44 51 43 59 58 58 67 77 79 83 85 106 99 106 108 119 123 116 132 134 121 134 128 120 115 127 114 104 110 116 105 95 96 86 80 78 61 55 65 46 55 56 50 49 38 41 33 32 28 30 33 35 24
23 33 26 26 33 24 19 25 20 29 43 51 36 37 47 54 60 59 75 76 79 83 89 105 102 97 107 112 124 114 116 128 134 120 117 119 106 118 116 114 100 100 103 88 90 73 61 50 62 45 55 38 43 37 42 27 32 34 25 26 38 22 30 26
20 24 30 32 22 33 18 35 20 34 38 33 50 48 55 43 56 64 57 74 82 91 87 87 92 93 106 119 101 117 110 117 119 110 125 110 109 103 113 92 93 104 92 78 69 62 58 56 54 55 40 47 38 48 38 39 24 22 34 37 25 20 29 36
19 18 28 29 33 32 19 28 38 32 36 36 37 38 54 56 55 46 50 77 66 87 76 87 85 107 93 102 100 99 102 100 117 117 106 98 95 99 94 107 91 84 89 89 80 63 61 51 53 41 47 48 36 33 41 30 36 20 34 35 19 28 25 20
25 29 36 31 33 21 34 21 35 23 37 35 43 34 45 51 54 44 59 64 65 74 88 93 96 85 98 95 98 92 101 95 99 92 105 104 95 90 93 90 93 76 84 65 69 71 44 49 54 54 45 48 30 39 40 36 26 37 31 36 32 38 32 22
23 37 24 30 35 19 36 23 20 26 21 23 36 34 37 39 43 54 56 47 66 68 69 79 83 90 88 99 85 95 99 100 81 95 96 85 94 99 83 81 90 75 81 75 55 64 45 47 43 39 41 45 40 35 37 24 38 34 27 30 18 33 21 24
30 35 35 27 38 38 27 26 22 25 21 36 24 35 32 42 34 38 38 53 54 62 63 75 80 80 78 75 89 79 78 83 81 91 74 75 89 84 81 71 79 69 62 61 61 57 36 48 40 36 33 40 25 20 33 18 34 25 20 38 32 21 38 33
30 22 30 25 25 28 23 20 19 24 24 31 20 22 26 34 31 33 46 46 42 55 50 62 63 67 76 77 76 81 73 85 83 80 70 82 67 66 66 64 70 59 47 60 55 46 41 45 42 37 33 33 33 31 34 27 29 33 27 28 21 24 29 38
26 34 26 32 29 30 22 20 23 20 27 28 37 37 20 41 24 44 30 26 37 42 42 62 55 68 54 59 72 60 75 72 69 80 69 74 56 68 63 57 67 47 59 44 34 32 43 29 41 35 23 30 22 30 27 24 19 31 35 21 30 24 22 28
33 20 33 20 31 38 31 27 31 23 28 33 21 35 34 29 32 23 34 27 25 46 49 47 49 46 63 58 70 53 75 58 62 67 57 71 68 59 58 60 59 37 42 42 41 32 28 27 24 36 21 32 20 30 31 34 33 25 26 27 19 32 18 28
19 36 31 19 36 20 20 33 33 22 34 34 22 19 23 31 26 32 37 22 29 22 31 46 35 37 51 57 53 63 59 67 68 63 65 63 55 47 40 44 51 41 36 20 38 20 34 30 28 33 32 30 34 29 23 31 34 24 36 37 27 28 19 20
19 26 18 22 36 32 26 19 20 20 36 20 34 38 28 29 19 25 21 24 29 28 32 27 47 50 38 42 56 45 43 45 51 55 46 61 45 52 43 50 39 35 30 22 25 26 20 19 29 24 36 32 21 38 26 32 36 27 23 28 36 36 26 18
22 21 37 28 25 22 27 20 28 34 37 33 37 27 28 23 34 27 36 32 36 20 25 37 32 33 46 44 41 44 56 38 52 45 53 40 39 47 48 28 22 30 31 29 37 25 30 29 30 35 38 20 22 34 35 28 20 20 23 36 19 37 33 33
37 23 29 38 38 22 32 28 18 29 32 32 23 19 25 31 21 38 37 29 33 23 24 21 21 40 38 44 34 47 50 47 46 44 45 41 45 29 31 25 27 36 25 29 21 18 38 32 21 34 36 25 35 20 25 25 23 24 25 33 18 21 22 25
21 25 22 22 26 32 27 19 21 30 33 34 22 34 23 19 35 30 25 28 21 36 19 21 31 26 34 30 30 24 30 31 33 43 26 34 38 31 36 21 29 25 35 32 21 38 29 21 37 36 26 36 34 24 33 21 20 37 25 37 22 28 31 30
32 21 34 25 36 24 30 24 31 34 20 34 33 23 30 25 29 26 37 25 27 34 34 31 35 18 33 23 30 18 25 39 25 36 22 28 25 29 35 27 18 20 29 33 34 21 31 23 27 30 30 18 37 25 21 34 35 32 24 23 33 25 26 26
21 18 24 18 26 20 30 26 25 36 30 36 35 37 34 24 20 27 30 34 22 20 37 25 36 20 20 35 25 26 31 37 19 37 38 20 34 21 23 18 22 18 33 32 35 22 27 29 33 35 36 28 24 38 37 27 29 36 36 35 33 32 36 37
23 22 25 36 31 20 25 22 25 28 30 18 23 34 24 34 22 20 36 34 19 20 26 36 18 21 36 33 22 29 27 29 27 35 28 21 33 26 24 32 27 22 38 29 29 31 18 22 27 21 22 35 29 23 30 37 19 24 24 32 35 36 18 35
18 38 25 26 31 22 38 26 37 37 31 36 24 31 25 29 30 28 23 18 22 25 21 23 33 34 32 38 34 38 20 29 19 24 35 33 27 19 19 29 19 35 20 26 34 21 23 21 19 27 27 28 27 38 21 22 34 38 26 32 38 32 26 30
28 26 34 22 27 20 37 20 38 22 37 18 36 20 19 19 35 37 35 27 30 18 20 18 22 30 36 37 38 38 22 27 35 19 29 29 33 22 30 31 19 27 37 35 28 25 20 24 32 32 25 24 24 34 25 33 25 31 21 23 35 21 26 23
35 28 33 23 23 23 34 20 18 25 24 21 33 26 28 19 23 36 25 22 22 30 35 24 25 31 37 24 32 23 28 38 23 23 20 29 28 28 25 19 25 24 26 37 26 30 36 33 20 19 22 20 35 35 30 33 38 27 24 32 36 32 18 23
24 35 25 28 35 24 33 19 27 29 18 35 20 35 28 25 19 21 19 19 22 36 29 38 38 28 20 25 35 19 20 24 22 23 22 37 33 38 19 38 27 24 30 27 33 31 30 24 18 33 21 34 22 19 24 20 32 34 23 30 23 26 29 28
27 32 26 23 26 35 23 28 21 38 21 29 35 31 32 33 38 20 23 37 32 23 37 27 18 30 28 26 28 29 35 21 18 18 20 25 36 36 21 21 29 29 21 22 27 38 37 38 27 22 37 26 27 25 36 27 27 21 33 34 37 23 36 18
37 29 18 22 38 36 28 36 22 19 34 37 29 19 29 18 20 38 28 38 35 20 28 18 38 38 28 18 34 30 36 19 33 19 38 38 20 25 31 20 31 25 26 37 24 23 22 31 33 18 31 36 22 35 26 22 32 36 35 22 21 35 30 35
23 21 33 27 37 22 26 36 30 29 26 37 20 30 23 26 19 23 36 26 32 30 32 37 33 32 18 27 36 24 25 25 22 32 31 22 38 31 36 34 31 24 26 37 22 19 31 19 22 37 21 28 23 37 34 25 36 25 22 18 31 33 24 24
31 36 21 26 35 31 26 34 30 28 29 33 23 26 38 27 18 24 18 29 18 36 26 25 18 35 28 29 37 23 25 38 35 28 36 28 35 30 27 25 36 34 31 24 19 26 30 35 22 24 22 31 27 27 25 23 31 32 33 38 21 26 21 29
22 27 32 36 31 32 24 18 19 24 33 25 35 21 27 36 19 23 36 29 31 35 38 18 18 34 38 32 26 31 36 23 23 34 22 25 33 33 24 19 25 25 24 30 38 23 36 31 29 34 26 31 26 38 20 22 32 31 35 35 22 33 37 20
21 26 38 33 35 36 21 22 36 19 29 19 35 20 28 36 27 28 32 18 38 33 34 19 32 18 23 29 19 27 29 29 24 32 35 21 37 37 29 20 28 33 22 23 20 33 34 30 36 20 29 33 20 28 25 20 22 37 21 26 22 36 37 38
