P2
64 64
255
18 20 22 25 24 20 20 24 20 14 17 19 23 17 20 20 21 26 22 23 15 21 24 24 19 18 23 26 18 14 21 21 21 16 17 15 14 17 22 21 16 18 20 20 17 18 23 24 14 18 14 20 15 22 23 18 24 25 25 20 16 20 19 19
20 16 21 17 17 23 15 22 17 14 14 19 20 20 16 26 22 22 25 25 24 17 23 14 19 22 18 20 23 19 17 17 24 14 20 17 26 17 19 15 19 18 16 18 16 14 22 14 17 14 14 15 17 15 21 23 15 24 19 15 24 19 18 18
17 26 15 26 22 23 18 19 24 24 15 26 20 23 15 24 19 17 20 22 26 25 17 20 22 23 24 23 16 14 20 14 23 23 17 19 24 17 23 15 22 26 23 26 19 22 16 19 21 21 18 21 26 23 25 24 20 19 24 16 26 16 22 19
25 22 22 17 24 19 26 14 14 15 16 23 18 17 24 24 21 24 26 22 20 16 18 23 16 18 23 19 22 21 16 16 18 22 17 16 25 20 22 24 18 26 20 22 23 18 18 15 19 17 15 25 25 22 21 17 16 16 25 20 17 24 15 16
23 14 18 21 22 20 20 23 16 24 17 19 26 15 19 24 22 26 19 21 25 23 14 22 20 18 18 26 25 15 26 23 25 21 17 18 18 26 18 26 14 23 22 16 18 20 24 22 15 18 25 23 23 19 26 19 25 15 19 24 14 25 18 23
24 14 18 15 15 17 21 18 19 20 16 22 14 23 21 21 19 20 21 14 26 24 20 22 26 16 22 22 21 23 19 15 20 25 23 20 24 24 23 18 23 25 23 20 18 17 15 25 21 26 23 19 20 22 14 26 19 14 19 23 25 19 19 26
24 21 20 24 19 21 18 22 18 15 26 23 14 20 22 19 23 21 26 19 22 21 20 21 21 24 23 21 14 20 18 21 16 18 24 14 16 26 19 17 23 17 17 25 14 22 22 26 25 20 23 22 24 24 14 26 24 24 16 18 17 24 22 20
22 26 22 15 15 19 23 22 26 24 14 19 23 17 16 25 15 16 20 25 18 23 22 18 25 14 25 22 18 21 18 22 22 23 18 25 16 26 19 16 16 18 15 21 18 26 20 15 19 18 17 14 22 22 14 19 19 24 24 18 25 26 15 26
19 26 17 15 26 19 15 17 20 16 21 21 17 25 19 14 14 18 21 20 17 14 20 14 26 25 20 26 16 17 17 15 17 23 25 23 14 18 17 22 14 15 17 14 23 23 25 17 21 21 22 20 20 20 15 18 15 14 17 23 15 25 23 16
22 25 17 14 25 25 15 26 24 20 22 15 14 19 21 15 16 22 20 22 24 21 16 26 25 26 23 22 19 23 18 23 23 26 26 19 16 14 22 22 15 15 16 16 26 18 23 21 20 20 14 24 17 18 15 19 16 22 15 21 18 18 19 22
14 20 21 18 17 22 22 25 23 23 15 17 20 14 26 21 18 17 22 19 23 19 21 19 14 24 21 22 16 24 18 20 21 22 25 17 19 20 20 16 19 14 21 22 16 22 21 21 20 24 21 23 14 15 22 25 20 21 23 15 18 22 26 23
26 22 21 26 18 22 26 26 19 18 14 14 16 19 25 19 21 26 17 22 14 20 16 19 23 14 16 17 14 26 25 17 15 17 17 17 17 17 22 24 17 21 16 21 22 23 23 17 21 25 19 20 16 23 23 23 18 26 26 17 19 24 18 22
18 18 19 22 17 14 17 16 23 22 15 24 17 22 15 18 18 20 23 24 21 22 20 17 17 20 22 18 15 17 15 26 26 25 21 24 26 23 19 17 22 18 21 19 16 15 20 15 19 23 20 16 22 15 22 24 17 18 24 26 23 24 16 16
14 25 23 17 23 14 23 19 26 17 15 20 17 22 19 21 20 19 24 19 22 24 22 17 17 18 16 26 16 19 21 15 24 26 19 23 25 24 15 20 15 23 24 23 15 20 19 14 22 19 16 17 16 21 18 20 26 16 19 14 24 26 20 21
15 22 16 23 19 25 17 17 15 23 15 14 22 16 14 15 16 23 23 14 20 15 22 15 15 14 22 22 25 25 18 20 25 18 15 21 24 15 16 26 19 19 18 23 18 24 25 18 23 15 18 18 15 26 26 21 19 20 14 26 21 19 25 19
16 19 21 22 25 23 22 18 16 20 17 16 21 25 26 26 18 19 14 20 22 14 22 15 24 23 14 14 14 17 20 26 19 19 18 26 18 22 25 24 26 16 19 23 15 25 15 21 15 14 18 25 20 20 18 16 17 17 21 22 23 16 25 19
26 25 15 26 15 17 19 19 26 17 19 18 14 17 21 26 20 17 20 18 20 24 24 20 26 15 22 18 17 16 19 17 22 23 24 15 22 20 15 25 20 16 14 25 20 21 25 20 26 26 26 23 26 22 19 16 19 16 18 23 24 14 15 21
23 18 21 16 24 14 18 26 26 17 15 20 26 21 20 19 18 18 26 25 24 21 14 24 26 26 18 23 19 23 14 25 16 15 16 23 15 26 23 17 25 24 19 17 16 26 19 24 18 15 21 21 20 18 25 22 19 20 16 24 26 18 21 20
23 17 14 19 18 23 19 14 26 20 19 20 22 19 23 26 24 24 16 18 16 16 26 20 19 24 25 17 16 22 25 16 21 14 17 17 26 16 21 21 22 20 16 25 15 20 21 14 19 20 26 26 21 26 23 20 22 16 15 21 21 26 26 23
25 18 25 22 20 20 24 26 17 26 23 14 18 24 24 22 24 18 24 20 21 26 22 20 28 25 15 24 21 19 22 25 26 25 24 23 26 25 25 22 27 24 27 22 24 17 18 23 22 18 25 25 25 19 21 23 21 22 14 16 20 14 14 15
19 24 21 22 18 17 18 24 26 20 26 23 22 21 20 20 19 23 33 31 22 28 22 28 22 21 27 27 21 26 19 14 20 25 17 14 18 22 17 24 31 25 27 31 34 32 30 26 18 25 26 23 14 26 24 18 25 23 14 22 14 23 16 16
18 18 26 15 24 19 20 24 23 20 18 23 25 26 21 32 34 26 27 27 35 27 34 24 33 29 31 28 18 25 19 20 20 22 17 25 25 22 32 31 23 29 36 30 30 36 24 27 29 22 29 19 15 23 14 18 23 24 24 16 15 18 18 19
16 19 21 23 25 20 25 21 16 17 16 22 20 32 26 31 27 30 39 39 31 39 32 29 34 34 28 26 28 33 27 24 28 35 29 24 34 37 29 36 31 30 30 32 30 34 32 28 27 27 22 25 23 25 22 18 25 19 15 24 14 20 16 24
14 25 25 25 20 25 20 20 24 19 23 23 32 28 29 29 35 37 41 36 37 36 33 44 43 45 36 40 43 42 37 29 34 40 33 41 37 39 35 38 42 41 43 44 37 38 39 35 40 29 31 30 27 28 25 20 22 25 15 26 25 18 14 22
16 24 17 25 25 18 21 25 19 22 29 26 23 35 38 40 38 37 46 38 37 49 46 41 50 42 43 53 50 44 45 49 42 46 51 50 49 55 53 54 41 48 44 38 39 43 46 35 35 39 33 34 34 27 21 15 14 24 20 15 23 20 23 16
19 20 21 16 26 16 16 17 14 18 27 24 27 29 39 38 45 49 49 53 48 50 49 49 56 54 52 61 63 56 57 50 45 54 52 62 59 60 59 55 52 48 47 41 51 47 49 49 42 38 42 31 37 26 28 26 22 25 24 25 19 19 14 24
24 26 15 22 15 25 21 17 24 30 22 31 34 43 34 41 50 46 44 44 50 54 56 65 69 71 72 69 66 66 59 64 64 61 62 61 61 65 68 65 58 57 60 55 53 51 54 46 39 37 39 35 34 27 22 27 22 14 25 26 26 14 15 19
18 26 14 21 25 23 23 18 22 20 35 33 30 34 47 51 53 46 50 56 54 57 66 73 72 68 74 74 73 70 73 72 65 64 68 77 74 73 73 78 75 73 71 66 60 59 53 51 42 51 37 41 30 33 31 26 26 17 25 16 18 22 19 20
26 22 19 15 25 16 18 26 17 21 35 34 36 38 46 44 55 48 59 57 65 74 77 76 73 78 82 84 85 85 78 81 77 82 72 81 85 78 79 84 74 73 70 68 69 63 60 49 54 53 47 38 40 31 33 29 24 20 19 15 26 17 19 26
23 18 18 24 18 24 16 21 20 34 37 34 35 45 48 56 56 53 65 64 69 78 83 79 87 82 89 83 88 84 89 90 84 89 91 87 83 85 91 81 82 83 85 77 74 67 61 51 51 48 50 38 42 36 28 23 25 26 15 24 15 26 24 26
25 25 22 23 23 23 17 27 29 33 36 38 46 42 47 46 57 58 68 75 84 81 87 88 95 92 89 91 92 94 88 98 100 93 96 100 99 101 98 88 94 96 87 88 81 68 68 55 49 49 42 46 38 41 31 33 21 17 23 21 16 16 18 14
26 24 19 24 18 15 19 22 23 28 28 43 47 48 54 49 60 56 70 82 84 94 88 93 102 101 97 100 106 96 107 108 100 104 103 106 104 104 96 99 100 98 97 93 89 80 71 65 58 59 45 50 39 33 32 33 25 28 14 25 20 22 25 23
24 14 26 23 24 16 14 25 20 31 36 37 42 49 48 47 55 59 66 83 89 96 101 94 97 96 105 100 104 105 113 108 116 105 110 103 105 108 105 97 99 97 91 99 92 86 72 58 60 57 55 46 35 31 29 27 24 20 21 26 25 18 15 19
18 15 20 18 18 26 21 17 21 33 27 34 38 47 52 54 53 54 74 83 92 95 94 106 98 103 112 105 109 112 110 120 120 115 109 116 107 113 107 110 98 98 95 95 92 80 67 59 54 56 47 39 45 34 37 34 23 22 15 22 24 17 15 14
26 21 17 26 16 17 21 24 29 23 38 37 46 49 42 52 52 54 65 83 80 94 96 98 105 107 106 109 106 111 120 119 122 123 114 117 113 115 110 102 105 94 91 91 86 78 63 58 57 58 42 41 40 35 36 31 20 25 23 21 24 24 15 14
20 19 26 14 15 16 26 25 25 32 38 33 33 43 46 48 47 59 71 76 86 89 96 96 107 105 113 104 111 113 120 121 124 117 115 111 112 111 104 104 99 102 96 90 85 81 63 53 48 54 53 46 39 39 32 34 18 23 14 21 25 20 15 17
21 19 14 20 22 21 20 22 25 32 33 28 34 44 49 49 55 55 70 74 79 84 95 101 104 101 108 110 115 117 116 116 130 118 113 110 114 103 100 103 104 96 86 88 85 76 68 55 47 42 41 40 39 29 37 27 18 16 15 21 20 17 25 14
26 23 22 24 16 14 20 14 17 32 34 31 30 34 40 49 44 46 55 65 71 78 88 97 94 105 98 109 105 117 107 120 121 115 109 105 111 109 99 94 102 86 83 84 72 72 67 46 44 47 40 43 31 37 30 28 26 14 24 19 14 25 16 24
23 18 26 23 25 25 17 25 17 27 21 34 33 37 34 38 44 54 59 65 73 78 81 83 84 91 104 98 103 100 108 113 113 105 106 104 103 102 97 97 91 92 76 71 72 68 52 50 48 49 44 34 37 29 22 19 25 15 15 16 23 14 21 19
22 25 24 17 24 19 15 26 19 21 25 29 33 33 34 39 42 38 52 53 66 69 77 80 87 95 94 100 92 95 104 101 102 94 96 104 98 94 89 89 79 83 71 66 61 63 47 46 43 39 42 40 26 29 19 28 17 21 17 16 26 16 22 21
16 25 23 25 22 17 16 19 22 24 19 21 28 27 37 41 41 39 41 59 63 66 73 79 80 81 83 82 87 92 96 90 90 85 86 97 87 85 89 82 73 71 70 61 65 59 50 41 35 35 30 32 32 28 29 16 21 19 22 20 15 25 22 26
17 17 25 25 26 16 15 24 20 16 22 23 23 27 37 28 41 38 37 41 56 53 67 74 77 73 82 86 81 89 83 81 83 80 83 85 77 76 81 74 76 74 67 56 50 50 45 35 39 33 34 24 25 18 22 20 21 24 26 23 17 14 15 24
16 25 21 17 16 26 15 24 19 21 19 17 18 28 27 29 29 31 32 37 52 58 63 59 70 69 65 72 76 77 79 73 74 81 74 75 81 78 66 69 62 55 60 51 42 45 28 31 37 29 29 32 21 23 23 22 15 25 14 17 21 17 14 21
21 23 19 22 19 22 26 18 20 24 16 17 17 17 26 32 29 28 28 35 35 48 54 58 55 67 60 63 67 63 72 66 66 75 69 63 66 59 60 64 60 49 49 39 35 29 29 30 24 22 24 20 24 20 19 19 21 24 22 25 25 18 26 26
14 19 15 26 23 24 14 25 21 24 21 24 26 22 19 29 29 29 25 22 37 39 44 46 51 58 50 53 54 59 64 67 60 62 68 62 60 58 54 48 49 51 47 43 38 21 28 32 29 26 16 26 17 21 14 14 26 26 25 24 20 15 15 17
17 25 17 19 26 16 21 14 25 20 26 18 20 19 17 15 24 18 17 26 23 35 29 37 36 43 45 45 57 50 56 58 64 62 54 52 50 55 51 42 42 44 32 30 27 26 17 26 15 26 20 16 15 21 25 25 14 22 15 16 21 20 16 16
16 19 25 20 15 21 22 24 20 14 19 14 22 16 24 24 20 22 26 20 19 28 25 28 33 37 37 41 45 44 47 52 52 48 51 51 52 45 41 35 37 27 28 27 24 14 17 23 22 18 19 16 22 20 19 24 21 17 16 26 23 17 21 20
14 23 26 17 21 18 22 24 16 19 16 17 14 23 22 22 25 16 18 15 25 22 23 26 35 28 33 44 37 40 49 42 46 39 39 44 40 37 32 33 36 25 27 21 14 17 16 17 23 20 17 24 17 26 20 17 25 16 25 26 14 18 22 19
19 21 16 16 18 16 24 26 22 15 22 19 22 21 15 20 25 16 21 21 22 17 20 22 30 28 32 36 29 43 40 41 37 37 32 31 40 28 27 34 18 18 19 23 20 14 16 20 22 17 21 15 14 23 24 23 26 20 20 16 20 15 20 19
20 22 18 17 18 17 23 14 17 23 22 14 14 15 17 15 25 16 18 21 18 20 14 21 24 18 24 32 24 25 38 36 31 37 28 27 25 30 22 19 26 22 15 18 20 14 25 19 22 17 16 22 20 16 14 20 24 15 16 25 25 23 22 21
20 23 15 15 26 25 14 26 20 14 16 26 25 16 23 18 18 14 17 15 14 26 18 21 21 25 25 17 17 27 31 23 22 21 26 31 17 17 26 25 26 17 23 17 23 24 24 21 19 17 20 20 15 22 14 24 14 20 24 22 26 19 16 24
20 24 19 19 16 21 15 26 19 20 22 24 26 15 16 14 14 24 14 14 16 19 16 18 26 21 19 21 23 15 14 19 18 23 15 21 24 22 20 25 19 23 22 19 14 19 17 17 14 14 16 15 24 21 24 21 23 25 20 19 14 15 14 14
17 25 20 15 15 21 21 16 26 16 25 16 25 17 15 21 24 24 18 25 17 22 22 15 16 20 17 19 22 21 22 17 15 24 25 22 25 16 20 26 14 20 17 21 17 16 25 18 23 22 16 18 21 14 24 15 19 19 26 21 23 25 21 18
18 19 14 14 24 20 26 21 22 23 23 22 18 17 18 25 18 22 17 15 21 23 21 18 16 17 25 26 18 15 22 15 22 17 23 20 15 22 15 15 21 19 17 22 24 19 22 22 23 25 23 15 17 21 26 16 23 22 17 14 23 16 18 26
26 22 21 24 25 15 25 26 15 15 24 18 21 15 25 19 26 19 26 18 18 18 26 26 26 21 24 22 24 24 17 20 21 14 22 19 17 17 22 22 24 16 21 20 14 26 26 25 22 21 21 26 15 19 18 19 24 21 25 14 23 22 22 14
25 22 16 17 26 18 16 16 23 22 20 22 19 17 20 22 24 24 24 24 24 19 17 18 18 17 16 22 20 23 18 15 16 23 23 15 22 25 23 21 14 24 25 20 20 20 21 20 21 20 19 20 16 25 25 26 19 19 25 22 21 21 20 24
25 19 14 20 26 21 14 21 21 24 20 16 14 22 21 17 25 16 24 26 26 26 14 22 22 19 26 21 19 21 14 18 25 20 26 15 20 23 15 15 18 14 25 14 14 18 14 20 22 21 16 21 14 25 25 21 20 20 24 14 16 22 25 23
14 25 16 21 24 22 14 20 22 18 19 24 17 14 22 23 21 19 26 22 15 23 26 16 20 23 26 18 24 26 24 16 16 19 21 21 17 19 16 24 17 25 16 17 22 24 18 14 22 23 20 14 15 25 25 26 19 19 19 15 14 16 19 25
16 20 21 22 26 22 22 19 19 24 23 16 20 21 15 23 19 26 20 18 24 23 15 24 15 15 25 25 24 19 16 14 20 14 20 14 21 16 14 16 18 15 18 26 19 24 25 14 17 21 16 22 20 18 25 16 15 21 26 18 22 17 14 17
14 18 14 18 26 19 17 23 26 17 17 16 14 20 26 21 25 16 14 25 16 18 19 22 22 20 15 23 18 23 26 25 19 18 23 21 17 17 15 18 18 23 22 17 17 15 26 20 17 18 19 21 16 21 16 23 23 24 15 17 16 20 16 20
22 24 24 23 17 22 26 18 16 20 16 26 14 22 17 17 17 26 21 22 22 18 17 15 22 18 14 19 20 19 21 19 23 25 19 15 21 22 14 19 15 25 14 17 26 16 23 15 17 19 25 15 18 24 19 24 20 15 23 17 26 14 18 25
22 21 14 20 22 22 14 20 16 26 21 19 18 15 26 20 21 18 22 14 24 18 21 23 16 17 22 16 16 24 18 22 19 23 24 24 18 20 21 14 22 14 19 25 25 18 17 18 25 16 18 15 26 19 15 16 18 14 23 25 23 26 24 14
24 24 17 18 24 15 17 16 20 21 26 14 25 17 17 20 22 19 23 18 20 17 20 26 24 23 17 14 25 15 16 25 22 23 25 21 24 18 20 19 16 16 21 14 19 22 23 17 17 23 16 16 20 16 26 18 16 18 14 21 23 25 18 16
16 25 26 26 15 23 25 20 18 24 14 26 14 14 17 14 17 14 18 26 19 15 23 24 15 14 18 26 20 21 24 24 20 15 23 26 15 23 18 24 14 26 26 26 15 26 15 15 21 15 21 22 18 26 14 20 16 17 17 26 18 23 22 21
