P2
64 64
255
31 36 22 23 33 19 36 27 34 23 25 22 21 29 27 37 35 22 26 26 27 21 32 28 28 30 18 18 38 21 22 26 30 38 36 20 18 35 20 24 27 29 34 35 21 32 18 23 38 32 32 27 34 33 34 31 22 29 30 24 32 23 25 20
23 27 30 21 30 21 35 24 30 23 33 23 30 18 38 30 24 24 21 27 22 33 36 22 23 38 23 33 29 34 26 30 22 21 22 33 35 26 35 18 31 25 20 22 35 34 21 24 36 27 31 27 20 37 33 18 31 26 28 31 36 24 28 22
33 29 21 27 36 22 25 18 33 20 28 28 24 35 31 22 25 35 33 28 31 24 19 38 35 29 21 36 23 22 20 33 24 36 24 35 18 35 21 18 27 23 23 37 33 27 31 30 19 28 34 28 35 37 37 33 36 28 20 21 37 28 21 26
28 18 32 28 33 32 37 36 29 22 34 21 27 30 33 26 22 18 31 25 34 28 35 19 37 31 25 38 19 22 29 34 24 38 30 19 29 28 21 29 37 38 22 32 19 37 19 22 29 22 36 28 25 18 28 27 34 19 34 34 26 19 30 25
33 29 38 33 30 22 37 35 26 22 37 21 32 32 26 29 30 33 22 34 34 23 27 26 34 36 25 23 32 18 30 28 34 20 18 26 23 26 29 34 26 32 33 27 28 23 33 37 22 37 30 19 19 38 21 24 30 35 21 25 18 33 25 27
37 33 24 26 20 27 30 38 33 37 38 29 27 34 28 31 25 30 30 18 27 33 32 35 19 29 23 27 25 29 27 26 20 20 23 31 26 24 26 35 25 26 33 33 26 27 37 34 29 22 36 27 31 31 28 38 36 22 35 37 36 21 24 37
29 18 32 19 30 25 24 20 34 35 32 27 23 26 28 37 23 22 36 21 35 29 38 20 25 32 25 24 24 19 26 29 26 31 27 30 30 30 19 27 30 33 34 25 22 31 38 22 26 31 37 32 30 35 26 34 20 23 28 31 22 27 38 36
36 20 37 30 37 21 24 18 22 19 35 31 24 35 18 25 27 22 24 19 30 33 27 23 24 18 26 32 19 23 24 33 33 25 30 25 32 37 31 25 22 38 29 18 31 21 18 19 33 18 29 30 19 29 34 26 31 30 33 26 33 38 24 34
30 34 27 20 35 34 22 37 34 32 29 33 20 32 34 18 18 26 18 19 27 36 29 37 26 33 19 37 29 34 25 24 21 27 38 36 25 22 18 23 19 23 35 20 33 21 28 24 22 30 34 31 37 29 31 18 29 18 30 24 27 38 23 22
26 30 24 23 29 29 23 36 27 24 38 22 26 30 26 30 24 37 19 19 18 19 19 36 35 31 30 27 18 19 32 32 22 29 18 21 26 30 36 20 35 27 30 25 20 33 20 30 25 24 31 33 22 34 35 34 22 26 27 27 18 35 19 27
24 24 37 27 34 37 28 19 23 24 21 27 35 35 24 32 38 26 28 18 22 26 19 36 21 30 25 34 20 21 19 24 21 25 21 31 29 19 36 19 37 36 38 38 20 36 32 23 35 20 35 30 32 28 37 21 38 35 23 26 25 33 29 22
19 36 18 26 21 37 33 28 31 30 38 24 34 28 27 38 28 22 37 37 25 20 25 33 26 34 34 30 21 21 22 28 32 34 20 32 20 28 25 33 27 35 29 21 22 31 32 22 23 35 23 25 32 19 29 37 21 20 25 20 28 20 28 26
24 30 37 30 35 19 33 19 19 22 23 24 37 18 30 35 32 35 30 25 18 28 22 23 23 24 26 19 26 27 27 24 20 26 33 37 23 28 36 38 29 19 34 18 34 28 19 35 25 30 26 26 34 30 29 30 28 32 19 25 29 37 27 26
34 29 36 34 28 23 28 26 23 34 24 18 27 30 35 19 31 25 28 25 30 35 29 25 35 19 25 32 34 37 19 35 31 34 32 24 31 23 37 33 20 36 19 22 19 27 35 23 32 29 33 34 35 34 28 19 32 25 23 22 24 21 27 31
35 19 22 34 21 19 35 28 26 27 27 38 27 28 37 24 20 29 29 21 30 25 36 18 38 24 19 21 31 32 29 32 25 20 24 32 37 26 33 35 20 28 23 24 35 33 24 23 33 22 32 21 32 29 25 37 20 19 36 20 23 21 28 27
29 19 33 28 30 29 19 21 26 32 37 28 20 38 37 35 29 37 34 32 30 22 19 31 24 37 21 22 23 33 35 28 27 34 20 31 31 25 20 23 24 24 21 21 26 18 37 21 21 21 28 31 28 37 23 24 22 19 30 23 27 31 28 27
31 28 29 28 38 28 35 23 21 23 37 18 34 20 36 37 34 38 35 29 33 24 38 22 26 25 35 18 34 26 38 18 26 38 35 27 32 37 30 28 18 24 26 21 20 27 38 21 28 35 21 33 34 34 19 24 27 18 35 37 30 32 20 26
32 38 23 31 20 28 26 19 26 27 18 21 29 30 22 31 22 30 27 35 31 38 38 30 24 37 26 32 27 32 32 20 26 34 37 26 19 25 32 28 23 36 27 28 35 23 37 20 19 24 28 33 27 35 34 29 22 24 25 21 19 33 19 31
20 28 37 27 32 25 25 28 38 18 38 35 25 31 37 20 32 32 27 19 35 18 33 30 26 28 24 20 35 32 23 24 23 37 37 18 30 35 34 31 37 25 35 22 36 35 34 36 35 28 25 18 38 38 28 26 28 27 28 31 20 18 37 28
33 33 20 33 38 28 34 24 26 25 38 32 36 35 28 34 22 38 34 39 35 41 40 32 34 32 31 19 29 19 20 27 27 31 28 32 18 34 30 34 38 39 35 41 35 39 36 35 36 34 26 33 18 38 36 33 33 38 23 28 20 26 32 22
29 32 33 32 20 20 29 22 21 19 36 19 29 22 29 31 24 33 39 31 46 32 39 38 42 31 23 30 21 23 34 19 20 20 30 19 38 28 26 27 44 40 34 36 32 36 35 32 34 24 35 35 22 26 28 29 22 22 33 25 19 31 37 26
34 37 23 29 27 24 38 35 35 32 29 21 20 39 36 44 30 31 34 42 32 45 39 42 41 45 24 24 26 36 30 25 36 21 19 25 29 41 38 37 43 36 49 42 45 30 37 43 33 30 27 32 18 32 27 37 35 29 22 25 28 24 35 35
35 34 33 30 32 21 36 21 35 30 36 24 32 38 32 37 40 35 48 46 45 40 46 47 48 46 45 35 33 34 20 23 18 34 20 41 32 42 39 39 48 50 38 51 49 34 46 37 47 45 44 30 23 27 29 32 35 26 21 23 38 35 25 21
20 26 28 31 28 19 28 36 34 19 36 21 26 41 33 43 42 53 52 46 57 56 40 43 47 44 36 37 43 44 29 29 33 33 39 30 41 38 42 47 42 49 40 40 43 49 49 49 46 47 29 47 40 35 21 20 24 26 31 30 22 35 20 21
21 29 38 28 35 30 20 31 22 21 36 32 36 32 51 47 39 42 41 58 53 59 57 43 45 46 43 49 47 42 36 33 19 41 40 40 48 43 55 37 53 50 51 57 49 50 59 55 45 47 32 48 33 39 22 31 27 23 25 18 22 37 30 36
38 20 20 33 18 29 34 34 33 22 37 41 50 47 50 47 51 53 58 51 56 50 45 59 48 52 52 52 35 39 29 37 30 30 28 32 50 51 56 55 56 51 56 52 55 63 52 57 59 40 46 36 32 39 25 26 25 29 34 19 22 18 33 21
22 24 18 23 25 38 30 24 21 39 38 45 32 48 51 41 52 48 53 68 60 69 67 66 56 53 58 54 45 52 38 38 26 35 36 47 55 52 54 50 51 47 61 49 50 55 60 64 63 50 50 48 45 47 32 31 31 24 26 19 29 25 19 26
23 23 25 21 28 20 33 38 25 39 46 49 52 57 41 44 58 59 57 62 55 69 69 60 65 47 47 57 39 53 30 35 48 48 36 42 42 42 61 65 61 52 66 68 55 53 55 69 60 49 44 54 45 45 27 36 32 31 37 28 36 22 19 29
24 18 33 29 34 27 20 18 23 35 42 43 56 59 54 66 57 71 70 68 63 64 59 68 64 52 51 44 39 46 42 47 37 47 44 39 44 56 53 53 63 60 76 67 69 61 57 64 64 59 46 58 52 37 31 45 24 18 34 24 33 22 35 26
26 32 20 23 37 36 31 29 35 30 48 35 47 61 59 61 70 57 64 70 81 78 70 70 64 51 53 54 47 41 35 37 42 39 47 40 55 63 64 70 60 70 76 66 79 69 57 66 70 56 59 48 44 44 49 43 37 36 29 30 37 37 34 19
28 27 37 37 34 23 37 28 28 45 43 48 38 51 59 66 59 63 74 82 66 76 67 65 74 63 66 50 50 46 48 37 45 55 56 53 52 56 64 60 66 79 78 70 70 80 68 63 63 62 48 61 55 44 39 39 28 36 18 31 18 35 34 27
24 22 24 23 22 38 22 27 27 27 44 40 42 61 55 63 58 66 68 73 86 80 69 80 62 69 62 64 44 48 51 51 38 50 44 41 63 49 70 62 72 76 82 79 84 73 72 75 68 59 59 57 39 47 39 38 26 24 35 26 33 29 34 28
27 35 34 33 28 21 35 32 30 44 34 43 54 48 63 57 62 62 74 72 83 82 81 77 66 69 53 58 44 42 44 56 41 49 53 43 49 49 55 58 61 75 69 82 83 68 68 70 70 65 60 61 50 54 40 42 36 20 20 37 18 37 30 34
19 32 24 35 24 26 24 29 29 46 42 44 39 56 54 52 58 64 67 67 86 81 77 69 78 73 64 57 48 46 53 47 47 36 49 57 58 59 56 64 62 63 70 88 81 85 74 60 57 63 49 47 52 45 46 44 25 32 37 24 32 24 22 19
30 31 29 25 32 32 36 25 25 45 47 48 50 44 59 66 59 69 80 74 79 74 73 78 70 63 52 53 47 50 53 37 41 50 54 56 48 64 51 69 73 67 77 79 69 81 64 62 69 67 62 60 50 54 40 29 23 30 38 27 35 31 26 37
26 21 36 20 21 37 35 28 27 35 44 50 50 49 60 49 69 56 76 63 79 64 79 61 74 70 55 52 60 45 49 50 49 37 43 44 46 58 54 62 60 62 72 78 62 60 57 57 59 55 50 54 47 34 37 41 24 36 22 27 33 25 19 33
36 33 25 23 20 38 34 35 25 45 45 50 39 41 58 64 52 66 58 60 63 68 65 63 55 69 51 54 41 48 37 42 38 42 38 43 43 47 64 67 57 66 75 67 59 72 72 54 56 54 45 53 36 50 39 44 31 27 22 29 33 26 19 29
28 26 18 24 32 37 19 23 22 40 33 42 48 50 59 53 54 61 64 54 65 71 69 51 56 60 62 52 45 51 44 47 29 49 47 51 43 47 62 55 56 70 54 65 56 53 60 54 52 49 41 57 53 51 28 28 35 34 33 36 22 20 35 30
20 19 28 28 35 27 28 21 22 31 28 41 34 52 52 59 46 52 56 51 67 50 63 49 57 63 57 51 36 44 48 41 32 41 32 34 39 39 56 45 64 60 61 68 54 64 63 54 61 58 50 49 51 34 29 37 31 30 20 37 38 38 32 23
30 39 27 31 24 30 35 26 34 31 38 35 40 49 39 57 49 58 64 62 50 67 50 62 47 46 49 45 40 44 45 31 40 39 48 44 49 49 44 56 57 57 57 70 58 59 49 56 61 51 48 52 56 44 49 45 37 33 24 44 40 39 42 44
37 37 28 43 42 26 43 42 34 29 32 49 45 57 56 55 51 62 50 58 50 68 51 52 62 53 50 54 42 39 33 43 33 38 37 57 50 50 62 52 69 64 71 68 52 54 56 50 48 57 62 51 51 39 48 44 33 50 48 35 40 38 36 38
35 29 43 41 39 40 37 46 37 43 37 51 40 43 49 60 60 60 60 56 55 59 54 69 58 60 50 62 57 43 47 43 52 51 43 44 44 45 63 57 64 55 59 56 60 58 66 52 50 64 61 45 48 48 56 43 39 39 40 55 51 55 39 51
31 40 40 44 29 32 25 36 44 34 31 45 37 35 35 38 54 41 55 58 56 60 47 56 44 50 49 52 41 35 42 46 35 44 44 42 40 38 57 53 56 49 45 53 63 57 53 45 55 41 46 43 35 31 50 33 40 39 33 36 36 41 46 32
34 22 27 32 36 23 27 33 39 32 23 36 40 28 32 28 40 32 39 37 52 45 51 52 40 42 38 37 37 28 24 35 41 24 22 36 33 45 49 31 48 38 38 44 45 45 47 41 43 35 37 29 36 35 40 24 40 31 40 29 24 34 25 41
37 38 24 18 33 25 30 35 28 27 24 20 36 26 36 27 42 26 39 45 34 32 30 35 33 23 39 19 27 25 38 30 33 38 23 35 18 23 28 27 32 43 28 29 43 40 34 42 23 31 21 18 26 19 21 34 33 21 28 23 35 38 26 23
27 19 27 31 23 21 31 31 33 27 23 33 22 32 27 35 20 27 28 30 29 39 29 40 31 29 34 36 18 22 30 36 32 34 19 18 34 33 19 34 28 27 23 27 28 35 30 39 39 30 35 22 22 37 22 28 19 32 18 35 36 23 35 19
36 37 27 27 32 29 36 32 36 36 24 18 20 29 21 28 29 26 30 34 30 32 23 18 22 19 20 36 20 34 34 23 32 19 33 33 28 19 19 24 37 31 28 26 30 27 27 30 38 37 34 38 28 37 37 19 21 36 29 36 31 28 22 33
29 30 19 24 33 29 30 30 30 21 25 24 20 35 29 20 29 25 25 28 24 28 21 21 22 19 31 26 18 38 19 22 26 19 22 24 25 31 18 23 21 20 23 21 34 31 18 19 27 22 31 26 19 37 21 32 19 30 36 29 20 24 20 24
33 38 32 27 19 28 20 23 26 28 19 28 36 31 26 20 25 28 33 28 34 23 31 38 20 26 30 19 21 22 24 37 21 20 26 23 20 30 30 32 32 23 26 32 18 21 37 38 30 25 26 38 24 27 25 28 20 22 21 19 27 24 33 35
34 27 38 26 25 34 24 19 37 33 38 31 24 38 35 35 36 31 34 23 28 28 21 36 19 21 25 31 20 32 36 33 22 28 22 29 29 33 37 33 24 26 24 32 21 18 35 38 23 30 30 26 31 19 37 34 35 21 36 34 37 35 34 33
18 30 22 32 37 30 23 25 19 28 33 19 35 27 18 25 33 21 26 19 27 20 21 30 35 32 19 25 37 25 28 20 37 19 29 34 23 34 37 30 29 25 31 20 27 28 24 29 38 25 25 28 27 20 23 25 27 35 24 27 31 37 35 34
33 20 23 34 19 23 37 36 38 32 23 27 28 34 24 38 36 28 29 36 32 23 28 21 37 29 24 20 34 27 19 21 36 18 27 34 37 34 20 23 33 28 36 23 31 37 31 19 21 29 29 33 26 33 37 28 28 26 33 21 21 23 22 21
25 33 35 28 37 23 25 33 21 37 26 26 37 19 38 37 25 19 33 22 29 31 34 34 29 27 35 24 26 24 31 30 27 34 38 19 25 37 19 28 38 31 24 20 32 28 29 29 33 33 32 26 36 38 37 23 28 28 27 38 30 36 19 28
30 31 27 18 37 30 19 28 36 31 28 18 25 37 29 25 31 31 28 32 35 37 28 21 30 37 28 23 35 22 23 23 22 32 24 30 21 24 18 20 29 26 31 26 32 26 23 18 25 32 36 18 36 25 18 28 34 38 31 36 25 31 36 20
38 28 22 37 26 20 22 31 36 36 19 24 19 22 27 33 26 21 22 28 24 36 27 26 34 38 24 23 34 31 20 24 26 27 23 37 36 18 24 18 34 35 36 32 20 30 33 29 33 38 25 21 38 19 22 21 21 32 36 18 29 26 30 24
19 21 33 31 28 29 20 33 21 29 24 37 26 38 20 32 35 27 29 21 31 37 33 21 26 29 32 35 23 30 29 36 27 38 27 29 28 19 22 27 36 28 35 36 23 31 30 37 28 35 35 23 37 38 35 26 34 25 19 29 26 36 37 35
29 26 26 37 29 32 30 33 23 26 37 34 35 29 23 19 18 24 24 31 20 23 30 25 21 34 20 36 33 23 38 30 21 25 22 30 35 31 24 31 22 30 25 29 31 21 22 32 35 26 29 18 38 22 24 20 30 30 33 38 34 20 29 38
26 37 35 19 33 27 20 18 28 32 24 32 22 19 26 34 23 32 24 38 29 28 35 36 33 28 23 21 22 29 29 26 33 25 37 37 27 21 35 25 19 27 20 34 20 34 29 22 24 21 26 18 30 19 36 18 23 21 31 38 30 19 30 30
31 24 32 38 38 18 20 25 34 32 18 28 24 21 38 25 29 32 24 18 32 18 22 26 26 35 24 18 25 27 32 34 34 33 31 28 30 30 30 30 38 29 28 34 28 21 34 26 32 22 28 26 35 19 32 35 29 24 29 28 28 38 25 19
30 24 19 35 18 21 29 18 26 34 38 36 31 19 30 22 26 33 28 18 26 36 25 21 36 31 24 24 20 32 29 28 19 22 33 24 33 37 37 32 38 20 26 36 26 21 36 38 23 32 34 19 34 18 38 35 37 33 20 36 25 19 25 29
24 36 30 23 20 22 34 31 38 25 35 19 21 25 31 36 32 38 29 27 26 26 37 23 36 27 18 26 34 34 19 23 34 28 37 20 34 27 22 36 18 30 36 18 18 23 22 35 38 26 37 37 34 26 30 37 31 37 23 23 18 31 20 34
24 34 32 30 30 20 34 20 19 27 28 24 28 26 33 27 32 22 27 31 32 36 19 34 26 24 38 36 28 31 34 34 23 26 36 33 35 25 19 30 29 28 20 25 18 21 24 33 33 36 27 19 33 21 23 27 34 36 31 25 36 25 25 27
24 36 32 27 29 34 38 20 28 19 26 23 24 24 24 18 20 18 28 31 28 29 23 28 33 24 23 33 23 37 23 37 27 32 30 25 36 18 20 18 22 28 19 21 33 34 34 27 30 30 35 21 24 22 18 21 21 32 29 21 27 32 37 22
30 27 21 31 30 18 38 38 34 31 21 21 19 32 20 23 21 33 20 32 37 25 36 28 37 34 25 32 28 27 31 24 35 29 33 21 35 27 32 20 28 34 35 31 38 36 23 38 35 19 36 36 38 21 25 29 27 22 29 36 27 23 34 18
