P2
64 64
255
19 32 21 38 33 21 30 19 24 18 25 19 37 24 26 38 33 32 28 25 37 36 24 21 36 19 37 27 36 33 33 19 22 35 28 27 23 36 36 38 18 20 35 22 34 26 25 30 38 24 19 20 36 20 26 22 36 19 35 34 36 29 22 36
21 34 32 35 20 28 32 31 20 25 29 37 20 34 37 20 24 26 38 37 33 28 25 29 20 18 25 38 31 36 19 29 32 24 26 28 28 31 32 24 34 30 33 34 23 30 29 34 38 21 34 23 38 21 25 29 34 31 28 18 23 21 28 20
31 23 37 36 27 31 25 34 23 36 19 28 20 18 19 38 19 31 35 22 30 35 31 27 19 29 36 34 25 26 25 34 35 32 26 35 24 19 37 37 30 37 18 37 33 37 30 22 26 32 31 36 36 23 26 35 29 32 38 30 35 34 30 38
25 28 33 36 27 26 18 19 24 25 33 31 38 21 29 38 35 31 35 29 38 28 30 31 36 25 31 28 18 18 19 21 36 30 22 29 23 30 31 36 27 37 18 31 31 30 28 26 22 18 36 27 29 29 30 30 36 22 18 23 25 32 20 22
21 33 26 18 37 34 31 21 20 18 22 21 19 21 29 34 26 31 25 34 35 27 25 36 37 29 28 35 36 25 24 24 26 35 28 30 35 33 25 23 26 31 20 34 23 32 19 29 34 23 18 32 20 19 23 26 35 18 29 26 27 18 31 26
18 35 27 38 26 23 18 20 31 36 24 20 21 31 28 33 32 27 19 29 38 26 18 20 19 37 34 18 28 37 32 36 23 37 26 36 19 33 28 28 24 22 32 24 19 24 21 23 24 20 23 35 26 29 25 25 24 28 36 34 19 29 31 34
36 38 24 31 32 33 33 23 19 29 21 36 25 23 24 19 37 31 30 34 27 21 24 35 30 30 25 37 38 27 20 38 28 32 20 29 28 19 28 24 23 22 19 21 28 33 31 36 19 18 22 35 28 31 22 18 24 21 32 30 25 28 29 32
21 19 28 33 20 37 28 24 23 18 24 24 31 38 32 37 34 32 25 35 22 20 36 32 22 35 33 19 34 26 29 21 21 33 24 37 33 19 34 35 28 20 30 26 21 37 23 28 37 29 22 25 37 21 25 23 35 36 25 36 29 28 30 30
30 24 31 32 27 37 35 34 26 20 32 18 21 27 37 32 33 18 27 34 25 27 23 22 34 24 19 32 36 18 25 33 32 35 19 25 28 25 37 21 29 25 26 22 23 32 37 21 31 25 20 23 31 37 31 19 28 34 29 35 19 35 29 32
30 27 21 19 37 29 38 24 25 20 24 36 34 18 21 28 25 31 33 26 35 26 28 22 27 21 29 33 21 34 33 36 25 26 18 33 25 26 25 31 19 28 36 37 36 29 19 32 32 37 23 26 27 32 30 35 28 18 19 38 22 28 25 22
25 22 29 35 36 32 25 35 24 36 20 34 18 18 32 37 37 20 24 36 33 22 19 35 37 33 33 33 20 38 37 24 25 32 21 36 30 29 33 29 19 21 24 34 18 32 21 21 38 19 33 25 29 18 36 19 27 36 29 20 38 20 32 21
18 29 32 27 37 21 28 18 26 23 34 24 26 20 18 38 19 27 24 31 21 19 20 25 37 32 23 35 23 35 27 23 18 28 18 34 37 23 23 36 25 21 21 21 21 24 30 36 32 26 37 26 23 19 26 25 26 30 34 23 19 37 29 31
34 23 24 30 27 29 35 37 20 26 22 22 34 26 35 29 35 28 19 26 23 22 26 33 21 36 31 29 28 36 29 35 25 38 21 32 31 21 27 32 31 38 37 34 25 22 25 20 35 27 19 35 38 30 36 30 20 27 27 31 31 35 22 18
24 18 28 23 35 38 36 22 31 30 32 32 18 22 32 31 37 29 20 30 21 30 24 32 21 21 35 33 20 32 28 25 37 22 20 33 22 30 30 26 18 34 29 26 36 25 34 18 28 25 22 28 30 18 31 23 25 19 36 22 31 27 19 18
18 24 20 19 24 37 26 19 23 31 24 35 34 32 29 38 18 19 20 27 25 23 26 28 35 29 37 20 34 35 23 23 29 24 18 24 38 32 31 19 35 32 20 29 31 37 19 29 35 20 20 37 21 38 26 38 24 35 29 18 21 18 34 28
24 28 37 27 22 31 38 33 27 32 24 20 22 22 35 28 38 27 35 28 34 26 37 24 25 38 34 22 36 28 29 33 25 38 34 31 26 33 31 26 24 28 18 27 35 19 29 36 29 34 24 30 18 27 23 35 33 28 33 26 32 25 32 23
19 22 33 26 26 31 27 18 33 36 18 34 28 34 21 27 38 37 32 21 33 23 24 26 32 26 24 33 29 38 37 25 29 27 25 38 27 29 35 21 35 37 38 25 29 29 23 37 29 31 24 27 30 21 20 25 23 19 33 36 28 22 31 35
22 25 32 20 26 25 22 31 35 32 22 35 32 37 18 19 36 20 37 19 20 27 24 18 22 35 36 27 31 25 29 26 32 34 38 34 36 27 34 28 29 28 33 18 29 22 34 38 28 31 23 35 29 25 20 19 26 33 31 24 23 27 32 33
36 29 23 21 30 23 26 20 26 26 33 24 20 28 33 19 33 27 33 23 20 28 27 34 33 35 30 29 31 18 36 25 30 25 20 25 37 25 23 37 28 25 29 32 26 26 35 21 23 34 31 20 32 18 30 23 25 25 37 24 20 36 38 30
22 22 18 26 24 36 23 36 34 23 38 32 36 18 21 28 25 21 39 37 23 37 23 28 37 31 30 36 29 33 24 36 29 19 33 26 26 38 31 21 37 35 36 22 42 38 35 23 24 34 34 35 35 18 33 32 35 32 19 25 24 31 26 36
25 18 33 22 32 22 35 28 27 34 28 34 29 37 21 30 33 35 31 41 44 44 40 40 40 37 40 35 31 35 23 38 37 20 23 32 35 33 28 28 25 39 40 43 44 41 30 36 39 34 27 30 38 25 21 30 22 23 26 22 23 22 27 18
29 31 20 30 29 24 28 32 38 18 27 31 24 33 23 42 42 31 33 40 44 46 33 36 33 41 39 30 20 34 25 25 27 23 33 26 25 30 33 37 30 35 36 39 38 30 32 45 43 33 27 31 23 21 25 18 38 26 20 25 23 25 29 23
36 35 26 24 28 30 32 21 21 28 22 24 33 37 30 31 32 46 44 47 48 34 45 43 33 35 40 39 37 33 42 37 47 42 39 44 38 36 44 43 35 42 44 48 44 35 44 47 43 33 40 34 31 35 26 25 37 28 24 34 32 19 19 36
28 32 20 22 27 35 20 34 30 26 38 33 44 41 37 40 49 52 49 41 44 46 40 54 45 52 48 42 45 37 35 39 39 41 51 42 48 51 39 41 40 41 38 49 41 40 51 48 49 45 45 39 43 21 31 29 23 38 27 35 30 37 22 18
20 19 19 25 28 32 20 35 30 28 26 26 35 37 38 38 47 49 44 43 55 43 52 47 58 63 62 59 62 51 56 44 50 58 61 47 62 61 63 60 54 56 56 58 48 54 57 41 49 38 48 34 37 36 31 38 36 30 32 36 37 18 27 24
24 26 37 23 36 33 23 24 35 30 25 28 44 34 46 44 52 61 55 64 49 64 49 50 60 61 57 61 58 58 57 58 66 67 69 57 74 63 56 69 54 56 61 48 55 47 48 56 56 50 41 35 46 27 24 35 28 18 34 24 27 18 23 20
35 36 32 26 29 35 19 26 26 27 32 37 35 44 39 57 55 51 50 64 69 59 74 67 75 72 80 66 74 83 64 61 61 74 69 68 76 80 65 75 62 78 69 69 64 58 56 63 56 53 42 49 39 35 45 36 24 38 29 31 30 38 25 23
24 18 38 25 19 19 35 38 36 28 43 45 39 54 44 57 63 55 59 55 66 75 70 82 72 90 76 87 80 73 82 86 78 87 75 91 77 92 80 72 78 68 81 79 57 65 56 56 60 64 61 55 39 37 46 27 20 25 37 28 32 27 35 19
23 23 34 28 23 26 38 28 24 33 31 36 55 53 56 60 49 55 62 66 79 72 92 89 96 78 98 85 81 80 77 91 98 83 93 96 83 80 87 82 90 85 75 80 74 77 66 69 56 59 47 46 46 44 43 29 23 27 34 25 31 35 25 38
25 32 32 35 36 21 24 38 41 46 43 54 44 57 63 66 58 57 75 73 72 86 94 93 101 105 87 92 106 104 94 92 96 100 101 86 88 94 103 96 87 93 91 94 89 72 66 57 71 51 58 60 48 41 37 41 22 32 19 27 38 24 32 32
38 37 33 29 21 26 37 33 39 38 32 43 38 52 48 59 53 76 79 75 79 99 100 105 109 92 107 107 93 96 98 105 97 108 109 103 102 104 103 95 108 92 106 99 79 79 76 72 61 69 48 58 40 54 41 35 34 29 21 27 31 33 32 31
32 26 38 32 23 31 23 20 29 36 51 48 52 54 47 67 72 66 73 89 95 100 94 106 105 108 114 102 112 107 106 101 117 113 112 111 110 106 110 115 108 98 94 106 98 76 67 68 57 62 52 51 53 50 32 38 28 30 32 26 38 27 29 20
31 34 29 31 27 38 33 20 35 46 45 42 45 55 51 59 68 72 74 89 93 93 96 105 110 107 117 123 112 105 117 125 128 112 113 104 122 106 112 104 104 99 107 107 94 91 68 60 66 52 61 47 55 44 50 29 32 37 23 34 29 34 32 24
30 23 37 25 19 20 19 30 39 37 43 45 53 56 48 57 64 64 83 82 88 93 103 106 104 105 112 123 121 125 117 131 127 125 112 116 127 112 123 115 100 114 102 92 104 79 88 76 68 56 48 62 57 38 50 44 36 26 18 18 38 29 30 35
21 30 20 30 37 18 26 22 34 37 47 55 39 43 55 51 59 69 79 85 92 101 99 101 111 103 112 114 114 114 114 132 129 124 120 129 118 113 113 103 101 98 107 105 92 87 69 60 64 53 55 51 43 38 51 40 41 21 28 31 26 24 19 37
21 26 30 38 22 23 22 26 32 40 40 37 53 55 59 57 61 68 81 80 88 99 98 98 100 109 118 115 120 127 123 136 130 135 116 128 122 107 119 118 101 98 105 87 92 75 69 57 64 61 60 45 40 40 45 32 42 28 38 34 23 19 29 31
35 22 34 35 35 38 33 22 26 42 38 37 45 47 57 60 52 60 81 89 85 85 90 110 116 108 115 107 120 116 130 131 145 136 123 128 123 112 111 108 99 93 99 92 86 84 77 71 56 54 54 56 47 42 34 35 28 36 19 32 21 28 24 33
27 35 35 20 37 22 33 23 35 29 32 42 35 57 54 51 60 66 76 77 88 83 101 100 112 114 107 112 110 113 128 133 133 123 111 120 111 115 114 103 106 89 96 86 74 67 67 59 62 45 42 53 51 39 36 29 30 28 20 34 38 20 25 28
32 33 20 37 38 23 26 30 34 33 27 42 45 44 58 59 55 62 55 65 79 91 97 104 90 98 108 107 108 116 124 116 118 107 105 104 116 113 107 93 91 101 81 81 84 81 73 60 49 60 44 45 43 48 30 38 27 33 22 19 18 25 24 19
29 26 36 25 20 34 32 19 25 32 39 35 46 46 43 38 43 56 57 58 75 76 90 98 90 98 110 93 97 116 104 107 114 100 107 111 100 95 102 90 83 79 87 71 72 67 63 43 47 44 39 52 37 32 26 24 24 32 24 34 32 20 24 35
24 36 18 24 38 20 19 33 21 38 34 29 30 39 45 38 41 43 64 70 58 76 81 93 92 95 91 91 106 104 109 101 98 89 104 92 93 95 101 85 82 77 86 67 66 60 57 55 46 45 37 46 34 36 34 21 18 31 26 35 26 36 19 30
21 38 32 25 37 31 29 18 31 19 36 22 37 35 29 31 47 36 47 57 51 67 71 68 87 88 83 89 86 96 92 98 94 84 84 102 100 86 88 81 74 86 72 74 67 60 45 41 47 48 37 39 30 35 37 30 22 20 33 31 31 29 32 34
19 35 38 30 35 25 18 22 36 24 21 21 30 44 35 40 49 32 37 58 51 60 56 65 76 68 85 82 81 86 78 88 91 87 76 82 75 74 69 82 77 61 60 64 50 56 38 44 49 44 45 29 32 27 33 20 36 21 35 36 32 31 34 25
38 37 38 19 19 37 21 20 34 18 28 18 26 37 42 33 39 40 29 32 39 48 62 62 62 67 75 71 81 74 78 77 79 80 87 73 70 80 68 74 68 53 50 58 41 38 30 42 37 32 26 35 36 36 33 32 18 28 34 21 23 28 34 29
36 18 29 23 25 32 35 19 34 34 37 19 31 28 25 28 42 26 28 28 35 38 51 49 67 56 67 61 72 61 75 81 66 68 67 63 56 63 56 52 62 64 40 45 36 36 40 25 38 22 31 27 35 33 36 37 26 18 25 28 33 24 19 22
31 37 21 18 38 27 20 26 38 37 32 24 33 25 29 32 33 33 40 34 38 38 52 53 52 50 45 63 61 63 58 65 76 62 67 53 53 67 64 60 55 41 40 31 41 39 38 33 33 22 30 33 19 32 25 25 21 18 34 35 38 35 34 34
33 29 30 29 38 19 33 34 24 34 35 36 18 19 26 30 35 20 30 24 27 33 33 40 51 49 51 57 62 48 48 64 50 55 65 53 55 57 55 49 42 29 29 37 34 29 31 32 33 34 32 22 20 24 31 36 35 26 20 22 24 37 24 31
25 26 28 27 20 35 32 22 28 28 35 32 36 37 18 25 31 33 37 35 27 25 23 34 32 46 43 42 45 55 50 60 55 62 50 48 59 37 34 51 42 34 23 37 23 18 23 37 20 31 25 26 26 38 38 26 19 38 33 38 37 21 29 33
19 33 28 36 38 23 31 27 20 20 26 19 37 31 25 38 20 32 22 24 19 31 25 35 32 40 38 49 33 36 51 37 57 46 36 43 41 36 42 41 41 36 30 21 20 22 21 21 33 35 35 37 30 23 38 23 36 33 27 24 38 19 32 21
28 25 37 30 22 21 22 26 27 38 33 27 27 35 23 37 36 28 31 18 21 31 28 26 20 38 43 35 38 41 34 48 41 34 45 48 36 41 35 34 32 28 36 20 18 37 36 19 35 32 21 31 37 29 37 25 35 29 34 38 38 37 26 30
38 33 19 21 29 29 29 18 19 34 19 20 26 25 19 34 18 35 31 31 25 19 23 28 33 25 33 33 26 24 33 38 36 26 39 42 40 20 31 22 19 21 26 30 30 35 18 28 31 35 18 30 36 30 25 28 35 18 31 28 26 26 29 34
21 28 31 36 21 35 37 33 29 20 35 29 24 32 36 24 18 28 30 35 33 38 23 31 21 22 36 30 25 19 28 23 21 23 33 19 34 36 25 26 20 35 20 33 23 22 38 33 24 28 32 31 18 26 26 30 37 29 18 19 23 25 22 35
26 36 22 19 27 31 25 35 28 38 35 22 19 30 31 19 30 33 32 28 30 34 22 28 21 18 29 23 38 36 32 33 26 34 32 23 38 31 25 20 36 26 26 35 27 33 29 22 19 22 31 27 37 23 32 36 33 24 27 22 30 25 28 34
21 33 18 34 20 21 34 28 28 34 27 23 19 28 34 36 29 23 35 30 34 38 35 25 26 33 28 26 19 31 28 34 38 28 34 28 23 28 38 24 30 27 35 23 19 29 25 28 37 30 24 26 32 37 25 37 18 36 28 29 20 28 25 30
30 18 27 37 27 22 29 35 35 26 38 31 35 27 28 27 31 35 29 28 30 36 36 35 29 38 24 32 25 29 21 20 25 27 34 20 38 37 26 22 21 29 36 27 24 37 36 21 30 26 19 31 18 34 28 27 38 21 23 23 21 31 31 21
24 19 25 35 36 24 32 18 31 33 28 34 38 27 27 32 28 22 38 38 22 23 27 25 21 21 29 36 27 25 25 23 25 30 35 33 24 35 22 31 30 24 32 21 24 23 25 24 20 24 20 34 29 27 36 30 31 23 19 25 21 20 25 28
37 26 22 30 33 21 32 30 27 22 26 18 27 22 36 18 33 19 35 38 28 38 23 31 27 30 24 36 30 32 38 20 38 22 37 20 33 35 37 18 18 35 37 20 30 35 23 24 29 36 28 21 19 31 38 35 30 35 18 18 21 22 28 31
28 31 27 22 37 35 30 35 19 26 29 37 33 38 38 37 35 29 19 37 21 29 24 18 36 30 26 29 31 35 20 38 31 37 21 31 23 27 19 30 29 19 21 22 30 37 18 24 37 32 37 36 20 26 23 22 21 25 34 38 37 28 36 19
34 34 20 21 35 22 30 27 28 19 30 25 26 19 24 37 21 33 31 32 27 31 26 22 25 34 23 21 31 19 30 30 30 20 36 29 33 37 36 18 22 19 36 23 25 30 38 20 29 28 38 28 28 36 24 31 18 37 38 36 19 24 31 20
25 24 36 24 28 20 27 29 27 26 30 32 18 32 28 25 34 36 37 35 19 29 27 25 37 25 33 21 18 24 28 26 28 18 25 18 37 25 22 36 23 31 37 28 24 24 34 36 34 18 35 19 35 23 27 32 32 30 37 18 20 25 36 33
38 29 35 31 18 36 21 19 34 21 19 18 20 38 32 34 26 18 34 33 19 28 33 22 20 18 18 31 23 38 27 36 23 25 25 32 33 37 36 30 26 25 27 32 19 30 23 35 32 30 20 35 21 28 34 29 25 23 19 38 27 18 30 18
34 22 35 20 18 37 27 35 30 28 18 24 24 22 35 24 19 38 21 26 19 34 18 24 28 20 36 35 24 29 37 19 38 23 23 35 33 21 22 27 36 20 21 24 38 20 25 35 24 20 18 28 33 18 30 21 22 20 37 20 31 37 22 25
26 37 19 23 34 23 21 30 21 33 29 20 27 21 26 18 23 18 31 35 32 34 23 18 28 25 32 37 32 33 21 28 31 25 30 31 29 33 36 37 29 23 32 35 35 18 29 27 21 27 28 29 34 24 22 29 19 26 32 38 30 37 27 26
19 20 27 28 30 27 28 33 34 35 29 29 36 34 18 36 19 27 23 20 35 34 30 22 38 24 20 34 31 37 21 21 29 36 27 31 18 22 34 26 24 28 20 22 33 18 38 28 21 35 19 33 33 35 18 24 29 33 18 28 29 22 25 24
