P2
64 64
255
18 26 24 18 34 20 21 19 38 36 22 37 22 29 32 35 20 32 33 26 20 26 35 35 36 38 25 18 21 19 32 32 36 22 27 32 19 23 28 24 32 30 37 36 29 35 35 27 30 27 30 37 28 31 27 31 19 25 28 27 20 26 23 26
24 27 26 26 27 37 33 36 23 37 32 38 35 31 28 32 29 25 36 36 35 21 25 23 35 24 28 33 33 22 32 29 34 31 32 18 30 29 34 25 29 35 30 25 22 32 37 20 36 19 37 18 21 30 21 20 30 19 32 37 36 27 26 33
28 25 38 23 28 24 28 24 29 38 35 38 19 25 28 20 19 27 20 37 28 36 38 24 25 27 19 38 22 21 19 27 33 37 26 34 34 32 18 21 38 22 35 25 32 23 31 20 19 22 36 35 23 32 34 34 27 20 31 24 36 26 21 21
19 18 27 18 33 29 24 34 28 22 26 24 28 30 34 20 38 32 21 18 35 29 22 23 24 30 28 21 38 37 36 24 25 25 38 33 35 32 35 28 23 25 38 37 30 27 23 21 28 31 28 19 25 32 31 27 34 29 29 22 30 30 33 28
37 32 37 23 38 27 22 38 23 35 22 25 21 21 30 20 19 35 28 32 20 38 36 37 22 28 28 27 18 35 18 38 38 34 33 24 26 35 27 37 29 31 31 22 27 26 23 19 28 26 33 33 30 30 33 18 36 37 27 22 21 37 24 30
22 32 28 32 33 29 38 24 32 25 20 38 32 18 20 20 20 34 32 19 27 32 33 29 31 27 37 29 28 23 26 28 36 27 30 23 28 35 26 25 23 22 38 33 30 22 28 32 31 20 31 24 30 38 37 28 36 29 27 19 31 29 31 31
32 22 27 21 33 33 25 26 25 26 29 23 37 34 29 18 34 21 23 32 32 31 26 31 26 24 35 27 33 22 27 30 38 22 33 31 22 33 22 28 30 19 34 25 38 20 20 19 30 30 31 37 26 37 25 34 25 31 18 34 19 32 20 20
25 28 18 19 34 38 32 32 25 25 37 38 27 35 38 31 37 37 24 38 33 34 33 35 32 34 22 35 31 32 24 20 34 36 28 18 29 26 19 38 33 33 24 22 24 32 34 38 21 33 19 22 22 20 33 21 29 18 22 18 23 36 23 22
36 24 20 19 22 27 35 38 20 28 24 37 19 30 29 38 35 38 26 30 36 33 29 27 28 20 25 35 21 27 18 23 25 21 38 34 28 34 36 38 24 24 26 32 28 31 35 28 36 36 31 34 38 37 30 28 26 29 34 27 24 20 35 22
18 23 36 26 29 32 37 20 29 29 24 26 37 32 19 26 35 20 30 27 19 34 24 33 28 37 34 35 22 30 28 30 35 25 34 27 24 32 29 24 34 36 31 23 20 32 23 28 18 18 20 28 23 38 29 21 23 27 35 30 19 26 20 29
37 34 27 28 23 24 28 29 35 33 27 32 25 29 33 29 31 21 21 29 27 27 26 38 19 21 37 27 19 35 19 26 18 28 37 38 37 27 20 27 26 20 28 22 36 18 33 29 26 24 30 21 23 20 32 34 32 26 19 20 34 36 24 20
23 19 35 37 38 26 25 32 37 26 20 34 23 28 31 35 35 21 31 21 27 33 29 28 27 37 33 21 22 38 27 23 33 26 21 31 29 30 20 23 27 36 35 34 22 37 18 20 32 29 26 23 29 30 22 28 18 33 38 25 38 33 30 33
30 29 27 21 19 27 29 35 18 25 31 30 33 28 28 35 25 38 38 36 19 23 20 26 35 22 36 19 18 31 35 33 19 24 25 27 33 35 19 26 29 27 25 36 36 25 37 36 28 36 29 22 36 26 28 26 27 22 35 21 19 22 20 36
27 20 35 38 22 24 31 33 21 28 27 32 30 21 26 23 21 27 18 35 27 21 27 19 35 31 23 24 36 23 20 19 22 35 24 37 25 28 31 18 21 24 25 25 30 38 31 31 32 25 18 21 31 20 38 27 33 19 29 31 35 37 29 27
30 22 24 32 20 28 29 18 24 32 27 30 38 20 18 25 35 28 26 30 21 33 31 19 31 37 18 37 28 19 32 27 29 33 23 34 24 35 23 32 32 26 38 31 29 26 28 26 22 36 29 38 29 18 22 26 22 37 18 26 19 22 38 23
32 38 28 18 36 25 25 32 23 18 23 29 27 18 23 23 38 25 28 26 23 23 23 37 38 30 26 26 38 35 22 33 23 35 18 24 22 32 18 37 21 36 37 34 28 33 30 20 27 37 20 30 21 18 26 38 27 20 31 38 20 32 24 35
28 31 38 29 30 27 24 35 31 18 26 23 36 35 29 23 34 33 22 36 18 37 22 34 37 24 24 32 23 18 33 30 20 37 20 38 31 35 31 37 25 18 23 20 31 35 30 36 35 29 26 34 29 34 24 35 30 27 32 27 21 29 38 33
28 27 23 34 20 30 23 28 34 27 28 37 30 32 29 37 37 30 21 20 28 37 26 31 33 21 32 34 25 35 24 27 31 34 29 32 20 21 31 33 35 25 37 33 23 32 25 22 21 18 23 32 27 20 19 23 21 33 35 21 29 35 25 30
26 29 29 27 37 38 33 34 23 34 32 38 28 22 38 25 22 30 27 31 28 34 29 19 36 35 28 29 21 30 27 36 37 26 23 36 27 27 18 33 36 26 26 37 25 25 22 20 28 25 20 34 28 18 35 32 36 35 18 32 33 38 18 25
32 30 28 23 27 25 23 33 20 29 28 37 36 33 24 38 27 21 21 38 37 33 29 38 33 34 38 31 32 34 21 32 32 33 24 25 28 28 30 27 23 33 29 28 24 29 32 22 25 19 19 27 26 32 28 30 28 27 28 37 32 20 27 21
26 30 22 34 23 27 22 33 31 28 27 22 25 31 19 29 30 44 30 40 34 46 38 45 30 24 40 22 19 30 31 21 38 19 30 25 22 31 30 28 30 45 43 27 44 44 44 32 40 39 28 32 24 35 23 18 35 36 25 27 19 22 31 33
24 30 33 18 26 37 29 22 32 22 27 26 37 40 38 28 34 31 42 44 43 36 48 35 40 46 44 30 28 19 24 33 23 35 37 30 26 25 26 34 33 32 32 46 48 48 48 31 36 37 24 38 34 28 37 20 38 37 25 35 35 28 20 24
34 19 24 26 26 30 22 23 38 36 24 26 21 30 37 34 38 49 41 45 49 39 41 40 35 47 42 42 41 24 38 37 35 35 22 36 29 37 45 47 51 45 51 43 53 38 33 31 45 28 31 33 35 32 20 27 30 30 36 28 26 23 26 31
38 37 19 28 31 22 31 25 25 29 38 39 33 47 33 45 41 41 44 44 52 51 56 55 39 33 51 36 35 30 40 35 28 19 21 28 42 49 41 38 54 56 42 51 37 46 42 39 33 42 43 32 28 38 32 36 29 31 25 35 18 31 24 20
33 33 24 37 26 34 23 30 29 26 22 24 29 36 44 37 51 50 52 58 55 58 41 54 47 43 45 44 45 29 29 34 19 23 27 31 37 32 52 51 42 56 55 52 61 45 41 46 43 48 32 50 47 39 41 35 31 27 19 22 21 22 20 33
34 37 32 38 33 35 35 37 37 36 33 39 33 48 54 47 49 49 54 48 46 47 65 52 62 51 54 40 52 44 32 30 28 39 42 45 47 39 57 46 58 46 51 54 51 47 57 42 44 54 35 43 42 38 42 36 33 31 18 21 26 34 22 37
33 21 21 31 27 26 23 38 38 22 45 42 51 49 53 41 54 57 65 57 66 65 48 56 65 44 43 44 35 39 35 37 38 38 38 35 48 47 53 53 54 62 57 49 59 62 60 46 61 42 47 52 38 37 42 30 22 18 20 24 34 20 31 24
24 35 30 29 34 22 23 20 23 38 36 39 51 51 59 52 66 55 70 66 72 62 71 53 67 66 62 44 54 39 45 49 36 34 38 47 46 54 58 59 52 65 65 56 64 67 53 50 49 56 59 41 54 35 43 34 33 33 28 37 27 25 28 21
20 21 34 29 37 24 20 36 28 43 47 46 37 40 51 65 54 70 65 74 76 63 57 66 69 49 66 63 58 53 49 50 43 43 43 56 49 51 52 53 70 55 64 67 57 63 72 69 62 52 44 47 36 40 29 35 33 25 19 31 19 18 18 29
38 30 35 21 35 31 19 30 37 35 50 52 50 58 57 67 63 70 74 62 72 74 76 69 56 70 62 58 55 50 41 47 46 52 47 52 54 64 65 67 56 59 78 76 78 60 70 72 56 49 54 51 53 36 43 37 27 35 25 31 28 26 30 27
29 37 25 22 18 38 37 38 35 37 49 37 45 56 59 60 61 73 77 64 66 76 69 71 77 54 62 62 50 53 51 49 39 42 41 55 54 62 55 55 72 76 75 77 65 81 65 71 56 53 54 58 58 36 36 27 34 24 26 18 38 25 37 21
23 25 35 29 21 35 24 27 36 30 48 48 55 56 47 55 65 67 67 70 73 75 83 65 73 63 56 54 43 56 52 55 49 49 45 45 55 71 66 82 83 95 87 90 79 75 73 74 58 63 51 51 48 50 50 37 24 26 24 22 30 37 29 19
27 25 25 36 33 29 23 35 39 32 37 43 44 53 67 53 68 59 63 85 91 74 71 82 64 59 70 61 55 57 44 38 41 50 54 67 68 70 78 81 104 98 96 111 92 83 77 62 69 66 60 50 47 41 32 29 30 23 31 20 30 32 32 28
35 18 23 37 27 33 30 38 27 30 36 47 45 63 55 69 70 64 72 71 85 87 66 78 71 62 56 67 47 41 38 46 38 43 65 66 79 75 91 112 110 116 116 115 105 107 88 82 68 56 54 58 52 45 44 40 40 38 38 26 29 19 38 22
37 36 36 21 18 31 21 23 27 34 37 46 43 44 49 69 65 64 73 69 68 78 82 77 67 54 66 59 51 55 49 50 63 49 72 78 81 90 104 119 135 139 135 127 114 100 97 79 68 69 57 48 47 38 36 37 34 28 28 37 35 20 22 38
33 29 27 37 23 32 32 23 38 28 32 38 44 47 63 62 52 66 77 62 72 62 63 71 57 69 63 61 59 56 62 56 59 72 67 71 95 93 117 119 129 135 136 142 138 107 96 88 61 63 50 41 45 36 43 31 35 31 35 21 23 22 36 29
18 23 37 30 29 27 23 25 27 44 40 37 51 53 61 47 64 70 64 68 65 64 63 75 65 68 68 68 67 77 75 65 79 72 79 82 102 120 132 138 138 159 148 154 142 116 95 80 70 65 61 39 48 42 38 36 30 20 23 32 18 24 21 19
31 34 28 30 22 36 19 30 21 26 33 51 51 45 58 62 58 59 51 69 65 61 55 61 83 87 71 78 89 82 86 82 84 77 79 83 91 116 134 154 163 170 165 150 137 121 97 90 71 50 43 51 54 48 28 36 37 32 38 19 24 27 25 20
21 24 18 20 18 20 36 31 24 40 29 45 33 39 45 50 59 64 47 49 63 58 66 78 85 87 80 97 96 94 84 82 91 97 106 102 119 121 135 139 148 159 154 146 141 113 108 74 57 41 53 40 43 46 36 42 23 31 29 23 38 33 27 26
33 31 23 25 23 35 26 25 23 38 32 27 50 51 48 50 42 62 62 45 63 66 68 77 76 79 87 92 87 81 104 104 99 105 107 107 119 120 132 153 150 146 160 135 120 120 93 88 60 43 37 38 42 31 43 34 30 24 23 20 29 18 30 37
38 35 38 21 28 35 18 19 28 28 37 28 42 33 42 53 45 43 53 53 43 47 59 80 72 89 92 105 97 97 108 104 91 98 105 103 102 111 120 154 154 139 143 129 126 112 79 81 57 38 44 41 38 26 39 32 22 36 21 19 18 26 35 25
22 23 26 21 25 26 33 34 28 32 21 32 43 29 32 37 43 37 37 55 49 55 65 70 71 81 85 91 107 108 105 94 96 94 110 98 107 115 119 134 137 129 123 125 98 92 76 55 53 42 43 35 27 27 26 25 30 31 28 28 37 26 24 34
32 18 35 26 37 24 18 36 19 21 30 22 21 33 41 47 31 44 48 53 39 51 53 75 73 92 94 92 94 119 111 103 95 101 105 103 104 99 98 120 123 118 109 98 91 86 74 47 46 31 40 31 38 24 37 31 23 24 18 22 18 18 18 31
29 25 27 21 19 18 24 33 37 34 22 36 29 33 41 34 37 33 37 42 32 47 59 65 75 71 77 84 106 105 88 92 89 102 92 91 97 79 90 91 84 92 89 89 83 61 61 48 36 37 35 39 22 38 23 21 37 18 27 29 24 31 32 28
26 18 29 38 22 30 22 37 35 36 29 25 29 24 29 23 34 40 30 33 32 46 55 51 68 70 86 80 95 93 84 94 94 92 91 87 71 82 81 87 72 74 73 77 63 48 48 34 28 34 35 18 31 33 37 36 20 33 31 21 30 26 31 36
33 21 25 24 20 35 24 21 19 33 27 36 27 21 26 22 20 29 25 21 31 36 40 41 53 54 65 66 81 87 71 85 70 89 69 71 69 66 60 61 75 66 62 49 58 50 50 43 36 25 19 30 34 25 22 22 33 38 35 29 26 33 34 19
19 29 31 28 24 36 28 35 25 30 23 28 34 26 27 26 23 30 29 24 38 23 40 39 46 52 64 73 60 70 61 76 63 73 64 71 54 49 51 63 48 45 55 55 41 43 32 32 18 29 22 29 24 30 23 24 23 29 35 32 32 33 19 20
21 18 34 22 18 30 30 24 22 35 21 22 24 20 26 38 32 22 18 33 27 37 25 28 43 44 58 57 71 72 55 52 51 46 48 44 44 47 54 50 40 53 41 36 38 39 26 18 23 18 18 31 28 19 21 25 21 19 33 24 22 29 31 18
22 25 23 38 24 36 31 22 26 25 22 36 38 37 31 20 26 30 24 36 38 27 32 27 35 41 42 61 61 63 52 45 58 49 35 42 43 41 47 41 45 38 30 44 35 33 37 22 28 23 18 22 31 28 19 35 33 36 24 22 35 19 25 20
19 22 30 36 33 23 21 29 32 26 32 21 23 22 29 28 36 21 19 33 22 32 34 36 40 43 49 34 52 37 42 43 44 27 34 38 39 38 31 28 39 38 34 28 29 38 35 33 19 26 23 36 18 32 26 37 19 23 35 38 19 38 25 33
18 29 23 28 37 34 29 23 36 29 34 29 26 21 33 31 35 32 35 34 36 38 33 25 21 28 31 39 40 45 45 33 34 31 25 24 27 19 22 26 37 24 22 37 35 33 29 29 24 21 27 18 18 26 22 38 25 35 23 34 38 38 31 19
24 38 25 32 18 26 36 30 20 19 34 27 19 21 21 34 19 20 26 31 20 34 22 34 38 35 31 36 19 33 30 34 27 36 22 30 31 28 32 26 18 32 31 35 23 35 25 33 34 20 32 36 32 24 18 18 26 28 38 20 37 31 35 36
38 21 27 23 24 36 31 36 18 19 36 20 29 20 22 32 24 25 22 38 31 18 25 33 26 21 19 37 26 29 32 22 21 37 27 37 25 37 18 18 30 24 23 32 37 28 37 20 18 36 28 35 27 24 32 35 36 30 29 28 33 28 26 24
32 32 27 25 36 31 32 22 19 24 25 37 21 28 22 28 38 24 19 23 20 24 28 23 29 38 31 25 31 38 30 19 32 38 37 33 32 19 32 31 29 29 20 18 20 29 23 20 31 30 34 30 31 38 27 29 33 35 36 18 26 23 30 22
28 22 28 28 34 26 33 33 36 21 19 30 35 35 24 37 23 19 30 36 35 21 30 23 34 35 35 38 32 23 31 25 23 20 23 24 24 25 23 26 34 25 20 26 27 20 19 37 31 31 25 34 31 19 25 25 29 36 35 22 21 19 32 30
21 32 18 33 34 34 20 20 18 28 23 21 34 22 25 20 23 30 32 30 21 20 36 31 25 30 21 25 38 29 28 26 23 19 19 27 34 22 24 31 30 30 34 37 21 19 30 25 28 21 34 25 19 18 25 18 31 31 30 24 27 19 38 26
27 18 21 24 28 30 31 21 36 28 29 34 22 29 19 28 23 23 29 33 28 33 24 33 37 20 31 22 32 27 22 21 30 30 28 21 32 19 26 32 21 33 21 25 19 23 37 35 32 20 25 27 24 27 22 28 23 21 37 19 22 29 33 35
22 31 38 22 37 18 23 26 35 20 30 23 21 38 26 23 22 35 32 24 30 25 19 34 21 20 38 24 31 28 38 19 37 32 19 19 32 19 32 25 33 24 22 35 30 25 19 32 37 26 38 26 22 37 24 23 21 29 26 29 27 31 37 25
26 18 28 38 25 21 27 19 38 28 35 26 21 38 38 19 18 21 26 37 26 31 23 29 24 29 26 23 37 31 18 19 28 38 27 23 28 24 21 37 26 18 29 22 27 36 26 36 21 21 24 25 20 19 22 28 27 29 18 26 33 31 18 21
38 36 31 18 37 27 21 25 26 33 33 33 23 24 34 30 27 35 21 27 35 24 27 21 36 18 32 28 32 35 37 34 34 22 18 28 18 28 25 30 24 38 30 29 22 30 29 34 35 28 22 25 22 20 32 31 25 26 26 25 35 24 33 28
32 35 29 26 27 20 29 31 31 34 30 20 20 22 30 33 19 20 35 22 22 37 33 21 31 22 35 18 33 24 23 18 33 24 27 35 21 27 27 20 37 20 37 33 21 26 24 36 28 21 36 33 19 30 20 23 27 25 37 34 26 27 37 19
29 27 26 29 32 22 20 31 35 31 33 29 26 36 32 18 37 27 25 19 22 38 33 31 22 38 22 32 33 19 32 24 22 28 30 36 25 32 24 31 38 27 21 33 31 36 37 32 35 23 38 22 26 23 36 31 19 35 31 22 36 35 33 18
28 27 27 34 21 20 35 38 18 25 25 26 28 37 37 23 25 34 18 18 19 32 38 35 19 34 22 18 29 36 28 29 23 27 36 30 20 20 36 32 31 33 24 33 30 21 35 20 32 20 33 31 37 24 31 36 37 33 31 33 22 30 33 36
28 36 33 36 33 35 21 29 26 18 31 23 24 22 38 33 28 30 35 26 26 34 30 36 26 18 22 18 38 22 28 33 38 27 38 33 21 18 19 26 31 30 19 24 23 31 22 32 37 35 38 24 36 35 35 33 30 29 28 22 35 18 31 18
