P2
64 64
255
19 24 34 19 23 37 27 21 18 30 38 27 35 18 34 25 38 21 25 23 23 32 18 30 36 35 22 32 29 29 20 21 28 22 38 25 22 35 32 35 38 26 25 28 27 20 35 24 24 37 34 26 30 35 37 21 38 38 34 31 29 24 18 26
38 22 18 21 36 31 28 27 35 33 26 30 36 28 29 25 21 21 28 32 34 35 26 36 20 35 25 37 38 21 24 26 25 36 36 28 18 27 29 26 38 38 38 31 18 25 27 23 28 24 24 24 27 23 26 36 22 30 28 23 23 38 34 23
24 35 20 38 32 27 34 24 30 26 35 22 26 38 34 38 18 32 38 36 20 21 33 29 21 28 22 24 37 38 36 19 25 37 22 33 35 20 19 19 18 31 32 31 21 24 33 21 19 24 33 32 32 22 31 25 33 25 18 29 34 34 35 35
37 20 34 32 25 21 20 30 25 20 32 35 35 24 31 33 32 27 23 28 38 34 18 20 27 25 34 38 24 20 20 24 18 34 34 20 32 29 21 22 27 34 33 22 31 25 38 19 37 21 19 36 38 35 23 36 30 28 35 30 21 22 21 27
31 29 38 30 29 38 26 25 31 36 35 32 38 36 34 22 27 24 35 18 20 31 26 30 38 21 25 25 34 20 36 30 33 32 29 37 19 22 32 37 37 30 23 38 27 18 24 22 36 19 23 36 27 29 24 23 38 27 18 34 22 20 22 20
25 30 34 26 20 26 22 26 27 25 31 24 31 26 33 20 20 23 36 23 26 36 32 24 38 36 28 34 29 27 22 18 23 26 26 33 37 29 21 29 32 23 27 22 19 34 18 26 25 36 32 35 20 18 22 26 30 24 29 27 29 24 22 29
28 23 36 26 38 22 32 33 31 19 32 20 35 33 36 29 27 32 30 32 21 23 32 38 23 36 34 35 36 32 31 24 24 18 36 26 20 36 30 33 21 18 24 25 24 26 22 24 37 18 26 30 31 38 23 36 35 32 37 23 35 25 33 19
25 26 26 25 26 31 25 19 29 37 32 31 37 35 22 21 22 27 33 38 19 30 26 26 34 18 32 21 27 20 31 35 31 33 18 34 34 25 34 31 28 22 29 24 27 18 37 36 24 27 31 31 31 30 19 28 21 18 28 22 33 18 24 30
29 37 35 25 22 28 32 35 18 37 38 29 23 28 33 19 18 23 20 30 35 33 29 20 22 34 24 36 20 29 29 22 30 21 32 24 23 26 34 23 24 20 34 35 28 29 32 36 23 27 33 36 30 35 29 28 37 18 20 23 34 32 18 28
30 25 25 23 21 22 18 36 22 32 34 21 31 27 36 23 24 27 25 38 18 29 28 21 26 34 27 34 37 32 29 34 23 19 26 37 28 32 19 27 33 36 18 21 18 24 27 37 22 24 37 22 35 23 26 30 22 36 20 34 30 22 21 26
25 28 24 25 37 30 27 23 32 19 37 35 21 26 24 20 38 22 19 35 37 31 18 24 18 26 20 34 33 28 30 22 32 33 34 33 25 28 32 23 21 32 38 18 21 34 25 28 26 19 25 25 23 21 18 27 26 38 28 31 18 26 29 18
26 18 23 35 27 24 18 38 29 36 21 27 29 37 36 32 35 30 27 30 34 25 29 27 30 22 38 37 37 36 18 36 31 37 23 29 18 34 28 31 30 34 30 33 34 32 28 24 26 36 22 31 22 22 26 21 29 32 21 26 20 38 18 25
21 38 32 37 30 31 18 37 27 24 30 38 28 32 27 28 21 31 25 22 21 38 36 30 27 29 18 23 27 33 25 19 23 32 22 30 33 29 32 23 31 24 34 37 33 31 24 38 25 26 30 31 35 37 22 31 31 30 36 36 32 35 32 25
29 36 37 19 19 33 29 29 35 20 23 31 31 19 36 23 20 26 37 21 35 30 19 36 26 21 23 20 29 31 25 36 34 38 35 26 30 37 24 27 22 26 22 19 21 33 32 38 32 20 19 19 35 31 33 21 23 36 27 18 37 21 36 30
28 25 23 32 18 36 36 37 19 37 38 36 28 32 25 18 34 38 27 34 27 38 28 35 36 19 35 22 29 38 20 23 31 27 24 20 22 25 26 35 38 27 34 29 26 21 33 28 20 29 32 27 29 30 31 23 20 37 23 36 35 22 32 33
38 28 18 19 31 34 29 38 25 26 24 32 38 34 33 35 38 37 34 22 35 38 19 19 27 28 22 21 31 22 29 28 34 33 38 31 19 23 27 20 35 27 35 35 18 36 20 28 18 38 36 30 27 23 33 38 37 31 23 27 38 18 35 34
22 30 23 33 25 22 23 20 36 19 20 34 32 24 35 34 22 38 33 30 23 18 36 32 38 20 38 28 24 33 29 38 27 21 31 29 19 24 30 31 38 36 19 22 22 18 31 29 19 28 18 22 27 27 30 19 26 23 37 19 22 18 20 32
30 34 35 30 31 29 30 23 28 27 24 31 37 18 38 28 22 33 37 20 23 23 38 30 25 29 33 22 29 25 38 22 34 20 34 33 18 21 31 28 21 23 23 20 29 32 32 18 22 33 20 24 33 38 24 38 30 37 28 19 34 32 33 33
19 22 30 22 31 30 36 20 32 31 35 33 34 24 38 35 34 22 23 37 37 21 30 22 35 19 25 32 29 34 23 24 33 20 19 18 26 25 35 27 31 27 34 25 25 35 20 28 32 23 18 23 23 30 23 28 36 34 30 21 23 21 22 21
27 24 21 22 21 33 28 23 20 27 23 31 33 20 29 37 20 29 27 35 32 36 34 28 34 27 30 37 33 22 37 20 22 31 28 31 36 34 24 29 31 33 22 35 40 26 31 39 33 23 27 32 30 26 24 33 26 33 23 20 37 22 37 27
21 27 38 34 18 27 22 33 35 29 28 35 24 26 34 22 22 43 32 26 37 36 37 33 35 34 38 37 18 24 22 28 21 28 34 33 36 32 29 22 24 30 31 27 38 37 27 27 41 36 21 38 21 36 25 22 18 28 34 28 33 29 31 37
25 34 26 22 22 28 25 25 34 29 28 38 34 31 28 42 31 29 40 29 46 45 44 46 39 45 37 37 24 23 37 27 29 32 30 24 28 28 43 46 38 41 33 38 41 36 47 37 45 38 31 27 18 22 28 21 21 23 23 19 28 23 35 33
18 25 34 37 32 29 38 25 38 21 31 38 24 31 31 48 48 31 51 44 52 36 37 34 46 47 36 26 44 26 20 29 26 22 19 41 40 38 37 31 31 52 34 46 34 33 37 50 43 46 31 29 36 32 21 20 22 21 38 36 36 24 36 29
36 31 27 29 37 31 27 23 38 28 38 33 27 33 35 46 38 49 52 38 39 53 41 36 40 47 40 36 41 32 39 18 20 35 28 34 42 29 42 39 39 46 40 48 54 53 45 54 41 35 48 45 25 33 29 27 24 28 29 28 31 27 25 24
22 24 23 25 37 33 21 31 29 21 29 40 44 35 32 44 38 58 57 55 48 55 46 50 41 46 52 40 45 41 32 35 23 28 41 46 41 37 41 38 47 60 49 51 51 57 50 54 49 49 32 46 43 39 41 34 33 35 26 20 35 32 29 35
36 38 21 26 29 38 31 19 22 22 41 38 31 46 36 47 41 62 48 62 46 58 49 59 46 55 40 38 48 35 28 26 37 41 43 29 42 50 40 54 47 63 58 52 45 65 50 54 43 44 46 43 46 38 23 33 27 19 27 18 23 32 35 22
34 33 33 24 29 19 23 30 27 32 40 30 50 53 44 60 43 47 64 62 55 59 53 65 65 43 61 52 54 44 43 33 42 30 36 38 55 45 46 57 45 65 55 56 53 62 67 46 60 60 54 46 42 48 35 35 32 32 21 32 27 38 34 26
35 27 29 27 37 30 25 32 22 25 39 32 39 47 43 62 65 60 64 59 71 63 62 70 56 63 56 60 46 35 38 32 44 49 38 52 42 42 50 49 62 53 67 72 60 67 70 50 64 49 56 42 38 33 39 29 21 21 38 25 35 28 26 22
27 29 21 38 33 26 36 29 35 28 34 38 46 57 59 64 68 63 56 63 69 60 70 71 58 65 58 57 40 43 42 51 38 34 50 40 53 63 57 51 62 74 56 75 57 60 62 53 68 58 45 54 51 45 32 30 38 30 32 28 30 22 25 29
36 18 34 26 36 21 33 32 22 45 45 41 39 51 54 53 58 72 63 76 72 75 74 57 71 64 59 60 56 47 38 52 51 47 50 48 53 64 48 69 74 66 68 62 79 59 75 71 58 52 50 54 57 35 44 28 34 29 20 25 18 25 27 23
34 32 20 19 28 28 37 20 34 41 44 49 53 54 55 69 58 74 69 77 67 80 78 79 65 53 56 54 42 46 48 56 52 50 50 43 50 56 54 66 58 74 63 83 73 80 78 58 73 58 62 59 49 35 47 39 33 29 25 27 25 38 23 20
27 34 21 28 21 37 34 27 28 47 33 44 56 54 65 52 72 70 80 69 73 85 66 66 76 64 68 51 52 54 53 45 42 53 46 41 46 58 70 61 78 81 85 73 80 72 75 61 70 62 56 47 52 42 34 31 41 23 32 26 25 25 18 31
30 33 37 25 29 31 20 30 31 47 50 36 40 63 59 56 69 64 71 71 83 83 70 75 63 66 62 64 62 49 38 52 54 53 38 49 56 61 64 75 67 71 70 76 89 74 70 78 65 52 57 43 49 38 52 43 33 28 38 29 19 27 27 35
26 33 36 25 33 24 36 22 33 45 48 36 52 53 50 68 71 74 76 68 73 80 66 77 76 64 51 47 56 57 51 42 48 56 45 47 45 57 71 60 74 66 66 77 72 70 73 59 66 52 56 48 50 54 51 29 37 26 38 28 32 24 31 33
21 28 22 33 24 21 21 24 26 30 38 51 45 48 66 66 55 69 72 70 66 79 72 73 73 73 63 57 53 55 47 55 39 36 43 42 54 55 55 58 73 73 69 75 67 69 67 61 62 54 53 44 58 52 43 39 41 21 31 34 35 27 30 25
22 23 18 22 26 37 26 31 42 35 46 35 42 50 55 58 55 60 59 76 71 73 75 63 63 65 67 63 47 45 48 44 34 45 36 48 54 54 54 53 66 71 78 75 73 70 59 62 51 59 55 46 39 45 33 29 40 23 23 31 24 36 22 18
33 23 20 37 36 28 20 18 37 37 34 47 51 57 47 66 61 53 62 59 58 66 64 62 70 56 52 53 45 37 37 33 50 44 42 52 50 48 59 58 63 59 73 73 69 69 54 61 56 64 55 43 37 36 35 30 36 22 29 30 30 24 27 32
37 37 29 27 24 31 26 19 39 24 32 41 49 50 57 51 49 58 65 58 53 64 58 69 51 46 48 53 44 53 45 43 43 29 34 49 54 42 48 49 59 54 54 66 71 61 55 49 55 44 50 57 34 46 29 27 23 26 27 32 38 29 36 19
24 38 22 22 22 24 30 24 26 30 45 41 50 54 43 52 54 45 50 66 49 60 60 60 59 51 57 54 53 32 46 34 31 33 39 42 45 39 48 52 59 67 62 67 68 53 55 64 55 53 45 47 43 38 36 35 32 24 30 26 31 21 37 36
40 33 23 25 40 24 25 24 28 35 46 30 40 37 46 49 58 62 59 68 54 59 65 64 49 45 53 56 52 34 34 42 33 34 32 46 48 49 61 57 48 67 63 63 56 65 57 55 65 58 52 54 50 40 49 44 25 27 25 38 24 25 42 30
35 36 35 29 44 39 40 34 39 38 28 46 37 57 56 57 47 66 50 62 69 62 53 51 59 60 45 46 51 53 43 42 35 41 44 39 59 48 56 49 61 65 55 66 53 72 62 66 60 56 54 55 40 51 48 45 33 44 43 36 40 36 46 48
28 47 46 40 46 46 28 31 42 48 36 48 53 51 59 62 63 47 53 49 60 64 65 49 56 66 53 50 60 57 45 50 34 33 41 46 60 47 52 56 60 66 60 66 73 65 58 64 57 64 54 57 60 46 42 36 56 52 39 40 37 42 48 48
39 29 38 36 27 34 44 26 29 32 26 29 31 37 39 47 58 54 57 57 51 58 53 49 43 51 50 52 51 40 48 47 27 38 39 32 45 43 58 59 55 51 59 47 54 51 44 49 56 55 40 50 46 45 49 44 39 41 36 50 39 43 49 37
22 28 35 34 24 41 26 33 22 23 23 24 27 27 27 31 41 44 38 33 49 39 40 48 42 32 44 38 36 38 40 34 25 41 22 27 37 42 43 51 38 43 54 46 42 39 52 42 32 39 44 42 41 38 28 25 32 32 26 26 25 42 44 42
37 22 23 35 23 38 28 33 24 38 28 27 30 21 37 41 28 30 27 43 44 43 37 33 26 22 34 31 34 20 25 37 31 19 25 24 32 31 35 26 24 32 32 27 31 35 45 34 30 32 25 19 28 32 19 31 20 34 24 21 33 34 38 29
24 21 38 29 38 37 30 31 18 35 23 21 35 32 20 28 22 30 38 23 32 30 40 37 37 35 22 29 38 26 27 28 24 37 33 37 27 20 20 19 37 37 38 30 23 28 29 23 32 25 25 28 31 23 24 33 22 30 37 34 21 33 21 36
30 31 38 20 25 29 22 36 28 29 24 38 37 35 37 37 31 25 22 26 36 20 38 28 18 38 21 33 27 34 31 36 21 29 20 21 30 35 31 36 38 35 28 28 23 28 24 34 27 33 29 33 21 29 22 23 32 37 32 23 26 25 29 32
28 38 38 33 23 22 33 20 30 37 36 27 31 19 21 33 32 24 23 24 23 36 37 38 31 36 38 29 25 30 37 26 24 19 24 23 34 35 30 20 25 30 27 20 21 19 18 35 31 24 37 28 24 22 31 24 18 21 22 23 35 28 26 30
36 36 33 38 22 19 25 27 22 18 18 26 19 26 21 33 32 26 25 32 24 34 18 26 25 29 33 30 28 38 22 27 25 26 25 19 29 25 27 22 34 27 18 21 32 26 37 26 29 23 37 38 32 26 26 29 33 31 36 34 21 29 35 32
30 26 33 33 25 30 20 18 36 27 36 25 28 21 24 24 20 33 22 38 22 29 22 25 29 30 18 35 24 23 25 38 36 29 20 18 22 30 25 26 26 24 22 36 37 30 36 34 31 33 27 20 19 33 30 23 36 31 38 35 18 33 23 37
33 26 19 35 22 21 25 19 29 24 27 29 30 26 25 20 38 36 32 30 38 24 21 29 19 28 27 29 31 38 28 33 31 29 34 19 18 30 36 31 31 27 31 24 36 38 32 35 29 33 18 28 23 32 34 18 34 32 25 27 25 34 19 33
29 22 34 32 34 24 29 24 28 26 36 19 28 36 20 36 36 34 35 26 29 36 26 22 21 30 21 19 24 28 38 30 20 24 37 21 24 26 28 21 38 38 20 20 35 38 37 23 37 27 18 31 29 22 38 23 27 30 37 38 33 28 19 38
26 37 23 18 35 36 23 30 26 36 35 25 33 26 19 36 31 24 38 21 35 32 26 29 19 33 26 34 24 20 26 25 27 30 27 25 18 28 31 29 23 21 30 37 36 32 32 27 24 25 28 28 36 30 30 29 20 28 18 19 34 18 18 34
35 21 32 22 30 31 28 34 25 37 32 31 28 38 23 37 33 26 32 19 36 26 31 26 36 23 27 27 36 29 21 29 22 38 29 28 21 36 29 26 23 26 18 33 25 28 18 21 19 18 21 36 19 19 32 22 23 24 38 20 26 25 32 33
21 23 31 35 34 34 25 33 25 32 36 26 29 21 30 26 31 20 31 23 29 29 33 19 31 28 22 30 25 32 34 32 27 30 36 25 36 21 25 35 27 25 33 36 28 36 28 27 31 24 18 37 35 36 28 34 24 33 24 30 18 28 36 30
28 22 18 18 33 21 37 24 36 35 24 38 30 34 30 22 20 27 22 35 29 19 31 38 25 30 37 26 37 19 31 26 38 38 28 30 37 37 24 33 20 35 23 32 33 22 35 19 22 31 18 24 25 37 36 23 19 38 18 33 37 25 33 26
36 22 33 23 30 28 23 37 37 26 18 25 32 22 28 37 24 23 30 20 36 20 18 38 31 35 26 26 37 26 18 23 24 35 37 21 20 26 31 36 37 34 38 34 25 38 33 36 21 26 38 18 24 36 30 20 22 25 23 33 35 28 24 38
26 28 35 19 25 30 38 32 35 18 25 21 27 25 26 34 31 22 29 32 31 29 22 22 29 33 31 27 23 37 34 25 38 37 31 28 18 26 31 20 29 36 36 31 34 26 20 33 33 31 33 22 21 30 27 28 24 26 35 37 29 37 18 18
20 33 23 28 27 23 26 21 31 26 26 30 37 36 24 19 36 29 22 28 19 38 19 20 22 18 34 30 33 30 30 23 22 26 28 33 20 26 19 25 35 25 31 19 18 31 32 38 35 34 36 28 27 29 20 30 23 27 20 32 28 18 25 27
34 29 25 30 30 37 31 32 30 37 25 27 34 26 30 37 34 21 34 26 29 34 27 33 36 37 35 18 22 28 35 27 27 37 19 36 18 25 26 19 37 23 30 24 37 26 26 20 27 27 22 19 34 22 18 22 26 19 26 32 38 36 29 37
28 28 24 37 27 23 31 35 18 20 31 29 24 20 23 37 19 33 30 33 38 32 32 32 31 28 21 24 31 31 19 33 19 27 19 38 20 31 18 24 19 35 34 33 26 36 30 33 34 37 36 33 27 37 35 20 36 20 22 19 37 27 31 33
20 34 22 36 30 21 22 37 36 37 36 22 22 31 37 25 29 29 23 36 37 20 30 27 33 32 33 25 20 18 34 30 27 34 36 27 23 36 24 26 22 22 31 27 26 20 38 32 32 34 25 26 33 34 34 33 31 38 36 34 20 30 18 20
36 28 34 31 21 26 18 27 18 18 19 32 24 26 23 30 29 20 21 24 36 32 19 31 24 23 33 35 32 18 19 18 38 32 18 37 30 33 22 38 35 24 27 31 31 18 25 34 33 31 38 37 31 20 20 34 26 29 19 26 37 29 34 32
34 35 37 37 21 20 24 21 26 20 34 28 23 32 34 36 30 30 37 21 24 21 19 18 25 22 31 35 20 27 33 28 27 21 29 23 30 28 31 36 28 28 31 25 20 18 20 32 26 20 19 36 32 29 38 32 23 28 32 24 38 28 25 19
