P2
64 64
255
36 21 26 28 18 25 27 23 18 33 18 21 31 36 32 29 32 35 21 24 23 31 26 22 33 18 33 29 31 34 23 21 37 19 18 25 28 25 27 26 37 18 24 23 23 20 33 33 24 31 29 33 36 18 31 30 19 34 25 21 30 27 32 28
18 26 31 26 38 25 37 33 24 20 30 34 36 21 22 32 37 29 21 20 36 21 19 32 28 24 20 31 34 34 35 18 27 31 32 19 30 36 34 37 37 29 31 31 34 21 19 28 29 25 22 23 33 29 28 32 33 19 38 34 20 30 19 29
34 32 21 37 23 32 23 34 26 35 35 19 20 22 32 31 23 26 20 36 28 30 22 18 30 29 36 25 37 23 27 20 23 32 33 33 29 18 37 37 34 27 22 18 19 19 35 22 24 33 33 21 18 29 28 24 35 38 27 22 19 22 29 31
35 35 34 24 35 23 21 33 37 22 37 26 35 19 26 27 31 36 22 28 21 37 37 34 36 21 24 18 32 18 18 32 23 34 24 20 19 33 35 22 18 30 24 38 26 20 29 23 21 31 30 35 31 25 37 34 27 21 28 25 18 24 30 25
26 34 31 32 24 30 31 20 35 28 33 34 29 21 37 26 19 33 21 32 25 18 35 34 32 29 36 25 18 36 29 35 20 29 23 18 23 31 29 18 18 30 23 23 22 23 38 34 28 24 34 35 20 25 33 21 20 21 19 27 25 28 26 20
29 37 32 24 29 23 21 31 19 38 19 36 37 27 34 18 29 29 30 38 36 19 27 18 30 30 31 25 37 23 27 26 22 28 33 23 36 37 31 24 22 23 38 23 25 26 22 19 22 29 32 25 26 22 28 22 37 19 29 30 30 30 31 23
18 32 18 35 38 21 37 30 23 37 36 27 38 21 19 37 34 34 19 23 28 20 22 33 29 31 19 23 33 20 28 21 29 22 35 19 37 22 31 36 30 28 20 36 20 25 31 30 25 28 21 33 31 33 23 22 19 31 25 35 18 30 31 34
22 33 24 28 26 38 27 38 23 28 21 18 30 35 38 25 27 37 30 24 30 30 35 22 19 34 21 34 20 33 36 26 37 27 25 29 33 34 33 22 25 37 32 18 37 19 25 33 29 18 18 25 20 20 19 21 30 37 26 19 29 31 20 36
35 37 23 29 19 29 25 27 22 32 27 37 21 24 38 38 34 26 26 38 21 21 26 22 30 35 34 37 38 29 21 25 30 38 34 21 23 27 32 33 26 27 19 24 28 36 20 27 30 25 19 22 37 24 25 29 19 32 30 30 31 36 22 33
24 29 29 37 20 38 30 26 31 34 37 22 34 28 25 30 38 30 37 27 29 26 37 23 34 18 21 23 37 32 20 19 31 31 36 21 36 34 37 35 38 19 19 28 25 27 35 30 29 22 23 19 23 32 25 22 30 35 26 24 26 24 26 19
19 35 34 27 21 21 37 34 24 34 35 26 35 24 27 22 31 27 27 18 31 27 37 28 26 23 27 38 27 34 36 30 22 24 21 23 28 30 23 29 21 38 21 31 32 28 32 29 22 22 20 31 21 24 34 22 38 32 22 28 33 20 34 24
37 21 19 27 20 18 36 32 22 18 23 35 21 37 37 31 38 18 29 27 21 28 25 19 21 25 31 24 23 36 23 30 32 35 18 31 24 30 36 21 28 32 34 32 19 22 24 24 20 20 30 36 37 38 28 21 37 27 29 29 28 27 34 21
37 23 35 36 31 31 25 30 19 25 36 21 29 26 18 24 23 37 35 27 31 30 24 28 35 29 18 34 30 31 23 29 18 38 35 18 37 33 35 25 22 35 38 36 33 23 21 36 37 35 26 35 25 24 19 29 18 25 31 36 30 26 29 22
37 27 22 36 32 18 37 30 37 31 21 26 38 37 34 36 29 31 34 24 20 29 28 20 36 38 37 19 19 38 32 34 19 18 32 23 35 37 35 26 29 35 18 27 38 31 24 32 29 24 21 37 33 32 25 33 38 32 21 20 37 26 34 32
33 38 26 38 38 34 24 30 31 36 18 36 28 18 21 29 31 20 34 31 35 27 23 20 29 29 18 26 28 32 25 27 21 36 37 32 24 20 21 26 34 31 34 24 26 33 32 35 32 20 37 20 33 26 28 33 35 18 34 19 34 33 27 31
33 29 35 25 36 25 33 36 24 25 21 38 38 38 23 26 18 36 24 32 19 25 28 32 22 25 20 26 29 26 37 20 18 22 24 18 33 36 19 32 33 30 19 25 31 27 21 34 18 37 31 24 21 30 21 31 19 31 28 30 38 35 21 18
32 36 23 27 28 18 35 26 26 32 25 36 29 23 20 29 18 26 18 18 34 30 18 34 35 33 32 22 35 36 26 36 18 30 34 19 33 36 22 27 19 26 35 25 27 37 24 28 25 35 23 38 24 30 22 20 33 22 19 31 38 20 27 37
20 27 31 27 30 24 35 33 35 29 18 19 34 27 20 34 30 35 26 23 33 33 25 21 35 31 21 25 28 31 28 31 23 35 33 23 27 38 23 26 32 24 38 21 20 24 28 18 25 25 18 30 20 32 29 26 20 26 21 31 24 26 31 19
26 27 24 20 37 29 38 30 36 30 30 26 22 37 23 19 36 30 23 25 23 23 34 36 31 33 38 35 19 34 21 18 18 27 19 18 32 29 38 36 29 29 23 19 20 35 30 24 19 28 23 27 32 31 20 31 26 30 35 34 22 34 33 19
28 37 19 26 33 23 24 22 19 25 23 28 31 36 33 25 33 20 34 23 24 33 26 22 26 31 35 21 26 26 20 20 19 21 31 20 27 37 21 20 24 25 29 24 35 39 38 39 25 34 21 37 20 38 34 36 38 26 22 36 19 34 19 33
18 18 33 36 35 23 27 25 27 21 36 18 28 19 22 25 41 26 42 36 45 30 30 32 44 33 33 19 36 28 22 18 19 19 26 20 37 21 28 24 43 38 36 26 32 44 43 36 27 36 35 27 31 28 32 19 29 18 24 36 19 34 31 38
28 28 29 33 35 36 35 29 19 36 33 33 19 30 35 27 36 36 30 37 34 36 29 47 40 30 35 29 29 27 30 20 19 21 37 120 24 35 39 33 35 35 36 38 40 45 44 32 36 29 33 40 37 37 19 26 30 29 30 30 33 29 22 27
25 29 32 23 33 18 30 24 22 22 27 20 28 38 34 36 31 38 42 45 44 52 41 38 51 34 46 32 41 26 28 24 20 19 26 32 121 45 31 48 51 41 36 46 53 38 51 40 30 35 44 37 37 38 35 35 31 23 36 28 29 32 19 36
29 30 20 32 28 28 26 36 27 18 31 29 36 28 45 34 53 55 53 48 47 48 51 49 40 43 32 43 45 114 37 32 36 27 38 109 32 40 51 45 46 44 50 40 48 52 39 41 51 38 30 34 32 34 34 26 30 26 36 25 28 24 21 27
28 33 38 29 28 35 21 35 18 18 40 32 30 32 41 55 39 39 51 61 42 58 41 41 42 57 55 48 45 40 120 33 21 24 43 112 34 48 38 41 52 51 56 60 50 54 46 53 48 45 38 34 37 36 40 20 26 36 29 19 34 36 30 38
19 28 28 28 34 30 38 21 33 25 42 27 49 38 53 51 42 52 52 46 54 61 65 61 50 49 45 41 49 120 31 115 40 28 29 41 131 48 45 50 43 44 47 47 57 62 48 46 57 39 49 42 49 36 31 31 23 19 25 38 35 23 24 34
36 24 35 31 32 19 37 37 31 40 34 46 36 55 52 45 62 61 58 60 63 69 57 58 63 49 52 54 132 36 40 44 117 38 29 125 45 53 41 52 52 52 64 68 64 50 65 46 47 46 47 36 46 33 26 25 38 22 31 38 29 20 30 23
23 29 21 28 21 36 18 22 31 38 40 40 54 45 48 61 62 69 64 65 68 54 52 67 66 60 49 40 132 49 31 128 38 49 123 47 136 45 59 54 65 62 56 61 71 64 62 62 62 63 52 45 47 47 40 44 23 18 25 37 27 32 21 36
23 37 37 18 23 25 24 36 25 26 46 42 50 39 62 65 52 57 59 62 66 60 63 63 72 67 59 43 128 49 135 35 40 36 32 135 144 58 62 58 52 69 71 63 57 62 56 67 63 54 57 54 50 35 40 35 41 21 38 19 21 28 23 24
24 35 36 34 32 33 29 25 41 31 36 50 49 44 45 60 57 75 77 76 64 76 66 58 73 54 59 55 141 131 124 44 41 46 53 125 43 141 52 58 59 64 72 66 80 77 63 66 62 63 55 52 48 39 50 28 34 25 19 31 32 25 29 37
18 26 34 21 19 28 18 22 25 31 35 52 51 45 54 54 68 62 63 74 78 82 74 70 67 59 57 52 62 222 56 139 54 41 46 52 230 64 57 68 65 70 82 71 67 73 64 64 62 56 57 48 54 42 34 32 33 27 32 34 24 25 31 36
20 19 36 21 21 29 27 23 30 35 33 35 52 54 49 53 69 72 76 67 84 77 67 62 70 54 52 55 43 125 224 55 54 46 50 124 62 149 59 73 69 73 75 72 76 67 63 70 57 66 51 63 41 46 51 29 33 20 34 37 31 32 38 35
32 32 33 18 18 22 20 29 34 38 48 52 49 59 59 69 68 74 77 72 85 89 81 67 71 65 61 63 55 130 136 124 51 44 131 55 57 143 67 66 64 80 77 90 76 81 83 74 61 69 52 62 43 55 41 36 26 38 37 35 21 36 38 21
21 29 29 20 31 25 35 40 24 28 40 43 59 44 57 70 64 63 74 80 75 88 67 71 62 65 59 62 51 141 219 52 37 131 52 56 144 50 57 56 72 73 83 84 76 81 64 69 67 57 66 52 51 39 35 29 24 26 28 34 37 20 18 29
42 38 43 38 35 26 38 28 43 41 51 56 60 61 57 60 59 75 70 73 79 78 69 69 70 64 66 60 68 150 217 57 61 130 59 46 64 139 66 67 69 70 74 72 79 76 86 81 62 63 68 66 52 62 43 43 51 44 46 29 47 47 39 32
45 39 40 43 40 38 42 50 37 46 44 63 51 69 63 69 70 80 90 80 77 87 83 89 80 78 68 71 71 65 233 139 146 60 53 61 63 165 78 71 81 93 78 98 92 90 91 86 83 66 72 74 62 67 53 65 47 43 39 48 53 40 51 58
48 40 42 41 53 52 44 47 39 53 61 52 59 66 78 77 86 89 80 90 93 83 96 95 78 73 81 83 73 156 74 232 158 74 65 70 80 154 86 92 92 92 88 97 100 88 90 97 85 84 85 74 80 79 69 68 71 66 60 51 56 56 54 63
47 56 57 55 60 54 43 42 45 54 56 68 78 80 74 76 88 87 93 89 82 82 91 95 80 83 73 91 168 77 65 233 154 71 70 74 170 75 85 92 96 86 96 89 104 96 98 97 85 102 96 89 85 83 74 75 69 69 61 76 74 64 60 66
44 38 46 40 53 37 40 53 40 53 59 67 54 60 69 75 77 72 83 76 72 80 76 85 76 71 69 78 65 160 143 232 63 68 57 151 72 76 73 78 87 79 80 96 81 94 95 80 80 88 80 83 71 65 58 71 63 55 61 54 68 52 68 53
31 41 36 47 40 46 47 51 43 47 56 54 51 52 53 68 61 70 65 78 67 68 62 77 73 66 65 52 149 148 61 50 214 60 60 53 147 60 62 64 62 62 76 68 85 81 67 73 70 64 63 61 63 60 47 52 41 48 48 42 58 61 49 53
39 33 36 33 24 25 36 29 45 27 42 38 49 47 54 46 47 57 65 69 65 66 57 53 55 50 50 59 39 135 125 206 31 48 33 47 141 46 60 64 60 69 54 56 60 63 69 49 65 62 57 55 47 37 33 45 29 46 36 44 50 36 36 41
24 33 26 38 22 21 29 34 29 37 32 38 28 33 36 43 47 41 54 43 54 39 43 44 54 40 32 49 40 122 108 107 111 37 27 39 128 34 34 46 43 50 50 51 57 53 43 43 41 35 32 36 37 39 38 28 23 28 39 33 33 24 25 22
25 37 28 34 32 27 33 38 29 34 31 37 24 35 46 42 31 39 46 36 45 36 41 40 48 37 38 31 40 40 117 255 20 29 24 34 116 32 46 38 37 38 41 48 40 53 52 39 31 43 38 42 24 39 24 19 36 33 34 21 34 31 20 34
20 26 26 23 18 34 24 38 21 25 31 23 22 21 34 37 44 46 31 38 29 29 37 46 29 37 43 38 34 106 116 103 109 33 29 110 21 37 39 43 34 47 33 36 31 29 41 45 38 42 40 37 31 18 38 26 29 26 32 35 18 20 21 20
33 37 21 36 19 28 33 34 38 27 38 25 22 25 21 23 41 28 32 36 37 30 32 34 36 40 30 29 21 31 114 204 23 113 122 35 22 39 25 23 35 35 41 35 34 38 36 39 28 30 28 33 18 26 18 26 18 20 38 28 21 28 27 22
23 20 35 20 22 20 37 38 33 28 19 21 22 24 32 27 27 24 22 31 26 31 32 25 33 25 38 18 26 22 250 22 21 35 105 104 18 38 28 37 27 26 26 37 34 41 21 34 34 28 19 22 27 33 37 19 26 19 27 19 30 28 37 28
22 36 26 26 29 31 26 28 23 32 21 35 18 18 34 32 23 26 19 29 22 23 20 25 20 35 33 38 25 122 114 120 36 117 19 19 117 34 29 22 25 30 18 30 33 35 23 20 37 37 33 27 28 36 32 35 35 36 23 25 33 29 19 35
19 29 28 22 29 31 28 18 21 24 30 33 27 24 20 22 37 38 26 26 35 21 18 35 24 27 31 26 37 23 123 205 21 107 29 22 108 27 32 18 22 21 21 28 30 20 25 28 24 31 24 37 28 21 18 31 29 20 34 18 23 34 36 25
31 23 21 20 28 29 32 24 29 25 35 28 32 26 35 21 21 21 31 20 23 31 28 30 30 38 22 24 24 26 208 35 111 21 123 31 103 30 22 36 38 21 36 19 36 35 21 19 37 32 38 24 30 29 20 36 21 22 31 22 18 32 37 23
20 37 26 21 34 25 23 38 22 24 35 31 26 32 21 29 20 37 27 38 19 26 21 38 22 23 24 38 28 119 22 115 122 32 103 33 104 37 28 25 20 34 36 31 36 26 25 33 27 33 32 23 38 31 29 34 28 18 38 21 27 32 22 36
30 20 22 34 34 28 26 24 25 20 28 31 21 23 33 23 22 28 37 25 23 35 29 20 38 34 30 38 27 108 110 29 115 113 20 123 24 27 38 27 34 32 26 18 38 30 31 26 29 36 24 29 30 36 28 38 24 22 21 29 24 38 31 30
23 29 34 23 24 35 33 38 22 32 34 32 24 30 20 24 20 27 22 24 29 37 33 32 20 27 36 32 28 121 111 21 192 26 22 27 122 27 19 38 37 34 33 18 38 25 34 37 30 37 20 32 22 31 30 18 19 20 20 34 20 27 25 23
19 36 20 19 35 23 31 24 37 32 32 30 36 29 24 36 24 28 29 35 38 34 28 19 29 27 23 36 23 110 118 123 122 28 28 119 23 20 34 28 37 26 28 21 31 31 20 27 31 28 34 21 31 37 30 37 30 38 37 38 26 23 30 30
19 26 21 37 23 33 30 28 22 22 24 27 19 29 34 36 27 19 22 28 21 26 36 27 28 22 18 21 18 26 105 24 197 37 30 114 24 18 32 23 33 27 28 28 27 36 31 32 27 31 35 37 27 32 23 34 34 28 23 37 30 35 33 20
29 31 28 23 32 22 37 23 38 30 29 23 21 30 38 34 35 34 32 28 26 28 22 36 18 32 29 26 30 121 24 103 104 20 33 38 122 31 38 21 19 37 27 31 38 30 23 36 24 35 25 22 36 30 35 26 21 20 27 36 25 38 35 29
33 18 21 28 24 22 20 29 25 29 21 21 24 35 38 35 19 22 26 32 27 21 25 26 36 22 35 22 30 32 23 203 20 34 22 24 28 118 19 34 33 19 33 29 38 22 38 18 23 36 36 22 29 36 23 36 21 37 36 27 21 22 38 34
27 36 18 23 34 32 29 32 24 28 33 35 37 30 33 31 38 24 32 33 26 28 38 35 18 29 22 36 37 18 19 28 196 28 25 32 120 22 38 35 35 35 24 36 28 22 37 26 21 35 31 30 34 28 30 23 34 30 28 28 25 32 32 23
26 19 34 24 21 34 27 30 25 34 36 26 25 23 32 22 37 27 35 21 35 24 30 22 37 33 29 21 34 29 28 105 20 20 25 26 30 123 30 23 20 19 24 32 37 29 27 20 32 24 26 19 23 32 22 32 25 23 26 33 26 18 26 23
20 32 23 24 18 30 25 19 27 23 34 27 21 37 18 32 26 31 34 34 38 37 26 25 34 31 20 32 36 21 22 112 36 24 38 38 112 20 30 27 22 37 19 35 28 30 29 26 31 24 29 20 26 38 28 21 24 24 32 36 30 30 35 34
26 28 21 20 18 37 33 33 24 29 26 35 32 38 37 27 36 20 27 35 31 20 29 38 38 18 26 26 28 25 123 33 30 31 22 35 22 28 36 32 21 26 29 33 34 29 19 30 30 20 37 35 29 29 30 30 19 22 22 35 28 20 25 38
23 36 19 29 23 35 32 20 29 29 37 33 24 18 30 33 26 36 24 22 20 28 18 27 20 36 28 32 35 110 33 28 21 20 27 34 27 18 38 20 33 36 25 37 25 28 20 31 30 28 35 21 38 26 32 36 32 33 20 24 35 34 36 32
31 30 33 35 20 24 38 31 24 28 27 23 25 30 35 21 34 38 27 19 25 20 20 23 26 21 26 38 25 24 34 35 27 33 37 27 31 32 34 31 19 20 18 22 38 38 21 32 36 35 33 37 30 20 37 24 23 26 18 38 21 26 31 38
37 29 36 20 26 34 25 19 30 36 33 21 28 24 32 29 30 38 36 32 21 27 33 34 22 32 20 38 32 29 34 24 20 27 20 29 19 23 27 19 37 35 18 30 34 23 30 18 21 24 35 36 18 37 28 38 27 24 35 22 22 19 31 23
28 26 29 22 18 33 19 19 29 27 20 36 25 22 33 36 19 29 33 36 27 23 33 23 23 22 25 34 18 24 33 21 36 33 32 19 22 25 30 19 18 30 23 32 30 22 35 32 33 36 26 28 30 20 32 21 21 27 33 36 30 24 23 25
