P2
64 64
255
21 15 15 18 23 23 25 26 24 23 17 25 23 22 15 20 16 26 26 15 22 18 16 14 15 14 26 14 21 24 19 22 23 23 22 16 17 19 15 18 18 20 20 23 14 25 25 20 20 17 21 19 22 21 24 21 21 15 22 16 22 25 24 15
23 22 23 19 22 19 21 23 21 17 16 21 14 26 16 22 15 14 16 19 26 21 21 17 21 17 23 24 26 21 20 16 16 22 25 26 17 24 17 20 21 20 21 20 24 23 19 21 24 19 20 23 22 15 26 24 22 26 25 14 18 19 25 26
20 18 22 16 22 15 23 15 23 21 25 18 15 22 25 16 26 22 16 21 26 17 18 15 17 16 15 20 20 20 17 20 24 14 19 20 18 25 17 21 23 25 14 18 21 24 17 18 25 14 14 14 14 20 22 22 24 17 22 21 25 25 18 16
22 21 25 15 21 21 22 25 14 16 16 25 26 21 21 19 17 14 20 24 17 23 25 17 15 24 23 19 21 20 26 25 14 26 16 18 20 17 21 18 23 16 19 18 17 14 21 22 17 19 16 22 17 21 25 19 24 19 20 17 23 17 16 22
20 20 20 18 23 25 26 26 23 25 22 26 24 14 15 22 23 18 22 25 21 26 15 23 16 17 22 26 19 26 24 25 19 26 17 22 17 17 24 24 17 19 14 25 17 17 24 20 25 17 24 19 21 22 19 14 17 15 25 21 20 18 14 14
14 15 23 22 22 15 17 26 17 15 20 20 22 21 18 22 23 17 24 21 20 19 14 17 19 16 15 20 18 23 24 17 20 15 17 16 18 20 17 25 24 21 26 17 20 16 18 25 22 14 26 15 18 25 17 18 19 24 23 16 23 24 26 26
22 15 14 15 17 25 24 21 21 21 24 15 25 25 16 23 15 23 24 24 22 18 17 26 23 16 22 17 23 18 26 18 22 21 21 17 14 23 18 17 16 21 16 15 21 20 22 23 24 22 24 26 17 26 14 15 25 26 25 19 21 16 21 24
16 22 18 20 26 16 18 22 16 14 23 22 18 26 15 24 14 22 25 24 26 14 21 15 23 22 22 16 14 21 23 14 18 24 14 19 20 17 26 24 20 20 22 23 15 16 20 16 24 14 15 25 18 14 18 23 26 25 14 15 23 18 14 20
20 19 24 14 16 26 20 19 20 17 16 23 25 23 14 15 14 25 19 23 23 25 17 18 24 20 25 20 25 24 21 24 25 25 15 26 15 25 23 14 23 15 20 15 21 26 22 14 23 20 17 23 25 23 14 22 18 21 23 14 15 17 26 26
20 18 14 14 15 20 21 16 17 22 21 14 21 23 15 20 22 19 23 22 19 17 14 21 23 19 19 16 19 14 14 14 14 14 16 19 22 20 17 26 21 25 24 20 26 19 15 24 19 20 21 24 20 17 18 26 14 19 18 25 16 23 14 15
19 20 20 17 17 23 20 14 25 23 24 26 14 23 19 15 21 25 21 17 26 18 18 17 26 26 19 16 20 21 26 24 25 19 14 17 17 22 17 14 24 18 26 22 15 17 24 16 14 19 20 22 26 26 14 19 21 21 24 22 25 19 18 19
25 14 21 19 19 19 17 20 15 22 22 21 14 15 15 17 21 23 24 18 15 26 25 23 17 26 17 16 22 26 17 20 20 20 22 26 25 17 17 17 14 21 19 16 20 14 17 15 15 23 17 22 18 22 22 16 26 25 17 17 25 17 18 17
25 15 16 20 22 25 24 18 15 15 21 18 19 23 19 25 24 25 19 26 19 25 21 17 17 23 19 18 26 20 22 21 24 24 23 22 24 21 20 21 15 20 14 22 17 22 15 23 19 25 23 21 23 22 25 16 22 26 14 17 22 20 24 24
17 15 14 18 15 24 24 19 22 15 26 23 24 26 19 20 15 26 22 15 21 26 23 24 19 25 18 26 19 14 15 22 23 21 20 17 22 22 17 16 21 18 24 21 17 17 14 16 26 20 26 15 17 14 16 14 18 26 24 16 21 14 18 16
18 20 18 21 16 14 15 23 24 20 18 19 22 23 25 26 25 24 17 22 22 14 20 21 18 25 24 23 17 21 15 17 14 26 19 23 25 25 26 19 22 16 26 15 17 24 22 22 17 24 22 22 19 15 16 17 17 14 25 16 16 16 14 22
19 16 25 26 23 26 23 24 14 17 19 26 14 14 23 15 24 25 19 22 18 24 16 20 14 21 14 24 15 22 20 19 25 21 15 22 23 17 16 21 26 26 21 17 20 21 14 26 21 25 17 20 26 16 25 15 16 20 19 24 23 21 21 20
22 18 20 25 19 16 19 20 20 18 23 16 17 14 18 21 19 25 24 14 26 22 22 18 23 15 15 18 20 14 17 24 18 16 26 22 14 20 21 26 18 25 16 14 22 14 17 22 15 16 24 15 23 19 17 17 18 22 21 23 16 14 17 18
25 26 21 23 26 18 22 19 14 19 15 15 17 22 24 16 14 22 17 25 24 22 22 17 20 14 18 19 19 21 24 22 23 24 22 15 21 24 21 19 18 19 19 15 18 20 18 15 14 24 20 25 16 21 22 24 24 19 23 17 19 20 17 18
18 25 19 21 17 22 16 20 15 15 24 25 26 15 14 22 20 15 15 24 22 22 17 17 23 22 18 21 20 20 25 16 18 23 21 24 22 23 19 14 22 19 20 21 21 19 25 19 16 17 14 26 20 26 19 18 16 26 20 24 21 25 22 20
24 23 24 23 18 15 18 14 22 22 23 22 23 14 20 14 23 16 27 22 25 19 25 21 19 26 19 19 21 26 25 26 16 21 17 22 25 21 20 27 28 18 29 30 24 17 23 26 22 23 21 21 16 14 16 14 20 19 17 16 20 15 23 18
14 16 18 18 21 16 25 25 24 18 26 19 22 25 19 19 22 21 30 28 28 23 24 24 30 30 24 25 26 19 16 23 21 14 26 22 18 25 17 20 31 33 29 29 30 25 29 20 25 26 24 20 22 23 25 24 20 23 24 21 18 25 24 23
21 22 20 14 19 24 20 26 26 18 23 17 22 24 22 23 28 26 30 34 28 28 28 24 27 28 27 24 17 25 19 20 27 24 21 24 16 31 24 31 32 25 29 36 36 36 30 29 34 24 28 22 15 17 24 19 15 25 14 22 15 26 21 22
21 25 14 23 24 15 19 20 24 21 16 26 19 21 26 24 30 31 36 35 33 38 32 35 34 27 28 35 31 30 35 29 33 25 29 36 36 34 28 32 33 35 30 33 35 32 29 29 26 30 29 21 18 19 15 18 22 22 21 20 18 22 25 19
15 23 20 21 26 16 18 25 20 17 27 17 20 24 36 28 39 33 40 44 37 42 34 34 35 38 44 38 39 39 33 36 30 38 37 33 45 37 37 44 33 33 42 45 41 44 34 38 33 34 26 32 31 23 16 22 22 20 21 19 17 25 20 26
22 19 25 20 26 22 22 16 14 18 25 26 33 26 36 36 35 36 40 44 46 46 42 46 42 43 44 52 54 46 44 49 35 47 44 43 51 47 44 50 45 51 45 46 45 38 40 40 44 32 40 28 24 21 22 20 15 26 17 24 24 26 14 17
19 16 19 17 25 17 16 25 25 22 21 26 30 40 41 41 44 46 43 45 51 47 49 48 54 61 57 62 63 57 51 49 50 57 49 60 54 63 64 51 55 54 44 49 46 44 45 41 39 36 31 29 34 30 21 24 17 24 21 22 19 16 23 18
20 26 16 17 14 25 23 26 18 23 21 37 35 39 34 43 50 45 47 55 51 52 53 63 63 63 63 63 64 67 64 65 56 59 64 61 63 60 60 61 62 64 54 52 53 48 46 50 45 42 38 42 32 25 21 27 15 25 19 16 26 17 23 16
22 20 19 16 26 24 24 26 22 27 34 36 38 37 40 41 46 45 58 53 59 62 67 67 73 69 72 69 77 70 69 72 75 71 67 70 73 74 74 71 67 72 64 58 58 53 56 51 54 40 41 38 39 39 29 20 23 21 22 15 26 18 18 20
26 23 15 19 20 19 14 14 18 33 30 33 40 36 39 51 47 48 50 56 70 67 78 76 82 81 75 88 85 79 76 86 80 77 84 86 83 76 85 74 77 76 78 69 68 62 55 60 54 45 49 36 36 38 27 31 17 23 17 22 17 15 20 24
14 24 25 19 24 15 16 21 21 33 30 36 40 47 44 54 53 61 56 66 71 82 75 81 85 86 87 92 84 82 90 82 87 83 90 83 91 82 85 89 84 82 85 82 78 66 61 55 55 45 49 46 42 38 34 28 22 26 23 22 22 18 24 17
23 18 14 15 19 21 18 18 29 29 31 40 37 42 46 47 50 56 59 69 75 77 82 87 89 90 95 100 94 88 95 96 95 90 98 93 100 93 96 95 90 92 93 78 81 75 66 56 59 48 50 41 37 43 31 24 22 15 23 16 23 15 20 19
21 16 21 17 24 24 17 22 27 28 33 38 39 47 47 58 59 64 62 81 86 88 95 92 97 96 94 103 96 105 99 103 107 98 106 101 102 98 98 94 99 93 87 88 87 76 64 58 53 50 44 48 36 32 38 26 26 25 18 14 16 18 19 18
15 16 15 17 20 18 17 22 24 26 33 32 40 49 51 47 51 55 76 79 85 89 91 93 99 102 100 109 109 106 102 104 105 104 109 111 106 109 107 108 99 94 103 91 85 78 64 57 52 47 48 49 42 40 35 27 28 18 15 22 15 21 25 22
19 17 20 21 14 19 14 28 25 24 39 40 46 41 50 49 62 60 65 84 84 100 99 102 100 100 111 106 109 111 113 118 114 114 118 109 113 103 106 103 103 98 101 97 88 78 74 63 62 49 47 51 46 43 30 23 23 28 16 18 16 17 23 22
14 22 14 20 26 24 19 26 23 30 27 40 45 42 46 53 56 64 65 74 81 98 102 95 100 111 113 113 115 117 110 118 122 125 117 115 107 104 106 100 108 100 102 94 90 76 74 66 60 53 54 46 37 32 34 31 27 16 18 26 25 18 16 14
23 25 16 26 26 23 19 16 30 28 27 34 44 45 44 52 53 63 68 78 89 85 91 95 97 107 108 103 117 110 113 125 124 123 117 111 108 115 101 103 106 103 90 86 87 80 69 53 54 56 49 48 38 40 32 26 22 26 26 23 19 24 26 22
19 23 22 26 26 26 21 21 23 23 32 40 33 46 45 45 45 59 66 73 78 90 90 101 93 99 100 112 116 119 116 122 123 119 115 118 111 113 100 104 100 98 87 87 73 76 62 54 56 53 47 35 40 29 31 27 22 15 15 17 25 26 21 16
26 26 25 21 20 15 26 21 17 28 35 32 35 37 39 44 46 51 66 69 70 79 89 92 92 105 108 111 112 112 108 122 114 111 116 106 107 110 97 104 99 95 83 82 77 62 60 50 47 46 41 44 34 38 27 27 20 18 20 20 25 19 24 23
26 21 21 24 26 23 23 21 25 20 29 26 31 43 41 41 44 43 59 59 71 76 84 89 89 90 95 107 105 101 105 103 108 110 105 101 101 99 104 100 85 89 81 74 74 66 61 49 46 44 40 31 34 27 25 19 21 26 20 26 17 26 15 22
23 16 16 21 16 20 15 24 23 17 19 32 35 35 43 36 46 39 46 55 60 77 79 75 82 85 87 96 96 99 105 102 93 98 103 99 91 99 97 90 85 86 72 70 66 58 52 45 44 41 41 29 32 22 30 25 18 20 22 26 21 20 20 23
21 14 20 20 23 14 14 21 18 20 28 32 31 36 31 36 38 37 49 59 62 60 68 75 85 77 83 90 88 96 92 87 88 91 97 96 85 82 82 81 82 70 70 65 56 55 49 38 34 42 29 33 24 32 20 23 18 23 24 15 24 24 14 16
21 26 22 19 24 14 14 16 18 14 25 20 20 24 26 36 35 31 42 52 49 58 60 67 70 75 78 79 82 87 84 80 81 83 89 85 85 75 82 80 71 64 70 54 58 51 43 39 38 36 35 24 27 19 23 23 18 21 15 20 21 14 25 22
26 22 15 18 24 22 16 26 19 20 14 22 25 20 33 34 38 34 28 47 48 58 52 64 67 67 66 75 73 71 74 78 78 72 74 71 81 75 69 67 62 65 55 52 46 45 39 35 26 30 32 30 19 27 16 15 15 23 24 20 16 16 26 18
16 23 21 15 15 14 15 19 17 18 18 22 24 27 30 27 31 26 26 39 43 40 50 50 53 65 69 67 60 69 64 75 68 67 74 60 62 61 61 66 56 56 51 40 36 29 27 28 27 20 23 23 20 21 26 14 24 21 21 23 26 19 21 20
19 22 19 21 17 26 24 24 17 14 24 18 15 26 23 21 19 20 33 29 29 32 47 52 44 56 53 51 55 57 69 66 58 59 65 60 64 56 55 51 53 40 40 33 31 22 22 20 23 29 24 16 17 16 26 18 23 17 22 24 26 22 25 21
26 17 25 14 24 16 22 19 17 21 17 16 17 14 21 15 20 21 20 27 19 24 34 34 39 50 53 44 49 51 53 52 58 57 57 49 49 49 48 39 45 42 32 32 21 19 21 28 24 21 16 23 18 19 15 22 25 20 24 22 16 22 20 19
22 25 14 15 14 19 18 26 15 15 25 25 15 24 15 25 21 24 25 25 22 20 30 34 30 37 48 43 53 51 46 55 57 55 47 52 45 46 40 35 30 30 22 18 14 21 26 23 25 17 24 18 21 20 25 22 20 15 23 16 24 17 18 23
18 23 18 24 18 18 20 21 16 18 15 15 22 16 14 19 23 18 14 19 24 24 25 22 35 32 34 36 41 45 44 50 44 51 47 48 39 39 39 38 36 27 24 15 16 18 16 21 17 17 14 18 19 19 25 25 20 15 18 14 15 25 23 26
17 14 15 24 21 18 14 21 16 19 18 24 15 26 23 16 17 23 17 16 21 16 25 18 24 28 29 36 36 33 33 45 41 45 37 31 32 35 34 29 20 16 15 14 16 14 17 18 21 17 15 24 21 18 16 25 18 16 24 24 23 19 15 17
20 14 21 18 26 15 22 24 18 24 16 15 21 26 19 18 21 18 22 17 24 14 15 26 17 27 27 21 26 26 33 29 35 31 26 33 24 30 26 23 24 15 23 21 24 23 23 17 15 18 19 17 18 21 19 21 20 15 24 21 15 15 25 14
20 17 16 25 25 16 14 16 25 24 17 21 21 20 15 18 20 22 22 25 16 18 24 23 16 14 25 26 20 24 23 22 31 24 27 20 18 28 15 25 20 15 19 21 18 24 25 17 23 20 25 26 18 15 24 15 14 18 19 15 14 18 18 23
20 17 25 25 14 21 26 16 24 18 16 20 16 19 23 23 26 19 15 20 20 25 17 20 16 17 23 20 22 14 14 27 17 25 15 26 26 19 19 21 15 16 25 15 21 21 24 20 17 14 24 14 20 22 18 23 22 21 16 22 18 21 18 23
17 22 17 22 14 17 19 25 14 16 19 21 19 20 20 15 18 21 16 17 17 16 23 19 26 14 24 17 15 26 19 15 15 17 21 17 19 15 15 19 16 23 22 23 23 18 21 25 21 19 17 26 23 17 20 24 14 19 22 24 18 18 23 20
18 20 14 17 14 14 18 18 15 22 23 20 24 19 23 26 26 17 16 16 21 18 21 20 17 21 23 25 18 26 20 20 25 24 20 25 16 21 23 24 23 14 23 17 19 22 19 25 19 16 14 18 20 24 15 26 20 21 26 16 23 14 19 15
15 19 20 26 19 17 23 19 22 23 20 16 23 16 24 17 21 22 19 18 22 21 18 23 20 20 14 18 17 14 14 16 15 23 23 24 19 18 14 25 16 17 21 21 23 25 22 20 19 15 17 24 14 22 18 14 22 25 15 16 17 18 24 14
20 21 19 15 22 23 25 14 25 20 24 16 18 25 19 22 25 17 15 17 25 17 26 24 21 22 14 14 14 21 25 26 24 25 26 25 21 26 24 20 24 17 26 24 14 15 17 15 22 16 16 21 26 21 26 17 16 25 16 15 24 23 14 25
23 21 14 21 21 19 22 20 19 19 17 18 17 17 15 14 20 26 14 17 14 15 23 14 21 17 19 21 25 23 14 14 18 16 19 22 23 19 17 19 26 17 21 14 18 20 14 14 24 15 19 20 26 22 25 18 16 24 23 23 19 24 24 25
17 16 22 15 18 26 22 24 16 24 22 20 24 26 19 26 18 18 17 18 21 14 14 18 18 18 20 26 19 26 14 14 26 25 15 14 26 18 24 16 15 19 19 20 18 24 23 17 23 15 26 22 25 23 19 19 23 17 23 18 24 17 21 25
14 22 21 21 19 18 23 20 17 15 19 17 19 21 16 26 26 19 21 14 22 16 20 25 17 17 25 19 20 22 18 24 24 22 23 23 20 14 18 17 19 16 17 15 24 17 19 16 21 15 26 15 15 25 14 19 22 21 16 26 16 15 20 14
17 23 25 23 17 19 24 23 15 16 18 23 21 14 14 24 25 25 23 16 15 19 14 25 19 15 24 14 19 19 17 14 17 26 19 22 23 18 22 23 16 14 23 18 17 26 24 24 24 24 24 17 21 14 26 15 15 25 20 21 24 15 22 24
19 17 22 23 17 19 14 18 25 24 26 23 22 21 21 25 26 25 15 17 17 20 26 23 23 24 19 20 26 25 18 21 19 16 15 25 20 21 16 15 26 21 25 25 20 20 22 17 16 22 16 20 14 17 14 25 15 14 20 21 21 25 17 20
25 14 20 23 16 19 23 25 23 26 15 24 18 16 24 21 24 22 15 15 21 20 23 21 19 23 16 21 22 23 24 17 16 19 16 22 14 19 19 20 21 14 15 21 23 14 18 25 20 14 23 26 26 19 15 16 25 19 25 26 14 16 21 17
26 14 14 19 26 23 22 17 20 24 21 25 24 19 24 16 23 22 19 23 26 21 17 19 18 15 20 16 26 23 25 19 25 20 26 18 19 24 20 20 17 17 24 18 15 15 23 18 25 20 16 24 18 16 18 15 24 25 25 16 26 22 15 14
22 14 17 26 17 14 22 22 18 15 18 19 22 18 25 15 18 22 19 25 16 16 15 23 16 21 17 16 17 16 17 19 20 19 22 18 18 22 20 19 20 22 23 26 15 15 19 25 24 25 22 14 25 26 19 16 16 14 24 21 24 25 17 24
