P2
64 64
255
32 18 35 36 22 29 29 33 34 27 37 34 24 19 21 30 22 26 23 35 18 37 26 19 30 28 34 20 30 23 33 18 18 31 19 29 30 26 30 22 30 37 33 28 20 30 20 24 33 36 37 20 31 29 27 36 29 19 20 28 28 20 26 30
18 38 29 18 24 37 20 26 35 33 20 32 37 35 21 34 34 30 22 19 33 28 24 23 37 26 26 29 29 18 21 21 34 28 37 37 29 33 38 18 30 33 37 33 35 29 22 18 29 26 31 27 37 32 22 20 20 34 31 21 32 22 29 19
20 33 30 31 24 24 32 23 25 29 23 23 26 18 25 36 36 34 33 18 19 25 19 31 22 36 33 18 32 21 37 20 27 33 22 36 23 33 22 28 25 30 29 29 22 19 21 28 20 38 30 33 31 22 26 23 23 27 26 31 30 28 20 34
27 36 30 20 31 32 24 38 33 31 31 38 28 31 26 22 38 22 37 37 34 18 27 28 22 28 18 36 20 37 24 36 30 18 24 23 35 38 37 23 24 25 34 38 27 30 31 28 33 18 32 30 23 23 24 23 25 23 32 26 35 38 32 26
26 38 27 35 31 23 25 24 24 27 19 20 35 23 38 18 23 20 23 36 26 37 31 27 26 35 25 27 26 34 25 21 23 34 23 37 25 36 19 24 21 34 34 34 31 18 27 35 33 36 33 29 21 20 38 19 23 19 32 30 32 28 35 29
38 18 36 22 37 35 33 38 35 31 23 30 20 29 37 20 18 35 27 26 27 24 24 28 28 26 38 24 32 29 32 26 21 36 29 25 34 21 25 23 26 19 28 34 22 23 29 36 33 20 32 33 22 31 28 28 32 36 25 26 23 33 31 28
37 35 24 24 20 32 22 22 28 34 18 31 22 29 25 28 26 27 37 28 18 38 30 25 23 19 30 30 23 33 19 25 31 29 37 25 23 25 22 31 37 30 29 34 28 24 26 18 31 29 37 30 20 27 20 18 20 27 26 32 24 19 18 29
35 28 29 26 25 21 18 32 35 30 38 18 28 36 36 23 35 37 23 18 38 33 36 19 23 24 33 27 22 36 26 30 33 30 20 22 35 31 32 30 31 26 18 23 23 24 35 21 31 25 37 29 35 28 29 33 29 25 28 31 19 25 36 33
18 29 25 33 38 33 38 38 22 35 25 31 29 22 28 28 22 30 32 19 28 23 35 35 22 19 30 21 24 27 26 27 27 33 22 29 22 21 25 31 27 28 31 20 35 25 25 18 21 27 38 20 21 28 31 24 34 20 25 20 18 25 29 24
30 29 37 18 33 18 37 27 24 34 29 37 27 33 33 29 32 28 19 25 33 35 31 36 27 20 18 33 25 20 20 35 28 38 30 29 38 26 30 18 22 21 23 27 23 30 19 35 24 22 24 35 33 18 29 35 37 34 18 20 20 29 24 28
30 28 28 18 20 27 20 37 24 26 27 31 30 26 28 29 31 27 23 34 34 28 35 38 36 26 30 29 25 34 19 28 37 35 33 20 36 31 34 20 34 38 31 34 25 24 29 19 33 35 33 21 19 32 18 22 30 29 30 18 38 22 23 31
33 33 24 28 24 35 28 22 19 18 24 19 34 21 32 38 23 35 29 19 24 38 33 32 33 19 22 32 18 36 24 24 25 29 33 35 37 27 36 28 24 32 20 26 33 32 29 24 38 22 37 33 26 31 20 35 31 33 37 34 36 31 24 35
35 32 22 25 35 36 36 20 23 19 38 33 27 34 26 38 21 28 36 31 32 33 28 22 19 28 23 31 20 18 33 34 18 26 32 33 33 21 23 20 35 28 18 25 32 37 20 20 27 23 26 34 35 21 23 23 19 34 24 18 37 36 27 33
37 37 36 24 18 29 25 23 23 34 21 29 33 35 34 29 24 30 34 29 20 38 29 26 25 32 19 18 34 34 23 29 33 27 19 30 38 24 19 37 28 20 34 35 24 29 28 24 36 18 37 24 38 24 34 37 35 31 19 31 38 26 31 21
22 27 22 18 28 19 27 27 21 30 31 18 34 25 29 24 36 35 36 29 31 37 29 27 27 22 32 28 36 25 20 21 28 38 26 38 19 37 34 24 24 20 35 27 22 20 29 37 37 38 30 36 28 22 36 23 23 31 33 30 33 28 33 28
29 23 26 28 24 26 18 34 25 29 18 27 25 37 20 29 18 22 29 19 32 21 36 20 24 22 29 20 19 29 20 26 22 29 38 30 31 30 37 26 36 36 28 25 38 22 36 34 30 37 25 26 32 21 29 28 28 33 31 24 22 28 31 25
22 28 23 25 33 19 33 28 27 36 31 38 20 27 38 30 25 30 24 31 30 23 37 27 21 22 18 24 21 28 32 29 21 26 26 23 22 26 24 32 23 25 28 20 19 28 34 28 18 23 24 27 35 38 27 34 18 24 23 21 31 19 25 33
27 32 35 33 30 36 25 28 28 25 21 32 32 32 35 22 28 28 27 29 24 25 20 19 29 25 27 36 31 22 21 29 19 37 23 25 18 36 35 31 36 36 29 31 31 34 38 32 24 31 38 28 34 29 35 36 24 37 31 20 35 36 21 34
29 20 37 22 23 30 24 24 18 20 20 19 38 21 29 27 38 22 20 18 24 29 20 25 31 25 37 27 20 35 25 36 30 35 31 37 33 22 38 28 26 29 19 23 38 29 36 19 28 37 21 18 28 37 36 35 30 29 33 20 25 36 35 27
20 22 30 33 37 20 20 32 21 18 38 38 38 22 26 32 32 35 32 37 37 39 25 41 35 28 36 35 20 19 35 38 38 30 33 35 32 36 21 36 23 32 41 25 30 26 25 36 36 30 28 27 26 31 29 35 29 35 22 19 27 29 35 21
22 28 22 31 18 18 29 25 38 26 29 27 22 36 24 37 30 32 44 33 43 32 29 43 42 39 34 21 31 38 32 32 25 37 20 19 32 35 34 37 29 26 39 41 28 26 31 35 23 40 37 18 22 21 22 20 21 34 23 25 30 32 26 32
24 32 37 20 25 29 26 20 34 30 35 35 19 41 39 28 35 32 37 41 33 44 43 40 34 33 35 38 36 24 21 36 21 33 23 29 31 41 24 39 36 33 29 43 29 38 44 33 42 29 33 41 22 29 30 28 30 36 26 32 33 29 24 38
26 35 29 28 24 20 18 36 22 32 20 31 38 28 45 39 50 51 44 34 42 43 43 52 45 35 32 40 28 27 20 38 32 27 27 38 28 44 44 39 34 51 46 48 43 37 39 47 40 39 27 42 38 36 38 29 37 18 35 37 35 18 22 33
23 22 28 28 25 29 23 28 21 27 35 30 40 30 36 47 43 55 49 54 50 51 46 39 46 37 34 42 38 36 36 28 18 29 27 31 33 40 34 50 43 54 47 38 51 50 54 41 50 47 48 31 41 38 26 18 37 37 21 33 23 20 33 29
27 37 21 27 26 34 20 33 29 20 41 36 39 34 41 52 56 43 58 53 54 46 46 57 49 57 45 37 43 29 39 25 28 22 41 28 46 37 50 37 57 44 49 42 56 55 50 39 39 43 44 30 31 43 34 30 25 25 21 36 20 36 28 21
33 23 23 35 19 35 25 22 34 23 28 40 35 45 36 49 56 56 61 65 62 62 46 47 55 46 45 53 52 30 32 34 28 31 31 35 35 49 56 51 61 43 63 51 45 54 47 55 47 44 53 35 47 46 24 37 32 35 21 36 24 37 22 31
36 29 38 26 35 22 30 38 29 31 38 35 37 51 46 45 55 63 65 48 63 49 57 47 59 58 43 56 39 35 35 29 32 35 47 45 41 47 41 57 52 50 64 61 64 67 57 55 58 61 42 39 45 32 43 42 36 35 25 23 34 30 25 29
30 20 26 30 18 24 24 32 26 33 31 37 43 42 55 62 63 54 51 61 64 63 70 64 51 61 49 50 46 35 48 37 41 36 31 53 44 55 54 48 55 56 66 64 58 60 69 66 52 46 43 54 39 43 28 28 28 31 36 23 34 31 20 18
37 28 25 35 29 26 20 26 40 36 49 43 52 53 48 63 65 59 62 59 74 71 62 65 70 65 58 51 57 38 42 36 44 43 36 37 45 49 59 60 52 63 62 59 72 57 62 71 53 50 44 55 39 42 42 38 24 30 37 25 18 35 28 30
37 30 22 24 33 38 34 33 32 43 36 40 37 52 62 53 62 60 57 79 73 71 77 58 57 65 50 48 59 48 38 53 50 51 44 57 49 63 59 60 61 60 65 69 68 66 57 75 68 49 54 47 44 36 43 42 29 35 24 36 33 31 34 33
22 23 29 38 28 22 22 22 41 45 48 45 56 46 66 54 57 77 72 70 70 83 66 65 59 59 58 61 58 54 40 55 55 36 43 46 56 47 62 69 77 77 76 78 64 73 63 66 58 69 65 59 38 35 46 36 38 25 28 38 30 35 38 33
27 24 26 30 38 38 34 36 36 36 50 49 55 56 66 52 62 62 77 73 79 80 84 76 71 65 65 56 57 42 37 45 44 43 47 50 57 66 68 67 75 70 84 80 84 68 71 64 75 66 59 61 41 39 42 33 43 34 19 33 18 36 18 27
19 25 29 21 30 38 19 31 33 38 43 39 48 54 65 67 67 63 74 74 82 71 79 81 66 68 51 61 53 59 49 48 40 43 57 56 61 61 61 75 69 83 72 81 80 74 79 67 60 64 51 62 52 47 44 46 34 32 24 19 31 24 31 25
29 32 25 24 22 30 18 29 25 29 31 55 47 59 50 66 73 66 64 83 76 78 85 62 75 72 52 65 52 50 55 48 43 46 44 55 56 50 56 56 76 63 65 86 84 85 67 59 59 64 64 48 42 37 45 42 32 27 23 23 30 36 30 25
26 29 27 33 19 22 30 38 40 27 47 52 44 58 60 56 55 65 69 79 64 76 70 79 63 61 63 46 56 41 50 43 36 53 38 53 49 54 64 58 71 61 82 68 70 69 60 57 72 68 52 47 45 47 38 35 34 22 35 38 18 25 28 27
24 19 29 30 37 33 38 36 35 42 45 51 38 51 60 66 67 69 62 68 68 70 66 61 57 66 61 53 61 52 36 49 52 34 49 38 49 62 57 65 66 72 64 76 74 72 61 69 61 57 64 57 40 44 41 33 23 30 26 32 21 37 30 26
20 20 38 33 28 30 30 32 33 45 48 43 48 41 44 56 67 71 69 67 72 61 60 59 61 69 63 56 46 53 40 37 35 33 41 41 59 44 58 53 59 54 66 73 63 56 66 68 68 51 54 51 47 46 41 38 22 32 27 26 35 37 26 25
30 22 31 26 31 26 18 21 27 33 33 47 49 57 45 48 54 53 67 63 55 54 53 61 66 46 56 50 42 45 46 43 32 30 35 42 50 46 61 59 50 67 59 56 65 54 62 63 65 64 54 43 41 48 27 44 22 30 19 18 32 38 21 23
38 19 30 37 19 33 22 37 29 42 43 45 34 50 49 45 57 59 50 65 57 61 67 50 61 49 50 47 51 49 35 25 46 38 34 34 51 38 51 63 52 53 48 50 66 62 56 63 61 58 53 47 35 37 31 29 23 36 23 20 19 29 26 22
29 37 31 32 25 27 41 21 32 29 36 33 40 47 59 46 48 48 57 62 57 52 56 47 46 54 48 56 45 34 47 31 27 39 36 38 38 45 46 59 66 58 53 62 66 59 56 65 62 56 51 47 37 46 48 31 44 42 35 44 39 36 34 33
25 25 27 37 45 42 33 34 37 26 29 49 53 52 48 59 64 54 55 52 69 59 62 49 50 59 63 45 44 43 51 32 48 46 54 56 56 45 62 51 61 70 64 71 57 70 65 60 58 63 57 50 51 43 44 32 47 38 43 51 51 32 49 40
40 34 30 32 28 41 38 39 37 35 43 45 40 55 56 58 59 51 66 58 52 67 61 57 50 49 46 63 41 48 40 41 32 45 41 50 51 64 55 49 70 62 55 62 66 54 72 70 53 63 65 48 58 43 41 54 40 39 54 52 43 57 39 43
24 28 32 37 27 37 39 36 42 37 35 36 29 33 47 49 50 42 45 44 54 61 47 41 39 42 56 38 33 41 32 37 34 45 42 47 37 49 50 59 47 53 52 63 53 50 56 58 49 56 52 43 49 48 43 41 36 35 46 38 47 48 47 46
24 35 40 24 38 28 25 36 22 23 24 21 33 42 37 34 38 44 37 45 35 34 39 50 41 44 33 32 35 40 34 36 40 42 28 26 45 32 40 38 46 37 46 40 46 48 50 43 49 31 43 35 25 42 33 26 33 41 35 25 44 26 29 39
36 27 18 27 23 38 21 20 23 24 22 32 38 38 28 21 41 37 31 45 40 38 28 38 40 29 41 36 37 29 24 32 34 27 32 26 25 33 41 39 29 32 44 28 42 28 37 41 23 40 22 21 22 23 31 25 31 37 38 18 18 26 20 36
28 20 18 28 33 22 31 26 20 34 30 31 20 35 30 26 39 40 40 41 31 28 37 26 36 23 32 22 22 25 26 30 37 21 19 20 36 31 37 37 40 40 25 25 37 35 21 36 27 32 20 37 30 36 36 31 20 36 30 23 31 28 32 36
25 27 21 21 22 33 26 18 20 37 20 32 24 34 21 18 27 19 22 32 34 38 25 33 31 20 35 30 33 24 26 26 30 26 36 25 26 26 33 27 38 21 26 27 34 25 29 31 22 34 37 27 29 23 32 36 27 37 20 20 30 21 32 29
28 33 23 21 31 28 34 34 25 27 24 27 26 22 29 25 38 29 33 22 30 23 25 19 27 29 28 23 27 21 38 35 34 24 32 30 31 34 22 28 28 38 28 37 22 33 27 30 23 33 31 21 36 28 30 24 33 22 36 19 28 32 33 33
38 34 31 26 22 34 31 35 25 31 23 18 31 25 18 24 36 32 25 23 24 28 26 30 31 26 21 25 31 29 26 31 29 36 23 34 23 37 38 20 36 31 21 38 21 29 28 31 27 36 22 30 37 21 38 37 21 37 21 23 34 36 36 30
31 30 27 24 30 36 20 26 18 32 37 30 23 31 25 30 35 25 24 35 36 25 38 24 36 34 27 26 21 31 33 25 27 21 37 24 34 27 33 32 32 35 34 35 20 30 33 23 37 20 24 30 32 25 21 32 29 38 21 21 33 20 28 34
33 32 38 18 36 31 24 31 22 18 23 18 31 18 31 33 23 23 33 20 25 32 35 38 18 28 35 29 29 27 36 23 38 25 29 23 19 21 33 19 36 35 32 19 21 20 24 35 18 30 22 18 19 35 23 38 35 23 32 31 18 25 22 21
31 22 34 23 34 24 28 22 30 24 21 33 35 32 34 23 19 32 31 38 25 31 30 26 34 35 23 35 28 33 19 33 20 19 25 31 38 23 20 34 20 21 20 23 36 35 19 36 33 30 25 22 33 37 25 27 33 20 37 31 26 38 22 27
38 28 22 33 28 21 18 19 27 18 22 20 36 20 35 25 22 29 26 36 32 37 29 30 29 23 24 26 28 35 37 29 23 28 37 36 20 25 36 26 34 32 32 25 25 24 34 29 38 23 19 34 32 30 37 29 32 36 37 24 19 21 24 33
34 24 30 38 38 25 26 22 24 25 27 24 18 33 35 32 19 21 30 21 18 18 34 30 29 30 38 21 25 26 19 35 26 29 37 18 31 18 27 31 37 22 31 26 22 33 26 22 35 38 37 18 36 20 37 24 25 32 32 18 24 26 35 19
20 35 32 34 21 36 28 35 23 32 24 36 21 25 24 21 36 27 18 24 32 21 18 31 36 24 21 31 19 23 27 24 26 27 29 23 24 31 28 31 36 31 30 26 35 24 33 27 29 29 37 30 20 19 31 19 23 37 31 38 25 31 32 34
29 19 22 30 32 34 24 24 37 34 21 22 19 26 31 18 30 18 30 21 28 20 23 22 18 31 31 19 19 35 34 35 32 20 34 25 23 24 31 34 34 35 38 24 27 19 27 22 31 18 36 34 18 21 30 26 25 36 27 35 30 32 19 21
35 22 19 19 18 37 22 31 24 19 26 26 18 29 35 21 28 34 23 38 21 37 24 26 35 27 20 20 28 29 29 34 33 33 35 33 34 19 29 27 34 36 34 30 34 36 18 30 18 25 30 23 27 27 30 24 35 30 18 29 34 18 22 32
36 21 37 34 27 19 33 21 37 34 22 29 25 31 25 25 22 24 25 30 29 24 37 35 37 27 26 34 37 18 31 19 34 36 37 37 31 34 33 20 21 20 24 26 35 33 25 27 35 25 35 19 21 19 31 32 25 26 34 36 27 22 30 22
21 32 23 30 24 29 31 27 18 26 37 24 19 33 20 31 27 22 27 35 22 38 27 34 23 21 25 20 21 26 21 30 23 34 29 22 36 36 38 23 22 33 33 37 28 26 18 24 33 22 20 18 18 21 28 30 28 31 26 28 34 32 19 20
35 33 32 32 20 25 18 29 23 27 31 33 18 27 21 26 19 26 35 24 31 19 25 33 19 27 37 38 29 28 25 25 19 28 28 37 23 30 36 31 27 21 38 18 22 20 23 36 32 30 31 34 30 34 34 23 19 23 32 29 30 35 19 29
32 36 20 31 26 19 32 33 37 22 31 28 36 26 35 32 21 28 26 38 19 19 23 27 22 38 38 34 30 21 31 18 19 38 21 31 18 18 26 27 31 24 20 35 22 38 28 29 18 38 27 36 37 25 28 30 25 25 28 26 36 22 38 33
19 34 18 26 32 34 31 35 23 30 20 34 20 29 24 36 34 21 20 35 25 28 34 33 24 31 18 26 35 25 21 24 37 34 20 32 37 34 20 23 27 26 31 25 21 29 29 21 22 20 38 26 33 27 24 33 25 20 36 30 18 21 31 36
22 22 18 25 35 20 37 35 38 26 21 26 36 28 37 30 20 19 25 34 32 20 19 21 28 20 24 30 23 21 30 21 34 21 19 26 27 29 18 34 24 28 18 19 21 30 18 33 36 31 25 37 34 25 18 33 18 38 19 19 38 33 31 32
26 38 31 26 21 30 30 26 25 35 24 24 30 37 27 21 19 29 38 18 21 30 22 30 37 30 22 26 29 31 36 37 25 18 38 26 38 32 38 22 27 31 29 34 36 25 29 20 25 19 22 38 25 22 38 25 35 32 19 37 21 28 25 38
