P2
64 64
255
20 20 15 24 25 21 25 22 23 14 21 20 19 25 24 20 23 16 18 21 20 17 14 17 19 15 26 26 18 15 20 25 21 23 19 17 14 22 20 22 16 22 17 17 17 14 15 25 26 25 15 15 25 20 22 14 14 20 25 26 17 25 20 15
26 15 25 21 15 18 16 26 16 25 26 21 15 21 21 24 14 25 17 18 25 21 22 18 23 17 23 19 21 24 21 15 21 24 15 24 20 21 26 26 22 17 19 22 22 15 25 19 16 22 23 22 18 20 26 15 14 22 23 20 24 17 24 18
25 20 17 26 18 21 17 19 25 24 21 16 22 16 18 21 20 20 14 18 14 25 21 26 20 19 22 16 22 19 21 16 16 16 15 23 23 23 24 21 14 23 26 15 23 23 15 25 16 18 14 17 15 25 21 18 16 25 26 18 14 17 22 17
25 17 20 22 16 16 22 21 15 19 18 15 14 14 23 20 17 18 24 20 25 21 25 18 20 21 24 26 14 20 16 21 23 20 19 17 18 22 26 26 25 15 26 22 20 23 21 18 18 14 19 23 16 16 18 26 17 19 23 21 14 22 20 20
15 26 14 25 23 23 18 23 23 22 17 16 17 26 20 24 26 20 21 21 19 20 25 23 18 22 26 15 23 15 16 25 14 17 23 16 24 23 17 17 20 23 15 26 21 20 25 25 24 18 26 26 20 17 15 26 16 25 22 25 14 15 19 22
23 19 19 14 22 19 18 21 14 20 17 17 21 18 24 23 15 23 21 14 21 25 14 17 14 21 16 26 18 18 17 19 26 18 19 15 21 23 23 16 19 19 17 26 21 18 15 20 22 21 23 26 21 24 26 14 24 16 15 16 21 25 16 23
25 18 25 16 14 19 18 14 18 24 25 19 16 17 18 22 24 17 17 18 14 23 25 19 16 16 22 25 19 25 15 15 18 14 18 16 23 15 20 24 20 17 17 22 21 21 22 16 25 25 18 15 18 26 14 26 15 24 22 20 25 24 18 19
24 18 20 20 25 26 20 17 24 17 16 22 15 18 18 26 19 20 26 22 21 25 16 16 25 15 24 22 19 22 14 21 19 22 21 24 15 21 21 25 25 19 19 14 26 17 16 26 21 20 25 14 21 17 18 18 16 15 20 15 14 21 21 23
25 26 26 20 15 22 18 22 23 15 25 22 26 16 17 26 15 16 25 16 22 17 15 25 19 20 21 20 16 23 17 14 25 20 25 15 15 17 20 22 19 25 20 18 24 19 25 22 24 24 14 26 16 18 24 14 17 23 21 26 25 26 23 16
23 15 24 14 15 18 22 18 24 18 19 25 26 24 19 15 14 26 21 21 23 14 16 20 14 26 14 20 16 14 20 23 24 20 22 25 19 26 18 16 20 16 17 20 24 21 23 17 23 26 14 17 21 20 25 26 18 17 16 22 16 20 26 15
20 25 14 22 18 20 20 25 25 15 14 19 19 24 14 20 21 24 26 16 25 26 15 19 14 23 15 21 21 21 19 15 20 26 21 14 21 14 16 16 16 18 19 25 25 14 16 17 19 17 20 22 25 15 15 20 17 24 15 20 14 16 20 17
24 20 22 21 14 22 21 22 22 24 15 18 20 26 22 21 21 17 17 20 17 26 15 17 23 23 21 17 17 23 25 20 19 14 15 17 22 23 26 21 17 21 24 21 16 15 19 14 26 23 25 21 17 16 24 21 15 23 19 16 19 26 20 22
19 15 22 15 26 22 23 14 23 25 20 15 17 24 24 26 26 21 14 24 14 23 24 25 15 20 17 25 14 24 17 25 15 25 17 22 22 24 15 18 21 21 25 15 17 16 26 25 25 24 23 24 18 17 24 26 24 23 15 17 25 16 18 21
15 21 23 19 24 23 15 19 17 23 25 20 25 18 16 15 20 25 21 16 17 19 25 23 25 16 25 19 20 24 17 17 26 15 19 21 15 22 20 25 18 14 23 24 20 21 24 23 19 21 24 14 19 18 17 24 19 18 23 19 16 23 15 23
15 17 16 24 14 21 22 16 16 23 20 21 20 16 18 18 22 19 22 20 14 26 22 21 16 17 20 19 22 22 25 21 23 26 19 23 24 24 25 17 16 22 16 21 15 25 21 20 25 22 20 26 16 19 16 26 25 14 17 24 24 23 21 15
26 20 17 17 26 20 26 25 20 24 15 25 19 19 20 17 23 22 17 22 24 15 22 16 15 19 26 15 25 19 24 24 17 18 14 24 18 18 21 19 19 15 20 15 21 24 14 17 26 16 14 17 17 22 24 26 14 21 18 19 20 17 14 20
18 23 26 25 15 23 25 14 22 21 23 25 19 14 19 17 17 17 26 21 15 15 20 16 22 14 19 15 19 21 24 16 19 22 21 26 17 23 14 16 16 25 16 16 25 24 22 17 26 20 26 15 20 19 16 16 22 19 16 14 17 15 24 26
24 21 15 17 23 15 24 18 14 14 23 23 22 19 17 16 16 26 16 21 22 14 14 25 15 20 25 20 14 24 23 22 19 23 15 15 19 20 14 26 22 26 16 23 17 24 18 21 25 14 20 19 14 14 15 26 17 14 20 22 24 20 25 20
25 26 22 20 18 19 17 17 14 16 14 15 25 19 17 24 26 18 20 25 19 14 18 20 18 19 14 16 19 19 19 21 21 21 18 26 14 24 15 18 24 22 23 26 25 17 21 23 25 19 25 22 20 17 20 23 18 20 17 21 15 24 17 26
21 19 23 25 18 14 18 26 24 22 21 20 15 20 16 18 18 26 22 17 23 23 21 27 22 17 24 23 18 25 17 15 19 24 14 20 19 16 24 26 21 17 21 21 19 20 28 25 18 18 18 19 14 19 15 25 22 24 21 14 18 23 21 18
26 15 14 19 14 23 14 23 26 16 25 23 18 14 16 26 21 28 23 30 30 26 21 24 26 30 19 26 25 17 25 17 17 14 24 18 17 19 18 21 25 27 27 34 31 21 25 21 24 28 22 23 16 18 17 16 18 17 18 26 15 17 25 20
20 18 23 21 16 24 19 14 23 22 22 23 18 21 25 20 28 32 32 27 30 37 27 33 31 24 28 24 20 19 21 23 20 20 28 15 21 23 30 27 25 27 36 34 34 27 24 30 22 21 21 25 15 22 24 24 26 15 20 16 16 25 20 16
16 15 25 18 22 19 26 25 21 25 17 16 28 24 25 35 33 34 28 30 34 36 32 29 34 27 33 27 36 35 33 23 24 33 29 26 26 29 30 30 29 40 37 37 36 33 35 34 33 30 30 26 23 19 18 26 17 25 16 23 24 26 16 14
25 15 16 20 22 20 14 25 25 14 25 24 30 28 28 30 39 32 33 42 35 41 42 40 37 37 38 40 40 36 39 35 34 33 37 38 44 42 46 44 35 41 45 41 42 43 41 38 33 39 26 28 20 17 16 26 17 15 19 14 26 25 16 14
26 19 19 17 22 15 21 26 19 14 18 22 24 33 38 33 42 36 43 44 41 40 41 48 44 51 52 44 45 54 45 41 41 42 52 48 44 52 44 52 48 47 40 39 40 49 41 41 33 36 30 27 27 24 24 14 22 18 25 22 20 14 26 25
26 23 21 19 25 21 18 24 17 23 24 27 26 39 38 34 41 39 45 53 42 49 54 49 54 55 53 58 54 52 53 47 52 48 55 60 60 64 58 57 56 57 55 48 41 47 42 39 38 45 39 31 37 27 20 23 23 17 19 25 21 15 21 24
20 14 18 16 26 17 17 19 25 18 21 34 39 38 39 41 42 51 47 44 51 56 59 58 59 62 67 71 60 68 62 66 57 57 61 70 72 69 65 71 67 57 55 58 50 49 55 42 50 40 35 38 40 30 27 22 18 18 17 26 15 18 24 22
21 25 19 23 26 20 16 20 16 25 30 36 30 35 42 51 46 47 54 60 63 59 69 63 67 71 70 73 77 68 67 76 69 71 68 68 74 74 71 73 76 63 71 61 59 54 56 57 48 44 44 42 37 32 28 27 26 18 24 23 19 16 18 18
25 22 18 24 19 15 17 17 28 24 34 38 32 40 44 50 53 58 51 57 61 75 79 81 73 74 83 87 84 86 83 82 76 76 81 87 80 77 81 74 83 77 77 68 67 65 59 54 55 49 43 35 39 30 33 24 21 24 23 20 15 24 17 25
19 20 25 26 23 20 22 22 24 27 32 38 36 37 44 51 49 57 58 65 78 81 76 81 81 91 89 92 94 90 81 84 91 88 82 82 86 86 84 91 91 86 81 78 77 68 65 63 59 54 48 38 44 37 27 23 23 22 18 16 17 19 18 24
25 19 26 19 14 18 21 16 26 28 37 42 40 50 47 57 60 57 57 65 77 83 90 89 93 97 100 100 90 99 89 94 97 98 95 98 93 96 97 87 91 88 83 81 83 77 67 53 49 48 43 49 41 33 35 34 25 24 23 22 23 15 21 15
16 16 19 16 16 21 14 23 22 24 35 40 38 42 44 52 54 57 69 82 80 95 93 101 99 99 100 95 101 105 107 100 108 100 96 100 99 96 105 97 101 94 88 86 88 77 69 64 54 54 51 50 41 31 38 23 28 19 18 25 17 15 16 25
14 15 16 23 21 25 19 20 28 26 36 31 46 50 55 59 62 58 64 79 95 93 99 101 107 106 102 104 109 107 113 105 108 103 102 108 105 104 103 104 97 105 96 99 94 74 72 55 58 47 45 47 41 42 40 33 30 25 22 20 24 20 23 14
15 25 24 15 26 23 25 26 27 34 34 40 46 43 44 53 61 55 72 78 92 89 101 101 99 107 107 109 105 108 109 116 111 116 107 112 110 103 109 103 102 98 103 88 83 80 68 66 58 59 48 48 45 33 36 34 28 25 25 20 16 23 23 16
16 15 23 24 17 18 18 17 28 24 37 37 43 45 45 57 59 55 70 80 82 90 98 100 108 111 109 114 113 118 114 114 125 115 122 119 115 113 103 99 105 99 100 91 80 83 67 57 61 51 47 50 39 33 27 27 25 17 25 23 23 23 21 17
17 24 26 15 21 15 22 27 23 27 26 30 36 40 48 46 53 53 71 75 78 86 93 95 107 110 111 109 107 113 121 123 122 117 115 118 108 105 105 107 95 102 98 90 77 72 69 58 48 50 41 38 42 41 32 33 21 21 26 17 14 24 15 25
24 19 21 14 19 23 26 17 22 30 35 38 37 35 42 47 49 59 58 70 79 80 93 95 94 107 101 107 113 115 120 125 130 117 118 110 112 110 111 99 97 98 90 89 79 69 62 56 52 50 39 46 43 38 30 30 20 18 24 25 24 14 15 24
15 21 15 25 17 18 15 26 21 22 27 30 32 37 49 42 48 55 64 62 70 77 88 92 90 99 107 100 110 114 109 121 122 114 113 117 105 103 98 105 98 93 89 77 73 66 67 50 49 42 45 33 30 27 24 24 21 25 25 21 15 14 14 20
24 24 15 22 25 23 16 16 16 21 25 34 40 43 45 39 43 51 60 68 67 78 87 84 88 97 100 96 105 112 106 109 105 111 113 102 98 101 92 100 94 85 82 71 74 69 53 48 46 43 41 35 37 36 33 25 14 22 15 19 19 21 26 15
17 21 21 18 17 26 26 14 15 20 19 30 28 29 42 44 37 50 55 65 60 71 73 86 86 93 91 99 102 94 95 104 102 95 101 103 102 93 89 86 91 80 79 67 68 61 51 43 42 39 37 37 35 29 19 24 15 24 21 24 24 22 20 16
19 20 21 22 22 26 20 22 19 21 21 31 27 32 29 31 41 34 52 59 56 70 69 74 73 82 84 84 85 91 88 88 86 94 93 89 94 94 89 84 79 76 67 68 53 50 46 38 40 35 40 29 26 32 27 24 20 19 22 22 21 20 26 25
22 18 20 16 23 23 14 14 15 17 27 28 21 26 25 31 35 42 41 52 56 58 59 70 77 79 76 76 80 79 78 87 88 80 80 82 86 77 85 78 67 71 64 52 56 43 37 38 37 37 28 29 26 24 16 16 23 15 26 24 19 22 26 23
17 15 25 20 17 21 17 16 23 16 23 23 27 22 30 34 35 34 35 44 43 56 62 65 63 70 67 78 78 69 71 78 81 74 73 81 71 74 68 66 60 55 63 46 44 40 32 34 38 30 32 24 22 22 21 22 22 22 22 22 17 14 26 21
16 17 19 17 21 14 19 25 24 14 23 16 16 25 28 27 30 28 31 32 43 50 53 50 63 63 59 68 67 68 69 66 74 64 72 69 65 65 59 61 59 59 49 41 45 30 33 35 24 21 22 21 23 20 24 15 24 17 15 15 15 14 24 24
25 20 22 16 25 21 21 21 14 25 15 22 14 14 23 18 28 26 33 25 31 37 39 43 51 47 49 59 61 61 59 61 59 65 59 55 62 53 61 55 45 50 39 37 36 24 24 27 21 21 21 25 18 23 25 26 24 20 22 20 22 14 17 15
25 23 18 14 23 25 18 20 15 15 15 25 25 15 21 21 22 23 22 21 29 30 37 43 39 42 53 44 48 53 61 59 59 64 57 56 47 53 51 47 47 38 33 35 24 17 21 22 26 17 14 20 19 23 20 22 21 21 25 17 23 19 17 19
22 17 20 19 21 16 20 19 19 14 23 20 23 21 16 24 17 15 20 20 19 27 20 27 34 40 43 44 41 54 47 51 55 50 47 44 42 40 42 39 31 37 26 19 24 24 21 15 25 21 25 20 26 22 26 21 17 20 19 18 26 14 24 21
18 25 19 17 14 19 20 18 26 21 19 22 15 14 23 19 15 22 17 15 17 25 21 30 32 28 37 41 35 47 44 44 41 50 41 49 41 42 35 39 30 27 25 20 23 25 17 17 16 14 14 15 24 26 14 17 20 26 25 14 20 16 18 22
17 22 18 26 24 15 25 15 20 24 23 20 17 23 25 18 18 26 16 25 25 17 25 27 21 34 35 34 33 35 41 33 43 38 34 38 35 39 25 33 22 15 15 24 22 19 15 20 24 18 17 23 19 23 17 25 26 16 16 24 15 23 25 24
26 17 22 23 16 22 22 17 20 22 21 20 16 24 26 25 24 24 16 17 21 22 16 26 17 21 27 29 25 29 32 29 33 37 30 25 31 26 28 22 14 18 16 23 17 18 24 21 17 18 16 15 20 18 23 18 20 16 25 14 15 17 14 21
14 22 18 21 25 25 14 18 23 21 16 17 17 17 25 14 25 24 26 19 22 25 26 20 18 17 22 26 23 27 24 28 23 21 30 31 20 21 23 21 25 15 16 19 20 24 15 14 23 25 15 14 18 16 19 23 18 22 18 17 22 15 26 18
26 16 16 25 19 17 26 26 21 19 20 22 15 26 18 19 26 25 18 24 26 26 23 16 19 18 25 18 24 20 16 21 25 20 19 15 19 19 21 17 18 18 17 24 14 14 25 14 22 15 25 21 18 24 18 26 21 26 20 20 20 15 26 17
18 23 19 16 17 21 26 14 26 26 18 20 14 16 22 17 25 23 17 24 15 23 22 24 14 14 23 23 21 15 16 22 15 19 21 20 19 15 16 21 26 19 18 17 25 20 23 24 15 25 24 18 25 20 26 14 20 17 21 23 23 18 18 25
15 14 15 26 25 21 20 17 26 15 14 23 20 18 23 17 25 22 23 21 26 26 17 23 20 14 22 23 16 25 17 24 23 19 17 25 20 18 14 26 24 17 26 17 16 18 17 18 21 20 15 19 20 19 14 20 24 21 17 19 18 14 21 23
21 24 18 21 17 23 23 15 24 20 22 21 19 19 19 16 16 21 20 14 24 16 20 21 17 18 18 21 24 19 18 14 20 19 15 25 17 21 20 16 20 15 24 22 21 19 26 14 18 24 16 25 17 18 23 22 24 18 23 26 22 24 26 18
15 15 14 20 26 16 18 23 16 14 17 22 15 19 23 22 15 24 16 14 22 19 22 18 14 22 17 17 14 18 18 16 26 25 21 26 24 17 26 21 16 17 19 20 18 22 14 17 25 22 18 23 17 15 16 22 22 21 24 24 16 18 15 26
22 24 17 26 26 14 15 24 16 26 21 21 20 15 25 21 24 23 23 15 15 18 22 23 20 24 15 14 15 16 16 17 18 23 15 14 23 19 18 24 20 19 22 21 15 19 14 26 26 19 21 17 18 19 25 26 18 25 22 14 22 24 19 20
23 21 20 23 20 24 17 22 23 22 26 24 22 15 14 15 22 15 24 14 21 16 19 16 20 20 22 23 18 25 24 23 22 17 22 23 24 19 17 23 21 20 25 19 14 26 21 15 14 18 22 22 19 14 24 20 24 19 19 23 20 24 19 17
26 14 22 17 15 18 24 25 20 17 26 25 16 26 16 14 20 15 17 24 15 22 16 21 25 17 18 16 16 18 19 18 22 14 14 24 26 19 18 26 22 26 17 25 14 18 18 20 24 24 17 25 18 20 21 24 18 22 19 16 17 16 20 22
19 21 21 22 24 21 26 17 17 25 24 26 18 16 17 25 19 20 14 21 23 14 18 17 22 17 14 20 25 26 14 22 18 18 21 14 25 16 19 20 25 26 16 25 16 20 26 15 22 24 15 19 16 14 21 17 15 18 15 23 15 15 19 18
21 21 16 16 21 15 17 23 18 22 15 22 19 17 16 19 25 19 26 25 25 14 20 25 23 24 26 19 15 19 20 24 23 22 16 16 14 20 18 22 20 18 17 23 22 22 25 14 16 22 17 17 22 15 14 26 20 21 20 26 18 14 16 22
25 25 19 26 19 25 26 24 18 16 25 20 24 23 20 24 18 18 14 24 15 24 17 21 23 18 24 26 25 25 24 25 25 17 25 18 19 17 18 25 22 14 21 17 19 26 14 15 26 14 17 19 18 18 20 16 18 17 25 17 15 18 20 16
17 15 15 20 14 23 24 17 17 25 21 21 20 24 17 23 16 14 19 22 16 14 20 20 26 19 16 17 16 20 17 22 16 16 22 18 26 14 24 15 19 16 19 16 16 23 17 24 24 14 19 26 18 21 16 17 25 24 25 19 23 17 18 17
26 21 14 18 16 15 17 19 22 23 24 17 16 25 19 21 14 14 19 21 18 14 25 15 17 25 24 14 24 14 25 20 22 21 26 19 16 16 24 14 24 25 22 21 18 18 14 21 22 26 18 25 15 16 20 15 20 23 25 22 23 18 19 23
