P2
64 64
255
16 25 21 20 18 22 18 25 18 25 14 20 25 16 19 18 19 18 25 25 22 15 18 16 14 16 19 24 19 18 14 15 17 18 22 19 17 23 14 23 20 19 14 15 24 24 19 25 18 23 21 21 22 18 15 22 14 16 21 18 23 14 22 18
19 16 26 19 25 19 14 20 26 21 26 19 16 24 22 23 17 17 26 15 25 24 15 18 26 14 14 22 14 23 18 21 23 19 21 24 14 26 26 25 20 22 15 25 26 15 19 18 16 15 23 19 16 20 20 25 17 21 16 25 22 14 20 23
20 22 26 14 23 16 23 24 15 16 19 17 15 15 18 16 18 16 20 20 25 18 25 26 26 22 14 15 20 17 24 24 18 26 14 22 24 18 19 26 17 18 26 26 23 24 19 20 25 22 17 14 19 24 17 24 18 21 21 15 14 23 21 21
21 25 21 18 14 20 18 18 15 23 26 24 22 14 26 26 16 19 25 15 18 22 20 23 26 20 20 25 14 17 21 20 23 17 19 26 22 25 16 26 24 20 17 25 24 25 14 18 21 26 21 21 25 24 15 22 18 17 15 19 19 17 15 22
19 25 24 19 15 19 14 21 16 20 24 14 18 20 15 15 23 21 25 21 25 21 23 26 16 16 21 17 18 21 15 26 21 21 20 19 20 20 23 16 15 14 16 19 21 14 26 24 24 15 15 21 18 26 26 24 15 16 20 16 14 24 21 20
17 26 25 17 24 25 23 20 23 14 26 20 24 19 15 25 22 20 24 16 23 22 20 20 16 21 21 16 15 23 21 21 22 17 22 26 25 24 20 20 26 21 23 25 24 26 22 18 14 26 23 14 18 17 25 19 20 23 24 22 18 16 17 24
16 14 19 16 19 18 19 18 17 21 25 23 19 16 17 21 15 16 22 16 19 14 19 25 20 15 18 17 20 18 23 15 16 24 24 19 25 18 20 23 22 14 16 25 14 24 15 24 21 17 16 18 24 21 16 15 24 22 26 25 23 18 19 24
17 16 24 21 18 19 15 19 20 25 17 23 21 24 17 14 18 17 14 15 21 21 25 20 19 22 15 26 23 23 19 16 20 19 16 19 19 25 22 24 15 18 25 14 14 26 24 25 16 19 23 17 24 18 18 18 14 15 19 14 25 17 15 17
25 26 15 17 17 21 25 17 17 26 17 17 14 16 18 15 19 19 17 25 19 25 16 25 25 25 17 25 16 25 16 22 15 24 20 16 17 24 24 22 15 21 24 21 18 19 14 17 20 18 20 26 26 21 25 18 19 20 22 18 18 14 14 17
18 21 20 20 21 20 25 14 19 14 21 22 19 21 25 19 24 22 22 14 14 19 15 16 20 14 24 21 15 23 17 20 20 15 16 16 21 20 21 16 21 17 24 25 18 21 18 16 21 21 17 26 26 16 24 20 18 26 26 25 24 25 19 25
18 15 14 19 18 23 26 24 26 22 14 25 17 23 23 26 18 25 26 14 16 17 20 14 14 23 16 14 14 14 14 20 25 14 23 24 14 14 14 26 21 26 19 19 23 24 22 18 24 14 21 21 26 16 17 19 26 24 18 19 16 14 17 17
18 16 23 20 24 15 15 17 25 16 22 18 18 18 19 21 20 14 15 23 19 19 25 25 25 25 18 15 16 17 20 18 21 26 20 19 18 24 16 14 14 24 26 15 22 19 22 17 18 20 25 25 21 25 18 19 26 25 25 24 17 16 16 18
24 23 15 14 17 19 16 22 15 23 18 24 25 17 14 18 22 19 18 21 16 19 22 24 21 19 22 16 20 19 23 18 16 18 15 15 18 26 23 22 25 26 22 23 19 26 14 17 14 23 19 18 25 26 18 19 19 18 22 19 16 14 17 16
26 22 26 21 21 15 14 18 17 26 17 25 19 19 21 23 22 18 17 22 24 26 24 24 26 25 19 14 15 15 22 26 15 24 24 18 24 19 14 15 15 20 22 18 26 16 19 18 20 23 20 26 25 15 14 23 26 26 19 15 25 17 17 25
21 22 24 15 24 26 19 21 20 21 16 19 24 20 24 26 18 26 26 18 26 26 15 24 26 15 17 25 17 17 25 16 22 24 23 20 15 18 20 24 17 22 20 16 21 26 14 18 24 18 15 21 15 16 17 26 21 19 26 17 23 20 23 21
25 22 15 24 19 24 18 26 17 24 24 24 19 20 19 24 21 21 14 26 16 21 22 16 18 14 21 17 19 26 22 16 21 14 21 16 24 15 20 19 15 16 21 22 16 22 15 21 25 24 14 18 26 24 22 24 19 14 21 14 20 22 26 22
25 20 17 25 20 25 18 25 15 24 22 21 23 25 22 16 15 15 23 17 19 22 14 19 19 16 18 16 21 14 26 20 23 25 15 19 25 15 26 16 22 14 26 17 26 17 26 26 16 20 24 19 21 21 19 14 20 16 17 22 24 17 16 22
20 24 16 21 21 16 21 16 22 20 19 17 24 21 19 25 25 23 19 20 24 17 20 25 18 25 14 22 18 17 26 19 22 17 25 14 15 26 22 21 16 15 18 16 16 15 17 24 22 17 23 26 16 18 16 21 18 17 23 25 18 20 17 17
14 15 26 20 26 14 17 14 16 17 14 14 23 14 25 19 26 23 26 16 23 18 23 22 23 21 22 19 16 18 17 15 26 20 15 18 22 15 19 17 15 15 19 19 18 22 16 25 21 24 21 24 23 26 21 14 15 14 25 17 21 26 21 17
18 14 24 20 19 22 26 24 17 19 24 25 23 17 26 18 19 26 26 24 29 30 27 28 25 25 15 19 15 21 25 25 17 24 15 23 15 19 22 24 22 21 29 25 21 27 26 28 23 25 21 25 14 24 19 14 18 25 23 23 26 25 16 17
18 16 18 21 18 20 25 15 15 17 25 18 18 14 19 20 19 25 22 22 26 24 32 26 32 25 18 26 22 20 25 16 19 23 24 24 22 21 22 30 27 23 30 27 34 27 21 23 23 21 21 16 18 14 20 20 19 20 25 18 24 17 15 14
16 23 24 16 19 23 20 14 22 15 20 22 18 25 26 28 33 28 26 31 27 34 27 35 24 24 20 19 19 19 16 25 20 25 27 20 21 29 26 34 32 25 31 29 25 32 30 34 25 32 20 26 19 24 15 18 19 17 22 23 23 22 23 20
14 19 18 17 22 16 16 26 18 23 14 22 28 28 24 29 29 33 39 34 35 31 41 38 39 27 36 26 32 33 25 29 24 27 34 32 27 31 36 34 37 40 41 39 39 33 31 35 29 36 31 23 17 22 22 14 21 26 25 16 19 24 20 15
19 19 16 20 20 14 21 25 18 18 15 28 26 23 32 39 35 31 32 43 44 33 44 33 37 34 36 46 45 35 43 30 36 38 43 45 42 41 40 41 33 34 33 33 36 34 34 33 39 27 30 31 26 18 25 16 16 20 18 14 22 20 15 22
21 25 19 14 19 26 20 24 23 24 20 20 29 30 31 38 45 36 45 40 45 39 37 47 40 46 49 48 54 49 42 48 42 42 47 48 49 48 54 48 50 50 49 44 37 42 42 39 39 33 35 32 30 22 20 24 26 14 26 22 15 22 23 25
18 19 26 21 26 16 23 20 26 16 31 28 37 31 38 43 42 45 47 49 41 49 50 49 55 60 59 58 58 56 50 49 52 55 60 54 63 57 53 59 58 52 44 47 43 41 46 46 42 43 31 35 37 25 20 24 14 22 18 15 26 14 19 23
15 16 23 14 24 19 22 26 19 20 25 27 31 40 42 45 41 48 47 47 54 59 57 58 59 60 65 69 62 59 65 61 60 62 68 63 61 65 63 66 57 60 52 54 55 46 49 44 49 46 37 42 37 33 31 25 19 24 21 18 25 26 14 24
22 25 23 18 26 25 22 15 18 29 23 37 36 41 38 47 43 49 47 58 58 56 61 64 68 75 69 78 78 69 72 71 76 74 66 72 79 77 75 77 75 66 63 59 60 57 53 46 44 45 37 41 33 34 32 23 26 16 24 25 21 20 21 26
19 22 24 18 26 14 26 19 17 24 32 34 40 42 46 46 50 48 59 64 64 64 76 75 76 78 84 87 83 86 78 83 84 74 84 82 77 78 80 76 75 82 72 65 71 58 54 53 45 51 47 44 41 32 30 32 23 23 26 19 24 16 19 23
25 23 18 15 21 25 21 17 25 24 35 32 40 43 48 44 47 58 57 61 75 76 87 78 82 91 89 82 94 93 92 87 86 88 85 82 88 85 92 85 87 80 84 76 68 62 57 53 47 44 49 49 42 40 26 32 22 27 26 25 15 21 20 18
16 23 20 21 18 25 20 22 21 28 34 36 41 50 49 47 52 61 65 65 72 87 91 85 87 94 98 89 101 95 92 93 93 91 99 88 92 95 95 88 86 92 85 80 77 68 65 56 60 46 49 47 38 36 30 30 31 20 26 26 20 14 18 25
21 19 17 24 23 25 19 24 24 34 31 38 44 51 48 50 56 54 62 71 86 88 87 96 99 95 99 106 102 100 101 107 102 106 107 104 95 99 103 98 96 97 93 94 78 74 62 59 51 50 55 51 35 36 37 32 24 18 22 15 24 15 19 20
25 16 14 23 16 14 25 20 21 25 39 34 40 51 44 54 54 65 76 79 95 99 103 100 104 102 103 104 100 109 107 106 106 113 103 101 108 103 103 99 98 105 94 99 95 84 71 60 60 53 49 48 44 33 28 29 25 18 24 20 16 14 18 20
19 14 17 19 20 26 22 25 29 27 28 35 44 47 49 49 51 56 66 78 86 91 101 106 102 107 102 105 104 106 109 108 112 113 112 114 114 112 105 105 96 101 95 93 83 83 67 64 58 48 45 41 36 33 30 27 27 18 26 14 16 23 23 18
23 16 24 22 24 24 22 18 24 29 30 32 35 44 42 47 52 54 64 79 91 89 103 102 106 107 107 112 117 117 121 114 123 114 111 116 112 105 113 99 97 96 103 98 83 84 67 54 55 53 45 44 44 38 35 24 27 22 20 19 16 19 20 21
18 17 23 21 23 22 22 25 20 31 37 41 44 48 47 46 48 61 62 69 87 88 87 96 99 109 104 107 106 114 113 125 127 120 123 111 106 107 112 100 103 93 92 92 80 71 65 60 59 50 53 49 37 42 30 29 28 23 14 20 18 15 24 19
22 23 24 15 18 14 16 20 20 28 29 40 40 42 45 47 47 61 68 73 73 87 86 96 102 103 101 111 117 109 120 126 130 120 112 109 108 115 101 105 101 91 90 81 76 76 66 54 50 50 42 47 39 40 32 32 18 18 20 24 15 25 19 19
20 25 17 26 15 20 22 22 23 25 31 34 35 43 39 50 45 51 63 74 76 77 84 96 100 95 101 111 104 111 106 115 114 115 116 106 110 103 102 94 99 89 83 85 72 73 57 58 53 46 38 44 42 29 28 22 24 26 22 24 26 15 24 17
16 26 17 24 14 17 23 17 18 29 21 33 32 40 43 46 45 46 62 65 64 71 87 87 92 98 103 103 106 109 104 106 112 110 104 111 98 105 94 91 87 83 76 78 72 60 55 46 42 39 36 38 33 35 24 22 24 14 26 23 16 17 23 25
26 26 19 23 22 15 26 22 18 23 22 27 35 36 32 43 46 50 45 55 62 68 75 87 85 83 90 95 103 96 103 96 105 96 95 105 94 98 93 86 88 80 73 65 66 57 53 39 47 45 38 28 29 33 26 24 17 26 26 15 18 22 23 24
18 26 23 14 17 18 16 21 24 22 23 24 34 33 33 42 33 35 42 49 64 66 68 81 77 85 89 87 93 91 96 86 93 97 88 89 96 88 91 80 85 71 68 70 54 52 40 35 40 33 29 38 31 23 24 24 21 21 21 17 22 23 26 22
19 16 26 17 24 25 26 17 16 15 19 17 32 24 29 30 33 35 39 44 56 56 65 65 78 72 85 83 82 90 87 88 88 82 87 89 89 83 83 77 74 63 65 60 59 53 42 36 39 34 30 31 30 23 19 19 20 20 18 19 26 14 16 25
19 21 26 16 24 26 21 22 16 26 25 16 23 25 25 28 34 35 39 46 42 54 53 64 63 69 67 69 80 72 73 78 74 79 77 70 71 70 76 71 68 59 53 49 41 41 40 39 26 26 22 20 20 24 19 25 19 17 21 15 17 14 19 20
26 22 18 25 18 24 17 19 15 16 23 26 25 19 28 32 27 26 30 28 42 46 53 58 56 56 67 65 69 62 66 76 69 71 75 66 66 71 59 66 61 58 46 48 44 36 35 35 27 32 19 25 17 19 21 23 18 19 15 24 25 24 21 25
21 16 23 18 18 26 22 22 22 25 19 15 24 25 26 24 26 20 24 32 30 36 43 50 50 47 60 60 56 65 67 64 58 64 61 66 58 52 53 51 50 43 48 36 36 24 33 31 19 17 25 26 16 21 25 22 14 25 24 15 23 15 25 20
26 14 17 18 14 24 25 25 14 22 25 15 16 21 24 20 18 22 29 29 31 35 33 40 43 50 47 44 53 58 53 63 58 63 59 60 57 54 41 44 36 39 33 34 20 20 24 18 22 26 18 26 20 24 17 21 21 14 15 20 26 22 21 18
19 25 14 18 21 16 19 19 19 15 16 21 20 18 22 26 16 19 25 19 17 28 28 26 40 41 45 39 44 43 46 53 46 46 48 47 42 38 43 36 36 32 32 24 14 18 24 16 17 21 23 15 19 23 26 17 20 23 21 15 23 22 24 17
25 14 23 23 18 19 24 20 22 19 17 22 23 18 17 20 20 17 21 17 14 20 25 20 35 27 41 37 42 45 42 41 50 43 41 40 41 41 33 35 25 21 27 21 26 19 26 23 26 16 16 16 18 16 18 16 26 19 15 16 24 25 21 18
18 21 14 19 22 23 20 15 24 19 15 23 26 19 22 20 21 14 25 25 22 15 26 21 18 34 31 33 35 33 39 43 35 36 33 43 39 36 29 27 18 26 18 21 19 20 26 26 16 24 14 21 22 17 25 25 26 15 22 26 24 19 22 21
22 14 23 25 18 21 19 23 26 20 17 23 21 21 14 19 21 24 22 19 25 14 20 17 25 21 20 26 30 28 38 39 27 31 30 30 32 22 20 17 15 20 20 17 22 15 17 21 17 17 20 20 20 26 26 18 17 20 24 22 14 26 21 25
15 26 23 16 21 19 23 25 26 24 16 23 22 26 19 18 19 26 15 20 26 17 18 17 24 21 19 23 20 30 31 30 27 31 22 30 21 24 14 14 21 20 14 16 22 16 18 15 21 25 26 22 19 19 18 25 20 25 23 26 20 24 26 16
16 23 21 17 15 18 26 26 26 14 18 15 24 24 20 16 20 19 18 15 21 16 18 14 18 15 25 17 14 20 26 20 22 23 16 19 19 14 25 20 21 24 18 22 22 22 20 17 18 17 15 19 26 16 18 26 14 14 19 16 18 21 22 25
21 26 19 20 14 17 18 15 16 26 18 20 17 15 25 20 14 14 16 24 26 20 20 22 25 20 22 14 23 19 20 22 21 18 18 17 20 15 23 17 23 26 17 24 14 21 17 23 20 21 19 14 18 15 24 21 24 21 26 14 20 18 25 24
24 19 19 22 26 25 26 26 18 17 25 15 16 17 20 19 22 26 15 14 26 23 23 15 20 17 20 20 19 24 14 24 18 20 19 22 24 20 21 20 22 25 17 17 20 21 15 20 26 25 15 20 19 26 14 21 19 19 20 15 18 17 16 18
15 14 15 20 16 18 25 20 19 18 21 25 17 16 14 24 24 25 14 20 14 26 24 18 15 25 23 25 24 17 24 20 26 15 15 17 15 24 17 24 15 16 19 18 15 24 19 25 18 20 20 18 15 26 20 25 26 25 20 21 17 16 16 18
24 24 16 17 26 24 16 20 17 24 26 24 14 18 21 25 23 26 16 24 26 19 26 15 16 16 23 21 14 20 21 19 26 14 14 25 23 24 25 17 21 24 19 20 22 14 24 16 17 20 18 22 15 26 24 16 15 21 17 21 19 17 23 16
17 20 21 21 18 21 25 22 23 18 20 25 14 26 16 21 16 22 21 22 21 15 20 24 14 19 19 24 19 15 17 22 26 17 19 16 25 21 18 25 23 24 14 23 25 16 20 21 23 16 23 20 24 14 25 24 23 26 22 24 25 18 25 14
20 24 22 17 20 18 20 24 25 16 16 17 26 20 17 14 23 15 20 25 21 16 15 18 22 14 15 21 20 19 15 25 20 21 21 23 15 20 22 17 19 17 14 15 23 20 14 26 18 16 24 22 23 21 24 17 21 21 16 15 15 18 24 19
25 23 16 20 14 24 22 14 15 23 20 25 19 14 24 20 23 18 26 21 24 23 20 23 18 20 23 19 18 19 19 25 16 16 19 19 25 24 16 25 16 17 24 20 18 20 26 18 17 26 23 23 16 24 22 14 14 16 20 22 17 17 19 19
21 18 20 16 19 25 25 17 21 22 19 20 26 23 14 26 14 16 17 14 21 18 19 23 14 18 17 26 15 18 24 19 26 16 25 25 18 21 25 24 16 26 26 23 17 19 24 18 16 19 26 21 21 24 15 22 25 25 16 22 23 17 21 21
15 16 15 16 26 25 21 15 25 23 26 25 24 14 18 23 25 16 15 18 24 20 22 16 15 18 24 17 18 26 17 15 20 18 22 22 25 19 26 23 24 25 23 16 23 26 19 23 18 22 21 15 22 20 17 16 18 17 23 25 15 26 16 26
24 16 15 18 17 14 21 17 20 20 25 24 26 20 17 18 25 24 15 23 22 24 25 14 15 21 20 24 24 26 23 20 15 19 24 20 17 24 15 14 18 17 24 16 26 19 18 15 18 17 21 24 19 18 24 26 26 17 24 26 23 14 24 20
22 15 16 15 25 24 25 22 17 16 26 16 19 18 18 18 16 25 19 19 16 21 16 20 19 24 19 24 16 26 16 20 21 16 26 19 19 22 15 17 25 14 14 25 17 22 21 15 23 15 16 16 20 17 22 25 25 19 20 16 22 16 25 26
17 21 15 22 25 21 17 14 24 14 15 26 22 26 19 16 17 15 20 20 26 15 19 22 24 15 22 19 16 18 20 23 16 20 18 18 20 14 19 25 19 26 22 24 23 23 25 14 19 22 17 21 15 15 19 25 26 22 25 26 17 24 15 14
