P2
64 64
255
26 22 26 14 17 14 14 15 26 19 18 22 19 26 16 16 24 14 17 26 22 16 22 23 23 21 16 24 20 17 14 24 17 25 20 23 19 20 18 17 22 25 16 16 22 19 24 20 22 21 16 24 26 21 23 14 20 19 16 18 24 14 16 18
25 19 14 17 15 18 23 14 20 22 17 20 21 19 23 23 22 15 20 15 18 21 18 20 16 15 21 21 21 19 18 18 22 25 14 15 21 17 17 26 23 24 22 15 20 15 23 24 22 26 19 15 22 16 20 25 15 20 21 23 21 23 17 21
14 18 25 26 25 15 19 19 24 25 21 14 14 20 14 16 17 25 25 24 18 14 17 19 20 21 15 14 24 17 15 15 25 14 24 22 18 21 25 14 16 18 24 18 24 26 26 21 17 24 14 14 26 25 20 25 23 21 15 17 22 24 24 21
21 23 22 16 24 23 26 15 17 17 15 21 24 21 19 15 16 18 15 22 24 15 19 16 18 23 16 26 25 17 15 23 26 24 16 26 15 20 26 21 19 20 20 25 16 22 18 14 25 26 14 15 25 17 14 19 20 18 14 20 15 19 21 25
26 17 18 16 22 22 25 20 25 18 18 15 19 19 17 20 20 24 22 21 24 14 15 25 22 24 21 15 23 14 16 19 15 23 22 24 23 18 14 21 21 22 26 18 21 23 24 20 14 24 18 20 19 16 25 15 17 21 20 26 25 17 24 20
16 17 22 22 24 24 17 14 26 17 26 14 25 14 17 14 16 20 17 21 16 23 26 16 15 22 24 25 23 19 18 15 25 24 16 21 22 14 18 26 15 19 21 19 23 26 24 24 19 24 22 21 22 24 18 25 16 16 21 22 18 20 17 17
16 14 21 22 26 19 15 21 18 23 26 19 19 24 14 26 14 26 18 19 19 17 17 14 23 15 20 14 14 26 22 16 14 21 19 23 14 15 25 24 17 17 24 23 20 18 19 22 15 16 19 15 22 14 15 23 16 19 22 19 20 20 16 19
16 20 20 22 14 15 26 19 22 21 19 24 21 24 19 23 15 14 24 20 20 14 24 14 26 20 18 19 24 25 20 22 21 22 15 24 25 18 26 24 25 24 23 22 15 18 16 24 20 19 25 21 17 17 21 18 25 18 23 23 24 20 20 15
24 26 26 18 25 17 20 15 18 26 23 24 20 19 23 26 24 26 22 17 23 22 22 24 25 21 22 14 17 14 15 16 16 25 18 20 16 16 17 18 20 20 18 19 19 23 16 21 26 26 15 14 26 19 14 14 25 20 16 25 21 22 20 14
21 23 16 21 26 15 26 15 21 19 21 24 19 26 23 19 20 14 18 24 14 23 14 22 20 21 20 15 15 24 24 23 16 24 23 16 16 22 18 14 21 19 26 24 16 21 18 19 16 18 26 17 26 17 17 15 19 23 19 14 14 20 15 26
25 17 20 18 19 23 15 20 24 16 23 15 26 16 21 25 19 26 20 17 20 22 17 26 16 24 16 17 26 15 17 21 16 26 22 14 22 17 16 22 19 22 22 20 18 23 23 16 14 23 24 19 16 23 17 20 17 26 24 16 21 15 21 25
18 17 22 15 24 23 14 22 23 22 19 17 20 24 19 14 23 14 20 16 21 14 21 23 16 14 17 17 18 24 23 18 14 23 26 19 21 24 20 21 26 23 24 20 14 25 23 19 25 20 24 19 23 24 18 16 15 25 16 14 15 19 20 14
22 16 23 14 23 24 24 17 24 20 23 24 17 23 26 15 26 16 21 26 24 26 24 19 25 24 17 22 25 19 16 20 15 21 14 16 18 19 16 23 23 22 26 16 24 18 22 17 24 15 18 19 26 25 17 21 22 21 14 18 20 19 23 24
18 17 25 18 16 16 25 16 15 23 16 16 22 20 24 18 16 22 17 26 19 14 19 24 26 14 26 17 14 14 21 23 15 22 20 17 20 23 20 24 26 22 20 19 16 25 23 18 14 18 16 24 15 17 24 24 15 20 20 23 18 25 26 17
24 14 25 26 15 23 24 18 24 19 14 22 24 20 21 21 23 16 16 21 24 14 14 22 24 25 23 24 16 22 21 14 26 14 22 25 19 16 25 24 19 21 24 14 20 20 18 14 21 22 17 15 20 21 22 21 16 22 15 26 24 20 26 26
26 17 16 26 21 25 23 25 18 23 21 15 16 21 17 15 17 17 15 21 15 17 22 25 23 23 22 22 16 22 21 18 18 26 16 25 19 21 18 23 17 23 21 20 19 22 20 26 14 25 19 25 20 23 19 25 24 25 21 20 15 23 20 18
26 22 15 21 14 22 20 22 14 25 17 17 22 24 23 14 14 16 18 25 20 21 24 18 14 26 15 14 20 21 18 24 17 18 22 19 19 22 18 16 17 16 14 20 18 21 16 18 26 20 19 15 14 16 26 14 22 22 20 21 23 17 26 16
16 17 18 21 26 25 26 15 20 15 20 22 23 25 16 15 19 20 25 19 24 21 14 17 14 16 16 14 24 22 15 26 15 14 22 24 17 19 15 18 22 15 19 16 19 14 15 19 23 22 23 15 23 19 20 14 21 15 24 17 18 19 26 14
17 20 21 21 26 18 20 14 24 21 26 26 25 20 24 26 21 16 16 14 14 19 20 15 19 18 26 26 20 15 16 17 14 20 20 17 20 15 18 20 21 21 24 18 18 26 23 19 15 14 19 15 23 15 21 25 23 22 17 21 14 16 23 18
16 19 25 15 21 17 23 26 18 17 21 19 17 23 22 25 23 21 26 17 22 18 24 29 18 18 25 26 21 23 14 16 15 14 21 26 21 26 23 15 28 24 17 29 29 17 18 22 21 26 14 23 19 20 16 17 22 15 16 25 21 18 21 14
16 22 23 26 21 20 16 16 18 23 20 20 24 21 26 19 25 26 25 21 33 26 21 27 21 24 26 19 18 15 24 26 19 17 26 22 14 20 24 26 32 27 26 29 33 29 28 21 28 22 21 21 17 15 18 20 24 15 24 26 18 26 16 25
15 19 16 22 19 22 17 20 19 23 19 21 14 23 24 32 34 33 26 34 34 31 29 25 28 29 25 20 21 15 26 18 16 19 15 26 21 19 28 34 27 34 37 30 31 37 30 30 29 28 28 28 24 21 17 21 22 23 19 26 15 23 20 21
16 19 19 15 19 14 19 26 20 26 15 16 19 30 23 35 30 34 35 37 34 30 30 40 28 30 30 34 24 19 21 20 26 15 24 24 27 34 35 35 33 36 41 32 32 34 32 27 35 35 28 20 22 21 21 15 15 18 17 23 26 22 15 15
14 23 23 22 21 18 15 15 14 17 24 22 22 32 28 28 32 34 34 33 36 45 37 34 39 29 30 29 33 22 22 23 23 17 26 29 26 28 27 38 42 34 42 33 44 34 34 38 29 29 26 33 29 19 19 17 21 15 26 23 16 26 18 25
14 14 16 25 21 16 18 17 22 16 25 30 24 28 30 35 37 44 37 38 37 47 49 47 37 42 33 30 28 29 28 29 17 22 23 31 28 35 37 40 39 37 47 45 49 46 38 35 44 39 36 33 23 23 25 23 24 19 18 23 18 19 20 25
23 19 18 19 17 21 16 15 16 26 21 28 33 28 34 36 40 47 48 44 52 51 46 40 47 47 38 32 29 32 25 31 19 31 32 31 32 42 44 38 42 48 48 46 45 49 50 40 43 44 34 31 31 22 26 28 22 16 26 20 16 25 15 22
25 20 19 19 16 17 15 18 26 21 31 30 28 42 44 42 39 41 46 46 51 51 45 52 52 39 41 36 40 39 30 26 25 31 25 29 35 44 42 39 49 44 50 46 46 52 48 44 39 38 38 41 35 29 28 29 16 19 22 26 26 19 21 24
17 23 22 23 18 24 14 18 21 23 32 35 34 43 43 45 46 50 57 54 61 56 53 56 54 42 47 42 35 41 26 32 30 30 35 40 33 41 44 51 52 59 54 51 54 48 53 52 42 51 38 44 41 31 31 31 21 25 18 25 25 14 25 21
18 26 23 17 19 20 16 21 29 31 28 28 35 39 43 51 46 50 62 64 57 60 64 58 59 49 47 46 36 42 31 38 39 33 31 38 45 50 45 51 51 53 59 62 59 53 59 58 50 42 43 44 40 34 35 32 28 16 22 20 24 23 23 22
20 24 19 20 17 14 15 16 22 27 33 31 33 46 51 46 55 58 62 67 69 66 63 58 56 54 46 44 41 45 42 39 30 37 35 39 48 46 48 56 61 59 61 66 57 57 53 59 50 53 44 41 42 33 37 25 22 19 23 24 15 16 16 21
24 16 19 19 20 18 22 15 20 29 29 38 40 49 49 50 54 62 63 59 70 64 71 62 62 49 51 45 49 40 34 37 43 33 38 41 48 42 51 54 55 68 62 71 63 69 57 63 49 54 53 38 38 38 37 34 30 17 19 16 19 18 18 17
16 21 26 23 15 22 19 23 27 27 30 35 41 41 44 58 56 63 60 74 67 64 65 58 56 56 57 46 49 43 35 44 44 40 33 45 49 43 52 52 58 64 61 74 69 63 67 56 61 47 48 48 36 40 38 35 28 20 16 17 20 22 25 25
26 16 22 20 14 14 15 27 29 26 29 35 37 49 46 59 56 59 65 63 71 68 74 67 57 54 54 53 50 38 43 44 39 39 44 45 41 48 50 60 59 64 66 67 74 72 69 56 52 54 47 44 47 41 31 35 22 19 22 21 16 22 20 21
16 17 19 22 14 19 23 27 24 32 37 42 46 40 51 56 52 56 61 71 67 72 73 66 62 53 52 45 45 46 44 43 41 42 35 35 45 51 47 54 63 63 71 66 75 69 63 56 52 48 54 50 43 40 34 30 23 20 26 25 18 18 15 24
23 24 25 17 20 16 14 20 26 32 28 34 43 41 48 57 57 54 65 66 61 67 62 68 65 55 48 54 40 38 38 38 34 41 38 41 44 54 49 50 63 67 67 68 68 68 63 57 50 57 47 50 39 40 27 26 28 16 24 25 21 14 22 25
23 18 26 26 24 17 19 26 26 25 28 39 44 39 53 46 55 53 61 59 59 57 66 63 55 52 50 40 44 37 37 30 40 33 38 43 38 47 55 56 51 64 64 66 61 64 63 51 50 48 49 44 40 40 30 28 19 17 19 16 19 22 23 24
26 24 23 22 19 18 18 26 21 22 35 32 40 38 39 42 56 59 54 54 54 65 60 60 60 54 52 40 43 32 40 28 30 28 39 34 37 51 43 52 52 56 54 54 63 58 60 58 55 46 39 38 34 31 33 33 21 25 23 19 14 18 25 19
24 22 21 15 24 15 18 15 27 29 34 31 40 39 46 44 50 57 56 52 59 51 56 56 48 49 45 44 41 40 38 29 27 36 37 31 34 39 41 45 57 57 54 61 56 54 52 54 42 47 45 43 31 30 23 20 18 21 20 14 16 19 26 21
21 20 19 16 14 16 24 26 21 26 31 25 38 39 43 45 43 52 43 49 46 51 48 47 44 49 42 35 36 28 35 23 27 28 27 37 43 37 41 49 42 50 53 52 48 50 47 53 40 45 41 31 33 29 23 23 19 21 20 19 15 17 25 15
20 24 24 29 20 26 20 18 17 30 33 34 37 42 35 47 41 49 49 48 48 56 55 46 49 42 44 45 42 42 38 27 30 32 36 40 43 42 50 41 55 45 58 56 49 58 51 45 48 45 44 45 33 30 36 30 26 22 29 28 32 26 21 24
25 20 22 28 29 27 30 24 33 27 25 36 35 43 48 39 44 43 46 46 53 47 53 52 51 50 50 49 40 42 38 33 25 35 30 33 37 45 52 47 49 55 51 60 57 58 55 57 45 55 52 50 47 36 40 33 26 32 38 27 27 39 29 36
32 28 25 33 31 34 25 32 32 27 33 30 38 41 45 46 49 53 52 56 53 58 47 49 50 42 44 46 45 41 42 30 31 36 34 40 42 48 44 55 52 52 56 53 61 51 53 53 49 50 42 50 37 42 38 36 41 33 41 39 43 33 38 44
24 24 28 25 30 28 25 24 22 22 30 30 34 29 35 35 42 46 36 43 37 39 45 47 46 44 34 31 40 37 25 34 33 35 33 27 35 40 41 36 43 41 41 44 50 50 40 38 46 37 42 34 40 38 29 33 33 31 36 35 34 33 35 35
21 21 23 25 22 28 23 28 28 21 17 21 21 21 31 27 26 39 36 41 39 35 41 32 36 27 30 33 22 25 18 18 23 27 25 26 26 29 28 37 36 33 35 40 30 42 30 29 29 36 32 29 23 19 26 25 26 29 32 24 30 27 22 20
14 21 25 19 15 22 14 22 20 21 15 21 25 21 19 25 19 25 32 21 33 32 31 28 24 24 25 24 22 24 26 15 21 25 16 14 22 25 18 18 20 21 27 25 22 23 33 26 21 20 19 21 23 16 25 17 15 19 20 18 23 25 24 19
15 24 21 25 20 15 22 23 19 23 14 22 21 23 20 14 20 22 29 17 24 25 18 27 16 26 26 17 21 21 16 20 16 23 26 26 19 19 26 27 18 18 27 25 25 24 25 19 27 16 26 24 15 19 24 24 20 18 17 14 22 15 26 18
26 17 22 15 19 24 22 18 26 19 17 17 23 14 26 17 25 25 14 14 25 26 18 18 21 26 21 22 21 22 16 24 24 16 19 25 14 22 21 23 26 14 22 19 19 25 17 24 19 19 15 16 18 17 14 22 21 14 19 14 25 26 24 18
17 26 25 17 20 23 24 20 19 20 15 21 18 19 25 16 23 16 20 15 25 17 16 20 18 16 15 26 20 25 26 23 16 18 19 24 20 15 19 18 18 17 15 19 23 20 23 22 17 23 18 16 25 15 26 16 19 16 16 21 26 22 22 20
14 19 14 16 17 23 24 20 20 21 24 22 21 25 16 14 26 22 23 18 25 20 18 24 25 15 14 21 20 25 17 19 15 17 21 26 26 26 22 19 19 22 17 16 17 26 22 14 26 26 23 14 19 26 26 17 23 16 20 25 16 23 24 23
20 20 15 25 21 21 17 20 21 16 18 17 15 18 21 24 16 14 26 14 24 24 20 23 23 20 15 20 17 18 14 22 20 23 15 22 17 22 23 16 24 24 15 14 20 22 16 14 18 24 23 18 22 15 23 20 24 24 25 23 15 16 17 21
25 22 18 15 19 26 18 25 24 15 22 24 20 21 15 15 22 24 17 19 16 20 19 20 14 19 14 22 22 21 17 14 18 21 20 26 26 16 16 22 19 22 21 22 24 22 17 14 17 23 24 24 25 24 20 25 18 17 25 22 23 16 26 23
14 26 26 21 24 25 17 23 18 16 16 19 19 17 17 25 22 22 20 23 14 17 25 16 16 14 22 26 18 20 16 19 19 23 19 17 20 14 17 19 16 21 21 15 20 18 17 24 15 18 17 25 19 15 19 20 18 17 19 25 20 24 17 18
23 25 21 21 18 22 18 20 16 21 18 26 16 24 16 17 26 26 17 15 25 25 26 18 23 22 23 22 16 19 25 14 24 24 24 15 19 20 23 25 23 22 19 16 24 16 20 23 26 23 24 16 20 19 19 26 14 21 21 17 14 18 17 26
25 26 18 20 21 23 18 24 23 14 21 15 15 18 21 21 25 20 26 21 25 23 26 14 19 15 17 17 17 26 23 14 18 14 16 17 15 23 15 24 17 19 18 14 23 23 21 17 21 26 21 18 25 21 22 18 19 20 17 19 14 17 20 15
17 23 17 19 15 19 22 18 20 22 21 21 24 15 26 17 17 23 24 26 22 25 15 23 17 22 20 24 24 19 14 25 25 25 14 20 14 24 14 22 21 19 22 20 17 17 23 16 17 17 20 19 19 18 25 26 15 20 18 25 22 14 26 22
14 23 14 18 22 22 17 19 25 21 20 21 20 20 20 14 19 26 16 14 18 21 19 23 17 17 21 21 24 19 15 23 24 22 21 25 18 22 16 26 25 22 24 22 26 19 26 21 15 20 17 26 17 19 15 26 22 15 23 15 21 17 14 23
18 16 17 15 18 18 18 23 20 25 20 26 24 14 20 25 26 24 16 17 18 25 18 19 15 14 20 26 20 15 21 22 21 22 16 17 24 14 18 14 19 20 18 20 18 21 26 22 14 23 23 16 19 18 20 19 26 22 15 26 16 23 24 22
17 17 24 22 24 19 17 22 26 20 23 14 23 23 26 14 18 17 24 16 19 15 20 24 18 23 24 19 15 24 19 17 19 15 17 18 14 26 21 15 21 21 16 19 24 19 22 14 19 25 15 25 22 24 25 19 23 22 26 21 18 25 20 24
17 25 23 24 14 19 16 23 26 26 23 26 26 16 21 25 19 23 18 18 26 26 25 26 26 23 17 25 18 21 22 23 17 24 19 15 22 25 20 16 15 17 17 26 14 21 21 16 16 19 26 24 25 15 22 15 17 19 17 23 20 25 18 21
15 14 17 20 15 18 15 21 26 14 23 21 22 16 23 17 19 15 16 24 21 18 18 16 20 16 20 26 16 24 26 22 25 20 22 16 22 16 24 20 15 19 18 22 25 20 23 23 21 26 19 14 20 19 15 18 20 16 23 25 19 21 23 19
23 23 23 20 26 26 19 25 24 17 23 19 20 14 24 19 16 21 18 18 16 20 16 24 16 18 20 24 14 18 16 22 17 16 23 14 26 19 17 18 14 26 26 18 16 15 16 23 25 25 21 21 15 17 22 18 26 19 19 25 21 22 22 26
18 14 18 25 16 23 21 19 22 23 22 23 26 26 22 24 20 17 23 18 23 15 20 15 24 18 18 23 14 18 24 19 16 18 23 14 16 18 15 22 24 15 18 15 21 15 20 16 20 15 15 21 26 25 18 17 22 25 16 14 18 19 23 17
24 15 14 20 15 24 16 24 20 16 14 24 14 24 15 21 26 22 20 16 14 21 26 19 24 20 21 16 17 14 25 22 15 17 23 20 22 26 24 21 17 25 22 21 25 15 26 22 22 16 15 17 16 22 18 18 14 26 21 15 14 14 21 21
21 15 18 14 23 25 20 25 17 14 26 14 23 21 26 18 18 20 15 16 24 25 18 25 19 18 25 25 14 26 17 26 18 14 26 24 14 21 14 18 26 22 22 18 18 26 18 14 16 22 23 26 21 18 19 17 20 19 22 22 25 15 15 17
