P2
64 64
255
37 35 30 28 29 31 26 18 35 35 20 19 28 26 20 30 31 20 23 23 30 20 33 32 28 27 21 22 30 20 35 24 28 25 38 21 36 34 31 37 26 26 23 36 32 19 25 32 26 30 21 28 31 30 22 30 18 35 37 37 34 24 33 28
18 32 18 19 20 20 24 37 28 20 35 30 22 27 34 33 30 25 37 28 26 20 28 28 20 20 22 27 31 25 26 25 29 30 21 28 25 38 37 35 29 26 18 32 34 37 35 38 27 22 34 19 18 29 18 18 26 29 18 22 29 32 31 23
29 27 29 19 29 20 31 34 27 27 25 31 32 37 32 20 37 31 27 31 29 27 22 31 26 25 29 37 36 33 22 19 37 36 37 24 24 21 37 30 31 28 25 31 22 34 24 33 27 33 30 31 27 18 27 19 37 32 28 35 32 32 24 30
26 32 36 18 21 27 18 21 20 38 36 31 34 38 20 37 26 31 26 30 27 31 20 22 24 35 34 21 38 34 38 38 18 19 36 33 22 30 24 20 18 31 23 28 33 27 31 23 38 30 23 35 20 19 29 37 20 37 32 20 24 37 18 25
19 31 27 28 21 19 20 21 23 34 32 18 27 24 18 26 28 35 36 26 25 35 31 29 30 25 23 23 21 22 24 28 32 30 29 28 30 27 29 36 28 19 37 37 33 37 26 35 27 26 22 33 31 33 19 20 30 33 28 21 34 33 27 23
21 31 26 22 37 31 24 18 25 37 29 23 25 18 25 30 34 25 24 28 26 19 38 37 38 37 24 18 23 33 20 36 27 33 19 34 26 27 23 20 37 32 27 38 23 22 26 38 26 31 29 18 35 26 35 34 32 25 24 27 24 35 29 36
30 38 27 24 27 31 31 33 28 26 38 30 30 35 38 34 24 34 34 34 28 18 33 34 22 30 35 20 35 20 18 34 37 35 32 33 24 19 22 21 33 25 32 30 38 31 35 19 19 22 20 18 33 19 21 26 24 30 18 35 34 27 31 30
22 24 18 25 29 27 32 36 22 35 34 38 19 35 36 30 20 20 37 19 38 38 28 23 29 21 23 30 19 35 18 26 30 34 18 23 31 19 25 27 30 26 29 35 38 18 38 20 25 25 29 20 23 19 20 23 35 19 19 34 26 24 25 22
35 24 32 20 25 27 33 21 27 33 20 36 33 21 18 37 22 29 28 37 38 33 37 35 33 38 36 22 27 37 34 30 21 19 36 27 24 37 25 31 35 23 35 35 34 22 31 23 20 20 24 28 35 32 22 29 29 20 28 30 37 34 26 35
34 32 32 25 18 28 35 19 27 35 31 19 33 27 28 23 30 20 38 32 19 18 37 22 23 24 38 35 20 37 32 36 36 26 21 19 27 23 36 31 21 33 21 19 31 35 31 18 37 37 30 36 31 37 28 18 19 34 25 20 21 36 22 29
28 32 33 37 24 37 33 38 29 22 18 20 19 25 24 21 32 29 23 30 22 34 18 19 19 38 25 29 21 21 32 33 27 38 34 34 18 32 19 31 29 26 21 35 31 36 38 34 18 18 36 37 31 20 31 23 27 19 33 25 19 25 19 31
31 24 27 31 26 33 22 20 26 28 37 31 24 20 25 31 34 37 29 31 36 26 38 32 20 36 28 26 19 26 24 25 27 18 27 25 37 19 34 26 28 27 34 23 19 27 38 26 27 33 30 36 22 28 18 22 19 35 33 25 25 33 23 26
25 24 34 24 38 33 37 35 30 29 34 28 18 23 28 23 18 22 23 35 24 34 19 32 22 34 23 32 21 28 38 33 26 27 30 30 27 30 35 32 31 32 18 36 26 19 35 23 18 34 23 36 19 31 29 34 23 27 24 18 29 20 18 32
25 36 33 25 22 24 35 22 31 22 34 29 38 21 29 34 22 22 30 31 31 36 23 29 25 25 23 21 18 31 37 26 33 21 35 18 20 37 23 36 28 35 19 36 30 23 37 20 34 21 24 22 24 26 25 30 21 29 22 24 19 26 23 35
34 36 18 28 38 33 22 31 24 20 25 19 27 27 27 27 22 21 29 22 29 31 36 37 35 25 18 30 18 34 32 27 37 35 23 34 34 19 20 23 34 30 37 18 29 30 28 35 25 24 35 19 23 31 29 31 25 19 34 19 32 21 29 27
30 31 33 22 35 35 36 22 37 34 26 27 27 24 35 29 35 25 37 24 38 25 21 36 37 20 26 21 32 21 22 24 30 21 27 20 23 34 23 18 29 23 33 33 34 20 31 18 19 30 21 21 32 31 30 37 21 26 29 33 33 25 31 22
36 20 20 38 20 30 36 32 34 25 28 26 33 38 37 35 37 38 32 31 31 23 25 20 32 30 35 23 32 22 22 32 19 18 23 35 24 38 25 35 36 21 35 30 24 23 22 28 38 25 37 22 27 25 28 30 28 18 29 23 26 33 30 18
37 23 28 20 31 27 33 25 21 33 38 30 22 33 28 21 32 34 18 20 25 18 36 36 32 38 28 24 31 23 20 28 36 23 34 29 31 24 29 20 26 34 34 20 31 28 28 29 27 22 37 28 19 22 20 24 22 23 19 32 37 21 23 37
29 30 26 19 35 21 28 19 36 38 36 37 33 34 32 27 31 29 26 38 27 28 29 25 20 24 28 33 18 27 21 26 34 30 18 33 30 35 29 18 29 21 27 30 20 32 33 37 28 25 29 18 21 26 25 33 20 36 28 29 21 27 19 22
34 24 22 35 26 27 37 34 31 29 18 30 29 34 30 23 21 23 36 34 33 22 36 29 29 21 18 20 26 19 34 30 35 28 30 21 34 24 34 32 28 21 26 40 34 26 22 22 34 36 22 36 20 28 34 32 19 27 34 30 34 37 32 29
37 35 26 33 27 28 31 25 35 31 27 25 37 22 19 39 35 32 42 29 32 44 44 39 28 34 24 33 21 25 30 34 23 21 28 22 34 37 37 37 29 45 43 40 45 29 33 25 29 23 39 38 34 19 34 31 34 34 26 32 25 38 28 23
21 20 34 32 35 23 24 36 27 28 35 19 38 31 43 33 31 46 48 35 47 49 30 33 34 43 41 42 40 33 38 28 18 36 29 27 31 32 27 37 40 34 42 37 33 32 47 30 29 28 39 41 38 35 24 36 32 26 18 20 38 29 28 31
25 28 36 24 37 20 21 32 35 36 33 23 28 39 34 40 37 43 40 45 42 45 40 44 45 38 32 37 37 27 37 29 21 24 21 22 26 37 42 43 46 46 45 48 53 34 51 46 41 37 35 28 26 33 29 29 32 33 24 20 19 22 21 28
35 20 19 38 23 20 33 38 29 30 37 36 39 32 43 42 49 36 45 53 37 56 48 43 49 47 48 35 43 25 35 38 23 30 41 39 34 39 40 41 54 44 43 40 57 42 46 43 50 31 36 35 37 26 39 33 33 32 20 26 22 36 32 26
18 26 32 34 29 36 21 36 22 26 39 39 40 36 44 47 54 38 60 56 61 52 49 52 50 42 53 49 42 31 27 40 37 25 39 33 35 45 49 54 42 50 47 45 53 54 58 54 39 41 39 40 33 24 26 21 18 20 33 37 28 35 27 18
37 25 29 31 32 31 33 21 21 37 39 30 43 35 40 50 41 54 46 47 49 57 65 46 43 44 58 40 47 32 37 28 28 42 30 31 36 39 47 40 50 62 45 59 65 64 51 56 52 48 37 52 31 45 34 28 22 23 36 18 26 24 30 19
31 26 22 37 34 34 37 29 22 36 36 36 48 51 44 50 52 65 49 64 62 58 59 50 65 47 42 43 43 32 34 34 38 39 32 33 35 54 45 63 45 67 56 63 59 68 57 50 52 49 44 36 46 47 29 24 36 22 35 25 38 34 37 24
31 26 26 36 38 36 28 30 34 39 39 43 38 53 56 60 50 69 52 65 61 71 67 54 54 53 46 41 48 44 42 49 31 36 45 35 41 47 53 56 55 53 63 66 55 59 52 61 66 49 45 51 44 40 38 24 22 34 38 30 26 26 22 25
18 36 21 30 32 29 38 23 40 28 30 36 43 52 60 65 61 54 64 70 73 76 75 74 54 57 47 60 59 43 34 48 40 38 35 44 43 59 62 64 63 57 73 69 59 71 54 67 52 50 56 52 51 39 34 34 23 29 28 38 34 29 32 27
18 35 22 24 28 21 37 37 28 42 44 40 53 61 56 59 61 66 72 78 68 68 59 60 74 65 60 53 41 49 43 40 46 54 42 40 47 62 63 62 66 65 59 78 61 79 77 61 68 65 46 52 48 42 35 34 35 31 27 26 24 27 21 23
28 21 32 36 27 30 33 33 37 45 37 48 52 51 59 53 62 70 66 64 68 77 74 64 75 62 54 61 55 45 50 48 46 40 36 48 42 57 54 59 67 69 70 71 71 78 65 63 57 70 47 47 44 51 36 33 33 34 38 22 37 21 37 19
27 35 18 18 37 32 25 29 26 33 43 37 57 53 55 54 59 76 71 79 78 78 74 62 68 65 56 56 47 41 43 54 44 51 54 45 44 57 67 65 60 79 65 75 69 75 81 68 55 64 60 51 49 45 37 42 40 39 21 27 24 28 18 29
31 24 21 21 23 36 38 33 37 44 46 38 48 53 51 66 55 60 70 83 85 72 70 66 67 66 53 58 55 43 39 38 46 53 54 59 60 59 51 64 65 73 84 75 72 68 69 59 56 64 59 51 40 50 36 38 32 27 29 18 36 33 30 26
34 27 28 20 38 31 34 40 40 39 32 38 49 52 54 55 64 61 62 73 83 87 67 78 66 69 64 61 45 47 39 41 45 44 37 40 54 58 66 62 70 66 74 78 88 66 78 60 63 65 58 47 41 53 36 42 31 39 22 36 33 26 30 23
18 35 38 30 18 26 37 27 27 43 33 38 41 53 46 53 63 72 80 76 83 64 76 79 57 61 70 51 47 55 49 51 42 38 38 40 53 46 65 71 75 65 80 77 78 72 71 58 71 70 57 58 44 54 41 39 42 23 34 18 20 38 35 36
21 37 27 38 37 20 27 26 25 31 36 44 38 46 64 68 66 60 65 67 71 70 79 75 59 61 49 61 56 48 42 40 35 41 44 57 60 55 65 53 57 65 73 63 76 76 59 63 63 57 55 53 46 40 38 38 27 38 19 38 31 21 30 30
36 21 18 24 26 34 21 26 34 40 40 34 52 57 47 57 55 52 62 56 57 65 63 55 71 54 50 43 43 45 34 45 51 48 45 56 49 62 62 50 61 67 58 68 77 56 73 58 62 52 62 52 45 36 46 25 37 33 20 25 28 37 31 28
32 28 23 34 19 34 19 29 29 32 28 35 49 45 46 61 47 60 67 63 69 60 59 52 63 49 63 53 48 39 39 45 33 48 48 46 47 52 52 49 52 63 68 65 55 69 62 56 59 49 59 52 53 51 39 34 27 29 36 38 24 25 30 21
32 38 23 27 21 31 27 20 28 33 29 42 40 37 57 47 59 58 63 58 66 62 66 58 65 46 52 50 37 52 40 30 40 37 48 45 40 45 48 57 60 66 50 55 61 51 54 48 57 50 56 51 41 48 31 41 32 33 23 18 30 38 33 31
38 35 30 30 34 22 38 31 26 24 36 31 50 45 40 54 46 65 56 50 57 53 56 58 61 59 58 43 38 35 45 46 27 48 48 49 56 54 46 62 59 61 58 64 51 52 67 61 63 52 49 38 55 42 42 46 40 34 27 40 29 32 43 37
25 28 44 38 37 42 25 34 44 28 28 49 41 52 51 49 59 46 48 64 64 60 58 51 58 50 57 44 43 37 46 50 39 39 49 54 48 44 65 63 57 53 54 69 69 58 55 63 50 58 56 53 44 44 43 37 47 34 47 49 44 43 34 45
43 30 30 48 33 36 45 34 43 33 38 42 47 46 59 61 53 57 48 63 59 69 64 58 65 66 63 50 53 57 38 51 35 44 47 56 62 60 57 62 61 58 59 67 63 54 62 58 52 56 66 61 56 55 55 37 38 37 52 52 53 48 40 41
40 43 35 40 35 37 25 30 31 33 27 41 46 36 41 38 49 58 44 45 43 58 58 60 59 45 50 43 44 36 46 27 33 33 37 39 41 55 56 51 55 55 45 56 63 64 43 51 59 50 37 47 32 36 34 36 45 40 47 33 31 32 31 47
29 38 25 38 22 40 36 35 22 30 32 26 34 42 42 34 43 33 43 36 33 40 50 40 34 30 30 34 43 38 22 38 41 41 31 25 30 32 38 47 51 49 43 38 53 51 51 33 36 37 44 32 40 40 30 36 37 36 30 27 27 33 40 29
37 25 23 28 34 19 30 30 20 20 30 18 19 18 38 39 42 30 34 41 43 43 28 26 24 31 34 21 28 29 30 36 26 19 34 27 36 34 41 31 25 28 32 36 44 44 42 35 39 35 22 23 38 26 38 34 34 33 30 19 24 32 25 22
29 22 36 23 24 33 26 23 18 19 23 35 23 18 33 25 37 20 22 34 37 27 24 41 23 20 24 31 29 24 33 20 27 28 34 30 23 30 30 34 21 28 26 40 31 32 34 27 28 34 28 34 26 27 19 25 35 38 34 24 26 21 21 28
27 27 27 35 22 22 21 19 24 38 36 32 30 24 29 24 35 23 37 22 19 30 36 29 23 38 20 24 30 20 26 20 27 24 32 19 31 29 35 23 31 34 20 35 26 28 38 28 22 25 34 29 38 25 25 32 20 20 33 35 37 18 23 20
38 27 36 37 31 24 30 33 25 35 28 18 19 34 34 21 24 21 34 30 34 25 22 19 36 32 30 27 18 36 34 19 20 20 31 34 19 19 21 20 18 20 32 21 35 23 20 20 28 27 35 18 22 20 22 19 19 22 33 35 19 28 21 26
25 27 35 33 27 30 27 23 35 35 19 30 27 25 34 21 33 34 34 37 35 34 18 28 26 25 30 21 26 29 27 22 21 22 22 33 38 31 21 23 26 18 18 36 36 30 19 31 24 26 21 36 33 20 38 25 33 33 34 26 21 23 24 26
36 30 29 19 24 31 36 29 20 36 28 33 21 25 34 32 19 30 22 33 20 23 37 27 36 27 38 37 19 25 35 33 22 28 38 26 35 38 25 29 35 24 34 31 24 36 37 24 38 20 27 28 28 38 18 28 32 34 19 20 38 35 19 27
24 25 18 19 33 27 26 18 22 21 35 31 19 28 30 25 20 18 21 35 26 31 35 19 20 21 29 37 38 29 32 35 37 38 28 35 33 32 28 34 36 19 19 19 29 20 23 31 36 33 31 24 27 33 36 25 33 19 34 38 23 36 27 33
23 38 38 35 35 32 38 30 38 36 34 26 35 25 33 27 22 29 23 18 29 18 25 35 23 28 29 30 33 35 26 20 34 29 27 18 35 21 22 22 23 34 21 20 25 37 29 26 25 18 31 35 18 20 23 34 27 21 28 28 28 25 24 20
36 36 19 22 31 28 36 23 27 22 22 29 36 38 29 37 29 31 34 19 33 34 34 19 24 31 34 18 30 24 23 18 22 34 37 29 28 21 19 18 22 36 35 19 31 26 18 27 25 34 29 23 30 20 33 22 20 34 33 24 19 20 38 26
35 31 27 36 24 29 21 22 24 31 26 35 28 22 19 33 24 27 38 34 35 24 33 25 19 25 23 27 25 19 20 38 30 38 22 38 21 19 36 33 32 33 30 38 33 35 28 20 32 20 26 34 36 23 30 22 36 36 20 22 25 22 20 24
23 22 26 32 25 33 25 26 24 35 33 25 18 25 26 23 26 35 27 18 23 23 18 22 24 24 33 19 22 36 28 19 28 20 31 35 23 31 26 25 26 36 26 28 20 25 24 36 32 27 22 21 33 37 38 29 38 19 29 34 24 34 35 31
22 30 32 18 33 36 26 18 19 22 36 28 20 23 21 26 32 38 19 38 26 26 38 18 32 24 34 31 30 36 35 29 22 32 37 23 22 21 36 33 25 35 18 35 29 30 38 38 22 33 31 28 32 26 28 38 23 20 31 30 32 24 33 19
26 30 38 24 25 18 34 18 19 31 28 24 21 34 29 26 18 19 29 32 20 22 29 27 36 19 24 32 34 20 35 29 24 19 31 38 20 33 30 32 34 38 33 36 24 19 18 27 31 21 22 19 26 31 31 30 20 32 25 28 20 25 25 19
37 36 27 30 19 25 33 28 22 34 23 32 20 20 33 35 36 37 21 24 24 20 28 28 31 30 19 24 19 18 25 31 26 37 25 36 26 24 28 27 26 35 21 30 23 25 22 24 37 25 30 34 26 31 29 34 35 21 22 18 24 28 37 27
34 30 22 31 21 25 20 36 37 32 36 24 31 18 36 38 36 30 20 19 29 32 37 33 31 22 33 18 26 18 19 29 20 35 30 21 27 38 32 20 31 32 38 19 35 28 21 22 27 27 27 34 30 28 32 32 30 34 29 30 28 31 36 21
19 20 29 21 36 28 21 18 25 28 29 26 33 36 21 28 31 25 30 35 32 19 36 18 36 38 24 32 21 21 24 19 20 19 19 28 31 29 27 32 23 22 33 38 18 22 30 32 18 24 36 28 38 30 35 28 27 28 33 26 30 25 38 21
27 37 27 38 23 28 33 23 21 23 32 29 26 22 22 38 30 31 37 31 29 21 27 23 19 28 23 30 34 36 23 20 30 18 37 32 26 31 31 24 26 20 36 19 33 20 37 26 35 27 28 28 26 30 34 24 35 19 26 29 31 32 36 27
37 22 33 19 33 26 22 22 33 31 34 31 35 34 18 20 35 20 26 26 34 33 21 25 25 38 35 24 19 31 21 25 38 21 20 31 19 31 38 33 32 26 32 26 26 24 22 20 36 25 37 26 28 35 35 23 30 25 18 29 24 19 26 27
32 30 26 38 24 20 27 23 26 30 36 22 25 21 30 38 25 30 38 20 29 30 32 28 25 18 25 34 24 33 18 26 38 25 30 35 19 19 24 34 27 24 29 20 32 27 27 35 34 22 26 35 31 20 25 37 22 23 29 34 25 23 34 35
22 35 28 23 18 26 23 33 30 31 18 23 38 19 24 28 24 26 19 25 30 28 34 34 22 34 34 18 33 24 32 31 29 36 23 21 30 19 21 30 20 23 23 18 25 22 33 27 18 29 27 19 28 37 35 22 22 21 34 26 23 21 29 30
