P2
64 64
255
16 24 18 21 25 25 18 20 16 16 18 18 20 14 24 23 20 23 26 23 19 19 24 17 21 21 18 20 22 26 25 26 20 25 17 20 17 15 23 23 24 20 15 18 16 17 25 22 24 18 15 22 20 20 15 22 19 24 18 22 21 19 25 20
22 26 25 17 22 18 15 14 24 17 24 21 23 23 14 22 16 26 20 16 20 18 19 20 16 21 23 22 20 22 22 20 15 18 25 25 17 15 16 16 22 20 15 18 24 24 24 17 14 23 20 16 21 18 21 18 20 18 14 14 16 14 14 22
23 23 14 21 25 21 20 20 17 19 21 16 17 23 19 16 16 15 25 20 15 14 17 20 19 22 22 17 21 22 20 22 15 17 17 16 14 22 21 20 22 20 21 20 17 18 23 19 18 21 17 22 14 19 18 23 18 25 22 15 14 20 17 20
25 16 17 20 21 15 25 18 14 15 21 21 19 18 16 21 24 20 25 18 24 22 20 17 21 15 19 17 25 25 22 14 25 19 16 16 18 25 18 17 19 20 24 20 21 22 17 25 14 17 15 14 19 20 22 18 25 23 20 21 16 17 24 17
14 19 25 18 15 14 16 20 17 18 26 17 26 24 21 21 24 22 22 25 19 25 17 25 22 23 17 26 26 22 25 15 15 23 26 23 14 20 18 14 17 14 18 18 16 25 25 20 26 17 22 17 16 18 24 25 23 15 21 21 17 15 15 26
22 23 23 26 25 23 19 14 23 23 21 18 19 23 17 22 26 23 23 24 20 14 26 18 17 16 15 22 23 17 25 20 26 24 19 24 14 15 15 16 18 23 17 20 16 21 15 23 14 17 17 18 22 14 21 15 22 21 17 14 25 19 25 20
17 15 24 25 22 25 15 21 22 16 16 14 17 18 21 26 26 16 17 25 16 21 22 24 18 20 26 15 16 21 25 16 22 22 16 21 21 16 14 14 25 25 22 14 15 21 18 15 24 17 14 20 25 16 18 14 17 16 15 19 25 21 18 19
18 20 15 21 21 23 26 26 17 23 22 14 16 24 22 22 26 14 17 20 25 17 20 16 15 25 19 16 14 22 22 17 21 18 19 24 15 25 17 14 24 21 15 15 15 23 20 24 25 20 22 20 23 17 25 20 24 16 19 14 24 23 21 19
18 26 17 26 21 25 20 22 18 25 17 16 26 19 19 16 17 14 24 15 18 18 22 24 22 18 18 20 21 20 17 14 21 15 25 26 22 26 17 22 22 24 21 18 18 18 21 22 17 16 26 26 26 17 17 20 26 20 21 17 26 14 22 19
14 15 19 15 19 15 22 15 26 16 19 22 15 16 14 15 14 16 14 14 18 15 23 23 21 22 15 20 14 20 25 14 18 22 20 24 21 24 25 25 24 26 26 21 18 16 21 26 16 21 22 24 16 19 22 14 21 19 19 20 25 15 14 24
23 21 16 24 24 17 20 18 21 14 20 15 21 26 23 16 15 23 16 23 16 21 17 16 16 26 14 15 18 15 26 15 25 26 18 25 25 25 14 14 19 24 24 17 21 16 25 21 20 24 15 20 24 16 22 25 17 15 22 15 24 16 20 22
22 21 15 14 18 25 22 21 17 26 25 21 22 17 20 23 15 24 14 17 20 23 18 19 20 26 24 20 25 20 18 26 15 19 21 17 25 19 18 16 20 14 26 17 26 17 24 15 24 26 26 26 24 15 18 14 18 22 23 14 20 24 21 17
16 16 26 21 20 17 21 24 16 25 20 17 19 21 24 24 16 22 19 20 17 25 23 19 24 15 17 15 20 22 20 23 23 16 23 24 21 22 15 17 23 19 20 22 21 21 15 26 15 18 22 22 23 23 20 16 14 25 20 14 20 26 22 16
15 26 20 18 21 23 23 23 22 15 15 18 15 20 15 19 15 15 25 18 15 22 20 25 20 22 18 22 24 17 18 15 14 22 19 14 16 19 14 20 20 25 18 20 14 26 17 24 16 25 14 23 20 15 20 25 22 26 14 16 14 21 24 19
20 19 21 22 23 19 25 23 25 18 18 15 25 18 23 20 14 26 21 17 18 17 25 19 17 22 19 17 15 14 16 20 16 17 16 20 23 24 20 23 24 16 19 17 22 23 19 19 18 19 23 18 21 20 19 19 19 17 24 23 22 22 15 17
26 17 17 17 14 22 22 18 15 21 17 24 25 16 26 17 22 19 18 17 16 17 22 15 18 18 26 19 20 19 22 26 15 21 19 20 23 14 25 21 25 18 24 15 18 15 14 22 19 19 18 23 25 14 21 21 24 17 18 15 25 26 26 16
23 17 23 24 20 20 14 16 20 17 22 24 16 18 23 21 21 16 21 25 16 25 16 16 14 18 17 15 16 21 22 18 17 20 20 19 26 14 22 15 24 14 25 15 17 25 19 14 25 24 19 15 21 17 19 22 18 14 25 24 18 14 26 17
17 22 25 25 17 15 23 17 25 17 19 21 16 26 21 21 23 17 17 26 20 24 26 17 26 14 26 19 20 26 22 22 20 24 14 22 18 17 20 26 21 20 15 23 23 24 14 26 16 14 16 24 15 14 23 22 24 19 21 15 17 15 21 23
14 22 22 24 25 25 18 17 18 22 20 21 23 22 14 18 17 24 20 24 26 26 22 25 18 18 15 21 26 18 22 21 16 24 18 24 18 17 26 15 15 19 23 22 19 19 18 23 16 25 26 26 18 22 23 15 15 18 24 15 25 21 14 17
14 16 14 17 17 15 17 14 14 24 21 15 14 24 20 18 25 26 27 22 22 19 18 24 24 16 24 17 26 15 23 21 22 25 17 21 24 24 24 17 20 26 26 18 29 17 19 16 17 17 25 25 16 15 25 21 17 18 25 14 23 25 14 21
21 24 23 26 20 16 24 17 20 20 16 15 20 18 24 24 20 26 22 33 29 28 21 25 21 28 18 16 21 14 20 14 16 21 20 15 21 19 29 27 21 30 33 24 30 31 32 25 18 26 15 23 23 26 26 16 17 19 15 26 17 25 24 17
17 14 14 15 15 24 16 26 26 15 23 15 20 25 25 29 32 31 30 37 30 32 25 33 23 23 32 24 22 17 23 20 23 19 17 24 19 25 22 28 24 36 28 37 35 36 28 33 29 24 26 21 15 16 17 25 18 20 19 15 17 22 25 16
26 19 18 17 21 26 24 23 22 23 16 22 21 24 34 31 38 39 33 38 34 38 38 34 39 26 30 31 30 18 21 16 25 15 26 26 26 29 32 37 36 35 32 38 29 30 34 35 38 31 32 26 25 25 16 19 14 23 16 25 16 17 24 19
22 15 19 24 21 16 20 14 18 20 19 18 24 26 26 28 33 36 32 44 39 39 33 39 35 30 39 30 24 30 20 26 16 15 19 29 25 35 35 39 41 40 44 37 37 43 36 32 31 35 35 31 30 18 20 15 17 19 15 22 14 21 21 18
18 21 15 22 24 24 22 21 22 19 26 24 27 37 32 34 43 36 42 48 38 40 44 40 42 40 39 30 38 24 32 21 16 20 22 25 38 31 31 36 38 43 46 48 40 46 48 46 44 34 29 28 35 30 20 19 19 18 20 19 25 24 26 24
20 22 19 15 19 18 16 20 17 24 30 22 31 37 39 45 40 43 47 47 50 42 44 39 39 44 45 43 37 34 34 25 22 31 26 27 34 39 41 44 40 50 41 43 47 47 41 42 43 42 36 35 30 34 21 25 14 22 18 21 25 15 25 24
16 22 24 19 17 21 17 14 15 23 22 35 34 37 41 47 42 53 51 52 53 53 53 53 42 39 48 35 41 30 25 23 29 27 29 37 32 39 47 50 48 51 46 57 51 54 43 48 44 41 45 37 39 26 27 30 24 20 17 17 25 14 26 22
25 24 23 20 17 26 26 17 24 21 26 35 39 37 48 50 48 51 49 51 57 55 59 54 45 52 51 41 37 42 34 25 27 30 26 36 38 38 39 48 51 52 50 52 51 49 51 55 47 52 48 42 33 35 31 24 22 21 15 22 15 23 22 16
18 17 20 16 21 17 22 22 28 24 34 29 44 36 45 50 51 51 60 59 59 62 62 54 48 52 48 39 45 41 40 35 30 29 40 35 46 46 50 45 56 61 58 56 62 58 56 55 45 53 47 45 33 36 32 29 26 17 18 15 17 23 21 24
24 14 22 19 23 16 24 24 23 29 33 38 39 41 43 53 53 61 56 62 66 60 66 63 51 51 56 50 41 44 32 31 33 41 36 37 39 50 56 50 54 62 60 66 67 64 60 61 58 50 53 38 34 36 29 26 26 20 26 25 17 17 25 15
23 21 26 24 24 17 16 22 27 23 32 34 40 47 45 58 60 63 67 69 70 69 69 61 65 60 57 46 39 46 37 41 37 38 42 40 46 53 57 58 57 65 64 62 66 68 61 59 51 58 47 43 39 34 27 25 29 18 22 21 14 22 15 22
16 25 24 22 22 23 16 17 21 25 31 43 38 45 44 53 55 63 63 64 65 65 72 69 59 55 56 52 47 42 36 33 35 42 40 39 51 52 55 56 55 58 69 71 75 64 63 59 60 52 51 50 46 32 27 24 32 21 17 16 22 14 18 24
24 23 22 17 19 19 18 21 22 30 30 31 35 41 44 58 51 55 71 66 76 73 71 65 65 57 58 50 41 39 36 42 46 45 42 44 47 48 47 54 63 63 63 71 79 71 60 58 53 56 55 50 35 43 28 30 25 17 15 18 23 18 19 21
14 25 24 26 26 14 21 17 25 27 39 37 45 42 52 48 57 61 67 63 76 72 65 65 63 60 50 43 39 44 44 35 42 32 43 36 39 47 59 61 59 65 68 74 74 65 67 63 54 55 48 50 41 32 34 25 21 19 17 19 15 19 25 16
17 17 17 26 15 21 23 22 27 24 28 36 41 49 42 49 58 57 68 63 62 65 61 61 62 61 49 51 50 39 38 44 37 40 33 42 41 49 46 50 62 57 69 64 71 68 57 65 50 50 46 49 44 32 34 24 29 22 16 21 15 21 23 24
18 23 18 22 22 14 15 27 26 23 26 32 37 37 43 52 57 52 65 60 64 62 57 65 55 50 44 46 45 37 40 36 37 37 35 35 46 43 49 59 50 65 63 69 57 55 61 57 48 44 46 39 41 36 26 23 23 18 18 18 14 21 16 20
15 24 17 14 15 15 23 20 29 23 34 28 43 37 45 42 46 54 52 57 53 64 54 57 48 50 50 47 39 43 31 29 33 39 36 37 36 46 46 57 49 54 55 63 62 52 62 56 56 47 39 44 35 39 29 27 28 21 18 20 15 15 21 17
24 16 18 19 17 15 19 19 19 26 34 27 34 42 38 40 49 54 57 52 56 60 57 49 54 44 40 42 39 38 34 32 27 25 35 31 33 48 42 49 47 58 52 55 53 57 54 51 43 41 49 35 42 36 28 32 16 25 24 15 26 14 21 20
19 18 17 26 14 17 18 24 18 18 33 33 39 35 41 42 41 53 51 56 56 52 53 45 45 44 49 44 39 33 34 26 25 32 33 38 32 41 44 41 41 52 51 54 55 48 52 47 44 39 43 36 40 28 30 26 26 24 25 16 21 17 14 15
21 18 23 25 23 17 25 28 28 22 32 29 39 43 41 45 43 46 49 45 48 56 56 49 45 43 49 36 34 40 36 30 32 26 35 31 44 38 48 43 51 49 48 52 48 48 49 48 48 40 47 39 33 34 35 24 25 25 22 22 20 30 30 23
31 29 30 33 24 26 22 28 22 31 25 39 43 35 48 50 49 54 54 50 56 46 52 51 52 42 40 37 44 34 41 35 25 31 42 45 43 50 49 45 54 56 60 55 59 60 55 48 55 52 44 45 46 35 34 26 31 28 35 34 37 31 34 32
30 26 31 28 25 24 24 30 30 29 32 36 41 43 40 43 44 51 54 45 46 53 48 47 48 46 49 49 40 43 41 35 29 29 44 47 40 48 44 48 51 58 54 49 56 54 59 49 48 55 49 43 49 38 36 41 43 34 32 41 35 35 43 41
23 21 27 24 29 27 33 32 29 27 28 33 33 33 37 35 43 45 46 37 38 46 44 47 43 38 43 42 35 31 32 29 24 24 36 34 35 44 40 38 40 41 50 41 48 43 45 39 44 40 44 41 36 26 31 37 35 28 34 36 34 38 28 38
18 17 17 28 22 26 22 24 18 24 21 17 21 28 22 34 28 29 38 34 34 40 36 28 37 26 30 29 22 27 22 21 25 24 27 18 30 36 37 31 29 34 41 40 33 37 37 39 27 26 30 33 30 22 31 20 26 27 22 27 24 23 27 22
21 19 16 19 15 14 15 18 24 19 25 23 26 21 27 25 28 30 23 31 23 24 21 26 27 19 26 23 19 23 18 18 17 17 15 21 22 24 19 27 26 33 26 22 22 23 30 23 29 29 17 22 20 18 22 16 26 24 23 22 25 22 18 20
22 18 15 24 15 21 18 15 16 25 16 24 24 23 16 21 17 20 23 25 21 26 21 23 27 25 26 26 15 15 20 14 22 14 18 17 20 26 15 20 28 29 21 23 24 26 17 16 15 20 17 19 25 25 14 26 26 19 15 22 21 18 23 19
23 21 15 16 24 26 16 16 15 26 21 16 14 21 14 19 15 21 19 16 18 15 25 18 15 21 17 26 26 23 16 24 25 22 17 18 26 23 16 14 23 25 20 15 23 23 22 23 23 17 21 15 23 20 22 15 21 16 15 26 16 14 22 25
26 24 15 17 22 14 22 19 18 14 16 23 26 26 18 16 18 26 17 26 26 14 17 23 21 26 24 16 26 18 16 25 24 23 19 15 17 20 20 17 20 26 21 17 15 19 17 26 17 17 15 25 25 20 22 16 16 14 25 19 20 21 16 20
16 20 18 16 25 22 16 25 15 19 19 22 16 20 25 16 14 21 24 25 25 26 22 19 14 25 14 24 26 24 20 23 15 19 23 26 25 18 20 24 20 24 24 21 14 19 23 26 20 14 15 18 15 17 18 15 20 26 18 18 14 26 20 22
26 19 17 26 20 22 26 25 16 19 20 20 18 23 21 16 20 18 23 21 25 24 25 22 21 22 25 18 17 21 18 24 17 23 22 16 17 21 16 23 22 24 16 22 16 17 26 22 15 20 21 25 19 21 25 17 22 14 26 14 24 19 23 26
17 24 26 21 23 22 25 20 20 25 17 22 17 18 22 16 15 20 21 14 18 26 26 25 19 20 18 25 20 17 20 26 18 15 26 20 22 23 24 18 23 16 20 16 14 26 21 17 15 26 23 25 23 22 22 26 15 20 15 18 23 19 15 17
19 14 26 18 20 15 25 26 23 20 25 22 25 19 21 18 19 24 17 18 17 17 19 18 16 25 15 21 15 22 17 14 24 17 21 15 17 16 24 16 24 26 21 21 16 25 24 21 22 24 24 22 22 23 18 21 16 14 19 24 16 16 21 24
25 18 21 16 17 19 17 15 17 15 24 19 25 22 20 15 25 26 16 16 14 17 25 24 19 23 20 16 24 18 22 26 15 15 19 15 14 24 17 16 22 26 16 20 26 20 15 19 25 16 21 19 18 16 18 15 17 26 19 17 16 21 15 15
19 22 14 20 20 16 17 18 16 19 20 14 15 17 21 14 24 20 16 22 21 14 15 18 16 21 20 26 18 23 15 15 22 14 14 21 15 20 26 22 19 20 25 15 22 19 25 14 25 17 23 16 26 16 17 23 22 15 14 24 22 17 19 15
18 25 21 21 23 25 26 16 17 22 24 18 15 14 20 21 14 18 19 14 19 15 23 19 14 19 19 16 23 26 25 25 14 20 26 24 16 20 15 14 17 17 26 26 19 15 26 15 15 22 17 21 20 18 17 18 14 16 24 22 19 19 24 19
22 24 19 25 20 20 14 23 16 16 16 18 17 16 19 23 23 16 25 18 14 26 15 21 20 16 15 16 24 22 15 18 19 21 20 14 14 15 19 21 19 18 26 15 15 18 25 19 23 23 16 26 23 20 14 26 14 26 26 23 19 19 23 16
21 23 14 22 26 25 21 14 14 16 20 19 25 17 20 16 18 25 23 17 23 17 14 25 26 26 26 23 21 17 18 18 17 21 20 22 15 17 20 15 24 15 17 15 23 14 14 19 22 26 16 22 17 22 25 25 14 22 20 25 22 15 14 20
19 23 26 17 16 16 21 25 21 15 21 18 20 24 15 22 26 14 18 25 17 15 20 20 17 15 16 23 21 17 22 24 23 19 14 24 22 18 17 26 21 19 17 17 18 26 18 17 22 23 19 17 18 23 25 21 14 20 18 15 17 19 18 25
26 15 19 26 20 21 21 19 25 15 22 17 20 20 24 17 18 16 20 19 20 15 23 23 24 26 17 16 21 22 24 21 24 20 25 17 16 22 20 24 20 23 21 21 18 17 25 22 15 26 15 23 20 17 17 14 20 22 14 16 26 26 16 21
21 17 17 25 21 16 20 17 20 15 19 20 23 15 23 20 16 17 26 20 15 26 26 19 26 14 26 15 20 16 23 21 19 16 21 21 22 24 17 22 25 19 26 14 19 14 16 22 15 14 14 20 20 17 16 22 24 14 25 18 14 17 15 19
21 20 19 22 24 15 24 16 20 24 18 16 24 22 25 23 21 22 15 14 25 23 24 24 24 25 17 22 25 21 21 19 23 25 19 22 14 25 15 19 24 17 14 19 14 26 17 19 25 25 22 17 24 16 23 25 17 24 22 18 22 25 18 15
22 16 25 21 17 24 20 25 24 21 16 15 14 14 21 21 14 20 21 25 16 15 25 19 21 19 19 26 25 17 21 26 17 26 19 15 23 17 16 21 16 20 21 20 14 22 26 19 16 26 23 25 18 25 15 14 21 24 20 17 14 26 19 20
17 17 17 17 23 22 25 21 16 26 22 20 16 17 14 19 15 26 25 20 14 20 23 16 14 25 21 22 24 15 18 15 21 19 15 25 19 21 17 18 16 26 23 15 23 24 15 20 15 19 20 14 16 25 19 16 17 22 26 17 16 17 21 16
14 15 26 18 17 17 18 15 19 25 17 19 25 18 21 19 23 20 17 19 20 16 23 22 24 21 16 17 26 21 17 17 18 14 14 24 17 23 21 19 26 16 25 25 15 15 17 19 23 22 22 20 17 22 23 14 25 26 19 26 20 25 15 19
