P2
64 64
255
33 34 34 32 20 38 32 26 35 29 30 35 21 38 18 31 27 34 29 37 19 29 19 27 20 21 22 25 36 29 25 26 25 38 30 23 37 18 28 28 26 25 21 25 19 20 19 25 19 31 21 28 19 30 33 28 37 34 27 34 28 25 31 22
18 38 22 21 34 29 35 18 37 36 32 26 28 37 26 24 26 26 31 21 36 28 33 27 25 26 36 20 23 38 25 28 19 20 28 23 35 30 26 23 31 22 38 37 26 31 27 24 26 34 37 30 19 32 22 36 26 33 18 22 30 23 35 35
36 20 18 20 28 31 29 38 28 22 21 20 24 37 38 20 21 34 18 21 35 27 21 37 27 30 35 18 32 19 27 35 32 38 22 33 32 26 37 25 25 34 25 20 28 38 21 36 31 28 28 31 31 33 25 32 27 22 36 20 21 38 38 29
27 25 19 30 22 19 25 28 28 21 26 20 20 24 18 28 20 34 34 30 38 29 23 30 32 31 28 24 38 28 36 27 29 35 38 33 31 20 29 20 22 37 19 29 33 25 22 24 35 35 37 23 24 34 27 24 25 20 19 29 29 24 30 22
19 37 27 31 31 33 31 24 20 21 35 23 37 19 19 22 33 19 32 35 30 37 20 22 18 21 28 22 23 38 27 27 18 21 37 31 27 32 18 35 34 23 30 30 37 25 31 25 31 36 29 30 28 28 31 36 37 36 24 30 24 29 29 18
29 24 29 23 38 33 26 24 30 30 24 20 36 25 19 24 31 30 29 23 35 36 19 32 19 29 33 19 37 26 26 24 26 31 38 18 33 25 33 30 35 27 31 30 19 36 34 26 24 32 31 22 27 36 38 24 20 25 29 29 32 26 20 33
33 18 32 32 30 22 27 22 19 19 27 32 32 33 21 33 19 18 19 19 32 23 38 35 21 33 20 20 38 29 34 38 38 37 28 18 33 24 34 33 31 33 30 29 36 37 19 23 29 23 37 30 20 30 23 30 29 26 38 37 25 31 27 20
18 26 19 38 29 24 26 25 38 28 28 25 22 19 37 33 28 21 34 21 34 27 35 28 34 29 27 31 37 27 35 27 21 38 29 24 24 23 31 28 34 22 20 24 28 33 38 31 33 35 34 21 29 29 35 19 37 31 37 29 29 30 23 25
22 33 31 22 36 27 37 28 22 35 36 22 31 20 21 32 19 23 18 35 31 31 24 31 27 31 18 38 32 28 18 36 26 27 30 26 23 26 30 31 29 27 31 19 34 18 23 25 24 27 36 23 32 19 37 18 26 19 22 36 27 32 23 24
23 38 35 37 21 29 29 30 26 24 19 36 33 22 35 26 27 33 32 34 23 36 21 31 26 35 26 27 36 20 25 30 19 25 22 34 33 26 21 20 18 26 22 18 22 20 32 18 23 18 29 29 24 22 21 22 26 23 33 28 22 21 22 29
20 31 18 20 24 35 34 33 26 24 24 35 21 28 38 23 28 29 23 38 26 30 18 24 20 33 29 19 20 37 38 30 25 24 36 24 38 33 18 34 22 23 19 31 35 31 31 25 20 18 21 25 36 32 27 34 25 36 38 34 22 21 25 36
38 32 31 21 24 38 24 38 20 35 34 22 35 35 29 22 23 22 25 37 22 19 27 34 19 32 30 27 25 32 23 37 26 20 20 37 37 20 34 19 30 26 36 31 27 31 36 19 26 25 24 25 21 32 19 29 20 22 37 23 38 28 27 18
19 25 23 28 33 32 26 19 25 37 19 22 38 33 20 37 34 23 24 31 24 20 28 35 33 21 32 33 38 35 27 34 32 31 33 33 20 22 33 31 38 19 36 24 25 26 37 37 29 36 21 26 25 37 18 33 33 25 37 24 32 21 29 31
30 32 28 29 21 33 38 38 31 28 29 31 25 33 27 25 38 33 33 22 24 20 29 27 32 23 20 19 25 27 21 21 20 26 21 34 34 22 26 37 34 35 24 33 26 21 37 34 27 24 33 35 21 22 30 28 34 26 37 33 24 20 27 20
20 19 22 29 21 38 29 26 33 24 25 32 34 28 35 23 38 21 23 18 33 20 24 38 38 32 18 18 37 23 31 31 27 24 28 36 18 24 37 23 24 33 36 28 31 24 27 20 28 24 22 25 23 25 21 32 35 23 34 28 19 21 19 27
20 22 28 23 38 29 19 20 35 24 30 24 32 18 33 19 33 31 29 20 28 22 21 18 31 34 20 30 31 23 25 20 31 21 27 28 18 36 19 22 19 32 23 35 29 25 28 20 34 25 30 27 28 31 37 35 34 24 27 26 23 27 23 30
35 34 28 31 22 37 28 29 37 34 31 23 19 26 32 24 23 32 36 36 20 22 19 30 25 31 26 23 19 33 34 28 20 25 23 31 18 34 37 19 19 32 22 21 28 25 22 19 36 22 38 35 33 36 34 19 25 33 21 22 33 20 34 36
38 23 34 26 25 25 20 24 27 24 20 36 22 28 33 25 35 38 23 29 38 19 31 23 34 34 32 30 38 25 30 36 26 36 20 25 23 27 31 33 30 33 22 19 19 38 20 23 34 33 28 34 18 20 35 33 25 27 27 33 31 28 30 32
32 19 32 24 23 31 28 22 37 29 35 33 36 27 35 27 20 31 37 35 33 37 38 24 24 26 18 33 30 29 25 22 26 26 27 33 18 36 34 19 23 27 31 25 20 32 38 23 37 31 23 38 23 33 35 38 24 19 18 18 30 34 20 25
28 34 27 35 26 26 38 32 25 26 21 32 31 24 26 25 26 22 27 28 39 23 29 35 29 34 23 20 34 36 28 22 23 18 29 28 20 34 24 33 23 34 29 35 32 39 41 30 25 38 26 31 36 20 30 20 38 29 34 28 25 23 24 23
21 33 37 31 24 34 22 20 19 33 38 35 19 25 34 28 24 30 34 31 37 34 40 44 37 33 22 32 20 22 18 31 36 25 20 33 20 34 40 32 38 34 39 40 33 43 31 39 39 38 25 36 19 29 38 19 26 29 33 21 29 27 22 36
35 28 33 23 33 37 31 33 36 32 36 23 38 31 35 34 33 35 34 44 45 41 45 41 43 42 25 30 23 21 33 29 31 21 24 31 22 37 27 31 32 43 37 38 49 44 42 27 35 34 24 39 36 37 31 26 33 30 26 27 36 35 38 29
22 29 38 37 30 23 21 30 32 25 28 19 34 36 28 29 37 48 49 34 42 39 42 38 31 37 39 44 44 48 32 27 43 47 33 32 39 39 42 47 34 40 41 36 33 34 43 43 41 46 46 32 38 37 18 34 32 37 33 29 27 37 36 23
25 19 26 36 18 28 31 36 24 38 28 22 37 33 44 48 41 53 46 41 56 56 39 40 39 47 51 46 45 57 39 43 50 49 47 52 47 43 38 53 50 40 53 53 49 38 48 45 43 46 49 32 35 22 22 36 24 38 31 18 28 36 30 26
37 32 36 34 20 31 18 27 20 19 33 29 37 36 47 47 37 55 45 43 45 49 54 50 47 58 58 65 48 63 48 55 43 57 51 60 56 61 54 46 50 47 54 59 43 58 45 41 49 45 40 46 33 28 31 20 38 26 19 28 20 35 23 20
38 29 38 30 38 37 38 25 23 36 27 39 47 47 52 40 53 61 49 45 54 55 57 52 64 72 70 61 75 63 56 52 57 63 71 60 66 71 71 56 60 61 58 48 55 53 45 51 59 45 43 43 34 37 23 37 20 18 19 36 35 34 18 29
24 37 36 28 29 24 34 22 29 28 30 38 40 54 56 60 53 54 62 56 61 58 59 66 68 67 69 64 82 71 61 74 63 68 76 79 80 69 72 73 75 73 63 70 65 62 55 48 62 46 40 55 43 33 26 30 22 30 27 24 20 27 20 28
25 37 33 30 23 33 32 33 32 39 38 45 37 40 51 50 61 59 63 59 66 62 71 79 73 71 71 83 90 77 83 68 78 74 69 72 72 85 72 88 75 74 68 60 74 71 58 66 56 60 47 57 38 48 28 41 22 18 35 22 38 29 20 37
26 33 28 38 32 33 26 37 35 43 46 45 48 45 63 47 66 60 69 76 69 88 82 94 94 85 80 94 87 96 92 88 82 84 80 90 97 88 91 91 79 94 89 72 77 72 55 54 64 61 49 53 47 37 46 37 37 29 29 24 28 18 19 31
35 32 23 37 34 33 35 31 28 35 50 44 37 58 56 55 60 62 70 64 89 91 98 85 87 104 104 93 88 93 103 93 88 96 101 105 88 86 98 101 91 96 81 90 87 75 76 72 56 60 48 50 38 34 45 29 39 39 18 29 29 32 24 37
33 18 35 23 36 23 20 29 27 43 33 55 52 43 63 53 65 74 63 84 80 87 106 102 99 111 111 97 97 100 110 95 101 108 102 112 107 105 93 94 108 92 90 93 85 89 62 68 58 58 62 61 50 55 33 47 35 24 29 34 29 27 21 23
21 29 36 22 36 37 34 30 42 31 37 45 57 60 67 64 61 77 65 76 82 88 98 107 99 97 117 111 103 117 117 108 112 112 113 100 107 115 117 109 110 99 94 106 94 81 67 59 70 58 66 62 58 55 48 44 34 40 20 35 32 37 37 21
18 33 38 25 27 34 19 35 31 31 35 43 40 48 61 59 56 66 83 83 88 95 113 112 99 106 110 105 107 112 122 120 116 121 116 123 105 120 106 106 117 110 109 98 89 80 71 64 64 62 53 49 42 36 34 47 35 35 31 25 21 19 36 21
25 23 29 34 32 36 30 31 27 43 42 41 39 46 65 51 61 66 88 93 88 100 97 103 101 103 122 109 115 123 121 122 130 114 113 119 107 116 122 103 104 111 110 100 86 84 68 60 59 66 48 58 59 49 48 37 42 28 32 37 37 37 30 25
21 18 31 35 20 28 30 32 33 46 47 48 47 45 65 51 53 59 85 78 91 97 115 102 120 106 112 127 116 131 116 123 136 120 121 124 114 117 118 107 110 118 109 93 95 96 80 72 55 53 51 49 42 50 51 36 39 30 36 37 36 36 38 29
36 32 32 22 24 34 28 24 39 39 48 37 52 48 53 48 68 72 85 88 86 106 95 113 119 107 117 118 116 114 130 136 128 129 117 114 130 123 124 106 104 98 109 101 87 92 85 75 56 50 54 43 37 39 42 44 22 28 30 27 19 22 27 21
18 33 26 24 38 18 25 30 26 38 48 46 37 52 51 62 55 70 81 74 79 102 98 94 98 116 114 113 115 120 120 125 138 126 114 115 118 126 109 119 116 97 100 95 78 77 78 55 50 57 48 44 39 49 29 35 29 33 35 27 25 25 20 36
25 38 29 19 21 28 18 35 26 42 41 47 52 48 50 61 52 59 79 86 91 96 96 93 114 113 109 105 111 114 121 132 120 120 110 128 118 104 113 116 103 98 86 97 76 84 62 54 66 58 59 53 36 47 34 27 31 22 38 27 35 33 27 20
25 35 23 32 32 23 26 27 38 24 35 32 40 55 40 50 63 46 72 73 81 75 91 102 98 102 100 107 117 118 124 114 122 121 109 116 116 114 112 106 103 92 82 93 73 75 70 51 53 46 56 40 43 36 25 29 26 26 35 20 23 32 18 20
34 18 33 28 20 22 21 27 29 26 36 43 31 48 38 43 52 48 60 72 67 74 89 89 84 107 100 103 112 104 103 113 101 97 104 99 108 97 100 103 102 86 92 89 67 74 67 60 54 44 46 35 41 41 38 28 35 33 33 29 36 34 19 34
21 38 30 21 34 21 25 21 23 36 36 33 40 32 36 39 53 50 55 60 74 73 76 85 77 99 88 97 105 92 104 98 99 105 110 107 106 104 90 97 97 80 80 66 70 51 53 38 38 51 49 46 34 32 39 28 27 29 36 37 23 31 18 19
22 29 31 27 27 22 38 22 21 37 29 22 24 45 47 35 35 50 44 48 63 56 67 69 78 87 92 83 93 91 101 99 96 83 81 88 95 79 85 79 78 79 62 72 62 46 56 48 36 43 44 45 30 24 24 22 24 29 18 26 35 22 19 23
32 31 18 29 28 24 32 27 19 26 36 34 29 34 39 43 30 37 45 41 54 64 55 72 82 67 72 81 89 86 76 81 74 78 84 81 76 75 87 67 72 69 64 60 64 43 52 50 48 42 37 24 34 20 30 21 19 35 36 34 33 32 38 20
32 24 38 29 19 38 35 20 37 37 28 18 26 37 26 44 42 36 47 37 44 44 61 54 66 67 68 76 83 67 79 72 79 77 83 76 84 75 75 71 56 65 66 62 43 41 36 38 32 37 30 27 24 36 21 24 29 29 37 30 25 36 20 38
28 24 30 22 22 28 33 38 34 24 38 33 34 29 28 33 24 38 42 37 42 48 47 59 49 66 67 54 66 70 68 64 70 62 75 60 76 64 70 66 48 59 50 45 38 25 36 29 37 29 19 24 35 35 25 21 21 38 30 35 26 31 37 19
22 18 37 18 19 38 19 31 35 31 37 37 23 34 33 27 30 40 40 35 41 47 47 41 50 60 52 62 64 70 61 63 74 68 65 70 64 57 50 53 45 50 38 40 38 34 26 20 25 21 18 37 30 38 38 18 21 37 30 25 31 38 31 31
29 36 22 19 22 25 33 25 25 32 30 28 36 26 35 35 25 30 26 22 31 33 34 37 37 56 47 59 56 52 64 67 66 50 62 47 55 48 48 37 33 35 38 27 28 35 36 34 36 27 27 29 18 37 21 22 38 38 36 21 32 25 35 19
24 33 23 20 25 25 32 30 36 31 38 23 18 34 31 19 22 21 19 30 21 35 38 25 33 31 53 37 58 61 57 63 51 54 42 59 44 54 40 40 28 44 40 29 38 31 27 34 24 18 19 29 36 21 23 20 31 34 29 31 23 21 23 29
27 24 27 28 21 24 34 28 22 27 29 19 23 33 24 25 36 21 30 25 38 25 33 39 29 27 38 35 35 42 50 37 38 49 44 37 41 41 46 32 31 21 37 19 37 31 20 35 36 31 28 34 20 31 33 30 35 34 30 29 21 30 36 38
35 19 27 22 37 25 31 23 29 37 27 37 33 20 35 25 21 33 25 21 21 29 28 28 24 25 25 43 47 39 47 31 50 36 33 47 45 41 41 30 30 38 26 28 20 37 25 32 31 23 22 28 27 20 28 20 27 35 28 29 27 32 31 30
31 20 19 21 25 35 19 23 29 24 28 24 26 33 25 22 18 27 30 33 18 30 37 20 35 26 32 29 30 27 24 27 42 36 26 35 31 21 22 21 18 18 18 32 19 31 31 23 25 30 28 37 20 36 30 31 22 38 18 29 32 26 34 19
30 23 28 33 24 36 34 35 27 28 32 30 33 28 25 38 27 37 22 32 31 27 25 27 26 31 36 27 33 30 36 25 32 26 30 36 24 28 18 18 25 26 34 27 27 38 23 30 20 21 31 33 36 31 18 37 30 33 37 31 26 32 32 36
34 30 28 32 22 24 18 21 19 24 22 30 33 28 35 30 26 21 38 38 18 37 37 24 35 37 21 36 32 23 28 38 25 21 28 33 31 21 32 23 36 29 26 20 21 37 21 37 31 30 33 20 24 25 28 20 18 30 36 21 28 19 18 27
36 37 22 28 25 33 21 21 19 29 36 31 35 28 18 34 19 24 24 27 27 18 31 26 26 23 25 35 31 28 35 27 23 22 33 34 36 34 32 22 19 33 24 24 26 38 19 34 20 35 19 19 23 23 26 35 38 28 32 23 26 24 37 26
35 18 31 35 38 26 34 20 37 31 38 27 18 27 34 32 22 30 29 27 32 31 22 29 25 26 18 26 30 29 26 38 25 30 22 38 18 32 32 32 26 25 32 38 29 22 24 25 22 33 18 18 34 28 27 26 31 33 22 21 35 32 36 25
19 22 31 20 20 38 38 34 22 30 26 19 30 34 35 34 32 38 30 33 29 34 32 27 32 20 23 29 19 35 22 34 26 21 35 37 29 19 22 24 24 19 29 19 25 23 36 31 38 31 23 23 35 23 37 37 34 25 18 30 19 32 26 19
30 19 29 21 31 20 22 27 21 26 31 26 38 22 35 23 37 34 23 21 22 18 19 24 29 23 29 30 37 30 20 33 20 36 25 27 21 32 26 23 31 19 20 19 23 22 35 23 30 22 20 18 29 32 22 30 28 33 38 29 30 37 22 38
19 20 29 24 35 26 20 20 38 37 27 30 19 33 35 20 34 29 18 23 20 29 31 36 20 20 24 21 34 34 22 38 24 31 33 36 31 32 26 36 33 32 22 30 38 18 37 21 34 28 27 22 33 25 21 19 24 35 28 33 26 19 24 34
38 24 26 22 27 26 19 25 19 27 31 33 34 38 35 19 18 28 22 31 18 19 18 35 18 36 27 36 23 26 30 20 30 35 34 24 33 33 19 21 28 37 23 31 21 18 34 38 33 24 31 28 19 37 23 18 36 36 35 35 21 36 22 38
25 38 37 24 20 36 34 26 25 19 20 33 21 24 31 21 28 30 33 19 18 22 24 28 34 32 34 21 21 30 32 38 28 24 38 20 25 23 20 23 30 24 28 18 23 29 31 27 29 36 28 38 20 27 19 30 21 26 27 31 36 18 38 31
29 27 28 25 19 28 28 36 26 27 36 19 25 20 33 24 30 27 30 19 27 23 21 31 34 36 28 22 24 27 31 30 26 19 18 30 24 21 28 28 26 22 23 25 22 30 25 33 36 23 19 34 30 29 32 31 32 36 23 30 26 18 26 23
37 30 32 31 26 32 38 36 25 24 38 27 20 37 26 23 25 31 32 35 35 33 34 28 28 18 26 27 18 24 30 27 34 37 36 22 23 28 22 37 38 23 29 30 37 26 38 21 32 26 36 37 25 33 23 37 31 19 26 22 36 29 19 22
36 21 24 27 32 20 31 31 22 18 25 28 38 30 38 36 38 30 30 33 32 28 29 28 18 31 30 30 18 27 22 33 25 34 21 18 38 20 19 18 35 33 37 32 32 25 34 27 34 29 33 24 32 34 24 28 30 23 31 33 30 26 27 26
31 19 23 31 36 19 30 22 24 30 21 34 30 38 19 24 26 28 19 20 25 20 20 21 35 34 35 28 22 36 21 27 33 33 27 30 34 24 26 37 30 34 37 27 34 35 24 38 29 36 30 33 22 36 18 33 33 25 26 37 20 19 25 21
