P2
64 64
255
25 26 23 26 21 22 29 19 34 36 22 38 30 30 34 23 30 36 18 27 36 30 18 35 21 25 33 31 23 35 18 31 37 19 27 25 25 24 37 25 18 37 34 32 28 30 27 20 18 22 29 38 32 36 24 36 30 35 18 21 23 27 33 30
32 37 20 33 33 27 36 34 21 20 29 25 29 36 29 37 30 32 28 25 29 34 34 34 20 31 31 29 32 32 32 37 29 35 35 27 24 33 26 20 30 38 36 19 28 18 35 38 23 23 30 18 31 19 35 20 23 23 28 32 21 31 31 27
27 33 24 32 37 37 35 37 18 31 18 31 26 30 24 21 21 34 29 29 32 33 31 34 31 32 25 23 38 28 34 27 18 34 25 34 26 29 22 30 35 27 27 18 38 37 33 29 21 30 35 36 21 27 38 31 29 34 19 36 27 37 30 26
36 23 37 25 18 23 31 18 18 22 26 24 22 37 24 37 27 23 22 26 24 23 20 29 37 34 28 22 34 37 28 25 33 35 31 18 26 34 38 35 19 34 24 37 38 30 37 25 24 36 23 22 21 19 36 24 32 23 26 25 36 34 32 27
23 35 36 20 23 33 19 34 37 24 19 34 18 25 25 24 19 32 24 37 36 34 28 27 31 31 32 34 23 20 23 29 28 33 34 27 36 38 23 38 19 22 32 22 29 26 31 31 21 38 30 30 19 31 35 35 18 26 33 23 34 23 33 21
20 29 21 20 22 25 19 24 29 24 18 35 38 23 20 33 36 25 27 28 35 27 37 26 38 28 34 27 32 21 30 31 30 26 38 21 21 24 30 24 23 36 22 23 31 19 29 22 36 24 20 26 27 31 25 34 26 32 29 20 37 24 34 34
19 36 31 23 26 34 35 37 19 23 30 24 24 26 21 18 28 35 38 24 19 37 25 20 34 27 35 32 37 28 32 24 22 24 31 37 26 37 33 33 38 37 34 23 36 20 20 29 20 37 23 21 20 32 33 21 27 32 34 20 18 26 35 31
31 30 33 36 25 22 35 22 35 36 18 34 21 28 35 18 23 32 34 27 29 20 37 19 24 21 30 25 20 22 24 22 19 25 25 26 35 34 36 34 33 23 30 31 24 31 19 30 33 18 33 20 33 22 19 26 18 21 30 33 32 37 34 26
34 38 26 23 22 35 23 26 21 32 23 32 22 28 18 21 35 25 31 32 28 18 19 29 35 33 30 21 26 18 19 35 38 27 35 33 25 37 21 23 26 28 28 35 20 24 36 26 36 29 38 31 30 36 32 18 18 24 21 30 34 23 26 31
37 24 22 37 33 27 18 34 23 28 36 38 22 26 28 30 24 29 22 19 19 20 24 24 19 34 30 24 31 24 25 29 19 19 34 37 19 25 31 25 20 18 22 27 26 32 33 27 18 23 19 22 19 38 23 27 25 22 22 24 36 21 25 35
32 36 20 37 35 29 38 28 32 35 31 20 24 34 37 28 20 22 28 18 30 27 34 23 32 29 31 36 24 34 32 32 32 31 35 31 35 22 31 21 24 32 34 28 19 29 31 28 27 18 31 21 33 28 32 28 23 32 18 19 35 25 26 37
38 26 28 21 26 20 37 18 30 36 20 36 27 24 38 35 23 25 30 20 25 35 29 23 24 21 20 27 25 27 25 31 32 22 33 23 20 23 25 23 26 23 34 33 23 29 23 23 33 36 37 30 30 19 26 29 22 26 31 23 29 35 18 24
34 19 22 27 21 36 22 28 28 30 28 30 27 26 18 20 21 37 30 23 31 18 35 29 27 21 19 38 19 21 21 33 18 18 22 28 32 37 22 22 37 22 28 31 25 38 33 18 21 35 25 38 26 27 31 21 24 29 32 38 28 35 27 36
35 27 32 24 29 28 23 34 27 29 34 21 38 38 30 35 30 38 35 37 32 24 38 29 25 19 24 37 38 36 36 27 30 29 20 25 29 19 27 31 26 26 22 23 19 35 20 31 21 21 25 33 21 18 35 27 18 22 30 37 21 21 24 24
30 21 38 18 21 21 25 26 28 28 35 29 33 26 30 36 30 37 24 32 21 34 30 36 21 19 22 21 19 27 32 19 36 32 25 31 35 32 23 26 29 36 22 33 25 21 30 22 34 35 36 29 21 19 34 26 23 24 31 19 21 29 33 20
34 18 35 32 27 25 24 33 27 37 18 18 21 21 32 24 20 20 20 24 34 23 20 35 34 37 22 30 34 37 23 22 19 34 21 24 31 21 21 31 34 31 22 30 35 22 20 26 26 23 36 25 31 20 28 21 38 21 24 25 35 33 22 33
34 25 29 31 34 34 29 28 18 28 37 34 36 28 19 36 31 21 31 38 32 28 24 29 35 33 33 33 25 35 22 26 32 20 34 29 29 38 35 32 24 26 18 34 21 23 29 26 24 34 22 38 32 18 32 27 33 21 34 19 37 20 25 38
20 38 18 20 34 24 27 36 26 26 38 23 32 24 30 34 29 22 20 32 35 27 18 36 31 26 37 31 24 30 29 38 38 30 36 28 38 24 20 36 36 34 32 24 36 33 22 37 32 26 20 19 24 19 26 36 37 19 21 23 20 21 19 30
19 34 21 22 30 25 25 23 22 25 32 31 30 26 22 36 24 28 33 33 20 28 25 33 18 26 18 38 27 37 31 34 32 32 24 19 31 21 28 25 24 23 27 26 31 27 35 20 36 20 26 19 38 31 36 35 33 21 18 34 33 36 37 25
30 23 23 19 21 22 29 37 38 30 19 29 22 37 37 30 31 21 41 24 26 34 25 33 29 33 25 26 20 32 35 26 32 34 27 34 36 33 30 32 38 40 30 33 38 34 29 33 20 29 30 33 35 21 34 20 21 32 25 19 33 20 38 19
25 35 32 20 24 19 20 19 31 20 28 24 25 22 39 33 22 32 40 29 26 35 33 38 35 30 24 37 36 25 36 34 36 28 31 26 26 22 30 24 24 27 38 35 31 37 28 35 28 23 26 32 19 38 31 27 34 31 37 22 31 29 28 24
22 27 28 33 20 38 23 26 36 31 36 37 26 25 25 26 26 40 47 33 35 34 36 40 33 28 26 36 20 28 39 24 38 21 26 26 23 32 28 27 39 45 35 38 42 48 34 41 32 30 26 33 21 29 30 20 18 19 38 33 20 33 37 22
30 33 21 30 35 33 20 22 38 19 32 35 31 39 36 48 45 47 44 44 53 37 52 52 46 32 42 31 46 35 36 32 37 42 28 42 36 41 29 31 42 44 39 50 33 33 46 45 31 45 42 44 37 19 19 35 21 22 29 18 20 33 25 24
24 26 27 20 24 30 31 36 25 18 23 28 44 41 44 34 44 42 56 51 57 56 42 41 56 44 58 48 50 45 47 48 35 53 49 51 58 58 51 51 51 52 40 37 37 49 47 38 52 50 32 41 39 26 26 20 37 22 26 30 34 35 21 29
19 27 36 29 28 20 27 38 32 26 27 25 27 45 32 36 48 49 42 50 58 54 55 63 46 54 63 65 50 64 45 53 40 53 54 46 47 64 67 47 50 50 44 41 49 53 60 39 40 47 41 30 43 44 36 22 36 30 26 23 27 19 35 32
33 29 27 26 38 18 31 29 18 29 38 40 38 51 42 47 43 44 62 63 49 64 57 66 67 67 60 57 66 64 59 66 55 52 68 54 72 71 58 69 67 54 60 57 59 57 55 49 50 44 39 40 35 32 23 25 38 32 37 20 32 29 28 31
31 18 25 32 23 23 34 28 24 39 38 45 35 40 50 49 56 46 61 48 66 55 67 79 73 67 75 82 65 74 62 64 72 71 80 66 81 82 74 77 64 61 61 52 55 60 56 48 61 44 57 45 48 46 36 22 27 35 19 30 20 25 21 33
27 21 27 34 24 34 20 18 30 42 31 31 45 45 50 56 47 67 60 59 59 79 83 67 85 71 78 77 74 91 73 76 72 84 75 90 89 89 75 84 77 73 78 65 71 55 67 54 52 47 52 50 46 32 39 34 24 24 34 18 34 28 33 22
30 35 35 30 36 27 35 37 32 45 37 32 44 39 62 58 50 67 59 70 74 71 73 78 77 95 98 86 83 92 78 81 89 96 95 98 92 95 86 87 84 89 85 78 64 59 60 58 59 55 62 57 38 48 40 38 30 18 29 26 18 35 25 36
29 21 34 27 21 32 21 39 36 36 41 49 39 51 46 52 63 64 68 69 75 94 88 87 96 85 87 106 104 93 99 104 88 88 93 86 100 92 94 98 92 88 95 83 79 71 61 61 68 59 51 44 47 34 35 28 34 26 37 29 27 18 19 31
32 28 25 37 21 23 25 35 24 41 34 48 41 53 62 62 69 76 65 76 87 97 103 100 102 109 111 96 100 102 112 99 96 106 95 107 94 113 108 110 104 91 106 92 96 69 75 71 66 57 47 52 47 49 50 45 37 38 33 30 38 22 36 33
29 30 28 29 22 38 27 32 26 28 50 43 46 54 56 66 61 70 66 90 84 108 102 108 111 116 110 113 116 104 118 109 110 118 101 99 119 105 109 101 114 107 93 96 89 93 79 72 72 68 63 51 58 40 33 46 24 21 18 37 36 30 29 31
26 34 29 20 32 36 35 33 27 44 40 47 47 43 63 70 59 73 72 97 92 94 100 109 109 100 120 110 113 104 112 124 115 108 114 105 118 120 108 110 118 100 96 112 92 89 82 76 74 57 63 62 46 53 51 42 43 22 33 18 25 26 29 27
23 35 21 24 23 19 25 30 27 29 43 46 47 61 55 62 58 78 77 84 103 111 107 110 112 120 113 114 114 125 117 116 133 129 126 121 125 115 108 110 100 99 111 107 97 78 80 72 72 63 57 44 58 49 32 46 42 37 32 37 25 30 33 25
21 25 33 32 20 22 26 37 42 39 36 41 40 47 55 52 69 63 69 84 83 98 109 104 118 107 122 119 123 119 134 125 138 131 132 121 124 111 113 112 120 115 104 98 88 90 86 64 60 59 50 48 46 52 40 38 28 21 30 23 37 33 21 21
27 21 25 20 26 22 20 29 28 38 46 44 50 56 51 54 54 75 82 87 97 87 102 101 107 104 123 111 123 125 118 127 141 139 122 125 116 125 109 113 116 115 98 99 83 74 65 74 70 53 47 59 49 36 41 27 40 27 34 38 25 22 21 18
38 29 36 21 28 36 26 32 39 34 30 43 52 57 61 60 68 61 79 86 95 94 104 113 109 115 118 120 126 115 129 137 139 126 123 114 121 119 122 117 109 103 91 100 88 76 81 65 61 54 50 58 46 49 45 33 26 28 21 33 19 30 27 20
18 35 18 19 19 22 33 31 20 44 31 44 51 53 46 50 46 54 64 70 90 97 87 106 113 98 116 118 112 123 111 128 133 127 118 122 109 109 117 106 114 107 103 91 89 71 61 69 49 45 51 42 43 38 32 26 24 26 18 36 35 32 37 25
20 37 23 36 22 28 21 27 29 29 35 43 45 53 44 41 59 60 55 64 84 90 96 103 105 94 114 115 108 117 119 109 123 113 113 118 110 117 103 96 100 89 98 86 78 69 65 66 60 48 52 48 48 45 35 36 32 34 23 26 25 34 33 19
19 23 19 34 27 31 27 30 23 35 38 38 49 32 42 41 46 59 58 64 66 71 85 82 83 92 91 99 95 104 112 110 100 117 101 110 113 99 101 90 98 89 79 73 78 60 67 55 53 51 50 52 31 34 32 28 28 37 30 22 21 19 28 20
24 33 33 23 30 30 32 30 27 36 28 39 32 44 52 46 38 45 50 60 63 63 74 73 83 98 85 94 90 96 100 97 101 95 98 104 90 104 102 81 96 85 79 68 63 59 55 38 54 47 47 34 28 39 24 35 38 19 24 25 18 26 26 36
30 31 27 25 23 28 36 35 18 18 30 22 27 41 45 42 37 48 51 54 59 60 74 77 80 88 93 84 99 85 85 87 91 93 87 82 90 82 88 79 75 80 74 61 58 63 55 40 50 50 49 27 25 36 30 31 37 21 27 29 27 21 34 36
36 23 21 18 20 19 20 36 38 21 35 27 24 43 31 37 35 36 47 49 47 62 58 72 76 82 89 83 82 90 90 74 79 92 93 93 80 85 74 75 66 68 75 57 49 51 52 35 38 33 46 26 40 31 27 18 24 24 25 38 25 38 31 31
38 37 23 33 31 27 34 34 18 24 30 26 26 24 23 30 32 43 38 46 54 42 60 55 64 71 65 69 76 66 77 77 83 74 77 69 66 77 71 72 55 70 62 44 54 39 41 42 33 34 43 34 33 31 19 18 28 20 35 24 30 35 22 28
21 25 24 34 36 26 34 38 31 27 27 19 22 29 23 33 33 39 25 27 41 53 51 64 55 63 53 55 62 64 65 66 65 77 73 67 65 73 68 50 65 56 59 44 44 33 26 36 31 26 32 22 37 29 22 21 28 30 38 37 33 30 33 19
20 20 38 25 19 37 24 30 26 23 28 27 24 34 18 25 32 29 22 30 43 42 36 56 58 46 49 66 70 64 75 63 63 65 73 62 66 61 47 45 54 46 49 40 24 39 28 35 27 26 28 35 22 33 26 38 31 29 32 21 31 24 36 20
25 24 26 36 24 37 26 27 24 29 21 25 38 24 33 26 26 36 20 31 18 23 28 31 35 37 48 57 62 66 67 66 67 63 54 50 59 58 55 49 37 40 32 24 38 30 37 21 34 33 36 18 30 27 22 22 37 28 34 25 21 21 26 19
38 20 22 32 31 30 37 36 31 38 32 20 30 25 34 28 33 33 26 34 29 20 24 38 46 42 40 52 54 53 49 43 47 60 60 42 41 50 35 48 47 29 34 32 26 21 37 29 37 38 28 26 38 24 36 26 22 23 28 18 37 29 33 19
25 35 37 23 26 20 37 34 22 26 26 27 28 34 35 36 24 34 20 27 27 24 24 27 37 41 45 35 41 48 46 55 46 53 48 35 46 46 34 29 39 24 21 36 26 33 32 30 35 27 30 23 24 38 30 23 19 21 28 36 29 38 34 20
29 31 28 31 21 26 27 28 20 31 26 35 36 28 34 20 33 28 37 30 24 34 22 21 27 40 39 28 38 40 49 35 37 36 37 48 37 31 35 28 23 24 21 33 32 32 28 37 20 34 37 25 28 36 26 34 27 34 18 22 37 32 19 35
23 22 29 21 24 22 37 38 31 22 33 27 37 30 32 25 37 36 29 25 38 33 38 21 22 37 24 22 36 36 38 29 34 28 30 30 25 38 20 24 36 33 28 21 32 29 18 19 23 36 19 33 31 37 18 26 21 38 30 21 34 23 38 37
32 24 30 26 32 29 33 38 31 23 35 24 23 38 36 35 24 34 27 29 28 22 24 21 36 26 19 36 38 33 24 22 39 23 26 24 21 27 30 31 18 25 20 32 19 26 38 24 23 33 18 23 34 28 24 36 29 21 27 21 22 24 31 26
27 26 22 21 38 25 25 26 20 35 35 21 27 25 33 31 38 35 38 26 21 24 29 23 26 24 25 25 31 32 19 29 29 25 35 35 27 35 32 37 28 31 28 28 18 28 32 31 29 18 36 28 25 18 37 23 25 19 26 36 28 20 34 25
29 30 34 18 37 32 30 29 35 19 25 31 27 37 31 38 36 22 18 33 27 33 23 26 35 30 19 28 34 31 35 30 35 34 32 33 18 33 33 27 32 34 38 26 19 28 22 28 37 19 21 20 20 36 31 22 36 23 38 18 27 20 25 37
28 18 24 22 35 35 37 32 33 34 37 32 26 19 25 33 34 23 22 38 19 18 25 28 25 25 28 33 20 29 27 29 32 22 23 21 38 23 18 22 35 27 24 29 30 23 36 24 37 26 27 33 31 35 23 29 22 22 34 23 23 29 36 32
38 35 34 35 27 35 24 27 25 24 18 25 21 20 38 38 27 30 21 33 18 18 38 19 36 21 37 38 32 26 18 35 35 22 23 29 21 32 34 23 28 24 35 35 37 26 25 25 34 33 32 37 26 22 30 35 18 32 31 32 18 23 27 19
28 31 26 19 36 37 28 18 28 29 26 28 22 34 33 25 22 27 19 19 36 24 34 23 19 37 38 35 29 38 35 21 19 32 27 30 27 25 30 33 38 27 33 26 27 28 26 25 31 36 37 30 20 35 22 36 34 19 27 25 30 18 36 32
29 33 33 26 26 21 32 36 21 25 35 30 28 37 21 31 28 22 26 19 25 20 35 30 27 32 38 18 24 27 37 36 31 32 37 32 32 37 34 23 33 19 20 27 38 38 20 37 33 32 37 21 26 30 18 36 36 27 28 26 28 29 31 35
34 35 19 27 29 18 20 33 21 34 32 20 35 37 18 31 23 18 32 24 25 33 30 25 33 24 30 29 22 35 21 34 27 31 36 38 21 29 26 34 27 26 22 31 32 21 26 19 21 28 21 26 30 37 25 33 32 38 23 30 26 37 37 27
20 35 29 24 19 24 28 29 26 20 37 20 22 30 28 19 38 36 30 34 32 20 20 23 23 23 29 33 24 21 21 36 28 19 24 38 23 21 35 34 21 33 36 32 30 32 38 38 30 36 29 23 19 33 21 37 26 33 38 31 34 21 19 33
30 30 31 19 22 24 37 35 32 24 28 35 30 24 23 36 18 19 29 30 36 22 29 32 25 19 29 27 20 19 18 36 38 32 31 20 37 30 27 24 31 35 26 30 23 27 26 38 29 30 30 23 34 25 25 24 26 33 31 20 36 36 30 31
32 27 25 30 19 18 22 21 27 27 30 20 26 24 18 32 18 35 21 24 37 28 26 31 29 28 28 30 26 20 18 36 28 34 29 33 18 35 21 28 24 20 34 25 24 26 33 19 38 34 33 22 28 25 34 20 32 33 35 34 23 18 24 22
23 36 34 34 18 35 33 30 36 22 34 29 28 29 27 19 28 27 20 38 26 25 27 25 33 28 23 29 22 26 26 27 18 25 18 32 20 19 24 18 22 27 38 29 20 32 30 31 35 21 32 21 34 38 30 38 20 26 34 22 22 20 32 33
37 29 36 24 34 33 22 35 20 25 19 28 37 22 28 38 20 22 30 37 28 22 28 22 38 24 37 24 34 21 32 28 37 26 36 35 25 32 32 19 22 29 18 33 20 37 27 36 37 36 31 33 33 19 28 28 32 21 30 28 37 38 22 37
