P2
64 64
255
25 32 29 21 21 33 36 36 30 18 23 36 27 33 28 36 35 19 20 32 32 27 23 31 19 36 34 24 30 37 19 37 35 28 21 35 30 24 32 35 27 18 22 19 26 21 25 30 27 28 27 22 24 21 19 35 24 38 33 36 23 30 18 35
18 29 35 38 32 21 25 18 19 23 27 35 19 26 26 33 20 38 25 27 32 29 33 35 21 35 35 32 27 34 20 23 24 30 31 33 25 28 23 29 38 28 31 35 29 19 31 34 20 37 26 37 23 30 24 27 36 33 25 38 28 27 36 30
23 22 37 21 19 27 18 38 27 21 32 35 25 33 37 38 36 33 28 18 35 23 25 19 24 21 32 35 32 18 24 23 24 36 33 31 35 27 22 36 31 27 27 35 24 31 22 30 24 38 37 29 29 29 31 38 28 26 28 28 38 20 24 29
23 23 37 22 37 36 26 37 36 21 30 30 32 29 22 27 27 20 35 21 32 31 30 34 22 33 26 35 35 35 38 36 37 33 32 31 36 23 25 19 22 19 32 24 22 38 24 19 18 28 34 28 18 20 34 27 25 26 37 18 29 37 18 22
24 35 21 33 23 18 32 38 22 28 20 28 29 26 29 20 37 21 20 29 31 18 31 30 31 26 38 32 30 35 33 32 38 20 21 19 30 36 37 24 34 30 22 19 36 25 30 23 26 19 20 28 33 35 24 23 27 31 38 25 18 38 22 30
18 27 27 25 21 28 22 22 36 27 18 22 24 22 22 20 25 28 21 28 32 31 30 29 29 35 25 29 37 28 21 22 38 31 18 21 20 33 24 23 33 28 38 21 18 23 38 27 35 32 24 24 34 26 28 37 18 23 19 28 18 31 29 23
30 33 24 35 20 24 33 27 38 25 32 28 26 34 37 19 38 38 27 21 36 19 19 25 37 33 34 28 26 37 32 38 32 22 30 26 27 29 27 23 38 37 36 18 29 19 28 20 31 29 26 21 32 20 31 36 33 25 32 18 24 29 27 20
23 24 25 23 22 23 33 33 22 23 21 22 18 20 23 19 18 22 23 25 25 37 29 22 20 38 34 27 31 29 26 26 19 29 23 23 30 35 25 30 18 32 37 32 32 34 22 37 30 32 19 22 28 30 30 28 29 19 20 33 34 34 32 25
35 27 32 26 26 23 31 35 31 21 19 32 24 25 20 18 36 38 35 27 33 25 37 24 18 34 27 28 20 32 25 20 26 26 23 21 19 31 35 26 22 25 37 35 24 18 36 19 35 35 31 28 26 20 28 34 30 34 21 20 26 32 33 28
31 35 22 24 25 31 32 23 24 19 34 28 28 30 33 23 21 18 23 18 29 37 27 37 18 33 18 23 29 31 19 19 31 32 24 26 21 38 19 38 28 23 30 38 22 38 21 34 23 32 21 38 24 19 21 18 18 29 22 30 21 29 36 35
19 38 24 32 32 20 32 38 23 38 36 29 31 36 36 30 34 34 22 23 33 27 25 33 37 37 24 34 32 21 22 33 33 18 19 33 27 31 19 27 22 26 34 35 33 38 27 33 32 25 35 21 38 38 27 30 18 20 25 23 26 25 38 31
37 32 24 31 30 32 26 34 25 19 36 21 24 29 23 29 25 18 37 19 25 37 26 31 19 23 33 28 38 31 23 34 23 25 25 25 19 23 34 37 22 28 32 35 32 38 27 31 23 20 21 32 21 19 35 33 36 18 37 28 30 24 30 25
25 26 24 18 20 25 32 29 38 23 36 22 37 36 22 31 34 30 32 37 30 23 23 18 38 23 29 29 34 26 20 37 32 36 33 32 38 27 32 34 35 25 26 19 24 36 26 28 19 25 27 18 18 18 18 23 19 32 31 36 37 37 23 28
28 36 23 30 22 18 22 36 18 28 25 19 27 25 27 30 37 26 18 19 18 37 18 33 19 29 30 24 20 25 26 28 26 21 24 28 22 37 38 31 25 29 23 35 36 25 35 34 27 27 32 19 26 30 32 23 34 25 27 36 22 25 22 36
21 31 29 28 37 36 37 38 19 19 26 22 21 30 20 32 23 21 18 31 23 38 23 37 28 31 38 23 36 20 33 35 19 36 29 24 21 19 26 19 30 32 38 18 19 20 21 35 34 36 27 28 31 35 29 18 29 18 18 37 30 28 20 38
35 36 22 21 26 23 24 28 25 19 29 37 27 34 29 20 20 30 19 30 28 23 27 31 24 24 35 25 34 29 22 29 35 25 33 35 28 18 30 28 35 34 37 34 29 23 26 28 29 21 34 20 32 30 32 22 25 18 18 34 26 36 27 24
31 26 33 18 36 26 21 35 23 21 26 38 26 35 23 27 37 29 29 27 21 35 25 37 31 26 33 27 22 34 35 35 34 26 29 33 35 34 22 33 20 29 19 33 28 26 25 30 19 37 18 19 27 22 21 23 23 18 20 23 33 31 28 31
38 23 35 19 30 35 33 38 22 23 25 27 32 28 28 37 33 35 28 26 35 33 25 33 22 18 20 30 35 26 32 38 28 22 35 32 37 37 32 30 36 27 36 29 23 33 34 20 23 32 21 21 32 35 19 31 30 34 29 30 29 38 19 38
36 25 37 36 19 27 32 29 21 18 38 35 27 29 38 30 29 18 36 30 19 22 21 38 27 30 37 38 33 20 32 18 22 35 35 29 23 32 34 36 20 35 34 25 30 24 18 22 22 37 18 38 29 18 22 24 35 37 37 31 24 21 21 21
19 33 38 23 29 30 38 37 25 35 23 37 38 30 32 21 26 27 40 25 28 29 34 27 40 39 18 29 36 22 38 31 31 22 33 18 29 38 38 29 21 32 22 24 23 28 37 30 21 18 36 28 34 21 19 31 31 21 30 30 33 18 24 32
32 23 18 36 34 26 34 29 32 33 29 19 24 37 35 36 42 32 25 37 38 39 25 37 41 34 27 35 22 25 19 26 32 26 26 38 24 23 35 40 28 40 42 40 41 38 32 32 32 33 33 20 37 19 19 21 35 19 37 35 32 38 28 37
33 35 22 22 34 24 19 36 30 29 28 21 29 28 26 28 30 37 47 43 48 44 32 31 37 26 24 39 38 28 31 30 31 115 26 31 21 27 41 35 39 36 45 36 36 41 39 27 45 44 26 40 31 34 19 23 20 31 24 30 22 21 18 19
34 28 33 28 20 34 31 24 26 31 30 30 23 37 38 41 39 39 48 53 38 53 48 49 51 41 47 29 25 21 21 28 114 23 26 25 44 39 31 48 43 46 51 40 44 36 48 40 32 28 35 40 37 36 28 34 23 32 23 28 30 19 19 32
36 23 20 18 34 24 19 20 31 33 22 25 39 31 42 36 53 48 38 43 55 43 55 45 51 50 47 47 35 25 27 193 26 31 34 28 29 39 38 40 45 48 40 40 50 50 53 35 45 50 33 45 40 34 19 33 35 18 28 27 37 38 21 35
19 33 30 29 26 26 23 19 26 36 31 43 31 39 39 35 44 43 57 49 49 52 59 47 55 37 38 36 48 47 127 33 119 28 41 46 48 37 49 46 54 41 46 49 41 58 44 44 39 41 46 40 41 33 39 19 25 35 27 35 22 23 36 32
30 19 24 35 25 19 38 20 28 29 36 38 49 40 47 58 58 59 57 45 64 47 63 55 46 58 43 43 32 42 213 123 30 29 44 40 41 36 51 51 61 54 49 65 62 59 61 57 58 45 47 48 37 42 34 39 32 34 33 29 18 27 23 30
29 27 35 38 25 35 27 22 31 42 33 46 44 50 48 53 56 53 50 55 56 69 54 53 65 53 56 52 39 35 118 208 34 43 31 47 50 56 47 55 47 56 53 50 56 55 58 64 60 42 52 49 39 48 36 42 33 27 31 25 27 38 36 36
25 21 38 25 22 25 38 34 23 28 47 38 40 48 46 48 66 63 64 55 64 54 71 60 65 57 50 47 37 127 41 214 126 48 38 49 54 41 46 57 50 56 62 54 71 62 71 53 64 61 60 57 35 33 40 29 37 37 19 19 37 33 29 37
34 31 36 19 34 18 30 18 28 33 44 43 36 49 58 64 52 69 64 59 66 71 76 58 59 58 65 58 56 123 50 211 128 47 47 49 42 63 52 69 68 66 61 69 75 61 57 60 66 61 46 43 40 39 34 40 23 35 21 33 18 28 31 20
18 32 25 35 19 36 35 22 32 39 48 38 40 57 56 57 68 71 70 72 71 70 78 66 73 54 60 51 56 140 123 133 135 127 40 37 56 53 59 51 60 67 63 61 64 61 65 75 70 68 54 57 46 34 34 29 42 29 32 36 38 36 20 35
37 22 23 36 28 32 31 24 23 36 47 51 51 55 49 67 70 63 79 63 84 80 74 76 63 73 53 52 60 53 215 140 51 220 41 56 62 59 60 70 69 61 76 81 77 83 61 57 65 53 60 46 48 55 47 40 27 33 24 22 24 34 21 34
20 28 36 19 26 26 28 33 35 41 42 43 40 43 53 70 64 59 67 68 71 82 82 62 64 62 66 59 57 131 140 136 141 140 43 54 57 61 69 66 71 82 69 83 83 66 72 70 62 62 53 59 43 35 37 27 30 40 30 36 31 35 19 35
18 37 34 25 38 23 28 36 39 38 44 54 53 61 47 52 55 63 72 76 74 81 71 72 78 70 70 67 131 130 57 131 131 141 40 50 59 53 52 56 77 65 82 86 80 80 83 78 68 67 67 59 56 38 52 46 37 21 23 36 34 33 33 36
30 27 26 31 21 19 29 38 36 40 33 40 53 56 65 62 62 66 66 70 79 74 84 67 58 72 55 47 146 131 51 131 51 211 54 54 54 59 55 58 66 63 75 81 83 71 81 65 63 62 60 62 43 35 35 27 44 35 29 35 37 29 25 24
22 37 35 27 25 43 31 31 39 40 49 45 59 57 67 61 72 65 68 78 70 85 71 72 80 70 57 55 237 57 43 58 143 232 55 59 69 68 62 76 67 75 84 77 73 82 84 75 76 63 67 63 64 62 51 55 32 46 44 37 35 35 33 31
44 35 28 45 42 29 32 37 52 51 50 46 65 68 68 74 77 84 70 90 93 92 79 89 84 76 74 147 145 60 49 146 136 147 58 58 63 73 77 78 91 86 84 86 86 79 78 92 78 71 73 78 73 61 68 49 54 48 42 48 47 49 53 44
47 40 51 35 35 44 46 36 53 62 58 69 62 71 77 65 89 90 75 92 85 95 79 80 83 86 157 83 66 144 71 156 70 147 146 73 73 86 83 76 88 82 83 97 88 97 83 80 89 92 88 87 73 75 62 74 65 51 68 68 53 57 51 63
49 57 45 52 48 50 58 54 53 56 66 59 79 67 74 84 81 96 92 93 84 95 92 95 91 161 87 82 79 161 68 64 153 81 237 70 80 93 77 87 99 86 93 105 108 106 93 103 91 85 80 89 91 76 73 74 65 79 62 64 80 77 80 71
48 52 37 44 50 49 54 47 51 46 52 58 64 56 63 64 66 86 79 88 88 81 73 87 74 160 75 78 61 61 144 156 54 68 141 156 67 84 86 89 92 92 93 96 87 91 79 83 85 75 89 73 71 76 72 69 58 54 51 61 56 66 56 62
36 35 43 30 35 35 40 49 43 52 53 50 64 63 67 58 60 58 58 78 64 74 76 67 162 65 63 71 57 147 58 44 128 136 45 144 63 68 67 68 80 70 74 68 71 80 81 73 77 61 68 59 56 52 64 50 41 46 52 52 41 42 61 47
35 44 33 27 27 41 25 24 27 30 29 48 42 43 57 48 59 63 62 63 54 64 54 50 50 138 60 55 54 48 119 37 115 37 123 43 128 52 46 64 65 59 60 70 55 57 50 53 66 46 43 58 43 37 35 49 29 30 34 37 45 40 50 37
37 25 31 36 33 27 30 26 19 37 35 21 40 27 44 48 50 44 55 47 55 37 51 39 134 46 40 29 36 29 23 189 23 32 38 110 132 34 50 53 43 53 46 40 58 43 46 41 37 42 43 45 34 42 37 39 26 36 19 28 21 23 33 35
30 26 26 35 32 35 32 24 34 26 27 19 26 28 31 29 42 40 40 35 47 47 51 118 46 32 44 28 44 38 111 25 119 21 32 117 124 40 37 49 41 34 43 45 42 43 32 37 31 36 36 43 29 22 21 32 32 36 18 37 27 34 21 34
25 22 24 28 37 25 29 33 22 36 34 24 24 28 30 38 42 44 43 30 34 44 43 44 128 34 31 39 36 36 21 111 119 21 36 208 28 30 41 39 37 46 41 36 41 42 28 28 32 43 35 32 18 32 31 34 24 33 19 37 23 33 29 19
22 35 38 34 31 27 36 30 34 21 31 23 26 36 36 39 40 38 30 26 30 42 42 33 39 109 25 29 20 33 24 36 198 32 28 207 19 38 34 35 26 26 29 32 43 28 44 35 37 31 35 31 27 24 37 34 19 20 34 25 26 26 31 26
20 20 20 25 28 26 24 29 32 35 35 35 29 21 26 29 31 30 30 26 34 27 23 37 36 116 34 26 23 29 29 123 18 107 25 189 27 34 21 34 31 39 27 30 29 29 24 22 27 37 27 21 26 32 29 24 19 23 24 34 18 25 18 21
25 21 19 28 36 19 31 26 36 30 19 28 28 35 21 20 37 28 32 36 31 21 20 19 22 22 117 30 34 33 20 119 116 18 118 110 36 35 31 23 30 38 18 23 28 23 36 31 38 32 23 25 35 27 27 23 32 34 31 28 19 23 19 23
34 30 36 18 31 36 24 37 20 33 28 18 18 32 27 19 28 18 18 19 26 33 20 26 37 35 110 28 32 24 30 106 35 205 116 33 38 22 22 24 31 18 31 37 23 31 28 37 20 27 36 32 37 33 33 20 33 36 30 20 21 32 18 28
24 24 28 27 29 26 38 21 31 34 33 32 35 24 32 33 19 31 32 25 25 38 29 29 37 104 34 38 22 19 118 26 106 117 116 18 32 35 25 30 38 28 35 37 18 20 38 30 30 32 23 35 20 20 20 38 27 19 37 28 20 27 26 24
20 36 19 38 37 22 34 36 36 32 19 19 23 23 35 24 35 29 30 37 30 22 18 22 18 116 30 22 18 37 25 198 106 119 32 29 22 38 24 36 25 38 21 33 23 22 32 29 27 36 26 30 24 33 27 28 27 31 32 31 26 38 31 38
28 18 26 35 25 29 31 28 38 30 25 20 23 27 18 19 23 30 21 23 22 23 37 21 32 27 110 38 31 35 114 119 123 107 36 30 34 31 24 18 20 27 33 19 28 28 35 31 23 22 30 25 36 37 21 36 32 26 23 23 31 22 19 25
32 18 29 23 36 18 28 19 30 22 31 27 24 24 36 31 22 20 28 25 26 22 21 24 31 116 27 27 19 117 18 114 118 118 36 38 37 35 20 24 34 19 26 27 23 24 31 22 30 21 27 23 21 33 30 28 29 32 32 24 25 35 23 28
25 28 36 22 36 20 38 25 37 22 36 27 24 28 33 33 26 29 33 36 31 26 36 18 36 116 22 24 117 37 116 36 111 28 108 20 28 31 30 37 19 18 19 33 29 31 26 24 29 25 19 30 22 31 25 27 34 30 26 23 28 19 20 35
24 38 20 33 18 19 19 25 24 38 37 27 30 19 19 20 32 27 24 19 29 25 21 37 117 20 38 122 30 28 24 193 27 38 24 24 32 24 22 36 36 33 28 18 37 22 32 20 36 32 33 19 24 18 32 18 25 36 24 38 21 36 20 28
30 26 25 30 27 31 32 22 32 37 31 31 29 18 38 21 24 21 30 31 18 21 22 123 35 38 111 28 28 27 111 25 107 38 31 30 38 29 36 26 25 35 26 24 18 23 28 37 33 35 37 26 21 35 19 26 29 30 23 21 19 38 18 33
20 35 25 28 26 29 24 26 18 20 36 32 31 31 19 28 21 23 30 27 38 26 35 30 123 112 26 19 20 18 104 37 32 19 33 35 31 38 34 23 25 28 36 22 18 28 31 25 26 21 25 21 27 24 31 30 21 31 38 25 35 21 35 31
24 19 37 21 21 33 26 27 28 18 33 32 32 25 23 22 34 28 35 20 21 28 28 112 113 26 27 33 38 27 31 112 24 19 33 26 24 30 20 27 19 29 32 18 38 34 33 27 29 34 21 18 23 32 37 35 34 33 21 25 19 22 30 36
22 26 31 28 19 36 32 27 28 34 22 32 27 37 20 35 27 36 24 34 32 25 121 18 28 24 29 24 36 31 38 21 120 31 23 38 21 24 23 32 32 23 29 19 35 26 34 32 21 36 19 19 28 20 37 31 20 31 21 34 23 29 35 32
33 27 36 30 23 23 35 29 19 33 24 37 30 19 38 27 38 37 22 22 26 34 36 123 36 26 32 37 31 24 36 33 114 24 30 24 30 31 24 30 29 35 23 37 21 24 20 33 20 29 29 27 28 31 32 31 18 31 37 31 34 36 33 25
29 24 36 24 24 32 23 34 22 30 25 27 27 19 24 27 32 27 38 30 36 31 36 30 24 23 38 35 32 25 37 115 18 19 18 33 38 34 36 27 22 18 27 23 20 24 37 19 19 35 26 32 38 22 22 22 21 34 21 38 32 19 21 29
25 29 29 29 26 35 28 19 38 38 31 34 37 30 32 19 26 33 29 18 23 24 35 38 28 23 24 27 23 22 37 19 106 18 26 27 30 24 26 30 25 36 22 22 19 20 22 27 33 22 25 26 27 20 37 18 28 29 33 32 35 26 28 19
23 35 37 27 31 30 25 26 33 32 27 18 35 19 33 37 33 36 18 36 18 32 38 37 36 25 18 28 26 38 20 25 33 25 31 19 37 30 28 20 29 34 29 19 32 25 22 28 34 24 23 32 26 25 26 28 26 33 22 32 23 36 18 21
26 34 31 30 26 20 23 35 24 25 32 18 22 29 37 20 25 31 24 34 31 27 25 23 20 25 27 35 18 36 27 24 31 34 37 22 25 37 28 33 27 18 18 25 31 18 29 29 22 25 20 33 32 34 31 21 20 22 18 35 22 24 35 31
37 34 24 20 20 19 18 25 22 30 21 30 23 37 35 37 20 33 29 27 32 28 30 27 30 26 34 20 27 29 34 34 35 21 21 38 30 23 24 21 37 18 35 38 29 19 32 29 21 26 28 31 37 21 30 38 28 21 20 33 21 21 33 26
