P2
64 64
255
37 18 32 18 18 28 21 28 25 32 27 34 21 31 30 20 27 26 26 19 20 38 26 22 28 26 34 33 28 38 32 33 37 23 23 30 37 38 29 24 20 27 19 30 31 21 27 26 27 38 37 25 23 30 23 21 25 30 23 25 31 31 22 25
24 38 23 23 29 19 22 23 35 34 27 31 26 18 30 19 31 21 34 20 35 36 34 36 22 27 23 34 34 27 18 33 28 38 20 18 32 29 25 24 18 38 27 38 19 33 35 27 20 28 37 19 35 24 34 35 22 30 23 26 35 20 33 30
31 25 22 33 21 37 21 36 36 27 30 33 29 29 37 34 24 28 37 18 20 32 22 20 21 24 32 19 36 25 18 26 28 31 38 32 24 34 23 20 29 22 18 27 35 18 20 34 21 26 21 29 21 29 32 28 21 22 32 18 20 30 34 24
34 35 20 37 31 31 30 26 18 26 35 31 30 26 37 32 35 34 32 31 25 18 25 19 38 28 37 22 21 35 29 25 28 37 30 30 20 19 38 27 27 25 25 35 30 20 25 36 34 32 30 20 30 33 36 27 25 28 37 27 24 25 24 38
34 26 28 33 31 21 25 31 18 27 35 33 36 20 34 22 24 31 20 35 18 32 38 30 28 29 26 33 27 33 38 23 37 35 34 20 30 33 18 38 25 19 27 34 19 32 33 22 27 36 38 24 20 38 31 25 23 33 34 27 29 29 26 34
34 21 20 23 33 31 33 25 19 32 27 25 32 33 33 20 23 29 29 31 31 23 32 30 35 36 29 26 20 33 37 30 29 20 23 19 22 31 30 27 36 29 38 31 27 23 25 29 27 35 21 34 27 35 22 35 38 34 38 38 28 22 36 36
38 20 34 30 21 36 36 30 18 23 27 26 18 21 36 32 20 19 25 30 21 29 22 24 37 24 34 23 20 36 33 30 29 24 23 20 35 27 21 22 38 25 18 26 20 25 31 25 19 31 25 32 27 18 23 26 38 36 25 32 38 27 33 32
37 20 26 26 33 29 34 27 28 26 30 29 30 24 35 31 25 23 22 23 31 36 36 20 33 38 32 37 28 31 38 28 38 29 30 27 38 18 22 21 19 31 36 23 24 20 24 31 26 25 28 32 31 22 38 34 38 30 35 22 35 24 25 35
32 32 26 31 26 27 25 32 24 38 22 26 24 37 38 19 28 25 27 38 31 31 37 23 20 30 21 30 26 26 22 35 22 30 21 36 33 20 29 19 27 35 35 38 22 18 28 29 25 19 30 34 37 20 28 28 23 35 19 24 29 32 19 25
28 22 26 26 32 34 20 37 33 20 22 25 25 28 21 35 21 32 20 21 38 21 31 35 19 32 30 26 32 25 31 22 25 37 18 24 38 33 23 33 18 24 32 20 27 29 34 22 31 27 18 26 38 38 19 27 18 25 36 34 34 21 32 28
30 24 19 34 25 31 38 37 38 37 38 20 36 21 37 18 31 18 35 28 18 31 28 31 21 27 38 36 22 38 25 33 20 20 25 36 36 31 21 20 27 20 18 35 24 19 29 25 24 21 37 35 27 24 19 33 33 29 29 27 33 36 19 27
36 32 33 26 34 19 30 27 18 29 28 36 29 21 35 25 28 26 29 26 28 36 24 23 21 31 34 37 22 30 27 34 22 29 29 23 35 33 36 37 31 35 34 30 32 30 20 32 33 26 21 23 32 20 21 29 25 18 23 31 20 30 20 25
31 32 25 23 35 24 28 19 30 33 36 24 24 33 31 18 31 32 21 19 34 30 26 30 20 35 27 29 28 31 22 32 28 19 29 26 29 34 20 31 35 32 19 21 28 38 33 21 27 28 23 35 36 31 20 23 34 31 26 25 38 37 36 26
30 32 25 28 31 18 20 31 33 28 22 19 34 31 21 37 26 31 30 20 23 33 20 24 23 34 26 38 18 27 34 29 24 24 29 30 36 30 18 31 23 20 31 33 30 32 36 24 38 27 27 22 33 34 23 20 38 36 22 30 21 29 29 38
29 38 34 21 32 21 28 32 18 27 27 28 32 25 23 37 28 25 37 24 35 35 28 30 29 29 33 38 29 36 20 33 25 35 19 18 34 38 37 36 33 38 35 35 36 24 36 21 37 34 31 21 35 36 30 33 32 22 27 22 35 22 33 35
29 19 26 19 31 24 27 32 23 26 21 24 20 34 21 18 34 21 21 20 24 21 25 20 24 38 24 32 20 24 23 21 22 28 19 28 31 32 28 23 24 21 25 33 25 34 28 29 22 21 29 30 37 24 18 32 30 35 22 23 36 25 18 32
29 26 24 23 18 31 37 21 38 31 30 20 30 35 33 21 26 22 30 28 35 33 27 35 18 23 35 31 23 37 20 32 36 21 21 27 20 27 28 27 22 36 25 21 32 23 23 38 23 20 19 29 21 27 38 38 37 25 37 32 18 34 25 36
36 37 35 20 31 32 25 26 26 30 22 35 25 38 38 22 35 35 19 35 18 30 36 28 37 38 32 28 20 31 28 20 36 33 34 26 33 31 26 18 37 37 31 38 21 30 34 34 23 20 21 37 23 37 31 32 35 38 29 37 34 23 24 26
18 32 27 36 28 38 34 21 25 24 33 30 21 21 33 27 30 28 28 34 23 37 32 24 37 29 26 18 27 28 35 33 28 28 33 26 25 21 31 23 33 30 33 19 36 23 33 27 22 23 24 20 34 29 29 34 29 26 18 21 28 21 24 28
19 35 35 23 37 32 29 23 37 36 37 33 31 24 30 25 38 25 32 28 29 26 31 33 37 40 40 37 48 46 35 24 37 25 21 27 27 25 21 21 32 21 33 30 22 38 30 40 36 19 19 20 38 29 25 27 25 32 27 38 34 29 18 18
18 30 28 22 34 36 35 38 26 27 33 29 22 26 32 40 26 40 45 34 32 37 27 39 34 53 54 63 49 44 47 44 24 32 43 34 34 38 37 41 26 36 39 42 30 28 44 24 42 28 26 32 22 26 30 31 23 22 25 19 23 18 19 25
30 30 33 20 36 35 34 32 33 37 32 29 28 35 26 32 44 34 40 30 43 44 30 40 51 54 65 71 78 75 69 51 40 40 41 50 44 44 40 56 47 34 36 32 31 39 34 41 37 43 34 23 35 33 20 22 28 32 38 20 31 28 24 37
37 27 29 26 35 21 22 37 38 19 35 22 25 35 26 31 33 34 41 51 53 41 39 60 73 76 87 97 88 93 78 69 65 64 57 48 70 53 59 58 52 42 36 41 53 51 40 49 49 44 33 36 39 31 31 23 23 21 38 31 23 32 29 21
29 31 26 18 18 30 32 18 30 25 32 32 30 45 40 40 45 42 52 44 43 49 56 70 87 100 118 115 119 112 84 77 65 62 65 71 70 75 79 78 64 49 52 54 53 44 51 49 40 40 35 45 43 39 31 33 19 19 29 25 28 21 34 29
30 36 28 24 33 36 26 35 22 31 31 37 33 39 43 52 37 44 47 60 50 53 61 77 110 107 124 131 158 129 120 105 79 80 80 82 82 82 85 84 71 69 63 59 47 58 53 47 40 45 33 31 30 28 29 35 30 22 24 21 30 29 23 29
36 38 23 36 36 37 33 28 23 31 31 31 41 49 37 52 53 46 54 61 57 75 76 92 122 128 142 147 141 131 126 104 106 82 82 94 101 96 84 92 84 71 67 48 47 58 46 62 50 58 54 51 35 33 27 40 34 37 29 38 34 22 26 30
28 34 31 27 31 32 20 28 31 28 27 39 36 55 57 57 46 56 61 77 69 82 97 107 114 145 151 150 141 139 125 121 106 99 92 100 116 107 102 99 89 66 76 49 49 68 64 53 55 58 47 41 42 39 30 27 18 25 35 24 28 25 35 25
26 28 21 35 21 28 18 21 36 43 31 39 51 46 51 59 65 66 67 74 97 99 95 117 133 141 150 156 136 140 131 122 106 98 96 96 109 105 101 96 94 86 67 62 62 66 57 68 51 63 59 54 44 38 37 36 37 29 26 34 25 29 37 25
25 36 21 20 21 29 28 36 33 36 46 34 48 56 47 64 53 61 68 87 102 97 109 119 123 153 157 148 138 132 117 113 102 98 84 89 93 89 90 87 83 73 77 76 72 70 65 71 55 62 53 47 40 49 32 30 41 32 35 26 30 26 18 19
31 24 30 29 28 32 37 37 33 43 34 44 55 52 56 51 56 56 76 81 96 115 122 126 132 144 157 144 131 128 114 98 91 83 79 80 93 89 82 77 77 84 67 71 70 62 68 67 58 48 56 49 52 42 49 34 34 24 20 29 26 19 27 35
23 28 19 23 29 30 24 26 38 39 40 45 58 51 59 68 55 70 71 95 112 109 121 140 140 140 159 147 131 112 96 93 82 88 75 71 87 89 78 85 82 65 71 74 80 68 80 66 56 55 65 54 56 43 44 31 37 37 23 34 35 36 26 30
18 33 18 33 28 32 30 30 38 34 37 43 43 55 51 67 56 69 83 91 110 125 133 141 134 151 135 146 132 115 106 88 90 87 80 69 81 74 82 79 76 63 71 83 74 70 69 62 65 65 52 56 53 49 35 31 36 30 27 36 24 32 31 35
28 19 23 26 37 20 25 21 44 30 43 53 53 51 66 66 65 60 82 102 118 121 119 132 144 146 124 123 120 109 89 86 70 59 53 49 57 71 60 63 61 70 75 74 71 77 70 71 62 52 61 61 48 53 52 29 29 25 23 36 23 27 25 32
30 23 29 28 34 28 24 34 26 30 38 51 41 50 47 65 57 60 79 95 100 106 111 121 133 132 122 115 119 109 91 83 72 67 55 59 63 62 51 70 61 75 65 78 74 83 75 72 63 71 50 57 47 48 32 30 35 22 19 24 35 34 24 30
35 33 33 18 38 37 26 23 30 32 36 48 41 48 59 66 58 62 73 80 85 102 104 112 107 112 122 110 102 89 77 66 58 50 49 48 46 66 67 55 66 79 71 70 74 67 61 68 69 51 50 42 58 47 45 40 24 30 23 22 33 28 25 36
34 26 37 27 33 37 24 32 40 33 32 37 46 56 59 59 55 56 75 80 80 87 103 96 112 100 101 90 96 81 73 63 48 38 36 47 48 48 68 64 65 63 68 79 76 65 66 66 53 67 65 45 45 53 41 38 40 21 28 22 23 24 24 25
24 23 28 36 19 19 19 31 39 33 47 38 52 45 58 59 62 55 56 57 81 71 76 79 98 89 82 88 85 66 52 50 52 45 46 51 57 52 49 68 58 63 64 58 75 76 62 55 68 47 60 50 50 47 31 35 29 25 22 38 34 32 35 36
23 26 27 19 22 32 23 32 20 24 45 34 44 44 50 45 63 68 60 54 56 69 80 78 82 73 68 60 57 50 52 45 29 39 42 43 41 54 62 55 55 51 69 55 54 71 54 67 53 56 52 43 48 34 44 35 36 34 37 35 34 34 18 33
34 34 28 34 18 32 23 38 22 32 43 46 44 43 40 46 60 56 51 65 60 60 65 61 57 68 66 49 45 40 38 36 32 38 37 46 47 58 54 46 55 65 52 68 67 62 53 55 59 57 49 40 43 48 33 32 28 37 22 38 29 36 28 19
37 22 33 21 22 19 19 32 25 24 41 28 42 36 41 43 54 57 53 59 50 45 64 61 52 55 38 42 37 48 45 31 41 35 31 35 42 49 51 59 62 62 64 62 52 53 45 54 41 51 47 38 31 28 32 20 30 35 20 24 23 34 35 30
25 22 32 20 36 25 22 18 20 36 38 24 30 31 36 42 38 55 55 53 60 60 52 42 40 55 41 44 42 46 33 27 36 40 36 27 44 48 41 37 43 40 55 42 46 48 42 53 44 53 35 38 47 37 37 29 26 31 24 35 34 30 27 28
31 21 19 37 20 19 28 24 23 34 25 31 33 44 32 38 50 35 46 39 46 53 53 39 48 41 51 39 34 35 38 22 22 23 22 26 31 36 35 38 43 46 38 48 48 56 52 55 35 35 46 45 36 28 20 27 33 35 22 36 29 21 19 22
24 26 18 22 18 31 28 27 32 20 24 31 21 39 35 47 48 33 38 43 41 37 33 38 37 42 34 31 41 40 20 33 36 37 34 38 24 33 31 35 37 48 43 48 41 37 32 51 38 29 45 28 25 22 22 27 28 28 31 30 22 25 20 38
19 32 37 20 27 29 32 28 20 37 24 32 35 24 41 43 39 30 35 46 36 47 41 34 41 40 36 32 35 35 18 36 34 37 36 27 37 30 42 26 38 40 35 41 29 46 40 33 30 26 27 36 37 38 27 18 18 20 26 25 26 23 19 18
37 34 33 28 31 38 18 19 24 29 28 36 34 32 27 25 34 37 45 32 45 31 30 35 25 26 32 30 38 25 20 30 22 33 23 28 28 36 25 31 31 34 29 43 28 41 37 24 32 29 25 26 36 19 27 31 34 18 29 36 31 38 33 35
20 27 37 30 38 31 22 28 32 28 24 18 29 31 28 36 37 33 39 39 38 23 27 21 25 32 32 32 18 31 32 26 33 18 36 36 28 29 28 25 34 29 22 23 28 32 41 27 36 26 33 36 28 21 31 27 22 27 24 33 26 33 29 33
33 23 35 37 33 20 24 24 23 22 35 20 32 20 22 21 27 32 24 21 24 29 20 35 19 30 32 30 36 27 19 20 20 28 22 18 32 23 32 26 20 38 31 35 29 19 36 28 22 21 29 32 27 36 36 19 35 35 28 31 37 18 38 31
18 21 35 20 32 38 37 37 27 35 25 34 20 35 28 20 27 20 21 21 23 32 21 37 22 19 25 29 28 32 36 34 25 37 34 23 18 33 30 27 33 28 33 28 21 30 19 18 38 19 37 31 34 32 36 18 24 19 32 31 32 23 31 23
26 30 27 27 20 37 37 35 19 19 19 31 33 34 34 37 21 24 33 24 22 18 35 32 37 21 38 38 27 29 19 27 34 30 36 21 26 30 26 33 37 27 30 18 34 25 37 32 37 28 29 34 31 19 22 20 22 22 33 23 37 35 35 31
20 24 38 27 22 22 23 33 21 33 26 26 23 31 37 35 19 34 24 32 19 31 26 20 35 24 26 18 23 28 20 18 18 38 36 19 33 36 29 31 26 25 36 36 28 19 23 21 30 27 28 21 36 28 31 23 30 26 34 29 24 28 32 24
32 18 20 19 29 18 34 23 33 33 38 23 32 30 35 18 26 35 32 19 32 19 33 27 36 38 31 20 30 18 23 27 30 34 25 23 35 30 37 32 32 38 27 27 19 38 37 29 35 31 24 30 21 29 34 29 18 20 22 26 20 30 30 38
21 38 33 38 22 22 23 34 22 24 26 30 30 32 34 34 18 30 19 34 21 38 31 37 36 38 36 38 23 26 32 30 20 32 21 36 26 38 22 30 29 29 20 27 33 24 33 37 34 29 34 34 30 24 18 24 26 26 33 29 31 19 38 19
25 26 31 38 25 21 25 36 38 28 20 33 22 35 25 33 29 33 18 36 18 20 36 37 32 29 25 18 19 28 25 36 23 35 36 30 27 19 34 32 19 26 28 19 38 37 20 31 38 38 35 28 28 18 22 34 28 36 38 28 33 35 32 27
19 21 22 29 34 38 38 37 35 37 23 31 19 35 18 38 28 23 38 18 38 29 33 22 38 20 31 18 22 30 36 24 26 23 26 27 28 19 26 27 37 18 32 29 24 26 31 27 34 33 29 21 32 23 34 31 24 31 18 31 22 24 28 33
26 21 27 29 19 31 27 38 36 37 19 33 36 22 22 36 27 19 23 22 18 27 26 26 18 19 26 38 33 32 29 31 25 21 23 30 29 18 23 18 18 23 37 38 37 37 35 30 30 29 33 22 38 37 38 38 18 37 38 29 30 24 35 22
22 37 21 22 18 29 31 33 21 32 27 20 24 37 38 28 29 31 27 19 28 36 33 18 35 37 25 25 29 19 36 23 38 37 19 34 35 24 19 23 23 26 28 28 30 20 38 27 33 22 37 24 27 30 27 19 18 35 20 19 32 27 18 20
18 19 20 19 35 37 18 33 18 18 19 24 36 33 25 18 20 37 31 26 29 34 24 26 31 34 28 34 30 24 26 20 35 20 18 33 28 38 27 34 22 20 33 25 30 28 27 27 24 37 28 29 22 32 21 35 26 30 27 35 34 27 26 25
30 36 32 33 34 22 22 33 29 23 32 19 33 20 22 31 28 24 29 30 35 32 34 21 30 26 33 38 29 27 37 34 28 24 34 29 29 23 21 27 27 27 19 31 20 19 19 33 28 23 25 34 20 18 38 33 37 22 29 33 21 25 29 33
31 24 18 19 32 22 28 28 37 18 35 22 26 33 37 35 32 23 18 31 38 36 28 20 21 25 19 22 19 19 21 24 38 23 30 23 31 34 29 21 24 18 27 23 20 22 37 35 38 19 28 33 22 22 30 26 24 21 27 21 31 33 31 28
37 25 27 27 36 20 35 34 31 37 22 37 27 33 28 38 20 25 20 30 22 23 18 36 18 35 37 21 22 27 30 28 24 33 24 21 18 30 36 30 18 28 21 29 33 24 24 28 26 26 29 38 19 32 29 20 21 29 20 26 32 29 36 27
37 21 19 29 24 33 29 18 19 33 34 20 34 35 26 31 38 29 36 33 20 37 24 22 37 27 20 25 19 37 21 21 32 36 28 18 23 37 23 24 28 32 20 22 32 35 18 19 37 23 37 32 20 29 25 33 28 38 24 25 38 23 38 37
28 18 29 23 36 35 33 22 35 22 35 21 18 24 20 37 35 20 29 33 30 21 20 29 38 27 19 26 38 18 25 19 37 28 31 33 28 21 28 30 27 23 21 21 38 27 21 38 38 33 35 21 30 31 26 18 35 38 22 36 23 21 19 20
32 32 23 26 36 25 29 21 34 24 35 28 32 31 35 19 20 38 35 33 26 21 18 38 31 34 20 35 33 25 19 30 37 18 33 35 31 30 37 26 33 37 28 29 24 28 22 23 26 25 29 19 25 37 30 22 21 32 30 23 26 24 35 25
25 20 23 23 23 33 26 30 25 34 37 18 20 36 19 22 18 22 35 22 18 35 23 36 26 19 37 22 18 20 23 22 18 36 38 34 32 33 23 28 19 35 35 18 30 29 18 18 27 28 18 36 23 32 23 37 24 36 31 19 36 36 25 31
