P2
64 64
255
21 18 27 20 36 25 24 31 21 31 27 32 32 26 35 18 30 25 33 25 31 23 20 35 22 36 31 34 33 19 31 20 36 23 28 38 23 33 24 26 22 24 22 33 26 18 21 21 28 33 38 20 33 35 37 23 28 30 26 32 25 24 34 20
21 28 28 21 32 30 28 34 20 31 38 19 27 19 36 38 20 28 19 18 23 30 24 26 20 34 21 35 18 36 33 26 32 29 34 35 33 18 18 37 18 29 38 35 18 19 24 22 30 24 21 23 19 26 22 31 34 26 38 27 33 32 20 30
35 27 25 19 35 22 37 20 21 25 23 19 38 27 31 21 34 24 21 34 36 22 25 23 29 26 30 19 20 21 19 26 37 35 38 33 32 26 33 28 32 34 36 21 29 31 24 31 21 25 23 24 33 26 22 21 38 35 36 29 37 35 20 28
20 32 29 36 26 33 33 24 33 18 34 18 25 19 22 20 35 30 36 26 38 22 34 38 19 30 32 31 32 32 31 20 29 30 18 30 29 26 36 29 24 21 37 32 26 28 30 28 25 23 38 29 19 29 36 27 33 25 30 36 25 38 23 24
22 28 31 24 25 38 32 18 21 37 38 37 28 34 26 36 29 38 24 26 31 27 34 18 21 25 26 22 38 34 28 36 37 20 21 33 20 27 21 31 36 28 19 29 23 38 34 30 31 35 25 27 26 18 19 33 32 23 22 24 20 37 23 18
19 28 36 19 25 21 36 31 21 28 23 28 37 20 36 30 29 24 33 19 28 27 22 29 26 30 25 28 32 21 26 20 29 24 23 32 22 24 29 25 31 34 19 22 27 23 32 24 21 28 38 38 36 21 27 38 25 23 33 19 27 18 27 28
28 25 34 24 24 22 34 18 18 20 29 25 36 30 26 27 37 32 20 24 27 38 25 21 32 26 27 37 25 25 24 30 25 29 33 20 34 24 18 18 20 32 34 34 33 26 35 31 19 38 24 18 34 28 37 26 18 21 29 30 37 38 24 33
31 30 21 22 23 25 27 32 20 21 38 21 31 28 31 21 27 32 35 37 32 24 22 38 18 37 26 25 20 38 18 38 37 23 37 35 22 26 38 36 23 22 19 29 18 37 24 38 36 20 31 37 38 33 19 19 34 25 29 34 33 31 31 22
35 23 32 36 36 25 37 31 20 36 31 20 25 30 33 32 33 30 34 33 36 33 37 24 27 34 24 33 20 29 33 38 21 18 18 20 30 23 24 24 26 24 28 34 33 19 27 20 37 28 26 26 32 31 31 30 19 21 28 21 38 23 29 23
35 26 20 32 36 25 34 30 37 32 27 18 32 28 23 30 22 29 23 38 22 35 34 26 33 34 33 26 25 26 37 22 35 20 27 32 26 37 35 23 28 20 34 21 38 29 26 18 19 33 33 29 27 36 23 28 22 22 20 38 25 38 31 34
18 18 22 31 36 19 20 33 35 37 26 26 30 22 34 19 24 25 36 25 33 23 37 32 37 20 35 30 23 32 19 24 38 19 27 22 31 19 22 32 35 38 19 19 36 36 18 26 37 27 18 32 38 35 38 37 18 37 34 22 18 34 20 23
36 37 35 28 22 25 18 36 29 32 36 37 30 31 26 29 30 29 19 32 26 35 33 37 33 32 27 38 34 34 33 22 38 34 38 18 26 29 22 23 22 21 26 20 31 28 21 18 18 38 35 35 27 36 38 26 35 33 21 36 35 26 22 21
38 32 27 35 30 32 31 34 36 36 18 31 27 21 26 27 26 20 38 34 19 20 19 34 27 36 29 30 29 26 38 21 27 32 24 34 38 30 30 32 33 20 23 20 21 36 21 21 38 28 23 29 36 35 35 25 27 21 19 34 23 37 27 37
29 22 38 22 18 30 21 22 37 38 20 22 29 19 32 32 37 18 34 23 24 24 37 37 22 25 27 19 29 23 31 21 20 28 19 24 18 22 34 21 32 34 18 24 19 29 38 30 36 38 37 19 21 29 33 33 19 36 24 18 37 20 30 31
19 36 30 27 35 27 25 29 30 37 23 34 29 31 35 23 27 21 24 24 30 36 32 26 21 34 26 20 29 31 32 19 26 29 35 23 20 32 33 18 38 19 24 32 19 24 22 18 38 22 37 23 20 18 37 27 34 22 20 28 30 18 21 26
24 22 29 23 28 22 18 34 34 18 22 25 22 29 24 29 31 26 21 18 29 24 29 35 25 30 29 35 29 24 37 20 24 34 26 37 20 23 24 19 22 21 30 26 20 29 27 24 34 38 38 22 22 38 26 33 29 20 38 18 31 31 18 23
23 37 18 22 32 32 34 25 20 25 19 30 38 36 20 33 26 35 24 27 26 38 27 22 20 35 36 29 31 19 29 33 34 34 28 32 18 19 33 34 28 35 19 27 18 28 25 19 20 32 23 26 18 28 29 34 34 38 31 37 24 31 18 26
25 23 23 30 23 24 30 18 23 37 38 25 35 25 21 24 33 28 35 36 19 31 20 27 32 32 34 29 26 18 26 35 22 21 23 38 20 19 26 21 27 34 20 36 29 30 23 21 34 18 20 23 28 22 33 33 29 24 38 37 30 21 25 36
20 36 18 21 25 21 38 25 26 28 26 19 18 31 23 23 33 34 26 28 21 25 34 38 23 29 28 20 35 25 24 32 20 29 24 33 19 37 28 25 25 31 22 28 35 37 19 19 19 35 25 30 28 23 31 33 32 32 28 19 37 23 21 29
33 19 30 19 31 37 34 27 22 36 20 20 25 23 23 37 28 35 41 32 41 40 37 30 24 30 37 28 24 38 36 25 23 37 24 37 34 31 35 24 32 35 28 41 41 40 27 26 26 33 19 18 19 32 26 38 27 24 30 24 29 30 29 30
33 20 31 37 27 35 32 25 35 27 29 32 29 20 19 30 23 39 35 34 38 34 26 27 32 31 40 29 27 30 32 36 21 35 23 30 25 26 23 22 27 29 32 34 36 41 26 24 29 30 37 33 35 30 37 32 31 24 32 20 29 25 28 38
30 26 35 30 23 27 31 37 22 36 28 33 37 40 28 38 35 42 43 39 48 41 32 45 29 33 24 42 30 25 27 20 22 22 37 32 21 36 42 37 41 45 30 47 30 39 29 41 29 41 41 26 27 25 23 26 23 21 33 34 21 19 22 26
18 22 18 32 26 22 37 20 19 29 25 19 39 39 35 33 31 41 39 40 42 53 41 35 34 39 29 36 38 25 37 32 28 31 20 35 32 40 35 48 39 32 33 47 52 40 49 43 35 48 27 24 34 24 38 34 34 32 31 23 30 26 36 32
24 37 22 26 24 26 35 22 23 26 37 36 31 36 45 46 44 43 41 54 49 51 54 55 42 51 44 49 34 41 37 29 36 33 33 29 42 45 42 47 37 44 51 40 41 45 45 41 51 35 43 29 33 22 34 28 35 38 29 27 25 25 31 21
22 22 20 33 32 23 24 29 30 37 24 28 45 33 49 45 54 51 60 43 45 49 43 53 54 53 43 34 43 31 24 31 27 38 37 39 32 34 38 38 48 59 42 47 44 51 53 47 42 54 41 42 45 44 27 20 28 29 29 38 22 37 23 28
31 25 25 29 24 29 20 32 20 37 28 44 38 34 46 49 53 57 53 56 61 51 63 57 61 52 46 54 52 42 46 42 36 33 32 39 50 39 43 45 47 60 52 54 55 55 59 50 58 56 40 43 36 38 34 27 20 36 34 36 32 18 25 21
29 31 30 25 36 26 23 35 20 35 25 43 37 46 38 50 61 57 64 60 61 51 53 61 49 51 47 44 49 36 49 42 26 38 33 44 43 64 67 66 64 68 53 68 57 50 66 65 51 52 39 47 50 44 26 31 35 34 38 20 23 22 30 23
28 20 33 29 21 19 20 38 29 26 39 51 50 38 43 53 63 51 53 67 68 65 55 65 64 56 44 54 57 51 35 48 32 31 31 57 66 75 72 77 75 79 84 74 60 64 61 63 49 63 46 53 42 45 32 35 35 32 27 33 19 33 28 18
32 29 35 22 31 37 25 21 25 35 41 41 56 59 61 65 58 52 66 57 59 62 74 54 56 62 48 53 39 47 37 38 50 38 42 59 64 84 80 98 87 98 85 74 69 65 59 69 54 53 44 39 54 35 39 34 31 28 26 32 35 31 36 35
33 29 37 20 19 19 30 25 38 32 44 52 47 59 56 51 51 71 74 76 75 78 64 69 62 66 67 50 53 41 38 53 51 52 52 72 84 87 97 104 119 99 107 105 86 68 61 58 69 56 46 45 47 44 43 37 25 36 36 22 33 21 33 25
35 36 25 38 21 23 31 31 28 45 40 36 39 53 46 68 70 60 65 65 81 79 75 64 59 73 59 50 46 53 58 62 54 59 77 92 99 98 125 127 126 129 114 105 93 75 78 70 72 50 54 46 54 45 37 38 23 24 27 19 33 24 28 37
23 34 29 26 23 32 38 37 26 45 46 42 48 48 59 67 60 75 74 75 79 68 68 71 78 68 57 57 46 53 65 68 72 83 91 99 114 130 155 153 139 134 125 107 94 88 71 76 70 69 53 58 57 55 46 33 33 36 18 20 21 29 36 18
26 18 21 22 19 19 28 33 41 30 42 40 59 63 52 56 67 59 71 73 81 84 70 82 61 71 71 51 72 58 77 71 85 85 94 134 149 162 173 181 172 159 120 112 113 85 65 65 58 67 57 43 51 54 46 41 42 28 31 28 32 23 20 36
29 36 21 21 32 37 32 37 39 30 49 49 47 50 66 55 63 78 62 74 82 74 83 71 60 60 68 75 79 66 87 87 83 101 126 151 175 195 206 195 183 158 144 104 92 78 73 64 72 57 59 45 39 40 42 37 44 22 38 24 31 28 36 34
21 20 18 20 37 25 26 30 32 32 46 43 50 57 56 67 54 63 60 74 66 71 80 70 75 64 71 69 72 75 87 93 93 103 131 163 189 209 207 202 180 167 142 123 97 76 64 61 58 59 50 48 48 51 45 27 39 29 32 28 35 27 31 27
36 33 23 18 30 19 33 36 32 26 34 48 50 54 50 50 57 59 71 67 79 68 68 71 64 67 67 86 71 90 79 94 95 123 148 169 198 212 229 218 178 157 125 118 76 70 70 55 51 51 48 49 56 46 40 29 29 20 33 20 37 33 28 27
35 23 21 34 25 18 22 24 35 43 40 32 46 59 49 55 51 71 69 73 75 68 74 64 72 71 73 85 90 87 99 102 109 130 149 181 190 218 218 207 177 155 131 97 80 56 56 58 67 48 60 52 54 46 29 34 38 34 24 35 21 32 31 26
27 28 26 30 33 29 33 18 25 30 32 39 54 48 57 62 54 59 54 55 67 73 54 57 66 75 79 80 87 92 101 107 107 124 143 154 173 202 193 186 154 137 115 90 68 53 53 58 65 54 53 37 50 51 46 38 28 28 22 34 34 31 27 38
37 23 32 33 19 31 23 30 32 27 38 46 44 52 53 47 49 63 51 51 65 66 64 57 51 61 70 81 73 100 90 93 123 138 140 142 152 163 160 154 143 107 87 59 58 54 67 63 61 51 40 40 52 43 28 29 24 24 29 24 24 23 38 33
20 26 24 29 37 32 29 18 31 36 33 35 41 32 55 43 41 49 57 54 48 51 57 54 57 65 70 66 78 85 100 96 99 114 130 139 132 134 134 131 116 85 62 51 52 56 44 59 41 47 51 34 49 26 25 25 32 31 27 18 31 30 34 21
33 19 20 31 28 25 27 32 21 22 27 27 35 30 34 42 40 38 49 50 49 57 57 45 54 63 57 69 83 70 77 96 97 103 111 115 110 113 106 113 100 80 56 42 52 57 50 45 54 39 38 46 39 36 35 29 32 31 25 38 36 27 18 25
20 31 37 29 18 38 22 20 28 36 24 34 31 47 31 42 43 54 37 45 42 42 37 44 47 54 58 64 65 81 85 72 80 87 93 89 98 82 94 86 64 55 45 56 41 46 36 55 35 50 38 41 43 38 21 32 24 22 36 35 21 38 36 24
38 37 23 27 27 18 25 23 19 32 36 27 27 28 36 37 34 38 44 51 53 45 40 36 36 38 52 48 66 70 61 69 73 73 83 83 67 60 63 60 60 33 44 46 52 44 49 37 39 44 40 28 34 22 25 24 33 36 21 20 31 23 35 26
34 26 27 37 36 30 36 27 25 18 37 34 27 25 39 29 44 36 40 44 43 40 30 31 31 44 30 44 58 50 50 65 66 62 65 70 65 58 42 49 45 32 39 38 46 37 35 47 38 43 43 28 36 19 27 34 36 18 25 37 37 30 36 21
27 26 26 24 24 36 35 37 24 23 23 29 29 18 36 33 22 38 36 32 31 32 36 33 32 22 28 39 40 37 57 53 53 66 47 54 59 37 33 29 33 43 32 35 28 35 31 42 32 29 39 38 21 31 25 32 38 28 32 31 26 34 25 20
34 24 31 27 20 20 20 26 23 28 31 34 20 24 23 25 25 30 36 30 35 28 23 29 24 33 25 21 24 32 50 47 48 53 43 50 48 43 28 25 26 22 31 28 23 40 23 20 38 31 24 24 36 27 34 31 31 24 35 23 20 23 29 32
32 21 36 18 19 36 22 22 24 30 19 34 23 33 26 37 30 30 25 21 35 33 29 25 38 21 35 29 37 35 33 25 37 38 34 28 28 21 31 24 29 27 38 22 18 22 38 26 22 34 33 27 22 32 36 19 32 33 24 18 33 19 18 25
19 22 36 18 36 32 38 29 33 20 25 29 30 23 34 24 20 36 32 34 32 18 25 18 22 30 34 18 25 29 20 20 25 22 38 34 21 18 36 20 18 29 32 36 22 23 34 19 37 21 38 38 20 18 20 31 20 31 25 24 25 35 21 33
34 25 33 19 35 29 35 28 22 32 25 19 33 37 32 25 31 28 30 20 19 28 28 33 20 36 30 18 38 20 28 22 32 36 32 24 25 23 32 22 26 24 36 34 20 30 36 29 27 37 18 37 32 30 31 34 22 18 21 25 32 20 27 20
27 19 37 30 29 22 34 37 29 29 29 34 36 38 31 25 34 36 26 36 26 21 23 22 35 21 19 36 27 34 35 27 19 23 38 24 34 33 31 29 19 31 35 37 38 23 30 28 29 37 29 29 34 36 34 36 29 18 34 24 34 23 32 20
32 21 37 30 21 29 33 31 22 24 23 32 35 26 25 28 24 30 19 31 30 38 30 20 23 30 27 29 30 34 24 34 29 38 21 29 35 20 18 26 29 34 32 34 34 29 33 37 32 35 32 18 34 21 33 27 32 24 27 33 28 24 19 20
23 21 21 30 38 22 34 23 20 36 19 26 22 28 20 19 36 29 20 38 19 28 30 32 30 26 31 26 37 31 37 22 19 21 29 25 38 36 18 34 37 24 24 33 38 22 38 35 27 36 20 32 18 27 26 29 33 26 20 33 38 19 36 38
30 20 25 29 33 22 36 27 38 25 36 36 20 34 21 21 18 34 35 29 18 36 18 19 32 22 37 21 31 26 31 24 21 30 25 22 20 37 32 34 34 35 36 24 28 27 31 32 26 19 32 36 23 24 28 22 21 28 18 22 36 26 37 19
25 35 26 30 26 18 26 22 33 36 36 28 31 33 19 34 38 38 38 27 28 32 28 24 24 26 24 25 34 29 32 31 24 37 35 21 24 31 24 35 19 35 36 25 37 28 32 25 33 35 36 25 23 19 24 34 25 37 28 33 27 35 23 24
28 31 32 25 33 28 36 22 32 24 28 23 20 26 32 26 34 36 37 20 18 18 34 18 18 32 25 26 22 33 25 19 20 27 36 38 20 25 18 36 34 20 35 28 31 35 35 32 19 35 38 20 21 27 21 35 19 37 38 34 19 37 33 34
29 18 20 26 27 31 30 22 38 32 23 30 18 18 22 22 20 31 25 35 20 37 20 18 30 29 22 31 35 28 19 27 36 32 18 31 33 33 18 33 20 37 24 34 18 26 23 31 25 27 38 26 34 37 32 31 31 23 28 21 25 21 32 25
29 28 38 32 27 38 37 36 25 37 26 38 30 34 32 20 36 24 29 22 34 28 36 21 27 37 19 18 28 18 33 20 26 29 29 18 29 25 34 38 36 28 31 22 29 22 28 24 18 19 22 25 33 20 27 36 36 23 37 25 38 27 19 31
25 35 33 21 33 33 22 26 35 28 27 31 25 31 33 28 21 24 24 31 21 23 26 36 36 34 26 26 31 38 38 38 31 34 22 35 38 20 36 19 36 19 27 34 23 32 26 26 24 29 33 24 24 25 29 36 32 33 33 35 38 22 21 26
18 24 38 37 18 32 37 22 26 23 27 31 23 30 20 34 38 34 26 24 36 18 18 20 22 33 24 30 35 31 36 34 22 24 37 34 35 25 33 31 25 32 36 28 32 24 19 18 37 20 28 22 18 19 30 36 28 26 20 18 23 23 34 20
33 24 22 29 36 33 31 29 37 35 32 21 35 37 20 33 32 32 25 21 28 22 35 28 38 25 20 32 25 22 36 23 21 37 35 37 19 32 33 30 18 29 30 34 30 34 25 27 32 32 34 37 37 23 26 23 21 21 20 28 37 19 23 36
31 23 32 25 22 32 31 21 23 24 21 36 34 36 21 21 37 36 23 26 32 23 36 23 21 25 25 34 33 30 34 24 31 29 29 37 19 22 25 28 34 32 32 31 31 21 24 37 30 28 22 23 18 32 32 37 33 19 27 29 36 31 35 31
35 19 27 25 35 26 35 25 21 21 38 29 27 18 26 34 32 19 23 28 18 18 22 24 23 32 29 32 19 22 25 21 37 35 36 32 35 33 21 33 24 29 27 18 36 33 30 18 24 25 21 21 38 21 20 24 23 29 20 25 37 37 19 38
20 25 36 33 28 35 37 30 27 34 26 36 25 29 30 33 26 19 18 28 32 29 23 34 25 26 31 25 34 33 21 29 28 27 19 36 32 35 30 34 21 28 30 21 31 28 36 31 32 21 33 19 35 21 19 27 35 36 38 29 31 30 21 32
23 19 27 20 30 18 19 21 28 31 18 31 38 19 30 31 20 38 19 24 23 33 22 26 22 22 37 22 20 32 36 29 28 34 33 24 34 27 34 26 28 38 22 35 32 31 19 38 24 31 22 18 18 33 29 18 22 24 19 33 26 33 19 32
