P2
64 64
255
18 18 38 38 24 19 23 34 38 26 30 37 20 35 32 24 32 25 22 26 25 26 22 25 19 21 24 33 31 35 23 22 38 28 34 33 36 31 26 30 28 31 19 34 34 18 25 23 28 36 31 21 18 28 35 24 22 31 31 32 19 24 22 23
28 33 38 22 34 23 33 18 20 33 29 29 27 21 33 21 37 37 23 37 27 33 19 25 32 34 35 20 22 35 18 29 21 28 18 21 35 32 20 24 37 29 21 36 37 24 26 31 26 27 26 27 20 35 23 20 32 28 21 28 21 35 32 21
29 27 37 36 18 23 25 30 36 34 26 33 37 35 36 35 25 25 26 19 29 22 25 20 19 32 20 35 38 19 33 21 34 34 35 21 38 33 22 20 36 28 32 21 27 26 36 30 27 38 19 19 23 20 27 34 19 38 35 34 20 34 33 23
18 30 32 24 20 35 26 37 19 21 20 35 37 34 31 26 29 28 35 28 24 25 30 32 31 29 38 31 19 23 22 20 21 20 29 31 37 21 30 34 37 34 24 25 38 21 33 36 28 28 31 34 25 28 33 31 25 33 30 24 20 24 29 38
37 20 20 26 25 36 32 28 27 37 21 20 25 33 24 37 29 23 32 18 18 24 37 22 30 34 19 25 31 27 21 20 36 33 27 32 38 37 18 22 29 36 18 20 28 34 36 31 22 22 34 26 27 26 21 26 33 31 29 20 26 23 22 21
26 18 35 29 36 38 25 22 37 27 33 20 30 27 25 31 33 38 28 20 25 21 32 23 28 35 36 20 28 32 19 22 34 38 29 37 26 19 30 33 28 24 34 36 33 30 36 18 29 21 30 26 36 35 25 27 22 24 30 34 32 26 28 26
34 37 23 19 26 28 38 37 31 28 31 37 20 28 23 32 31 26 22 22 24 37 24 34 28 20 35 35 27 21 32 31 22 32 29 36 37 24 37 29 35 32 33 33 21 34 33 25 36 20 23 24 20 26 32 36 29 19 31 26 20 38 31 23
28 25 28 21 31 37 25 21 26 25 24 32 25 19 32 26 34 30 25 25 38 32 22 27 35 25 21 25 33 20 29 23 18 23 26 18 34 24 24 30 19 36 27 35 26 22 33 38 27 37 23 24 18 29 27 19 27 20 32 18 29 32 38 32
25 34 34 21 26 20 20 26 28 31 29 25 28 22 28 22 26 25 37 36 29 35 22 37 31 38 28 31 20 29 24 38 37 30 25 36 29 18 22 20 23 38 25 29 32 27 24 24 34 29 28 27 28 25 35 18 33 23 32 32 28 20 24 35
25 23 26 33 28 30 35 35 27 18 18 22 33 25 25 36 37 38 27 20 24 30 18 22 30 21 32 32 29 37 18 20 18 23 27 24 34 23 29 25 19 22 35 35 18 20 22 38 35 35 38 37 18 25 24 23 32 22 25 32 32 37 37 25
18 20 24 31 29 22 23 34 38 31 31 28 32 37 30 21 19 24 33 35 20 19 34 28 19 28 34 18 33 31 34 25 31 33 21 29 26 31 24 35 38 30 35 31 30 28 23 24 28 24 25 19 28 22 35 27 19 34 37 31 35 26 21 35
34 35 22 35 31 22 24 18 37 18 20 38 31 28 25 23 29 36 24 19 27 25 23 26 30 25 29 25 34 30 20 36 30 24 26 18 24 38 27 21 27 27 20 27 34 19 19 23 37 19 27 37 33 21 25 18 19 22 38 22 20 18 29 37
38 33 32 34 38 34 22 18 22 23 24 26 21 33 31 29 30 37 35 36 20 29 21 30 25 31 35 25 20 22 18 29 20 27 28 37 27 31 21 31 32 26 23 34 19 18 32 27 28 27 32 18 34 35 20 21 35 18 29 31 19 19 29 20
20 25 21 37 30 18 34 29 34 35 34 20 38 20 30 35 29 18 20 25 34 37 20 19 28 19 21 22 18 30 30 26 24 32 34 30 37 37 34 29 26 24 32 22 23 35 23 32 30 30 25 24 33 26 22 19 21 26 23 33 18 21 36 28
28 20 38 19 30 19 19 22 24 34 21 27 35 18 21 21 32 19 31 34 21 22 19 27 35 33 25 35 23 34 36 35 18 32 27 30 35 29 26 21 29 26 37 29 22 22 26 33 27 37 37 34 18 31 18 23 23 18 31 23 21 24 23 32
33 30 26 20 35 35 28 36 33 22 33 20 29 30 29 18 32 37 34 25 24 26 25 25 29 25 33 23 38 28 23 23 34 38 34 34 19 32 35 29 31 38 18 33 26 33 27 24 29 23 20 22 29 38 20 19 32 19 24 23 36 21 32 18
33 27 34 37 32 26 19 27 25 30 18 24 25 28 34 26 35 26 20 32 22 37 25 25 22 27 20 29 32 20 23 28 38 32 28 27 37 26 30 30 37 30 19 38 22 38 22 23 18 26 26 38 19 34 33 26 19 35 38 25 27 23 21 34
25 34 24 28 19 35 38 24 25 27 20 36 24 26 18 31 35 24 38 34 34 30 32 32 35 30 31 22 35 20 24 28 31 31 37 34 21 23 27 30 20 33 36 32 18 29 31 21 33 29 24 25 27 20 24 27 19 32 36 19 24 37 38 37
27 36 25 20 33 20 23 23 21 36 18 23 29 34 29 35 24 37 33 18 32 23 34 38 25 36 26 20 37 31 33 23 25 25 33 32 29 20 35 27 28 24 21 21 24 20 22 27 18 22 19 27 33 25 23 27 23 18 29 30 24 31 22 27
19 36 23 23 38 29 29 27 29 26 22 22 21 29 30 24 33 36 27 36 36 28 28 25 24 20 32 34 31 35 27 24 28 23 23 22 20 29 20 33 22 21 24 22 37 22 41 30 39 33 29 31 19 28 21 27 22 35 37 19 33 20 34 18
22 18 26 18 18 32 33 37 34 22 19 38 32 34 33 39 32 28 38 29 45 37 37 37 29 29 36 22 30 32 18 21 18 37 20 21 32 33 28 38 28 39 45 29 45 26 34 28 28 22 25 31 30 36 37 27 38 31 26 30 25 29 33 29
20 32 37 26 32 23 34 21 35 24 31 22 29 41 42 27 31 42 30 49 48 46 35 28 41 45 31 31 39 29 36 34 110 36 25 27 35 29 27 26 27 45 36 37 46 44 28 46 29 36 36 38 23 19 22 24 21 28 35 20 33 26 23 27
19 25 38 37 19 22 36 21 30 18 37 25 21 27 30 29 41 33 45 39 35 39 38 38 45 37 47 36 34 24 22 28 26 120 27 39 38 27 28 35 48 39 36 50 39 41 47 38 49 29 37 35 38 25 37 18 37 23 29 24 33 21 29 37
38 33 34 32 19 31 37 22 19 21 19 29 44 29 37 48 34 37 47 47 57 56 44 41 47 43 43 48 44 44 119 32 123 30 30 35 39 37 45 34 40 40 46 48 55 57 45 38 51 46 46 31 36 23 35 23 28 36 26 24 34 34 29 38
21 35 29 22 36 27 33 19 25 22 41 30 32 42 41 54 48 42 60 51 44 53 47 45 52 43 55 51 45 129 25 108 23 30 25 28 37 42 39 50 38 48 53 58 59 49 40 50 44 38 49 35 28 32 29 21 19 20 25 24 21 26 30 25
24 35 26 38 34 27 26 37 25 39 42 29 45 36 44 53 55 51 52 49 65 57 50 62 45 44 56 41 37 128 34 125 35 126 35 39 48 51 47 58 58 43 54 47 59 53 50 45 45 49 40 45 36 43 42 38 29 29 29 37 27 19 32 37
34 37 24 20 28 29 29 18 19 23 26 29 40 45 56 47 62 57 65 61 66 65 52 51 47 44 60 48 53 134 132 38 26 124 47 46 55 47 43 62 62 64 48 59 69 51 63 60 55 57 43 45 52 42 41 35 21 25 21 19 21 34 33 24
20 32 36 32 38 24 26 25 40 28 30 50 37 43 45 47 51 54 53 63 62 54 69 57 54 53 54 49 137 41 41 127 117 34 118 49 53 59 49 57 57 71 70 62 59 68 68 49 55 49 57 39 49 42 40 36 40 26 26 19 27 37 29 37
19 20 31 31 22 37 37 22 36 31 35 37 53 56 60 65 57 59 67 66 58 60 66 61 60 51 55 44 127 48 34 118 51 212 49 48 44 59 63 51 70 62 59 58 64 63 58 67 65 57 59 48 48 34 37 31 21 34 18 23 23 21 30 21
23 33 37 36 19 35 37 35 24 30 47 38 57 43 58 55 54 66 62 79 76 71 76 65 59 69 64 64 48 129 48 135 128 220 49 43 55 48 59 68 67 59 65 80 71 75 62 72 51 49 62 50 57 45 40 40 41 26 19 27 18 27 28 29
23 31 20 18 30 18 30 39 37 39 34 43 53 61 62 58 53 57 76 74 83 69 69 72 62 56 53 63 136 45 124 49 130 212 45 50 48 58 63 68 66 77 65 81 82 78 64 64 60 63 49 42 48 54 33 47 31 20 26 27 32 38 27 24
21 36 21 28 30 28 21 28 26 27 34 36 55 56 63 57 55 71 65 86 81 78 82 79 71 67 53 53 61 131 54 211 140 137 50 55 58 60 65 61 61 79 83 72 70 74 77 65 73 68 47 51 59 48 51 30 35 24 19 28 29 35 25 35
32 21 37 23 22 25 35 29 41 43 33 55 49 45 55 70 70 70 80 74 87 75 83 81 74 68 55 55 135 59 46 49 255 57 57 40 58 61 60 59 62 74 83 81 87 82 68 59 58 51 48 63 52 38 33 34 36 39 38 36 22 19 20 25
32 21 22 34 22 31 24 25 43 44 48 51 46 55 63 69 69 73 80 76 86 76 81 78 64 72 61 149 45 50 45 140 40 255 47 57 54 48 52 65 65 66 78 76 86 66 77 60 74 53 62 50 41 55 49 28 33 29 23 20 22 36 33 22
37 25 43 27 29 35 35 24 46 47 49 40 44 57 52 69 77 69 86 78 76 87 78 72 75 60 75 155 62 52 137 55 50 136 231 60 51 70 77 76 74 73 86 75 81 87 75 73 81 69 63 52 52 57 49 46 35 46 28 40 43 35 28 32
39 48 48 33 30 32 38 41 42 48 47 60 64 64 70 64 73 85 79 89 81 79 84 74 74 74 65 149 57 56 150 49 59 142 226 58 69 78 70 79 91 89 95 92 83 83 95 89 89 79 72 79 56 60 51 58 46 40 58 51 40 55 49 40
46 51 39 45 48 46 51 46 48 60 49 55 67 63 72 71 71 88 90 80 97 98 82 87 90 75 74 163 70 158 67 75 157 69 235 76 77 75 74 92 79 93 98 86 85 96 91 82 77 90 78 73 74 65 67 65 60 59 50 64 69 68 67 70
44 56 47 56 50 43 59 55 49 66 67 71 64 76 87 78 78 94 89 85 95 101 83 98 84 86 76 171 167 76 72 76 161 64 162 172 89 89 92 97 99 95 99 95 91 105 104 99 85 83 87 76 87 76 78 76 74 62 74 72 63 64 74 78
52 55 37 46 42 46 56 41 55 56 49 50 56 64 70 76 66 82 77 88 86 88 85 77 85 76 77 79 149 153 54 142 64 65 152 151 82 80 82 79 87 78 80 79 85 91 94 88 92 73 81 72 80 80 67 66 61 66 65 66 60 56 68 65
32 33 39 37 32 34 33 33 45 38 49 44 46 52 66 70 60 68 66 77 72 79 79 59 60 59 70 70 65 227 132 60 55 52 63 222 65 57 76 61 72 66 67 77 70 74 83 70 80 68 75 58 54 65 50 57 48 60 55 44 59 54 59 41
35 35 35 44 24 37 33 32 44 28 46 46 41 41 49 56 57 54 53 64 54 57 65 50 59 48 58 42 133 36 209 44 29 40 42 223 51 60 57 51 51 55 71 70 54 53 60 60 49 47 45 46 56 47 32 39 33 37 46 43 37 32 41 50
23 18 36 32 22 27 33 22 33 25 34 29 44 28 42 45 45 48 38 55 55 44 55 53 39 45 40 32 117 127 107 34 31 23 23 113 113 36 39 39 41 52 44 58 40 41 38 41 42 46 36 34 28 41 29 34 31 20 33 24 26 25 31 39
36 31 22 28 32 32 32 38 33 37 24 30 27 25 32 44 32 34 37 51 35 36 52 32 41 37 45 122 111 28 115 38 18 29 112 39 33 122 31 40 48 46 53 43 49 39 36 40 46 44 46 39 36 35 19 25 24 29 37 33 18 22 29 32
31 23 18 35 24 29 36 31 23 19 30 22 32 23 24 33 33 30 43 33 40 48 49 48 31 41 122 116 26 28 106 35 36 19 20 113 27 42 112 26 30 35 44 36 39 42 28 29 36 27 30 26 21 28 22 33 32 35 32 27 23 26 31 22
27 34 24 19 25 18 18 20 34 26 36 29 20 35 39 35 41 28 32 26 44 43 28 30 28 42 38 109 108 111 31 36 20 23 26 28 122 22 124 36 31 32 31 45 46 43 39 30 41 25 26 20 19 33 36 27 29 31 29 25 23 22 23 22
36 34 25 22 18 21 28 20 22 34 36 29 20 21 34 32 23 30 39 38 29 39 35 27 40 24 30 19 120 112 109 19 29 25 31 123 37 122 27 39 24 23 41 29 41 35 40 26 25 34 32 19 33 26 28 22 38 37 26 30 21 34 37 35
37 20 28 19 23 24 25 33 26 29 27 33 22 24 35 30 20 33 18 21 22 31 20 18 32 38 33 28 113 194 28 25 32 37 18 105 38 117 27 19 32 25 22 35 35 25 27 21 23 28 18 31 23 24 35 31 26 31 23 28 25 26 20 32
28 20 23 28 21 35 37 18 21 33 32 22 30 34 35 20 23 29 22 32 25 34 34 34 19 30 23 117 19 31 194 33 22 20 106 36 25 105 29 34 18 27 22 36 21 25 37 27 35 19 36 18 38 23 36 21 38 38 33 33 24 18 24 24
23 31 25 35 31 20 29 29 23 29 21 28 24 25 38 22 21 27 24 23 18 24 34 21 37 24 24 31 106 104 25 112 25 28 21 117 111 20 18 32 37 31 23 29 35 34 22 22 22 27 30 26 32 27 23 33 26 19 23 31 24 24 19 38
20 33 18 18 26 31 21 21 20 26 35 31 36 24 36 30 27 20 36 38 32 31 38 26 26 34 19 21 24 200 117 34 27 25 116 21 20 103 33 32 32 38 19 23 31 35 20 32 38 37 29 28 25 19 28 18 34 31 28 35 34 27 32 20
38 30 25 27 38 30 18 28 21 26 37 37 28 37 37 25 33 34 34 26 19 25 24 36 27 26 38 23 27 190 26 117 28 24 30 116 115 20 30 38 35 20 35 21 20 34 29 27 23 35 20 26 32 25 32 26 18 25 20 27 20 26 35 33
28 22 38 37 26 26 32 19 37 30 22 38 22 26 19 34 36 34 34 37 33 30 30 26 29 34 32 29 32 123 122 36 107 25 111 31 20 107 26 33 31 21 18 26 18 19 18 24 27 31 21 21 25 25 36 19 24 23 28 21 22 18 23 22
19 23 18 18 32 29 34 32 36 35 37 35 25 23 27 28 28 37 30 35 21 35 30 32 32 29 29 18 33 30 115 115 120 23 23 120 22 23 114 27 35 19 38 30 30 27 35 32 38 35 26 25 18 34 19 26 30 18 20 27 28 25 27 29
18 32 28 27 21 25 27 22 37 32 38 29 19 35 21 20 25 38 19 31 33 32 21 37 23 18 35 19 30 120 29 104 31 27 122 21 30 110 31 24 28 18 37 33 31 23 32 27 25 24 37 37 33 24 22 31 23 36 26 24 26 35 35 33
31 27 35 20 26 31 35 25 18 33 22 32 18 34 36 25 37 23 38 18 28 28 35 37 21 27 25 20 31 36 105 117 33 38 110 35 111 28 21 36 30 25 36 30 37 26 20 25 33 29 32 38 38 38 19 25 29 28 31 34 31 26 30 27
24 38 22 22 33 29 25 28 19 28 22 35 21 21 38 30 33 28 33 22 22 37 32 25 33 23 19 26 27 29 27 38 120 24 36 116 22 120 32 21 19 19 26 26 32 34 24 36 28 30 32 21 34 24 31 25 36 24 20 26 24 23 28 26
24 34 29 29 33 35 18 27 35 24 28 27 34 25 38 31 23 37 35 37 34 22 28 27 19 32 32 28 25 31 31 21 122 27 33 18 202 34 20 25 29 23 26 25 31 30 37 30 21 30 27 38 32 30 33 30 34 31 24 18 19 38 34 32
28 25 34 31 35 24 22 28 18 20 37 26 27 21 19 22 28 32 27 36 19 25 26 27 35 21 36 27 29 28 21 37 38 34 37 36 119 123 25 33 35 30 35 37 33 37 33 29 19 28 28 37 24 23 37 28 31 36 38 26 21 18 31 25
37 21 27 27 36 18 20 32 21 32 34 30 27 34 20 34 35 28 37 23 24 19 36 38 34 33 18 25 19 21 29 22 29 22 37 19 110 29 118 23 27 29 27 26 38 36 21 28 22 37 18 25 21 35 27 38 25 31 30 28 37 19 34 28
22 26 22 21 23 25 29 23 21 31 33 30 23 35 28 31 34 28 21 26 32 25 38 32 21 36 19 22 33 25 21 28 36 26 27 23 18 120 27 36 24 24 31 30 30 26 28 30 19 27 20 27 35 29 32 31 34 27 38 33 21 21 35 23
31 23 29 31 18 36 31 24 36 23 19 27 32 32 19 18 36 18 35 22 28 19 22 24 34 22 23 18 35 38 33 20 33 26 24 27 28 18 107 27 18 25 38 38 25 19 30 29 36 32 29 23 34 25 32 38 23 19 25 33 35 36 26 21
21 36 23 37 18 25 31 19 29 34 26 30 36 30 24 33 33 29 30 35 28 34 25 27 27 32 24 22 36 24 18 37 23 18 21 33 27 28 20 22 18 36 31 31 23 22 31 38 29 34 38 25 38 28 30 28 35 26 29 27 37 21 19 20
19 32 34 30 29 29 22 33 37 32 28 38 36 36 37 37 28 29 37 21 35 19 20 24 19 31 20 18 28 38 25 36 23 29 26 24 26 25 22 29 27 24 33 38 27 21 25 30 36 30 34 35 30 29 28 28 30 24 32 36 23 25 20 27
37 24 35 34 24 27 19 32 34 21 19 37 35 37 32 29 38 23 20 27 25 22 20 34 33 19 25 34 24 35 22 28 24 21 24 26 35 33 27 21 27 22 32 36 31 36 22 36 33 26 26 31 32 25 26 33 35 27 18 20 34 36 27 33
