P2
64 64
255
20 29 27 30 19 26 19 24 37 19 23 30 25 33 24 26 22 27 24 24 20 28 18 21 36 25 34 33 36 27 33 37 26 38 20 18 36 25 25 31 25 18 32 27 27 34 36 38 33 26 35 35 26 22 37 27 38 30 26 29 25 18 35 35
26 19 21 32 37 33 23 29 38 26 24 20 27 25 25 26 29 22 20 30 33 24 19 21 28 33 26 30 37 23 31 27 33 23 32 27 35 33 25 21 35 28 28 20 38 26 31 32 34 25 26 31 18 31 28 27 23 25 24 28 20 20 33 22
33 21 22 30 25 21 21 23 37 34 18 35 22 27 28 20 20 23 25 37 38 37 30 33 26 37 20 20 35 19 36 37 18 34 28 28 34 18 22 30 27 24 30 19 35 28 26 18 31 31 23 34 20 18 20 21 38 18 24 20 27 29 36 34
18 19 31 32 21 19 29 25 38 22 20 18 19 35 25 20 37 22 30 22 28 30 30 31 28 31 23 29 20 28 20 24 33 35 21 24 32 20 29 38 33 27 25 24 38 27 20 37 23 29 22 22 24 30 38 27 20 23 28 34 19 33 25 28
29 19 27 25 18 21 36 25 36 36 25 37 25 19 26 21 34 31 25 38 29 19 36 31 36 20 23 29 27 35 18 22 30 19 36 30 23 22 26 35 20 33 32 27 34 35 36 26 30 24 23 21 38 31 21 38 22 20 33 19 24 23 29 23
32 29 38 26 35 30 20 35 31 28 32 21 32 32 21 21 36 25 35 32 21 33 37 27 23 21 34 22 29 35 29 29 26 22 37 24 26 38 22 25 22 31 34 24 20 19 38 26 22 30 38 38 26 25 21 27 29 30 28 23 21 24 34 25
36 23 30 30 32 27 34 21 36 19 27 33 20 38 21 28 29 38 34 32 30 22 18 27 28 36 21 24 24 19 26 36 18 27 30 18 25 24 31 23 20 28 31 26 35 21 37 29 31 32 34 25 34 27 24 18 30 36 28 28 35 19 34 24
36 30 30 30 25 38 35 32 36 38 31 33 25 33 33 18 34 33 34 28 30 26 21 32 19 20 25 37 28 26 22 28 28 29 37 33 20 21 29 29 38 26 28 18 29 24 18 18 35 37 34 23 38 37 26 20 35 19 28 29 18 30 34 36
34 18 38 32 25 26 28 29 22 34 32 25 30 32 21 37 27 26 36 30 34 36 27 26 37 38 31 21 31 30 22 27 28 26 25 32 32 38 22 26 32 23 27 32 34 33 27 23 21 35 31 30 19 35 26 22 27 34 28 28 34 32 33 31
36 32 36 20 26 31 38 29 20 24 32 30 27 29 36 22 25 34 18 27 27 35 26 38 28 33 19 34 32 25 23 30 37 21 31 26 36 26 30 34 36 30 31 28 20 18 31 38 23 20 23 22 22 25 33 18 36 18 22 30 37 30 25 35
33 37 33 34 20 29 31 31 29 35 18 33 22 33 35 30 20 29 23 22 38 38 20 24 35 25 24 25 19 32 21 34 36 35 38 24 23 26 22 24 31 22 22 20 25 34 18 22 23 18 37 23 25 35 36 30 23 20 31 32 33 28 31 36
32 38 32 25 20 37 38 28 19 32 38 27 29 35 33 38 37 34 36 24 22 24 28 22 28 36 28 28 31 30 34 23 18 35 20 29 29 19 36 29 26 34 34 26 37 32 28 29 18 38 23 21 18 21 24 32 27 27 23 36 31 37 18 30
33 24 28 35 19 38 21 33 26 23 35 24 36 22 26 37 19 18 33 33 21 26 25 33 37 32 37 19 22 37 33 30 18 27 34 18 38 19 35 18 18 30 25 27 29 28 36 29 26 24 23 36 28 24 20 22 30 18 22 19 21 20 36 38
23 24 32 23 31 26 28 23 34 38 35 36 34 32 24 34 19 29 22 24 21 23 29 22 30 37 20 30 21 19 36 38 33 37 23 18 35 30 30 31 34 36 26 28 29 29 19 33 35 24 24 20 23 18 21 35 21 30 34 38 30 38 29 24
19 19 28 35 23 21 19 36 33 38 30 26 18 28 29 18 36 31 19 29 20 32 18 18 36 21 33 28 35 26 25 20 26 31 31 19 22 22 36 25 18 27 35 23 27 27 20 28 19 33 24 22 20 36 37 18 33 25 32 36 36 29 29 33
38 34 22 24 24 21 24 35 35 29 34 21 29 19 36 29 28 28 19 23 31 24 30 22 34 30 25 32 36 37 26 26 29 38 38 27 21 23 36 37 30 34 21 34 19 31 23 38 20 22 18 18 26 25 21 31 18 24 21 38 19 21 30 33
21 34 25 22 31 19 31 31 34 23 31 36 19 34 27 24 18 19 30 21 25 28 37 34 25 38 35 24 24 18 31 33 31 33 29 19 27 37 30 31 30 31 32 32 36 20 36 23 35 21 27 26 36 29 27 32 33 31 27 35 36 27 30 32
24 29 30 35 20 35 29 22 24 22 38 24 29 37 26 24 31 35 25 29 26 33 27 18 37 33 30 37 33 24 21 37 21 21 30 35 18 38 18 20 33 24 29 22 20 28 26 19 18 33 23 22 24 25 34 26 30 19 18 30 32 29 24 20
30 36 22 34 32 38 36 30 38 31 21 35 28 35 28 24 34 27 19 33 32 21 19 25 26 26 31 18 36 23 27 30 32 35 25 30 37 37 34 29 29 18 31 37 37 38 37 25 35 25 24 18 35 18 28 38 34 29 35 26 23 32 33 28
32 29 25 30 26 28 27 33 20 19 35 31 19 34 32 18 27 32 35 38 33 28 33 21 25 22 32 32 35 22 30 37 27 18 31 22 34 28 32 20 27 32 40 39 30 37 30 39 19 29 35 19 23 30 19 34 26 22 18 34 19 37 21 18
26 29 36 36 35 22 36 29 33 31 36 21 33 36 25 32 40 35 41 42 26 46 28 27 41 42 21 31 18 28 38 19 37 29 20 38 27 23 36 23 26 45 42 46 33 43 36 26 30 36 31 27 35 37 20 30 33 37 27 37 22 27 33 23
36 28 37 22 19 31 32 35 22 21 29 23 18 40 26 25 46 40 47 47 36 44 31 43 47 28 40 31 23 28 27 35 21 31 38 18 25 42 33 39 38 35 47 43 35 32 31 46 37 38 43 31 26 29 23 24 36 20 38 25 24 33 26 26
37 34 21 35 26 23 23 27 34 19 20 21 36 32 33 37 41 42 36 52 52 47 42 34 33 39 41 29 35 21 27 29 33 29 33 34 38 42 36 34 35 50 53 53 53 46 32 39 49 30 45 30 27 27 26 26 18 22 20 28 20 19 34 35
38 21 30 25 24 35 32 36 37 38 22 33 30 42 34 34 40 38 51 46 56 55 54 51 53 37 51 48 38 31 33 23 36 35 33 33 29 30 33 47 44 49 56 46 42 47 47 48 37 31 38 37 24 32 37 25 36 30 30 20 29 19 25 21
30 18 28 36 32 34 23 22 26 21 36 44 31 50 47 48 37 43 42 49 55 58 43 53 48 52 39 45 32 39 40 40 38 30 33 34 32 43 35 43 44 45 60 51 60 45 40 39 40 38 33 47 30 34 31 37 23 22 18 30 37 22 24 24
30 36 32 30 37 23 33 28 26 22 27 35 40 34 44 54 55 58 57 49 50 59 45 49 55 42 48 51 46 35 38 36 36 28 36 36 48 45 47 55 42 63 60 49 63 64 43 60 56 54 46 33 36 35 42 33 18 35 33 38 23 38 32 27
19 32 31 23 29 20 30 38 18 26 25 32 50 49 38 55 61 45 64 54 57 61 50 68 64 67 58 54 61 55 35 42 44 41 38 51 52 50 44 46 46 57 57 63 66 52 62 60 49 55 47 42 44 43 31 25 29 22 29 26 25 36 24 30
26 23 30 31 38 25 31 24 30 26 46 46 49 40 59 59 55 67 70 59 72 72 88 77 88 74 70 59 64 57 56 44 50 47 51 46 62 49 49 57 50 69 71 60 65 52 69 50 50 48 48 47 38 49 27 44 30 24 26 21 27 28 35 22
26 23 24 32 27 25 28 26 33 44 39 43 47 59 43 58 51 62 76 71 97 102 98 115 106 106 86 72 70 72 69 62 51 63 51 62 58 54 66 59 60 72 75 70 69 57 55 59 65 53 53 52 48 51 44 33 40 23 38 38 22 22 32 29
21 34 30 30 21 18 30 25 30 46 30 51 38 55 52 59 58 77 85 96 106 116 129 134 122 108 104 95 70 85 80 64 74 70 67 58 62 72 79 79 81 75 75 80 75 72 68 65 53 51 58 54 40 44 43 29 38 22 32 25 28 34 23 35
35 35 22 33 21 23 31 38 38 33 40 43 56 59 47 61 59 80 95 113 129 152 163 151 153 145 129 117 100 91 78 87 80 82 70 84 69 72 80 85 73 75 72 65 79 83 67 69 71 67 55 59 52 49 40 27 40 38 25 24 34 22 29 22
22 23 30 32 31 30 30 30 41 32 45 52 59 47 55 67 79 94 121 132 148 174 172 172 161 154 150 129 110 98 101 101 96 96 91 74 85 93 85 97 90 90 84 87 70 70 78 63 70 60 58 57 50 54 34 44 43 30 26 33 38 20 32 33
23 31 20 23 23 22 31 35 25 44 34 35 45 48 64 65 73 106 112 137 174 194 194 194 172 162 157 133 127 118 108 104 102 93 92 83 88 93 85 89 84 93 85 77 86 72 68 76 58 64 62 63 47 50 40 37 43 30 35 34 29 29 25 26
30 21 37 25 28 33 38 36 38 40 33 47 51 47 51 63 68 105 117 154 170 202 201 196 193 175 166 151 131 116 122 119 120 103 107 100 96 96 98 93 104 85 83 84 78 70 71 67 63 51 50 58 50 38 40 32 40 36 28 29 35 29 20 32
23 26 29 21 34 20 31 25 43 45 50 43 53 57 56 52 80 101 124 147 161 179 200 203 192 174 176 160 135 126 116 119 111 119 106 101 105 103 94 104 102 103 101 75 89 79 74 62 56 68 58 46 41 40 43 39 24 20 32 18 21 33 35 31
25 31 30 21 38 22 28 19 31 32 50 40 37 46 65 48 69 85 122 131 148 172 177 188 191 173 164 152 146 134 125 127 113 123 109 114 113 105 95 92 92 84 89 91 85 71 70 75 61 59 65 44 50 50 39 31 35 30 27 26 26 21 20 37
28 30 30 32 18 26 33 28 30 43 49 37 50 41 62 50 68 94 105 129 150 160 169 174 171 165 159 151 137 115 128 119 127 124 110 118 100 106 112 107 105 101 96 79 79 56 67 63 68 59 59 45 50 45 44 43 30 28 32 24 27 22 25 35
37 33 34 37 18 26 18 31 28 34 30 44 43 49 51 57 54 80 96 118 119 144 154 158 150 149 144 129 111 123 109 117 117 108 118 118 101 99 100 97 83 85 81 67 62 58 70 53 62 46 60 49 48 39 32 28 35 20 25 18 30 32 27 21
26 18 26 24 22 32 38 32 22 36 32 42 49 44 48 53 49 52 66 87 99 113 121 133 126 117 112 105 117 120 117 101 106 111 104 107 107 103 95 99 83 71 76 66 72 64 52 57 45 50 48 55 49 32 31 41 32 24 35 18 25 22 29 21
18 18 31 19 23 20 22 18 28 38 25 35 34 40 42 48 43 44 53 76 86 93 97 110 110 107 87 90 109 97 90 90 89 85 81 82 88 79 92 83 84 81 67 55 59 46 52 61 44 46 55 36 50 31 37 40 34 22 22 25 32 30 21 21
24 26 36 30 19 31 24 25 36 25 30 31 46 42 39 49 38 38 58 52 58 74 87 86 73 93 92 81 82 95 90 81 85 78 67 75 82 88 83 74 75 62 57 58 61 47 42 51 52 52 48 45 37 39 22 18 27 25 37 22 34 30 34 35
29 29 35 21 25 26 33 20 37 35 24 34 27 42 45 47 53 49 48 60 57 53 74 70 78 74 65 66 75 79 61 78 73 61 67 61 62 65 69 71 71 66 60 60 38 50 49 55 51 48 41 35 44 41 32 27 24 29 36 36 34 30 32 27
27 24 18 19 33 20 33 30 25 27 32 36 34 24 46 39 32 44 49 41 54 63 58 59 53 57 59 50 57 49 61 54 52 43 52 54 67 53 66 50 57 60 50 47 47 34 34 32 50 35 31 32 38 35 22 23 36 22 19 35 28 25 21 32
18 35 26 18 29 30 35 29 24 25 37 21 36 25 43 43 42 46 29 49 46 44 49 55 55 56 43 56 48 37 41 47 34 37 56 49 42 51 55 54 56 34 36 46 46 44 33 33 39 40 41 31 27 21 33 26 37 23 24 19 30 27 32 31
36 20 31 33 25 30 32 18 25 27 29 30 22 30 34 36 28 37 39 36 33 39 26 35 36 39 46 33 33 28 38 38 32 43 38 44 47 34 43 43 34 29 33 43 30 25 27 38 22 25 22 26 30 19 30 28 24 18 30 37 38 32 36 25
36 27 21 31 19 28 23 28 21 32 27 30 31 31 38 29 29 29 36 40 30 28 29 31 25 25 30 18 38 38 32 25 39 23 34 29 26 23 21 37 25 34 30 32 42 29 29 20 23 18 20 29 37 34 32 37 33 36 18 18 26 19 21 21
35 34 36 30 30 26 21 19 21 26 26 26 21 38 22 37 27 34 29 24 38 27 22 22 26 32 28 24 24 38 22 33 37 38 33 28 31 28 21 32 30 38 38 34 20 19 22 19 22 27 30 18 23 33 27 30 38 19 26 25 27 36 30 19
29 26 23 23 34 19 37 25 35 36 31 38 18 37 25 20 29 26 19 19 20 34 21 31 31 35 19 21 37 37 18 37 18 37 20 21 34 37 27 19 27 38 31 38 20 36 35 34 36 23 19 34 30 23 24 18 37 27 38 25 37 22 18 36
22 31 30 22 25 24 38 22 31 38 24 21 28 19 25 26 33 33 33 38 22 24 31 33 25 28 32 31 25 27 31 30 21 22 29 33 37 35 27 23 27 32 21 35 36 21 18 27 29 25 23 22 33 37 30 29 25 30 23 35 25 38 21 27
22 32 21 24 22 37 23 35 34 36 27 27 25 27 38 29 28 38 38 35 37 23 23 29 34 22 32 22 35 18 19 36 32 29 34 19 34 29 27 24 32 22 38 22 25 23 21 35 28 27 35 27 29 20 31 38 23 29 21 25 38 21 30 25
38 32 27 36 27 24 31 30 36 34 19 31 37 29 26 36 31 18 35 24 23 35 25 34 20 26 34 37 37 26 21 34 21 27 18 21 18 20 37 35 28 35 18 33 36 38 20 21 19 22 28 31 26 22 34 26 22 20 30 33 26 20 28 19
21 31 38 22 32 30 20 31 36 31 23 20 36 21 32 21 24 32 23 22 23 25 33 34 26 38 19 34 24 29 18 18 25 19 21 36 22 18 35 22 36 23 28 23 36 35 29 36 23 29 38 18 38 27 27 31 24 35 26 36 35 24 34 35
29 37 27 36 27 20 37 33 19 26 23 21 28 29 19 34 28 23 34 38 22 28 27 21 27 27 20 29 30 38 31 37 38 29 21 23 27 26 36 35 38 33 24 23 38 27 26 25 37 34 19 24 34 36 33 38 27 34 25 38 20 35 20 24
22 38 23 19 22 34 29 36 22 36 38 19 20 21 30 21 21 32 18 19 38 19 37 21 31 23 32 36 25 26 30 20 25 32 28 35 38 31 34 34 24 34 23 29 26 18 29 32 32 29 34 32 23 33 22 36 37 38 27 27 37 24 32 23
29 32 27 37 28 38 21 23 29 38 35 19 23 31 18 32 27 19 36 22 32 33 38 38 23 31 29 18 35 23 18 30 19 28 37 30 20 34 23 36 25 30 36 34 36 29 29 21 21 29 30 24 20 29 22 36 37 37 26 18 21 26 35 35
19 36 21 34 30 38 21 36 22 31 22 37 37 37 22 18 22 25 31 31 25 36 33 25 22 24 18 38 36 34 34 26 25 25 24 21 35 29 30 35 38 30 36 31 30 19 27 23 22 34 23 19 32 22 22 25 36 25 38 36 19 25 18 21
34 30 22 32 19 31 29 29 25 31 24 33 32 31 18 23 28 20 28 20 27 36 28 32 27 38 31 23 29 21 23 19 29 25 26 20 31 30 21 28 37 25 27 33 38 24 28 35 25 35 28 27 21 26 36 23 20 23 34 19 23 18 19 30
24 24 37 32 26 29 19 22 33 22 33 24 19 28 27 28 20 33 31 18 32 20 35 38 32 37 38 28 37 36 19 27 30 34 34 33 24 36 24 22 21 24 27 27 37 19 33 23 34 28 37 19 32 20 36 19 22 29 35 36 25 23 33 21
36 24 29 18 18 25 18 33 32 30 32 24 38 33 22 21 22 27 24 38 29 22 31 24 30 21 38 29 20 33 30 26 31 23 33 26 18 26 27 37 36 27 25 34 25 34 25 38 24 19 25 25 23 19 21 34 28 19 24 25 25 27 21 33
33 25 26 35 36 37 37 35 28 25 23 21 22 18 19 19 38 25 38 22 27 29 36 21 28 34 30 34 31 27 22 34 21 30 21 29 37 26 29 20 20 36 21 19 27 36 21 32 19 23 36 28 19 27 35 29 20 38 27 38 20 27 30 25
25 30 34 38 22 21 35 33 23 34 20 25 18 21 26 19 26 36 26 32 27 38 32 27 28 36 24 29 32 27 22 21 21 24 36 34 21 34 21 30 21 33 38 22 38 20 21 31 20 33 22 28 23 20 21 26 21 21 37 38 21 35 18 24
30 21 35 32 38 38 24 31 38 34 31 22 38 29 24 20 25 22 24 24 21 24 35 19 30 37 31 31 27 25 23 18 38 29 33 36 27 32 22 21 38 31 32 35 22 30 25 29 34 23 26 26 37 37 34 24 21 32 37 28 22 23 32 32
20 38 22 26 28 31 31 34 38 23 29 20 36 32 37 38 30 27 30 38 31 37 24 29 21 22 32 18 38 18 23 26 36 21 22 28 19 26 35 31 23 21 29 28 38 32 37 38 24 34 37 20 32 24 36 24 23 22 27 29 35 27 26 32
23 34 23 18 25 35 31 30 22 37 34 28 25 29 24 37 29 18 36 18 20 23 23 21 30 23 29 19 35 37 22 23 23 18 33 26 25 24 38 27 36 31 24 19 19 26 23 33 20 29 36 21 25 38 22 32 38 36 25 35 27 35 24 27
