P2
64 64
255
22 15 17 25 23 24 24 17 24 18 22 15 20 17 20 14 22 18 25 25 22 22 23 24 20 19 26 16 16 19 18 19 26 26 18 23 26 18 20 25 23 25 26 14 16 21 20 19 18 21 14 19 17 14 20 25 24 15 26 15 21 20 26 16
17 24 24 14 22 26 19 22 22 14 19 14 16 23 26 26 21 25 24 26 18 24 23 21 20 25 17 26 23 25 25 21 25 14 24 24 18 21 22 24 20 15 26 19 18 26 24 25 14 23 26 20 22 23 15 15 25 14 21 20 15 22 14 24
19 14 16 14 23 15 23 15 26 20 15 16 19 22 20 24 24 21 15 15 17 21 17 25 21 18 21 22 23 20 26 22 17 21 15 17 20 25 26 24 18 21 23 22 17 18 25 22 17 26 21 17 25 16 19 16 23 24 17 22 15 21 26 18
26 22 21 25 18 24 25 22 15 22 20 18 24 25 18 17 15 19 22 15 18 20 20 22 14 22 20 23 18 23 24 22 24 17 22 16 22 17 26 23 19 22 25 20 22 16 15 15 23 22 15 15 14 26 18 17 14 25 23 26 15 23 18 24
22 22 21 23 19 22 19 20 23 22 21 21 21 14 24 19 19 24 25 18 22 24 18 22 21 24 22 24 23 26 17 19 26 15 22 25 14 20 18 22 19 20 16 22 25 20 14 21 20 14 17 17 14 26 20 21 18 19 15 17 26 25 23 16
18 16 19 20 22 15 15 20 22 15 19 25 20 15 23 16 14 16 24 25 18 23 14 21 25 26 14 15 23 19 26 23 20 20 21 19 16 21 16 17 19 17 14 20 18 16 15 24 16 18 18 17 15 21 19 26 24 17 16 25 22 17 23 18
18 15 20 26 24 19 15 26 23 25 14 15 19 19 25 20 16 18 16 19 18 23 17 18 17 14 18 14 14 25 19 19 19 26 21 18 22 18 16 16 15 26 26 26 21 16 20 24 23 14 16 26 22 16 24 26 19 20 19 25 15 26 18 20
23 22 19 22 20 25 16 23 15 23 22 24 21 24 17 25 21 20 24 16 19 19 16 21 14 23 25 24 22 24 20 19 17 21 24 25 14 17 18 18 25 15 17 14 17 16 14 24 24 26 18 18 23 20 24 24 14 21 24 19 26 18 20 23
15 24 20 26 21 25 16 25 22 14 21 24 21 25 25 14 20 26 25 25 20 16 25 18 25 18 21 26 23 25 24 14 14 20 20 15 23 19 17 24 17 25 18 26 20 15 17 26 26 22 18 19 18 21 17 15 16 21 19 20 19 14 23 14
17 25 25 17 22 21 22 22 19 18 17 14 26 18 18 22 16 24 22 19 17 17 23 19 21 23 19 23 17 22 25 20 20 16 15 15 25 24 14 18 15 26 15 21 17 17 16 15 21 14 23 23 16 24 15 20 15 26 16 20 21 19 23 15
25 22 26 19 18 24 21 22 16 23 21 22 22 20 26 19 18 17 20 18 24 23 15 16 17 15 18 19 26 15 23 16 17 26 21 21 14 22 14 21 17 17 19 23 18 21 17 18 26 15 21 25 24 23 16 17 15 24 24 21 21 18 25 25
14 19 24 20 25 15 25 20 22 21 19 14 26 14 26 14 22 21 26 15 24 16 23 19 16 23 23 19 15 24 22 15 19 19 22 19 25 23 15 21 21 20 25 26 19 15 26 24 20 18 23 14 24 21 16 23 19 24 20 26 19 26 19 26
22 17 25 20 19 15 19 25 19 18 18 24 22 25 14 23 26 25 15 19 17 14 14 23 16 15 19 25 26 15 14 16 17 18 15 21 17 15 20 20 23 26 18 16 21 20 15 14 22 22 17 16 17 24 14 23 25 26 19 19 21 14 19 17
18 25 22 16 23 18 26 19 14 26 14 17 21 17 17 16 26 22 23 14 20 21 17 14 21 17 15 25 15 22 23 17 26 19 20 20 25 25 24 17 14 21 16 17 22 14 19 22 22 18 26 14 18 25 17 15 17 25 21 17 25 21 19 18
24 15 18 26 17 17 25 20 17 26 21 19 24 15 20 24 23 14 20 16 26 23 17 18 25 20 22 25 24 15 25 21 16 20 21 25 18 25 21 25 17 14 20 15 20 25 14 24 22 16 16 19 23 18 20 17 17 15 15 24 23 21 15 19
22 20 26 26 14 17 19 20 18 14 15 15 17 22 21 18 14 18 26 16 26 20 14 14 19 21 16 15 16 17 14 20 14 20 16 16 23 23 26 24 25 25 18 17 22 21 20 14 20 24 18 21 23 17 17 19 22 18 16 18 14 14 14 25
22 17 20 21 18 16 23 20 16 20 26 24 20 15 22 19 21 16 26 23 23 20 20 25 15 21 19 24 26 22 14 17 14 21 16 25 17 14 25 18 24 19 26 25 24 21 23 19 14 20 26 20 15 26 20 17 18 19 18 18 22 17 19 18
15 23 18 20 20 18 17 18 24 15 21 18 22 20 24 25 15 22 23 19 26 14 16 26 17 20 16 19 16 19 24 22 25 24 23 15 16 26 23 24 26 26 21 20 16 23 19 21 19 17 22 25 17 22 14 24 24 16 14 17 19 16 14 14
20 20 25 23 15 14 19 24 16 21 17 17 14 23 15 20 21 17 17 25 18 14 14 22 21 21 22 25 16 25 20 16 14 26 17 18 21 15 18 26 26 24 14 17 23 22 24 15 18 24 21 18 26 24 26 26 19 20 24 20 19 19 25 25
18 16 19 20 20 23 21 18 18 24 17 22 15 21 19 19 16 17 22 19 29 26 28 24 26 20 17 23 22 26 24 26 20 25 23 26 21 18 25 23 16 25 28 22 22 22 23 22 18 16 17 20 24 15 25 23 16 19 25 26 18 21 18 20
26 18 17 16 19 14 20 26 26 17 21 15 21 24 25 22 21 23 24 22 29 34 30 29 22 28 18 17 23 17 24 14 22 18 25 16 16 22 28 28 25 30 24 29 24 24 27 24 27 26 17 24 18 15 20 21 16 20 19 18 15 24 14 22
18 14 14 19 19 18 23 26 15 16 15 25 19 21 23 21 27 30 29 35 32 27 32 24 30 26 29 31 28 15 17 18 24 25 21 18 18 30 30 27 30 34 36 31 30 35 26 33 33 20 20 18 18 20 21 26 22 15 17 15 22 21 21 18
24 16 16 24 18 18 24 25 19 24 26 19 24 32 25 36 27 31 36 36 29 30 41 33 28 31 25 27 24 26 16 22 23 26 25 27 24 30 33 37 38 36 40 37 37 35 34 27 31 33 33 29 25 25 26 24 19 17 24 20 24 22 16 18
19 16 20 26 21 15 20 26 20 14 15 28 28 24 36 31 34 40 35 40 42 44 45 42 32 39 29 27 35 30 22 17 18 17 24 22 28 26 30 31 32 43 41 40 33 41 32 32 32 28 35 32 25 22 26 21 17 24 25 19 14 18 26 18
21 15 25 15 22 19 14 20 16 19 21 25 32 36 36 43 41 41 38 43 37 39 48 38 42 36 42 30 29 31 23 20 19 28 32 27 35 36 32 43 44 36 38 37 43 42 40 43 39 34 28 37 23 27 29 17 17 25 22 18 22 20 24 25
16 22 18 24 23 15 26 21 24 16 27 29 32 38 43 43 38 49 49 46 45 41 42 50 42 46 42 32 38 32 34 29 26 21 24 26 40 37 42 43 38 49 41 44 41 45 47 45 40 36 40 38 28 30 22 17 15 15 23 26 25 22 19 22
24 22 22 23 17 25 19 22 26 20 30 33 36 43 34 43 40 50 45 50 54 46 47 53 42 42 48 35 36 39 26 32 22 29 33 36 43 36 40 43 45 49 50 46 56 56 46 44 44 39 38 36 30 26 33 21 16 17 25 24 26 25 16 25
21 23 17 18 24 20 25 23 20 29 25 39 41 36 49 41 42 53 51 60 61 58 55 59 52 54 39 42 39 41 27 34 35 32 34 42 34 48 46 49 51 56 56 55 55 59 52 51 54 44 44 43 30 30 35 28 28 21 17 21 23 18 26 26
22 26 22 16 19 26 20 22 26 32 37 36 32 41 49 50 50 52 57 57 53 62 52 54 58 47 50 43 38 43 32 29 29 32 31 33 44 46 53 55 49 52 58 53 60 59 60 58 52 47 51 36 35 36 30 32 25 25 23 14 20 25 21 20
20 15 23 22 16 22 14 21 22 29 34 37 34 41 52 56 54 55 53 59 60 60 57 63 62 49 54 47 37 41 42 37 38 39 34 41 40 43 46 48 58 61 65 58 58 64 56 54 54 50 43 45 40 35 38 23 20 24 26 20 25 14 23 25
18 21 25 15 24 20 20 21 27 31 31 42 35 42 50 55 58 54 64 69 64 65 61 65 65 49 49 43 40 39 44 40 40 44 44 38 40 53 56 53 64 58 64 67 72 61 58 64 55 51 52 40 35 32 35 28 21 26 26 22 23 24 19 18
16 23 22 24 21 26 19 24 27 33 36 34 47 46 53 58 53 58 66 67 69 64 67 67 54 60 58 45 40 41 43 41 34 40 42 42 39 52 55 55 64 62 62 65 66 73 65 57 52 49 44 44 37 39 32 29 25 21 26 25 23 20 24 15
24 20 16 17 26 21 20 25 27 33 34 41 40 42 50 47 54 56 60 75 76 71 75 64 64 54 55 53 51 41 42 37 38 43 45 46 42 54 53 63 63 64 73 78 78 75 70 55 58 49 43 41 35 35 38 28 22 16 22 21 20 20 20 19
25 23 25 14 19 25 19 26 30 33 29 42 43 39 47 57 51 64 66 62 73 71 67 58 54 55 56 50 39 40 40 36 36 43 44 42 41 54 51 57 63 65 62 73 75 64 62 62 55 52 50 41 35 43 30 28 21 19 19 23 17 23 23 16
17 17 19 25 22 21 24 23 20 25 39 37 36 38 44 48 56 55 59 64 68 72 67 67 55 55 50 49 46 40 42 33 38 39 43 37 39 47 51 55 65 56 65 72 63 64 66 64 55 58 44 41 37 33 27 34 22 19 22 23 23 16 25 20
21 14 23 25 14 24 21 27 25 31 34 31 33 42 46 52 54 59 62 67 65 67 63 60 58 56 50 43 37 35 41 40 35 36 32 42 37 48 49 58 52 55 65 65 57 59 65 55 58 55 46 45 34 36 35 27 28 20 21 18 25 15 21 18
24 26 20 20 23 19 20 23 29 22 32 35 38 45 40 46 56 51 61 60 61 54 60 61 54 51 48 41 37 44 28 40 36 34 35 44 47 40 47 48 59 61 62 62 65 63 56 53 46 43 44 35 32 31 29 33 21 14 15 25 19 26 24 15
23 18 24 16 15 18 16 17 18 23 31 27 32 45 42 52 50 48 55 56 52 59 60 53 52 45 39 40 37 40 36 29 29 30 27 37 38 42 47 42 48 57 51 56 56 50 48 47 49 44 37 36 34 36 25 25 27 24 24 21 16 18 20 26
20 20 21 18 15 20 16 20 15 18 25 31 33 43 38 47 51 50 50 54 49 55 51 53 41 46 42 44 43 33 28 24 27 22 25 32 37 36 47 50 47 53 45 45 47 45 45 41 47 41 42 34 37 36 25 29 24 20 22 21 17 18 21 14
18 18 29 26 23 22 18 23 24 26 30 33 40 32 43 49 42 50 52 54 46 53 55 45 54 50 50 41 37 42 34 31 28 34 37 39 36 36 40 49 45 56 53 47 52 58 49 48 49 45 43 39 33 31 28 32 21 32 20 27 28 21 20 22
25 32 31 21 21 32 29 27 33 32 27 36 32 37 40 42 42 50 47 56 53 57 48 48 51 54 45 38 47 38 34 27 27 30 39 40 48 39 47 46 45 47 51 54 56 49 48 50 50 47 45 48 38 34 29 35 34 27 36 36 35 37 29 39
28 27 36 35 28 36 27 28 28 27 33 31 40 35 48 39 43 49 48 51 53 46 49 56 45 45 50 41 45 42 33 34 38 30 43 38 40 50 43 53 54 50 56 55 50 55 57 55 52 46 52 40 48 40 36 38 39 35 33 39 40 36 44 35
27 25 23 21 27 33 24 27 29 25 25 31 25 31 34 35 37 47 40 42 44 48 48 40 38 37 45 42 37 36 24 32 35 33 31 39 32 37 36 47 40 46 51 40 47 49 50 39 40 37 43 34 39 30 28 33 38 29 29 28 29 28 29 36
27 21 28 18 29 25 22 20 27 17 23 26 17 21 24 32 32 28 37 35 40 32 32 37 30 32 31 30 30 28 23 24 26 27 25 24 23 30 26 29 32 38 34 42 33 30 39 34 31 27 31 30 27 21 27 20 24 28 25 29 29 32 32 23
26 25 17 18 16 18 17 25 26 21 25 25 26 24 18 27 28 24 26 24 32 32 28 23 31 23 20 18 18 25 14 22 21 16 25 26 18 21 28 18 32 32 21 29 28 21 25 30 29 21 23 20 22 22 22 25 23 20 25 23 21 19 17 16
19 15 26 26 26 19 16 23 26 21 22 18 14 18 26 22 15 21 28 21 30 19 26 18 25 18 25 21 20 16 22 26 23 19 26 21 18 18 23 27 23 20 22 22 26 22 19 16 22 22 23 23 22 14 17 15 19 24 16 18 26 26 22 15
18 24 14 19 25 18 25 17 15 17 21 24 23 19 26 20 26 22 19 19 18 22 17 23 20 15 16 21 21 21 21 18 16 14 17 23 23 23 17 16 17 23 16 18 22 21 14 16 22 24 17 26 16 22 25 21 18 18 25 17 22 22 25 18
26 15 17 24 25 21 20 21 22 26 26 21 21 24 15 20 14 24 14 24 14 24 17 22 17 15 20 15 24 20 25 25 21 17 15 14 23 20 25 26 24 24 24 24 14 21 21 17 16 21 16 24 16 17 14 15 16 17 25 18 15 19 22 19
17 26 26 14 25 23 17 15 24 17 14 16 21 19 14 15 20 23 15 14 20 16 24 26 14 16 18 17 23 23 20 20 22 25 20 17 14 25 26 24 15 26 15 25 21 14 22 16 24 25 15 26 26 20 16 19 14 23 20 16 15 21 23 17
20 15 24 26 20 15 15 21 26 25 24 20 26 15 21 14 15 15 26 24 26 19 24 14 15 15 24 22 16 17 20 23 14 16 23 14 20 24 22 26 25 22 17 17 14 24 15 15 24 17 21 26 22 24 24 20 20 19 15 17 26 14 26 15
18 23 21 26 15 15 16 25 17 20 25 21 17 20 14 26 21 19 14 25 21 14 16 26 17 15 26 22 17 21 14 17 26 23 26 20 18 19 20 25 22 17 24 21 19 26 21 25 23 24 17 17 16 15 18 19 19 15 15 19 17 14 26 18
26 16 25 16 26 26 24 24 19 20 26 19 23 25 26 18 19 18 17 17 17 19 17 25 16 15 14 23 22 23 21 14 22 20 17 26 26 15 25 15 16 19 17 21 22 14 14 20 18 25 15 22 24 19 17 18 20 25 15 15 26 14 21 15
20 20 24 25 20 19 25 15 23 14 24 23 17 22 26 20 14 14 14 15 24 15 26 21 15 17 21 17 26 24 15 14 20 17 25 14 22 24 25 17 26 14 20 26 15 24 26 14 15 18 22 18 23 21 24 17 17 19 26 21 22 22 20 23
20 14 21 25 22 19 15 21 16 25 21 19 25 18 25 20 25 25 22 17 18 20 22 17 20 14 15 18 25 14 15 19 17 24 19 22 23 16 18 23 25 15 16 15 17 15 19 26 22 26 16 24 22 19 18 26 17 16 21 17 19 26 21 18
21 26 14 18 21 16 22 20 20 19 19 23 26 22 20 15 25 14 15 25 20 18 15 16 20 19 19 19 19 21 21 20 25 23 18 17 19 17 15 17 15 19 16 25 14 19 22 16 24 14 14 14 14 21 22 20 20 24 15 22 19 23 15 25
24 16 15 18 23 18 19 26 16 26 14 21 25 25 21 16 18 17 14 15 24 18 15 14 18 22 15 23 18 18 21 25 19 25 25 21 16 14 25 25 26 25 26 16 25 26 26 26 20 22 18 24 22 21 14 19 16 23 25 14 21 20 26 17
20 21 17 26 16 15 15 25 17 17 19 20 26 26 26 19 19 26 23 14 19 17 22 15 14 18 23 25 14 24 15 19 15 17 20 18 17 15 23 19 19 15 25 17 15 25 17 15 25 17 16 19 23 20 23 14 22 16 17 19 16 26 23 23
23 16 19 25 22 14 19 17 14 15 18 22 20 22 20 18 15 21 18 25 18 25 14 16 17 24 24 15 25 26 17 23 18 17 18 21 17 26 20 18 23 21 22 22 26 16 25 21 18 18 26 15 24 21 22 17 15 19 24 18 21 22 26 26
26 19 25 17 16 14 26 19 20 19 16 20 24 25 16 24 22 24 26 15 15 24 23 18 16 21 20 21 22 14 26 21 24 26 14 22 23 20 23 23 24 26 25 17 22 17 20 18 16 18 16 24 18 14 15 18 14 14 21 24 21 19 26 18
18 16 17 20 24 16 15 26 22 26 17 15 26 20 22 26 22 24 18 15 19 21 23 19 15 25 14 19 17 19 15 19 20 15 25 23 22 14 23 16 24 22 26 18 25 19 16 21 14 24 21 25 14 20 25 21 22 15 22 23 22 24 19 24
21 24 22 20 16 21 16 23 24 25 17 16 20 24 17 20 16 23 14 24 25 24 17 20 21 18 19 24 14 21 25 16 22 21 26 25 16 24 17 23 14 22 16 21 14 17 17 14 14 25 26 26 23 22 14 17 18 19 25 23 15 16 14 21
22 17 22 25 17 20 18 21 17 23 18 25 25 19 16 15 25 20 17 19 14 21 18 17 23 22 24 22 23 24 15 25 23 15 18 21 20 21 17 19 15 19 23 24 22 14 15 18 15 20 20 14 19 20 14 23 25 20 19 14 26 15 14 22
26 23 25 26 25 16 19 18 19 14 22 14 26 18 20 15 23 24 15 19 26 25 20 19 22 16 21 21 26 23 23 24 21 20 17 15 23 26 14 26 15 16 16 25 16 19 25 21 25 19 17 25 18 15 19 17 21 23 24 22 19 24 21 23
20 19 15 19 16 20 21 23 24 16 15 20 14 24 17 14 25 26 16 21 26 17 19 22 16 22 22 15 22 17 25 17 14 23 20 20 22 24 23 20 18 14 24 14 16 15 16 17 14 18 20 25 14 24 17 23 23 15 18 25 21 26 22 26
