P2
64 64
255
38 20 21 19 33 26 29 18 18 18 36 21 21 26 24 27 18 28 38 32 36 23 26 35 20 19 29 27 28 31 33 20 35 38 20 28 31 28 33 33 38 27 35 38 18 34 23 22 35 21 35 20 20 32 34 38 38 22 27 36 24 29 20 18
29 19 29 25 34 26 26 31 32 34 29 26 21 23 18 33 35 22 30 25 32 21 29 23 31 19 19 33 20 27 18 28 36 35 33 30 30 31 27 28 20 33 29 21 37 23 24 22 21 28 36 28 30 22 24 32 20 20 24 25 24 21 31 29
28 22 30 22 26 33 29 28 31 33 26 23 31 36 18 37 21 27 27 22 33 28 21 34 28 18 29 37 32 19 35 24 34 30 34 25 30 22 34 33 26 20 34 19 23 23 34 21 29 31 25 37 22 31 34 34 38 34 23 32 38 33 25 27
21 35 33 35 29 34 28 24 38 33 36 31 28 24 20 24 24 25 32 33 37 35 30 27 35 31 25 18 35 23 21 21 23 24 20 19 34 19 33 37 22 29 19 24 23 30 27 25 33 21 31 24 20 23 23 19 27 38 36 30 35 20 36 25
32 19 27 32 29 25 35 24 33 36 36 22 18 23 30 25 18 25 26 18 20 24 22 18 28 28 19 24 36 23 30 28 21 28 36 22 19 36 33 29 29 18 21 26 34 23 29 27 19 31 23 23 22 31 27 35 36 20 26 35 18 19 21 26
37 37 26 22 24 36 37 37 30 38 20 24 31 24 19 28 35 28 19 34 20 33 35 31 38 23 33 18 21 18 20 30 26 35 22 28 28 31 28 29 27 31 25 21 33 18 34 21 34 29 21 30 21 31 28 30 36 36 36 37 35 37 35 37
28 25 25 36 29 27 27 24 38 24 33 19 31 20 30 29 32 29 31 20 37 33 25 25 19 19 33 31 28 29 27 32 19 23 37 35 37 23 37 30 31 38 33 31 37 36 21 31 37 26 33 32 31 36 18 19 26 31 37 26 20 22 35 36
21 27 34 25 30 34 23 27 26 23 26 21 38 24 32 23 21 37 26 32 31 26 20 26 24 20 37 33 18 29 33 20 26 19 26 38 36 34 33 20 18 36 25 34 35 33 31 34 35 37 29 31 26 23 37 34 31 18 19 27 35 38 30 30
27 27 21 24 23 20 24 36 32 29 28 32 33 26 33 36 21 33 26 23 24 37 34 28 24 37 33 18 30 25 26 19 27 28 38 33 18 22 38 30 35 29 35 23 38 22 35 20 36 35 26 23 30 23 28 38 20 18 29 25 19 26 37 36
30 31 22 31 25 21 20 18 23 33 37 38 25 35 22 29 31 36 31 37 24 22 21 35 24 37 29 23 19 33 18 28 26 18 18 38 38 31 35 29 37 29 35 37 26 33 35 22 38 32 31 37 18 34 28 35 24 32 30 27 25 29 37 23
37 27 33 26 23 29 36 24 28 35 21 37 26 36 29 21 31 27 26 27 29 24 38 24 29 32 35 27 20 34 27 26 31 34 26 23 23 29 20 19 36 31 19 32 23 31 32 29 34 19 30 32 25 20 28 29 31 21 34 35 28 37 25 32
19 31 37 35 34 38 32 27 35 26 37 36 27 30 37 30 29 18 36 29 30 27 27 23 31 23 37 35 30 26 37 32 19 33 24 22 37 31 29 25 27 31 34 31 37 36 32 23 30 24 19 19 20 29 20 33 31 34 25 31 37 29 22 35
30 18 20 27 36 30 29 32 32 30 30 35 38 22 22 24 24 20 32 29 19 23 36 36 25 21 32 28 23 31 23 19 21 37 32 29 36 22 38 24 29 20 34 35 22 35 22 21 31 30 29 37 23 25 27 27 30 36 20 27 19 27 37 23
29 37 26 31 26 19 23 38 34 23 19 36 38 26 25 35 31 32 33 36 29 34 31 30 29 37 30 33 38 33 33 37 30 32 19 19 18 31 30 22 21 36 24 30 37 20 18 34 35 21 32 20 36 32 21 27 27 27 36 36 32 28 22 23
28 24 24 19 32 33 36 26 37 21 25 22 28 20 34 36 20 38 28 34 18 35 23 36 25 33 36 30 29 32 19 34 33 36 33 35 29 31 38 34 18 26 31 32 25 18 23 32 31 33 22 25 18 37 37 33 25 35 22 35 18 25 27 18
36 38 24 28 26 23 28 38 31 37 30 22 23 19 18 38 24 20 25 29 22 38 35 24 29 35 33 31 19 22 28 37 35 19 27 37 37 33 32 29 27 20 36 31 24 22 33 32 31 20 34 30 37 22 27 31 33 32 26 30 36 26 30 22
29 22 23 33 20 27 34 34 36 38 35 25 33 22 33 25 18 19 34 37 33 30 33 25 26 36 28 21 24 31 18 20 36 26 33 27 20 25 37 25 24 21 37 35 33 18 25 34 35 24 34 29 29 38 27 19 37 20 23 22 27 33 35 25
35 19 28 22 33 35 27 29 21 37 36 28 34 25 26 36 38 26 24 24 24 35 35 20 19 23 21 35 18 29 20 25 35 33 31 21 37 22 19 20 26 18 29 33 19 38 26 28 31 25 25 34 27 36 21 37 37 27 35 29 26 36 36 21
29 19 33 35 24 37 20 23 37 19 28 37 32 32 38 37 24 27 18 38 38 21 36 25 28 22 30 32 38 37 23 34 37 34 33 25 24 35 25 38 29 29 36 27 26 36 24 24 19 33 23 35 26 32 25 29 22 26 26 22 31 33 18 36
32 25 37 29 27 18 19 28 33 34 30 26 21 28 27 26 21 38 37 36 28 23 36 39 23 19 33 35 20 34 37 32 21 24 34 27 37 33 38 23 24 22 31 41 42 26 22 31 30 38 21 24 21 20 29 22 35 21 25 29 28 18 22 29
22 23 19 33 30 31 27 32 28 35 35 36 31 28 29 31 26 30 34 34 37 29 40 36 42 31 36 19 20 36 22 31 29 36 38 27 24 20 23 28 30 26 40 42 43 33 27 32 40 25 21 33 20 32 36 27 38 18 31 21 25 32 28 33
29 32 35 26 22 25 38 29 31 38 33 35 23 27 37 43 30 30 29 30 30 36 39 32 29 46 33 31 37 24 19 26 33 18 24 29 39 24 35 40 32 48 41 45 32 34 46 33 38 40 24 24 19 23 27 35 31 24 38 26 23 35 19 26
30 23 18 30 27 27 37 31 35 19 38 19 33 33 37 30 43 37 45 47 45 39 36 38 38 42 36 42 39 30 36 31 19 36 30 37 26 26 36 33 40 52 46 50 52 38 46 42 40 31 40 31 38 35 33 20 20 25 26 18 35 34 38 19
28 23 22 28 27 18 21 22 21 28 34 34 37 34 34 32 51 43 42 57 49 44 55 55 35 50 40 45 38 33 27 36 30 20 31 29 28 35 33 35 40 47 57 43 57 40 38 43 41 51 40 43 43 38 24 18 25 31 25 28 18 36 23 24
23 30 23 36 20 35 38 25 32 21 41 31 46 44 48 37 43 40 51 61 46 54 48 41 58 37 37 42 48 36 34 41 25 30 32 44 31 43 41 45 44 58 41 41 60 58 52 53 47 44 35 30 42 39 27 24 23 33 25 35 21 33 28 20
28 27 37 27 21 38 18 18 35 32 35 35 37 52 50 56 53 54 55 55 63 54 49 55 58 60 40 35 48 36 44 32 28 42 44 41 50 49 48 54 50 43 56 48 63 50 59 58 57 57 50 49 45 26 25 20 23 19 38 33 27 34 38 22
23 22 38 23 21 22 30 24 36 35 38 48 41 49 42 57 47 48 61 48 63 65 48 67 48 51 57 40 55 33 37 29 39 40 34 46 49 57 52 63 60 48 57 66 56 48 64 62 63 43 41 44 43 40 28 28 27 38 26 32 24 22 28 22
21 30 26 19 34 29 29 33 29 24 29 46 46 38 60 44 64 49 55 68 68 70 69 55 51 62 45 57 50 45 38 40 31 36 39 50 53 56 44 57 51 58 62 64 60 57 52 57 46 45 57 47 34 36 37 39 30 32 31 22 32 25 37 29
33 18 27 22 26 25 36 32 36 44 38 46 47 57 46 50 60 63 58 56 66 67 63 68 54 57 58 58 57 56 36 38 42 38 49 40 42 63 55 59 62 74 56 60 72 71 71 59 54 62 55 58 55 44 30 41 39 35 36 23 26 29 26 22
24 32 31 27 18 25 22 38 31 28 35 52 43 43 63 51 70 63 70 73 65 72 62 77 60 61 51 52 49 51 41 41 35 37 53 54 42 45 50 71 70 57 76 71 66 73 70 71 61 55 62 49 38 44 47 46 27 30 27 18 34 28 34 29
38 18 36 21 21 30 38 19 29 34 31 36 54 42 46 59 69 63 80 81 77 74 63 78 73 57 66 49 46 39 56 40 36 38 43 55 47 62 58 69 70 90 87 87 90 88 72 76 62 64 49 56 39 50 36 46 32 33 25 27 32 29 22 25
32 28 31 36 31 35 36 33 37 44 36 43 50 54 55 55 70 76 79 86 77 70 73 63 61 60 60 55 53 40 40 42 56 54 45 41 67 58 75 95 98 94 97 108 94 96 90 72 75 68 52 51 53 37 31 27 35 33 28 26 34 38 28 23
25 38 22 19 29 38 29 37 40 35 49 41 49 56 65 57 68 60 65 69 84 87 75 71 69 71 54 51 55 56 49 55 39 47 53 52 74 89 97 102 126 119 131 129 110 111 100 83 74 59 65 63 41 41 40 29 39 24 20 21 29 37 18 38
21 32 27 28 18 27 23 32 27 46 31 35 57 56 59 53 64 75 78 68 87 73 77 62 70 55 68 55 43 45 45 50 50 56 67 79 74 94 123 127 139 150 151 139 139 126 103 90 71 51 63 46 46 50 42 32 32 27 36 26 22 38 32 29
31 31 19 25 24 26 31 20 35 30 46 37 52 54 56 50 69 73 75 76 71 80 65 72 65 71 67 56 67 63 62 68 60 67 70 84 107 126 136 155 151 172 174 160 152 132 107 89 78 55 49 50 54 43 35 32 34 24 24 26 34 38 23 26
22 31 22 36 19 29 25 20 26 38 42 50 42 51 46 60 53 56 57 72 61 64 60 76 63 61 71 54 73 62 62 62 89 82 88 98 116 145 143 165 170 183 186 179 175 151 124 100 77 58 59 58 57 49 36 35 36 38 20 30 36 35 37 21
19 24 27 32 30 26 18 22 31 45 36 41 47 53 46 60 60 52 72 61 57 69 72 74 54 66 58 70 63 72 69 82 84 104 101 116 146 144 173 185 189 197 214 190 186 163 125 117 94 61 61 39 46 47 38 40 38 28 25 27 24 29 30 26
31 38 30 38 35 28 35 33 38 29 46 38 34 44 42 52 53 58 58 58 72 56 58 58 53 57 57 75 76 69 75 89 98 112 109 127 158 167 171 201 203 206 219 201 187 168 146 112 88 62 51 47 34 50 45 36 31 34 37 37 20 25 18 18
32 24 29 23 33 35 35 19 26 35 39 47 47 45 46 41 58 50 61 49 50 62 59 47 49 60 58 68 67 76 81 104 110 105 116 141 157 169 199 197 200 212 212 194 186 148 129 113 76 53 45 39 42 33 41 26 26 27 31 31 38 18 34 27
23 30 25 29 30 32 18 18 18 30 28 39 44 33 38 44 41 51 54 64 60 55 60 58 47 56 78 66 80 71 93 92 115 122 127 137 161 182 192 201 197 206 197 183 162 145 131 95 89 51 46 49 36 36 38 36 21 20 19 32 33 28 34 38
18 28 21 37 25 37 23 28 30 27 26 31 28 42 32 36 37 53 60 44 51 55 44 43 46 69 72 67 75 75 88 112 106 130 122 133 163 160 197 209 185 180 172 174 165 132 108 84 64 44 36 42 47 26 37 24 21 29 31 28 34 33 26 35
37 24 24 18 18 36 22 24 26 22 32 26 32 31 47 50 33 36 47 51 54 37 56 42 61 66 54 69 85 73 98 104 125 122 134 128 139 149 178 174 184 164 154 159 141 131 95 92 61 44 42 47 28 32 31 18 25 30 32 26 22 18 34 18
21 37 19 27 26 27 38 30 20 38 36 33 28 34 36 44 32 51 51 52 39 43 43 52 58 64 54 56 74 70 88 111 114 118 118 118 139 134 149 158 147 146 148 126 125 104 91 69 46 43 36 38 36 21 26 38 28 24 26 37 23 29 18 27
31 35 38 34 18 18 35 19 20 30 25 21 31 22 37 26 29 46 30 46 39 41 44 29 44 51 63 51 54 75 79 98 105 101 111 118 118 109 128 120 127 129 117 107 91 93 77 50 50 38 41 26 24 18 28 22 29 26 24 23 37 30 31 18
29 22 33 21 20 22 32 37 37 35 37 26 24 29 33 23 22 35 28 27 41 30 44 34 33 46 51 57 49 72 65 90 99 98 91 99 111 99 107 90 104 99 92 86 71 55 60 44 24 24 28 26 31 35 22 21 21 22 31 27 21 23 22 18
23 33 28 23 19 33 37 35 34 19 34 34 22 28 18 25 38 40 32 22 42 33 25 39 40 36 42 56 49 67 52 71 79 75 94 87 88 89 79 88 70 68 77 70 56 57 34 28 22 38 35 33 31 21 30 21 35 38 29 33 18 24 38 35
22 38 28 37 26 19 27 27 37 37 20 37 24 31 27 35 29 21 23 33 22 29 18 34 23 27 39 38 50 52 47 50 69 66 77 70 78 75 79 57 72 53 48 59 44 33 43 20 33 35 36 34 37 32 21 34 35 35 18 32 37 32 29 30
26 26 35 19 18 19 19 31 26 24 37 32 24 19 34 28 20 29 21 19 24 26 38 34 31 27 32 47 37 40 56 56 49 47 57 72 57 55 60 56 52 52 50 52 33 35 25 38 33 18 36 20 32 27 25 33 33 33 30 20 36 25 37 38
35 18 21 34 33 31 38 25 29 34 24 22 29 28 25 29 37 19 19 30 31 22 28 22 29 26 26 35 28 44 41 51 33 50 53 57 56 49 50 44 48 38 49 35 35 27 32 23 36 27 32 25 21 25 37 21 34 28 30 36 22 31 18 19
24 35 23 36 31 21 35 24 38 20 26 34 34 35 29 29 23 21 29 37 37 35 23 36 27 27 31 28 21 41 43 43 29 35 40 26 39 24 33 39 46 31 37 25 22 27 38 19 27 38 19 38 33 34 34 18 38 27 23 23 37 29 34 23
23 37 20 36 24 21 31 31 26 25 28 31 37 18 26 23 33 23 31 34 33 31 23 20 34 24 30 23 33 21 32 31 23 31 38 32 25 18 29 20 28 19 38 28 27 28 21 23 19 30 38 32 25 29 18 25 36 29 30 24 19 19 28 20
32 30 30 20 34 34 38 26 30 18 31 33 22 18 26 24 32 32 21 30 32 25 30 19 19 36 30 34 38 24 32 26 34 26 31 32 31 27 21 33 27 33 34 38 31 19 18 36 27 20 25 22 26 26 22 29 34 27 20 22 32 29 29 25
37 27 31 33 33 30 18 32 33 23 22 28 34 23 31 29 31 26 18 27 38 23 25 36 18 33 27 18 18 18 33 35 37 21 18 20 31 19 22 22 35 19 35 28 20 29 18 23 19 35 23 37 31 29 22 19 26 27 22 38 34 36 32 18
31 34 19 24 26 35 26 35 29 20 24 19 27 25 18 31 26 20 22 18 19 28 29 23 19 19 33 28 18 36 27 34 33 26 20 22 22 18 20 26 21 24 26 30 20 28 37 23 29 22 19 27 29 36 36 22 32 29 33 32 21 28 27 36
34 29 37 34 34 30 26 20 36 33 26 26 38 28 27 37 33 29 38 29 26 22 38 18 31 18 29 25 33 35 33 21 33 27 25 29 35 23 24 33 24 32 31 25 21 18 28 31 30 26 34 24 33 32 24 38 36 20 37 36 23 25 19 20
19 25 22 23 21 32 34 38 21 30 22 26 36 26 34 20 22 29 29 37 37 35 29 29 22 30 32 32 22 18 19 33 23 30 28 22 18 35 28 30 26 26 25 21 34 29 32 38 22 24 37 28 22 37 34 20 35 32 26 31 25 26 38 30
35 36 38 27 24 23 30 19 29 22 26 33 37 27 21 37 32 31 21 31 25 33 20 22 34 24 32 20 33 36 29 37 31 31 36 21 19 20 36 38 32 33 25 30 30 35 26 37 34 23 33 38 21 29 21 20 33 23 20 26 31 28 18 23
33 32 36 25 26 31 28 22 21 37 28 37 31 36 38 18 32 31 25 28 32 37 30 21 20 32 37 29 23 36 32 34 33 18 27 19 21 26 19 25 33 24 28 36 18 38 33 25 36 34 38 21 36 18 32 34 35 35 27 22 25 26 27 29
19 19 36 25 22 30 29 18 27 33 38 31 36 19 22 28 26 35 26 38 23 21 19 27 25 33 37 27 38 33 31 33 29 32 35 29 28 37 32 31 19 33 29 22 33 33 32 18 25 29 30 31 24 33 32 32 25 37 33 33 26 30 31 22
25 29 31 32 38 28 27 22 38 38 27 27 34 27 38 22 28 36 30 18 24 27 33 35 21 30 36 34 37 23 33 36 28 24 20 26 28 24 29 36 24 23 19 38 37 25 23 37 30 35 18 36 23 35 28 37 27 27 35 19 29 35 27 33
18 28 28 37 21 18 22 37 29 20 33 20 21 33 32 24 29 35 35 25 29 23 37 33 34 21 23 35 28 37 21 18 34 26 18 32 27 27 22 30 19 35 31 23 34 37 19 27 18 29 32 36 19 22 23 22 35 22 34 21 24 20 21 21
29 33 24 31 38 31 23 18 30 35 37 34 37 19 25 21 35 27 22 18 19 21 36 38 28 36 36 22 35 29 24 35 30 24 24 21 37 37 26 34 25 30 36 32 24 24 27 18 30 23 29 22 36 23 35 34 20 29 33 31 26 31 33 34
38 24 36 34 38 25 29 21 33 24 34 36 26 34 19 28 22 18 32 25 19 26 26 20 30 23 22 23 27 25 18 33 22 22 35 35 25 38 27 34 27 21 21 21 19 26 37 24 28 26 38 22 22 26 30 35 34 27 38 24 23 19 20 31
20 20 19 29 26 21 32 18 37 23 28 20 24 26 29 18 23 37 34 24 26 20 18 31 37 28 19 27 29 22 29 20 19 31 26 22 22 27 21 27 29 21 33 33 32 33 18 24 32 25 37 30 37 28 24 34 23 24 23 20 18 35 28 28
