P2
64 64
255
28 25 24 34 19 29 25 18 35 20 22 27 29 18 33 32 25 27 28 22 19 35 19 22 20 32 24 29 31 33 20 24 32 23 21 19 20 19 27 38 28 29 19 37 33 30 18 22 28 31 33 35 34 32 18 31 32 38 18 38 34 19 31 29
26 18 25 19 19 25 36 36 30 35 27 18 19 33 38 36 19 38 19 29 19 34 19 35 34 38 21 21 38 34 23 18 37 26 32 29 28 25 36 26 24 33 20 33 33 34 32 27 30 28 28 29 30 21 18 38 37 23 29 27 35 34 29 36
18 21 34 32 22 23 30 23 37 27 18 27 23 34 18 30 31 36 25 36 21 30 35 38 21 28 38 32 26 33 25 38 38 33 36 20 33 35 29 18 24 38 37 28 23 23 19 37 38 22 26 35 21 19 38 22 19 23 23 29 21 28 38 19
34 21 32 30 23 37 28 22 35 25 27 36 26 27 35 31 20 19 31 37 29 27 31 29 26 30 24 31 31 24 34 18 23 23 34 29 32 22 30 36 25 32 33 30 31 21 26 25 35 32 18 33 23 32 32 29 27 18 18 35 37 33 36 37
25 30 28 29 38 27 24 18 35 32 33 26 37 23 38 32 22 19 24 33 26 34 30 28 29 25 24 26 21 37 29 18 28 31 27 31 26 34 21 28 35 37 30 20 23 38 35 37 27 36 22 22 28 37 26 34 27 32 37 18 36 31 28 23
33 23 21 21 29 24 37 28 38 36 25 18 29 37 26 31 38 37 18 33 26 19 24 27 26 21 26 37 21 26 23 28 18 29 26 20 32 22 29 25 20 19 31 18 23 30 25 31 28 30 21 21 31 18 22 25 33 26 20 22 22 20 29 29
18 37 36 25 33 32 26 23 35 26 28 38 36 19 24 24 27 18 24 19 28 27 21 20 25 33 36 29 30 35 35 35 28 19 33 22 24 24 19 29 20 34 35 20 22 33 36 18 32 26 28 18 37 19 29 38 22 34 23 34 35 29 35 24
35 18 22 38 36 26 26 28 18 34 36 25 23 36 30 18 35 22 32 24 33 21 36 35 29 31 30 18 23 32 28 29 37 23 18 31 33 26 23 38 36 22 26 35 32 27 26 34 18 18 38 28 23 24 32 25 30 23 35 23 20 28 22 29
32 35 29 27 31 25 34 29 24 36 21 29 28 28 24 35 36 33 34 23 37 18 25 34 35 22 27 20 18 19 31 30 38 33 34 23 22 37 33 26 33 34 28 28 31 35 35 26 20 37 24 24 26 33 31 22 27 38 18 18 27 21 37 22
28 37 21 32 34 31 23 18 20 26 26 27 19 32 35 37 30 38 37 31 36 22 36 30 24 30 23 36 28 37 36 24 36 34 19 29 26 19 37 28 37 37 26 32 24 29 19 18 22 25 37 33 18 23 25 34 32 34 38 34 36 29 21 18
26 37 27 25 36 37 34 33 21 28 25 33 33 36 21 20 20 27 20 20 24 28 25 23 32 30 30 33 24 20 33 36 21 27 25 21 22 33 38 28 32 33 22 26 30 35 26 21 32 29 36 34 36 33 38 28 21 36 19 19 28 23 30 37
28 18 22 29 20 19 18 25 29 22 19 27 24 18 29 18 20 20 34 31 34 37 36 35 31 18 30 24 19 27 36 36 32 32 32 37 37 32 18 20 32 25 25 36 38 25 31 26 37 34 19 38 30 27 26 29 38 25 24 20 24 32 27 24
34 18 35 23 34 30 36 29 33 25 33 37 31 23 37 22 35 33 20 22 22 30 36 24 27 22 28 30 23 33 27 31 22 19 24 37 19 20 18 20 25 29 29 19 26 29 23 20 30 29 32 36 30 32 20 27 36 35 18 29 37 22 38 26
38 33 22 26 38 36 24 24 37 18 20 34 19 33 37 19 24 20 30 32 26 34 33 25 26 25 34 32 34 33 27 36 26 37 36 21 36 20 19 25 35 33 20 21 31 31 38 28 30 30 28 27 37 25 33 30 29 30 33 21 36 21 27 27
23 21 33 22 33 27 38 20 38 23 22 36 38 32 29 27 32 30 20 20 28 27 20 28 19 23 36 20 38 31 33 23 31 38 22 38 23 22 31 30 33 21 31 35 18 23 27 35 19 25 38 38 34 20 27 32 37 33 19 36 36 19 33 26
31 24 34 28 23 19 34 33 22 26 23 28 32 26 18 31 35 35 31 38 29 26 34 35 18 20 37 19 23 19 20 38 32 28 23 27 28 20 19 36 22 30 34 35 22 35 35 24 35 19 36 37 35 28 33 22 25 35 24 28 36 31 33 35
34 20 30 38 31 18 20 28 28 24 28 18 34 29 25 34 32 26 28 35 29 23 29 29 26 32 25 38 31 33 26 31 21 26 28 34 18 36 25 19 34 30 21 25 27 18 32 32 33 22 21 20 37 25 27 38 20 27 32 22 28 21 35 26
31 29 31 29 22 25 30 35 20 31 36 30 30 29 23 26 34 38 37 38 20 24 34 24 31 20 26 30 27 30 30 27 23 34 20 23 27 38 28 31 30 18 26 36 24 33 33 28 27 20 34 31 21 38 18 28 33 26 30 24 31 38 27 28
37 36 20 33 33 18 24 30 26 23 36 31 19 20 28 27 27 31 33 36 29 36 22 34 18 31 26 25 25 38 32 21 30 19 33 37 34 36 25 18 29 38 35 23 24 23 24 26 18 33 36 20 32 23 38 34 36 32 30 30 34 30 24 29
31 35 23 32 25 26 31 30 29 36 19 20 31 28 29 18 27 34 41 28 34 35 39 21 29 28 23 30 30 33 26 31 30 30 36 22 32 26 36 35 20 23 23 39 27 27 35 26 19 31 25 29 18 34 25 18 30 24 29 21 21 30 27 38
35 23 27 25 30 30 35 29 26 38 35 20 21 36 25 38 37 35 30 38 45 34 39 41 40 28 21 19 20 21 35 25 38 34 23 26 24 22 35 36 40 27 27 28 39 42 39 32 39 40 30 26 25 36 30 26 19 34 27 33 25 37 35 31
20 35 35 19 19 21 26 29 30 32 38 31 20 31 31 31 39 47 30 43 47 38 33 38 35 41 24 37 40 36 27 25 24 29 19 32 35 33 40 45 56 52 42 44 48 35 45 28 40 27 29 30 23 25 38 38 38 20 30 25 35 31 32 31
35 34 32 25 29 20 25 31 25 32 26 29 38 35 29 43 32 34 40 50 34 33 51 49 31 35 48 35 34 26 26 37 37 36 21 23 38 48 46 57 61 66 75 70 48 47 41 51 43 34 46 25 39 23 37 18 35 20 20 32 21 27 33 25
30 33 32 36 18 22 24 18 20 30 33 31 39 47 47 35 51 46 46 39 48 45 48 54 50 47 32 45 47 47 34 45 32 23 35 28 54 47 57 80 80 75 82 82 66 66 61 35 35 43 48 43 40 37 22 19 31 36 36 28 31 26 32 28
33 18 28 34 25 23 38 35 19 37 40 24 46 45 44 50 48 58 43 53 50 55 61 59 56 42 60 59 67 69 55 62 44 55 45 50 65 66 90 94 92 106 105 87 84 74 73 54 54 51 44 49 29 32 30 34 37 36 26 32 31 33 37 33
33 28 25 33 20 36 38 26 21 30 23 28 37 50 36 46 40 52 53 63 49 55 53 44 66 61 78 79 73 78 73 75 58 51 58 54 72 87 88 107 122 126 121 103 99 90 76 53 50 42 35 40 33 45 32 40 29 25 27 31 35 34 21 38
18 22 31 28 28 24 34 24 22 31 29 44 40 38 40 49 58 52 55 61 65 65 64 66 70 86 98 100 84 94 75 71 82 69 73 75 85 85 98 114 136 141 131 129 116 87 80 61 46 48 49 53 50 43 36 30 31 20 21 24 34 26 29 32
21 36 29 29 21 25 24 24 30 32 28 34 44 49 59 49 59 49 68 61 61 75 81 83 99 103 111 115 117 114 91 105 80 95 82 91 97 93 110 117 141 159 144 137 109 92 87 62 47 50 49 45 53 47 42 34 23 25 37 20 24 19 18 27
27 25 24 34 18 33 26 31 35 28 29 37 38 43 63 61 52 63 66 58 69 87 95 113 130 126 133 132 142 139 127 104 112 91 81 98 89 111 109 110 142 132 144 126 114 112 79 73 69 54 58 39 40 39 42 37 34 34 31 18 28 30 20 24
27 36 26 28 19 35 24 30 32 26 49 35 55 51 55 52 53 72 64 66 87 94 113 127 137 157 166 171 158 149 148 119 111 112 103 98 95 102 114 112 122 131 127 129 110 97 92 83 53 56 46 61 45 37 40 36 27 38 36 26 22 32 24 31
31 38 19 29 32 20 33 26 24 35 37 43 54 44 58 57 58 66 78 86 85 110 130 158 158 177 170 175 181 176 157 151 125 110 96 88 100 98 98 116 114 130 119 121 110 98 76 80 67 57 64 47 49 35 38 33 25 28 38 30 22 23 22 27
25 22 31 30 35 23 34 36 41 46 50 42 44 58 49 56 64 65 74 86 108 106 143 153 172 191 198 195 183 173 169 144 131 117 106 91 93 98 105 91 102 111 112 112 98 87 69 62 67 57 54 55 43 55 40 37 40 29 29 37 26 35 28 38
27 35 29 32 21 33 34 27 27 32 41 46 44 58 55 70 67 73 67 92 111 130 132 169 186 212 191 189 179 179 164 141 127 120 106 104 78 96 85 95 93 105 111 108 97 85 78 67 73 62 67 62 53 45 44 43 28 40 24 22 31 32 28 18
26 37 19 25 22 19 23 40 41 29 48 51 50 49 50 55 59 73 63 83 101 108 133 144 183 183 181 177 168 158 147 135 112 110 102 88 85 84 72 77 81 84 95 78 90 79 68 77 66 59 56 50 51 39 44 40 37 36 30 31 31 38 25 35
38 21 20 28 31 20 33 37 27 46 47 41 42 62 49 64 59 60 64 72 98 98 131 139 160 174 160 159 157 144 136 114 116 97 84 83 84 74 63 67 62 79 66 81 71 63 79 76 69 60 50 54 46 37 51 30 38 32 34 30 33 32 35 19
28 22 18 26 34 19 24 35 41 29 36 51 37 56 62 53 63 73 62 76 92 94 102 122 142 143 145 153 146 122 118 112 102 83 90 69 67 73 64 70 63 65 62 63 68 73 60 73 61 55 53 50 56 39 41 33 31 32 38 35 35 32 19 24
23 19 22 28 18 29 22 25 33 40 37 45 44 48 61 52 58 68 62 70 70 83 91 93 109 120 121 126 113 107 94 93 81 71 67 72 63 52 56 58 63 66 60 74 64 57 68 67 54 50 54 55 45 47 45 45 30 31 33 25 19 24 25 24
27 38 21 30 33 33 24 19 25 44 29 45 52 54 53 61 48 53 63 60 57 64 82 79 80 91 106 91 100 87 74 66 67 57 70 57 61 58 46 52 64 54 58 69 62 72 57 67 50 61 43 40 36 50 39 29 33 22 23 33 36 23 30 35
25 19 20 24 21 33 18 37 35 41 25 46 33 37 51 44 59 55 62 67 55 57 61 60 62 63 83 73 62 56 59 52 65 59 39 42 46 50 46 52 55 50 62 58 67 55 63 57 62 47 43 38 45 39 40 30 28 23 20 32 38 24 29 25
33 35 31 23 29 33 34 38 33 23 26 39 32 36 35 51 58 51 63 48 65 49 51 51 53 46 50 54 46 42 55 43 32 33 28 44 47 43 57 55 46 45 46 61 64 57 61 53 45 49 36 49 45 40 31 27 27 33 26 36 33 21 35 35
37 19 21 22 20 37 27 32 38 27 40 25 46 41 46 49 41 45 49 54 61 57 52 41 51 39 50 43 47 46 44 23 25 28 37 38 32 44 55 39 50 40 46 60 55 42 57 39 49 37 45 44 41 44 39 26 26 25 21 31 21 25 21 22
18 19 19 25 22 23 24 36 32 38 23 37 31 43 29 36 51 43 49 38 49 42 53 52 47 44 45 36 45 44 36 22 27 36 33 25 31 37 51 52 49 44 39 41 43 38 51 52 49 34 30 45 30 37 20 23 31 22 20 28 25 24 20 36
38 28 27 21 25 23 20 20 21 31 23 23 35 40 37 39 34 40 49 50 46 37 47 51 37 50 32 26 44 30 26 31 21 18 22 36 36 46 42 44 33 49 37 34 41 35 35 40 49 47 37 28 21 25 36 18 36 23 27 29 32 32 37 25
18 22 22 22 37 27 19 27 27 37 30 35 32 33 42 34 46 34 29 48 49 45 48 46 27 37 29 29 24 33 33 25 28 38 29 20 35 41 36 34 41 46 35 32 49 31 47 27 35 26 34 35 21 33 30 33 20 26 18 29 31 36 23 38
21 31 30 20 25 20 22 30 36 36 32 20 23 37 37 23 40 25 28 28 36 41 44 34 42 33 40 22 21 26 27 19 24 21 30 31 34 38 23 24 33 30 37 32 43 29 38 36 35 22 20 31 23 33 28 23 33 23 18 18 37 28 26 32
19 26 31 32 20 18 28 21 34 29 19 23 25 25 27 29 31 25 29 39 42 30 21 31 29 24 20 25 36 36 33 18 25 22 18 37 28 18 18 29 24 24 25 42 28 33 32 38 38 25 26 37 36 38 26 30 25 22 31 27 29 36 23 35
27 34 28 28 33 33 21 27 27 23 21 34 25 20 22 28 32 24 27 37 34 31 20 26 32 24 22 35 36 34 31 33 30 18 18 25 31 20 34 25 36 28 38 29 31 36 33 32 34 35 38 23 31 20 23 36 25 18 34 27 27 27 35 28
21 23 38 23 27 22 23 20 19 26 30 19 29 20 29 18 25 24 24 38 28 20 37 29 25 26 20 21 35 26 38 32 35 18 36 31 19 25 27 34 38 21 28 29 32 24 36 21 18 35 27 26 38 34 22 37 19 31 28 24 34 24 25 30
32 30 25 35 33 34 37 25 28 29 31 24 35 24 35 34 35 29 33 22 29 21 27 18 20 37 21 25 24 18 25 23 18 23 35 21 31 25 35 27 27 24 21 31 29 25 30 29 21 26 23 33 21 34 20 26 34 32 36 34 23 37 26 33
31 26 19 26 29 20 29 32 19 38 32 38 18 27 33 18 38 24 33 36 24 35 28 25 25 21 29 20 19 31 34 27 21 21 27 25 25 23 32 25 36 22 27 18 33 20 30 38 21 31 34 31 30 24 22 18 34 28 21 31 21 30 18 28
31 27 37 20 25 30 33 38 20 27 24 32 29 18 30 36 19 32 37 20 22 26 38 30 33 19 34 33 33 27 26 19 34 38 25 30 21 27 30 26 23 18 27 20 24 32 18 28 25 20 31 35 32 33 34 37 31 21 19 35 37 26 20 23
20 22 20 33 26 22 32 37 18 36 24 37 24 35 33 37 34 35 22 37 34 36 35 33 26 30 34 32 33 20 29 38 26 36 23 33 21 23 32 33 27 33 22 33 18 28 30 23 34 21 30 31 37 32 28 37 24 19 22 19 27 21 38 18
38 31 34 35 29 18 22 21 23 24 24 21 25 28 27 33 23 18 38 18 38 31 38 35 27 35 26 31 38 22 23 22 31 23 26 28 34 27 19 20 28 21 35 35 23 27 33 31 27 21 36 35 21 38 34 37 20 27 37 37 25 18 19 35
21 30 20 32 33 30 22 34 21 37 37 23 25 23 20 19 38 21 28 26 35 21 27 22 34 30 30 18 24 18 20 30 27 26 28 26 18 22 33 28 26 30 19 34 21 27 36 22 23 20 34 38 22 36 19 31 38 30 31 35 27 26 20 21
23 31 35 20 29 34 30 21 34 35 34 18 21 26 29 37 26 19 38 33 31 22 18 27 38 21 35 21 35 34 31 35 30 32 35 29 23 23 33 20 37 20 29 36 33 32 18 23 21 34 28 30 30 32 33 33 37 36 37 24 25 30 30 24
31 19 31 36 19 25 30 36 27 35 23 33 30 25 30 29 29 29 19 34 30 28 37 28 33 30 31 26 26 26 20 19 30 24 35 36 34 31 35 18 36 25 19 29 22 28 24 18 25 25 31 20 31 29 29 21 26 36 36 21 38 21 22 32
24 29 35 30 18 31 21 31 26 19 24 21 21 28 20 24 32 36 21 21 35 28 34 38 21 20 28 34 31 30 27 37 36 29 37 33 25 36 18 36 32 36 31 28 26 20 37 34 32 33 22 20 33 30 24 32 20 37 24 33 25 34 24 29
18 31 33 37 24 27 32 38 18 24 18 32 18 23 24 22 32 29 27 25 24 19 18 23 36 22 20 37 27 23 34 22 24 20 31 30 35 19 24 24 35 27 24 36 19 36 35 37 27 35 30 28 33 20 37 20 26 19 23 35 21 29 23 31
35 22 38 30 22 25 29 34 30 27 20 19 19 32 38 38 20 36 37 28 34 26 35 33 38 37 34 34 19 37 28 21 29 32 20 25 38 21 33 38 36 22 27 23 29 38 32 32 35 37 18 32 31 36 27 29 22 18 30 35 33 37 33 19
35 31 19 28 29 22 23 22 29 24 31 26 26 28 36 22 37 25 24 26 24 18 22 24 34 30 20 19 36 23 28 24 25 20 19 30 36 35 32 19 27 33 25 38 37 20 18 33 28 38 28 31 18 31 38 32 32 29 32 18 37 29 22 22
22 26 22 19 33 19 27 29 29 19 21 38 23 23 24 32 25 18 36 31 27 37 31 34 34 38 27 21 35 20 18 28 21 29 34 28 26 34 20 27 29 29 19 19 35 36 21 27 18 27 30 24 34 31 20 27 28 37 31 27 24 21 24 29
29 27 18 26 32 24 22 19 34 31 34 33 25 34 37 38 35 24 37 21 35 32 30 22 27 37 35 37 20 26 18 22 20 27 31 31 19 38 28 31 23 34 33 37 21 21 34 33 21 32 33 26 34 34 29 21 25 18 25 33 29 19 21 21
37 32 19 18 35 33 29 26 31 26 31 30 18 19 22 33 20 26 32 33 34 36 18 28 32 33 37 34 31 30 35 22 22 30 19 31 37 30 28 37 37 31 19 21 19 18 19 22 18 22 31 38 22 37 23 24 33 26 18 28 33 32 37 18
30 20 33 28 37 37 38 18 36 20 24 18 35 23 19 18 35 24 24 21 23 32 28 35 30 30 22 36 23 18 31 34 22 24 34 34 35 24 34 19 18 22 31 30 19 25 30 33 25 29 34 18 28 18 33 32 24 27 18 37 21 29 27 30
