P2
64 64
255
26 25 23 25 26 18 26 26 18 17 14 22 26 15 14 20 19 19 24 22 14 20 26 24 21 18 24 19 21 17 22 24 15 26 14 23 22 15 24 22 23 14 24 23 22 17 20 21 21 19 21 18 26 22 14 24 21 25 22 18 15 25 15 24
14 19 14 25 21 18 20 26 20 26 19 20 25 21 20 18 21 17 17 20 26 16 20 21 24 17 19 20 14 22 24 26 18 20 15 19 15 26 19 20 16 22 20 22 24 19 15 18 17 14 18 14 26 24 22 19 20 22 14 17 14 25 24 19
20 20 17 14 18 18 19 24 17 26 20 14 22 22 17 24 25 26 25 14 24 25 15 26 18 23 20 17 20 14 26 20 18 16 23 26 15 24 16 25 20 19 14 16 25 16 22 17 26 23 21 15 25 23 17 18 16 23 24 21 15 23 18 23
15 25 14 15 26 23 16 24 23 14 15 26 16 20 24 18 18 18 15 17 17 21 23 15 14 15 26 24 25 18 15 19 23 21 19 19 24 18 26 22 25 24 20 24 15 17 16 20 26 26 22 17 24 19 19 20 21 23 23 26 22 14 23 19
14 26 21 17 21 25 17 19 20 17 17 24 25 21 26 25 20 22 26 14 20 20 24 16 15 21 15 22 25 22 16 15 14 22 23 26 14 17 24 14 25 20 19 20 20 17 15 26 23 14 20 23 24 19 19 26 20 26 24 23 24 14 21 17
14 20 26 16 16 18 22 18 24 21 24 21 20 14 25 14 26 25 19 14 23 24 21 21 17 19 21 24 25 20 25 19 25 18 22 15 18 15 19 23 26 17 19 18 18 16 24 24 18 22 23 22 21 18 15 24 26 17 23 26 17 26 19 18
23 14 25 16 19 21 23 22 18 16 19 23 22 25 17 14 23 20 25 21 20 17 26 17 17 22 14 17 15 21 23 24 17 21 26 16 18 25 19 25 24 25 14 19 22 16 16 20 14 16 18 17 16 26 21 18 17 24 19 24 25 21 22 20
18 23 19 15 20 14 20 17 18 21 14 14 21 18 25 14 18 15 16 17 14 25 19 24 21 23 19 18 22 14 14 17 25 18 15 24 15 19 20 21 25 17 18 14 14 22 14 16 24 15 22 20 20 18 15 17 14 21 24 18 23 14 23 14
24 24 26 24 22 20 14 18 24 15 24 20 22 24 20 25 19 26 14 17 21 25 22 25 16 16 26 23 14 14 23 18 14 15 18 16 15 19 14 26 15 14 15 26 22 24 17 20 17 16 18 17 17 22 23 26 15 21 22 17 20 23 21 19
22 14 21 24 21 15 26 19 19 21 17 19 21 16 15 16 23 24 18 25 19 19 14 14 19 26 17 18 16 15 21 17 21 20 16 18 25 16 24 17 19 15 23 15 20 25 14 16 22 19 14 26 17 14 16 14 22 22 14 20 14 26 21 23
14 19 15 26 16 17 20 14 17 16 18 15 18 23 17 24 25 20 26 26 17 16 15 18 19 14 18 20 20 18 22 18 14 17 23 19 25 18 19 15 18 21 16 19 23 18 24 25 21 16 15 16 26 21 21 14 22 20 24 23 24 18 23 14
15 16 19 17 21 17 23 18 24 16 19 25 24 23 21 14 23 24 17 26 14 18 20 18 19 15 23 19 21 21 18 21 17 14 17 22 16 14 15 14 19 18 16 17 26 14 24 18 17 15 17 18 17 15 14 24 19 18 17 24 18 23 24 26
17 17 19 15 25 25 17 16 21 21 23 23 21 14 24 25 22 25 14 21 16 24 14 16 22 17 21 21 14 23 26 26 16 18 14 20 22 16 18 15 19 17 23 25 21 26 21 20 26 26 15 15 22 21 14 15 18 23 17 16 22 19 17 18
21 19 14 19 20 23 25 18 25 23 15 20 22 24 20 23 22 25 20 18 19 20 19 20 26 19 20 19 26 19 17 22 17 22 14 23 15 25 20 25 20 16 21 20 16 24 17 21 23 22 20 21 14 20 17 23 23 16 24 18 20 22 25 15
24 17 23 22 19 25 26 21 16 26 17 18 26 15 22 14 21 18 14 15 25 21 18 23 16 14 23 17 21 17 15 14 24 25 14 18 24 26 15 15 20 17 14 16 17 14 20 23 18 16 14 17 25 15 24 25 25 26 17 18 21 19 17 16
21 15 21 23 19 15 18 24 23 19 21 16 14 21 16 25 16 17 20 20 21 17 23 18 15 25 26 25 17 25 15 18 23 19 22 23 18 15 14 15 19 20 14 14 19 20 23 26 25 18 23 15 18 26 18 23 18 23 19 24 26 18 22 18
17 18 26 17 21 19 15 17 14 21 19 15 23 14 21 14 15 21 16 16 22 15 26 16 17 17 14 22 26 20 15 20 25 21 16 20 20 23 19 21 25 26 14 26 19 26 23 18 19 16 25 17 26 21 22 20 18 22 25 15 26 22 19 23
24 14 21 22 22 20 20 14 21 19 17 24 14 25 22 16 19 18 20 24 24 17 16 25 25 16 19 25 25 16 14 18 14 17 21 14 26 16 17 17 17 15 21 17 22 26 25 14 24 19 24 14 17 20 22 16 20 17 23 18 18 24 16 25
14 16 23 23 18 22 21 18 22 17 16 15 19 20 15 24 18 23 20 19 23 16 18 17 23 20 21 22 25 23 18 15 18 18 19 17 19 20 22 20 22 14 26 15 21 22 26 26 26 15 23 24 14 19 24 16 18 18 23 14 14 23 18 18
16 14 17 24 18 19 15 21 19 26 25 17 25 22 17 18 25 19 20 22 23 27 25 17 18 22 26 26 18 25 15 21 17 20 15 16 21 16 14 18 16 18 17 28 19 21 20 21 22 23 17 23 15 18 14 19 21 15 15 23 26 17 20 21
25 16 20 22 19 24 23 21 26 26 19 15 17 17 24 29 26 24 21 28 22 24 26 27 25 30 25 15 19 15 18 23 20 16 26 16 17 26 29 27 21 23 31 26 28 22 29 25 18 19 18 20 19 20 17 22 20 24 21 25 26 16 17 16
23 26 16 24 25 24 21 17 25 16 19 22 18 25 31 24 34 25 34 31 33 28 25 25 35 32 29 27 19 27 16 27 18 19 18 21 16 25 22 23 27 36 27 33 37 33 28 32 32 25 21 20 20 17 15 25 18 25 14 23 23 19 23 14
24 22 26 19 14 15 22 20 20 21 22 19 27 29 25 24 31 27 38 31 38 35 29 28 28 34 34 32 32 36 35 31 34 32 31 29 37 27 25 29 30 36 36 35 38 30 35 34 35 30 30 32 17 20 14 14 19 24 14 26 19 14 17 18
19 14 25 18 22 24 19 19 25 20 26 23 32 24 27 39 33 43 40 39 44 36 43 37 35 39 40 34 40 36 39 30 40 38 35 33 42 36 45 34 32 32 36 39 43 42 42 33 30 29 32 24 28 23 18 17 14 22 15 25 25 26 16 25
22 20 16 18 20 25 18 23 16 22 25 27 25 26 36 34 42 42 42 45 47 47 38 44 48 46 45 53 43 42 50 39 43 48 51 53 54 55 52 49 42 49 44 49 42 40 46 41 41 42 37 31 24 32 29 21 15 22 16 19 22 26 23 16
23 16 21 16 16 15 15 26 18 25 30 28 33 40 39 34 38 44 51 44 53 52 54 52 58 51 56 52 58 54 59 55 54 51 58 56 61 58 53 60 52 54 52 46 41 50 46 50 36 45 43 40 37 30 25 21 17 17 26 15 24 20 14 18
20 16 23 17 25 22 18 18 21 26 31 28 40 32 34 49 47 44 52 50 48 48 55 65 62 65 71 69 64 61 62 58 61 54 63 64 60 63 61 59 62 67 55 49 51 54 46 48 50 48 46 34 34 29 30 20 16 18 15 18 23 16 15 24
26 26 14 17 17 23 22 17 16 21 31 27 42 34 38 46 54 47 57 50 54 62 63 72 67 72 71 76 67 72 71 74 66 64 67 75 73 78 73 79 66 72 64 64 56 55 53 46 44 41 41 43 35 28 34 25 20 16 18 15 21 16 16 23
20 14 15 17 21 17 22 18 23 29 30 30 33 36 42 54 55 55 58 62 60 64 71 75 78 82 77 85 81 84 81 77 86 83 80 78 87 79 86 85 74 74 78 71 59 60 61 60 48 43 46 43 38 30 25 26 26 16 24 24 15 16 20 24
26 23 17 16 20 25 18 18 25 25 34 41 41 40 41 49 56 55 65 71 72 76 85 80 86 89 88 86 88 92 88 88 93 94 82 91 91 84 85 92 79 87 77 83 73 63 56 57 49 55 49 38 44 31 37 26 28 17 14 23 26 16 18 26
14 20 21 14 15 18 26 21 21 27 30 33 45 50 52 54 58 60 66 70 78 78 91 88 86 98 90 89 96 90 93 101 94 100 99 96 95 94 93 87 97 84 93 88 84 70 60 62 50 53 45 45 45 36 31 27 24 16 16 15 16 22 20 26
14 16 15 14 15 26 19 17 25 29 31 36 37 39 45 59 55 66 66 77 85 85 99 89 94 100 105 99 101 106 99 96 104 108 99 100 107 96 104 103 102 97 93 96 90 80 70 61 51 48 53 48 39 32 38 34 28 25 18 23 22 22 21 23
22 17 18 25 24 18 26 28 24 26 30 32 40 51 43 48 62 66 72 83 85 95 95 95 106 108 98 100 102 101 101 114 107 111 110 101 103 100 101 96 95 104 99 95 88 77 69 67 61 50 53 47 35 40 38 33 21 19 14 17 14 16 20 19
22 23 23 22 21 19 14 17 31 28 29 35 44 49 51 56 61 62 73 80 94 89 103 101 99 100 109 114 114 108 117 114 117 112 117 111 109 110 102 102 102 103 99 92 85 85 71 64 63 48 47 50 37 41 35 29 30 22 18 19 18 21 14 18
20 23 17 20 26 18 19 24 19 26 38 34 44 41 54 48 54 65 73 81 90 88 94 95 104 104 106 113 115 119 118 126 124 120 119 115 111 116 102 102 108 106 100 94 85 80 69 56 58 51 47 50 37 35 34 29 21 27 17 14 17 21 15 20
26 18 25 26 15 25 22 23 25 25 32 33 33 46 46 54 52 62 67 70 85 94 89 96 95 106 101 114 110 111 120 123 129 117 113 111 117 113 108 105 104 94 88 89 83 80 72 63 50 54 46 43 39 31 28 34 21 19 19 18 15 17 20 22
24 26 19 14 23 14 15 23 28 25 32 29 37 35 47 51 54 50 68 72 74 81 94 93 105 103 100 110 110 120 111 122 133 119 116 112 116 113 110 106 97 95 95 89 78 68 67 53 51 44 51 40 37 32 25 21 24 24 17 25 24 25 18 19
26 16 14 25 19 20 19 23 25 25 27 33 30 38 44 47 50 50 55 63 70 82 91 85 102 104 100 102 113 112 113 113 118 113 108 109 110 101 97 105 102 97 83 82 79 64 64 50 43 45 42 41 34 27 25 25 20 26 16 19 25 26 25 14
19 22 26 15 14 17 19 18 17 21 33 32 31 36 43 45 47 51 51 60 75 80 75 80 95 100 100 103 106 108 109 103 106 107 107 108 97 96 104 96 90 88 86 80 73 67 62 50 50 39 37 35 29 30 23 25 17 17 25 17 15 23 14 18
25 23 19 23 26 25 21 15 18 22 19 25 37 31 40 42 48 45 45 56 59 68 82 79 86 84 99 93 95 94 102 99 93 98 99 100 96 90 95 83 89 77 79 76 68 55 51 41 47 35 43 35 34 32 25 28 14 18 17 26 19 26 24 26
25 16 15 23 21 14 16 25 25 22 28 30 30 37 39 43 34 35 52 48 60 71 70 77 74 80 80 90 91 93 93 97 91 92 91 98 90 91 81 88 80 74 71 65 65 48 51 42 38 37 34 26 24 25 17 22 22 24 19 15 18 16 25 17
22 24 16 25 16 20 20 16 24 15 19 29 29 29 26 36 30 43 43 46 49 61 68 65 73 70 85 81 82 80 79 87 80 78 84 80 82 85 75 79 67 64 58 60 54 49 41 33 38 29 33 33 31 18 21 22 25 26 22 15 14 25 20 21
18 22 25 25 22 21 15 26 24 22 14 15 25 32 34 24 36 30 29 45 48 51 57 55 69 63 68 68 74 75 69 78 74 81 73 77 75 72 68 73 68 65 57 48 49 37 28 39 38 35 26 30 24 23 14 26 15 14 25 25 20 15 14 20
17 23 21 25 22 18 21 14 14 15 26 23 14 17 22 24 32 35 25 34 36 47 47 53 56 67 60 71 66 71 65 74 67 67 73 67 60 68 68 59 51 53 44 46 35 32 35 28 29 21 28 29 15 17 24 18 19 24 26 16 16 22 20 15
15 14 25 18 16 20 16 20 17 18 17 15 24 21 19 19 29 25 28 23 28 44 37 47 52 49 53 54 52 61 61 66 58 68 58 67 58 57 56 47 47 49 46 37 27 33 30 29 23 24 27 21 15 17 25 19 25 21 21 22 14 14 21 22
24 15 25 19 25 26 21 22 20 23 19 20 15 18 23 18 22 20 23 21 21 34 37 44 41 38 41 47 59 50 51 63 52 53 51 55 48 46 49 47 45 33 32 34 21 23 27 28 16 24 16 17 17 21 20 26 17 14 26 14 15 26 16 20
21 19 21 14 20 24 23 15 24 24 24 23 17 17 15 14 15 18 20 18 15 18 26 35 40 41 40 43 46 49 53 48 54 52 49 49 45 45 44 36 32 25 22 21 21 19 26 21 18 26 23 22 20 18 17 24 16 15 18 16 24 16 14 23
23 24 26 17 17 16 25 18 24 22 14 26 22 23 25 22 15 25 26 26 15 18 24 32 26 27 36 37 43 38 44 49 50 44 49 42 47 39 41 33 27 27 24 21 25 19 19 18 24 16 16 15 21 14 19 15 21 20 21 18 22 17 25 17
20 18 16 15 17 22 18 26 17 18 18 15 21 15 22 14 19 24 25 25 16 16 15 18 22 24 36 27 39 33 33 43 38 34 37 35 32 37 34 26 30 26 17 26 21 21 14 25 23 19 24 20 21 20 22 26 15 23 18 25 16 19 15 25
18 23 22 17 14 18 14 26 21 19 21 14 21 17 18 22 17 23 14 20 20 18 15 22 18 17 26 33 33 37 26 33 30 39 35 26 26 26 27 23 14 17 16 24 25 24 14 23 21 21 15 17 17 15 19 21 18 24 17 25 17 14 23 23
16 18 17 19 20 18 25 21 14 24 14 14 25 14 24 22 21 26 21 26 22 17 26 19 21 25 16 27 24 30 30 27 23 29 20 19 25 20 14 18 22 22 24 14 24 19 22 19 26 18 26 24 18 23 19 26 17 14 23 16 25 17 22 20
15 14 14 19 17 24 18 16 15 26 22 15 18 26 21 25 22 26 19 22 18 21 19 14 14 24 16 16 20 19 16 24 18 25 22 23 15 20 16 21 21 26 24 16 21 19 21 19 20 21 19 26 21 25 18 17 18 22 18 25 18 16 18 19
16 26 16 20 17 23 20 16 14 21 22 16 25 15 16 24 26 18 23 22 16 14 15 24 25 24 23 21 18 26 17 24 25 22 24 25 20 17 23 24 26 15 19 18 25 15 20 18 25 16 20 17 19 23 18 19 26 19 22 24 26 19 17 16
17 25 17 15 22 18 15 14 21 23 21 15 23 25 14 25 22 19 20 14 25 24 19 20 14 25 19 15 15 17 16 17 21 24 15 14 20 23 17 19 26 16 26 23 20 20 21 16 14 23 19 20 23 19 15 15 14 25 24 26 14 19 21 20
16 18 24 25 23 20 23 15 18 16 21 18 19 14 20 14 23 22 19 24 18 20 21 17 18 15 20 22 18 24 15 21 26 23 14 24 19 25 23 14 18 18 16 18 22 22 16 18 15 26 21 22 20 19 22 15 14 20 14 22 18 25 16 20
15 21 16 23 26 21 16 16 18 14 23 26 14 18 22 21 22 20 23 26 26 15 19 18 14 16 22 14 19 24 17 22 14 21 21 21 24 20 22 26 15 16 17 18 16 22 19 21 21 18 18 15 23 22 15 21 16 17 21 18 25 17 18 16
22 21 15 19 22 15 18 24 26 17 15 15 16 14 20 14 25 15 15 26 19 24 15 23 26 24 20 17 23 17 23 22 25 15 20 22 19 26 21 19 26 18 25 22 23 18 25 17 18 23 16 26 17 20 22 24 17 21 23 18 22 23 19 17
23 19 20 17 25 22 24 18 15 20 16 21 18 23 25 24 15 20 19 26 14 24 15 23 26 15 18 14 17 24 19 22 21 20 19 22 18 24 25 24 16 26 17 18 22 26 17 22 20 17 20 26 15 15 17 25 16 24 24 18 23 23 20 17
17 16 18 25 14 24 18 17 20 25 18 21 26 14 17 20 21 19 25 20 23 26 21 19 14 23 23 14 24 20 26 21 20 15 15 25 17 17 26 22 25 15 24 24 14 20 25 19 14 19 21 15 16 17 17 14 21 16 16 24 15 25 19 14
16 21 22 16 21 22 24 20 23 21 14 14 19 16 16 25 19 26 22 20 17 16 22 21 14 19 16 17 22 19 25 17 25 17 15 17 24 25 22 25 22 23 26 25 17 20 18 26 18 16 16 17 24 15 25 23 15 21 22 18 19 18 23 23
26 25 22 22 23 23 23 15 24 15 24 19 16 15 18 18 21 15 26 17 21 24 16 25 21 21 24 14 23 15 22 15 20 17 25 15 19 14 23 25 18 19 23 14 17 18 21 16 25 17 16 18 15 19 23 15 17 25 15 17 24 26 15 14
22 24 26 19 26 16 17 23 18 21 22 22 15 17 26 20 23 22 25 16 21 18 26 23 22 25 14 15 25 14 19 15 26 18 18 21 14 20 18 17 18 26 16 24 20 14 26 16 25 23 22 21 16 25 14 22 25 20 24 20 24 22 14 25
19 15 17 21 19 15 21 16 17 21 25 16 23 16 16 23 14 15 24 20 14 18 14 19 20 22 18 21 23 26 18 18 19 16 20 15 19 20 23 24 16 21 26 25 20 23 21 18 20 24 26 22 18 24 22 16 16 26 20 20 23 19 15 18
22 24 17 19 25 22 17 18 16 18 15 26 24 20 16 19 22 21 24 26 17 25 15 14 22 16 24 15 14 14 17 22 15 23 16 18 24 22 19 26 14 25 26 26 14 15 16 22 14 22 15 21 16 20 14 22 18 20 22 23 19 17 25 24
