P2
64 64
255
20 14 20 22 24 24 15 18 22 24 17 22 24 25 16 15 14 16 22 24 15 14 24 14 16 19 21 14 25 26 16 14 23 23 25 19 20 16 21 21 16 17 14 22 21 21 19 23 25 25 21 18 14 16 21 25 17 16 17 22 16 22 16 24
21 25 22 15 17 15 17 26 24 23 21 17 24 14 19 26 20 22 26 21 15 22 23 22 15 22 15 14 26 26 17 20 26 16 26 16 26 16 17 14 19 26 14 15 26 21 21 26 19 18 21 15 25 24 19 18 16 17 25 15 26 14 23 16
19 15 23 18 22 14 18 22 22 23 16 14 20 22 22 25 22 17 16 17 20 25 20 19 26 25 19 16 19 25 26 21 24 22 14 16 21 24 19 20 17 17 18 18 22 20 18 18 17 16 19 25 14 25 20 22 20 17 17 24 17 20 19 14
22 26 23 21 26 14 25 19 16 14 17 17 21 18 17 15 18 19 24 26 23 23 24 23 14 26 20 26 21 25 17 23 21 14 26 17 24 19 25 17 20 19 15 22 20 26 17 22 23 17 17 24 25 14 25 26 16 21 23 17 17 26 18 20
16 14 19 25 16 19 17 17 19 26 21 20 26 23 15 22 18 23 23 26 24 16 21 22 25 18 19 18 22 24 15 25 25 16 23 25 19 17 16 19 17 18 26 19 15 14 21 22 22 20 21 19 23 20 17 20 17 23 26 24 17 19 22 18
15 19 16 22 18 17 25 21 25 14 25 17 25 26 26 20 20 15 14 22 21 19 21 15 24 22 19 17 21 16 14 19 21 25 18 23 24 15 19 22 16 23 20 22 16 24 23 21 24 18 16 21 20 22 19 17 26 16 21 18 19 25 14 17
17 26 24 16 15 17 26 20 14 15 25 19 17 20 22 21 17 16 21 26 25 21 18 18 25 17 16 25 18 14 14 21 24 20 18 22 19 24 24 24 17 17 15 18 16 19 18 19 22 17 20 20 17 22 24 17 20 25 17 23 24 24 21 15
16 17 24 16 17 22 26 15 26 17 24 23 18 16 24 16 26 18 20 23 17 16 14 15 16 19 17 26 20 20 20 18 23 24 19 25 24 25 22 19 17 15 22 18 17 19 20 15 14 21 22 17 20 21 16 15 25 15 15 25 17 24 14 14
18 16 15 22 23 15 14 26 23 26 15 26 15 25 15 26 18 26 14 26 25 15 17 24 18 23 19 24 17 24 16 17 22 17 25 18 25 24 20 14 15 26 16 15 19 19 19 22 24 20 25 16 15 24 21 25 17 16 21 21 20 24 21 22
16 21 20 20 15 26 23 16 22 18 22 16 19 24 23 14 14 19 21 15 15 22 19 15 18 18 18 25 20 26 24 16 22 25 23 24 17 20 20 26 23 22 24 25 26 25 16 15 26 18 15 16 26 16 25 26 17 25 17 23 18 15 26 26
26 16 23 22 16 26 14 14 23 19 25 16 21 26 23 23 14 16 22 21 19 24 17 25 25 24 18 19 22 16 17 15 14 16 18 22 15 26 24 16 17 20 15 14 22 24 20 23 18 25 19 17 18 21 24 17 22 25 25 16 21 18 24 19
15 25 24 20 22 15 21 25 16 22 18 17 14 17 21 18 16 25 17 20 26 25 14 23 24 21 20 16 21 25 19 25 15 16 19 15 23 19 24 23 19 25 16 26 23 16 18 16 21 25 22 21 15 17 26 22 20 18 22 22 18 26 18 22
23 20 23 23 25 25 16 21 15 18 17 24 15 20 21 15 17 17 14 22 22 18 19 20 19 16 19 15 22 20 23 25 19 25 15 26 21 20 16 26 22 22 14 21 18 22 21 16 25 18 23 23 15 16 23 22 26 19 19 24 15 14 26 21
17 21 19 18 22 15 23 18 22 15 15 19 19 24 21 22 26 23 24 15 21 16 22 18 15 16 23 17 15 15 19 24 19 24 26 15 26 18 24 16 19 22 23 23 20 16 19 17 20 20 15 17 17 15 23 26 20 16 23 22 14 21 25 14
25 22 18 16 16 23 24 15 18 21 21 22 16 25 24 20 18 23 17 26 20 16 19 25 17 15 18 19 15 20 17 26 15 15 26 14 20 21 20 25 18 26 18 24 21 18 17 18 14 22 19 17 16 23 26 21 15 16 20 25 22 20 23 14
20 17 17 26 18 20 25 23 16 14 20 15 21 20 16 17 20 16 16 22 15 19 19 15 20 25 25 23 20 17 25 26 14 24 21 17 17 15 14 19 26 26 16 23 25 14 19 23 15 20 22 20 23 19 22 22 23 21 23 19 24 23 17 26
22 21 23 15 19 18 21 19 23 20 23 18 26 21 15 20 23 17 14 26 22 19 15 20 22 14 16 14 16 15 25 24 15 22 26 24 24 19 22 15 22 20 17 20 23 23 23 18 17 26 18 15 15 18 23 23 18 14 18 18 21 17 26 14
14 21 20 22 23 16 16 19 21 20 16 17 23 14 20 14 23 26 18 19 25 26 20 15 26 19 21 16 19 16 14 19 16 21 16 17 17 23 17 23 23 25 16 22 18 16 21 24 20 26 24 26 26 23 14 18 20 16 23 26 16 26 24 15
18 20 19 20 21 15 17 20 20 26 25 19 16 21 20 16 21 26 18 23 22 23 26 20 22 21 14 18 15 22 25 25 24 24 22 18 24 25 14 24 23 17 25 18 25 18 24 17 19 14 16 22 21 26 14 16 24 26 24 24 16 14 14 22
20 17 15 20 20 20 26 21 24 16 23 14 21 23 23 24 18 27 27 20 18 23 19 25 22 21 25 26 22 16 23 23 24 14 16 26 22 17 24 19 22 22 23 22 20 27 28 28 18 21 23 17 15 14 17 23 23 26 16 18 21 22 14 16
25 21 16 19 23 20 26 16 21 16 16 14 26 24 27 17 28 23 27 25 28 25 33 31 27 23 19 27 17 15 23 22 26 17 24 19 14 16 27 28 30 25 21 31 24 25 22 27 27 29 18 25 16 17 18 24 19 26 17 23 20 24 17 17
20 25 16 15 16 25 20 14 25 16 17 23 22 20 20 20 34 32 25 31 30 29 27 27 35 26 25 19 19 23 16 20 19 22 20 18 16 24 23 29 26 25 34 36 34 27 36 27 28 21 22 17 16 22 16 18 15 20 26 15 15 26 26 25
18 22 19 17 24 25 21 18 25 17 15 17 29 21 30 36 35 28 30 32 37 38 35 32 31 29 36 23 27 22 22 15 20 24 24 21 27 33 31 29 28 30 31 40 38 29 28 33 27 29 22 24 23 24 25 21 23 22 16 24 19 22 21 25
22 26 18 24 25 19 23 20 16 25 16 29 21 29 27 33 39 41 34 41 34 34 39 37 41 32 35 29 31 28 26 15 23 17 22 25 33 29 34 31 43 36 44 34 40 41 35 31 38 29 36 28 32 18 18 25 23 24 18 21 21 26 16 17
18 15 14 14 19 22 18 18 15 18 23 32 30 29 30 33 38 34 36 44 44 39 37 42 44 38 31 34 28 26 26 18 16 24 27 30 29 32 31 41 34 46 37 43 39 40 41 39 33 32 29 38 23 27 21 15 16 21 16 25 23 19 15 25
19 15 24 20 19 23 19 23 19 17 31 25 33 38 37 38 43 42 41 43 50 49 52 47 46 44 36 39 31 32 24 24 26 29 27 27 30 31 41 47 45 48 45 49 49 48 44 39 37 44 33 39 26 29 20 22 14 23 23 16 21 18 18 14
21 20 16 24 18 16 21 25 20 27 27 26 33 41 35 47 46 47 45 48 52 55 48 46 51 50 47 43 38 37 37 23 27 28 27 40 35 34 41 49 52 52 54 56 47 48 45 51 51 43 36 36 40 28 27 22 24 15 26 23 23 21 18 21
16 22 16 14 20 23 25 26 22 28 33 28 35 41 46 44 47 53 49 48 56 50 57 48 52 46 39 43 41 31 34 34 28 26 38 30 40 47 42 54 53 58 55 50 50 53 52 56 51 44 38 37 39 39 25 27 28 23 15 21 25 17 14 19
18 21 26 19 16 26 18 23 24 25 35 34 39 37 49 50 55 57 52 52 56 53 62 62 58 47 48 47 42 38 33 39 40 30 36 40 40 46 52 46 55 51 61 56 53 59 56 51 45 48 45 47 43 32 37 30 24 14 17 18 18 25 20 16
20 23 21 14 22 18 19 19 24 26 36 37 37 37 47 44 59 57 53 66 69 62 57 59 59 57 48 50 41 45 41 36 39 31 33 33 46 45 46 50 58 58 59 62 61 58 62 53 59 56 46 46 35 41 34 22 26 21 15 25 24 16 14 25
14 20 18 22 14 23 26 26 30 28 31 32 45 48 47 55 54 61 65 61 70 67 63 66 60 59 55 44 45 42 40 32 37 32 41 37 47 54 49 56 61 56 65 65 61 68 67 58 60 52 50 49 35 41 39 35 26 27 20 23 16 25 24 19
14 16 21 15 24 23 18 20 20 35 39 34 40 49 52 53 54 63 65 64 64 66 64 58 65 53 58 50 49 41 37 33 40 34 33 47 46 45 52 52 66 59 62 68 65 71 64 56 54 52 44 41 41 38 33 35 26 25 18 16 21 20 16 20
15 18 20 18 20 21 17 23 20 36 34 34 43 44 49 56 56 59 61 73 75 78 64 71 55 56 47 50 48 39 34 38 41 34 43 38 50 44 58 61 64 65 70 71 79 75 62 62 58 49 44 45 41 40 28 24 29 18 18 20 23 18 25 24
20 21 14 14 19 14 15 23 23 31 36 35 46 40 50 49 54 57 63 69 64 67 72 66 54 62 48 49 45 46 38 35 34 38 41 43 43 44 48 54 64 66 61 73 71 64 59 66 60 48 53 48 46 36 33 33 23 28 14 15 26 21 26 26
21 26 17 20 25 24 25 26 28 27 32 37 43 46 46 55 60 59 58 66 68 62 61 61 59 59 56 47 42 42 41 40 41 38 36 46 38 52 58 54 65 68 65 71 61 62 61 54 52 52 46 46 41 40 32 30 26 27 15 14 18 21 23 18
21 23 16 20 16 26 15 23 27 24 30 38 38 44 47 53 50 63 65 66 60 63 56 61 53 57 54 51 43 45 40 40 41 38 41 37 49 47 54 59 53 64 57 57 62 60 63 54 56 54 53 44 42 34 36 23 18 21 21 16 16 18 24 17
23 18 14 24 20 19 20 19 19 28 31 34 36 41 41 46 54 58 58 53 63 65 59 60 52 49 54 46 45 39 33 30 34 34 34 35 38 49 54 48 48 51 64 60 55 57 57 57 55 47 40 40 32 29 28 21 22 17 14 24 22 22 26 19
26 24 17 25 26 20 26 23 23 20 27 31 32 37 39 49 45 47 49 59 59 55 59 56 48 44 41 47 34 39 34 26 27 28 28 42 36 41 44 46 51 51 60 57 58 55 52 49 44 51 47 33 42 35 35 26 20 16 17 20 23 14 14 17
14 15 23 22 14 18 16 26 23 20 30 25 33 34 39 42 49 45 45 52 46 56 55 49 43 47 42 41 40 37 28 33 29 21 37 34 39 43 37 49 51 44 55 47 54 49 49 41 49 48 34 34 35 27 21 20 14 24 17 21 22 14 20 17
22 20 29 24 23 29 20 21 28 28 31 37 37 41 44 45 48 47 52 53 55 48 48 48 48 41 50 42 37 33 30 31 24 35 34 30 39 43 39 53 52 48 51 50 48 47 50 49 42 44 37 35 33 40 29 33 28 25 23 21 28 26 21 26
23 22 27 32 21 23 22 21 33 27 35 32 35 44 46 44 44 48 55 57 56 58 58 52 43 48 50 45 45 38 34 31 32 27 34 36 43 43 41 52 47 53 57 57 57 55 57 47 56 55 42 45 43 36 33 32 29 34 30 39 38 31 29 37
34 32 31 35 28 24 33 33 30 35 31 33 34 39 43 50 51 48 53 54 50 52 56 57 55 53 50 48 38 44 38 37 29 31 32 45 50 44 48 54 51 55 56 52 50 57 51 56 50 50 45 41 43 35 36 32 34 44 41 38 33 44 37 43
24 20 25 22 26 27 30 29 31 28 21 30 28 35 38 38 34 39 36 44 48 37 41 46 44 39 38 37 40 31 35 25 27 32 29 37 35 36 43 40 45 50 45 39 40 44 48 45 38 35 45 33 38 35 35 32 29 32 26 27 36 26 31 28
27 23 23 19 21 24 26 17 28 25 29 28 19 26 32 33 31 38 34 38 33 37 33 39 30 34 30 34 29 21 27 22 19 20 29 28 33 26 36 39 29 37 33 33 32 39 38 40 36 28 27 28 23 27 22 23 20 28 20 29 30 30 26 23
26 22 14 20 16 26 20 26 24 19 21 15 24 14 23 25 20 27 29 32 33 24 22 21 21 30 27 16 23 17 26 22 26 23 24 26 18 24 21 20 21 29 28 30 26 28 21 28 29 26 27 25 21 16 15 20 21 19 26 25 15 21 21 22
19 18 25 22 26 14 19 18 18 22 21 21 14 24 21 17 22 27 25 29 22 18 18 28 24 21 20 16 14 15 20 17 25 23 16 20 26 19 22 16 17 29 20 22 25 27 27 25 23 25 18 24 26 21 22 23 14 18 17 26 16 15 14 17
25 23 18 18 24 20 25 21 19 25 20 26 20 19 22 15 18 14 23 25 19 26 14 16 26 16 20 14 23 14 24 23 17 23 20 22 16 18 26 14 18 19 21 21 20 19 21 18 26 17 26 24 20 17 17 17 23 25 14 22 24 19 24 24
15 20 17 24 20 23 26 19 20 23 18 14 19 16 22 22 17 20 24 17 18 16 26 18 26 26 18 17 25 25 14 18 22 19 14 24 18 24 19 19 25 14 24 18 20 24 17 25 18 25 23 19 26 17 18 17 19 14 15 17 15 17 20 16
25 21 18 22 16 16 22 17 21 17 17 22 16 19 15 26 20 16 20 14 25 19 21 16 17 19 16 21 23 17 24 23 16 17 21 14 17 20 20 15 20 24 23 23 15 21 24 22 22 16 15 15 24 22 19 21 26 20 22 26 25 23 15 22
23 18 26 23 19 18 16 21 24 16 18 17 17 17 25 25 19 15 15 17 19 19 22 17 14 25 19 19 18 17 24 23 17 25 19 26 18 19 22 20 19 15 20 18 26 23 25 20 20 20 20 14 23 15 23 15 14 18 22 19 16 22 15 21
18 19 24 23 24 22 26 18 15 14 23 15 14 24 25 23 17 24 22 24 15 25 15 15 25 20 24 23 24 21 15 14 16 15 20 18 17 25 16 25 16 24 20 24 18 16 20 25 15 14 17 22 17 18 15 25 21 15 15 15 16 17 17 24
15 25 15 22 16 21 17 16 22 23 18 16 26 14 23 15 14 23 14 19 19 21 14 22 22 20 25 16 21 15 22 22 24 22 22 20 17 15 26 22 22 21 16 14 22 19 19 20 25 24 25 14 17 23 14 18 25 25 16 26 17 19 20 16
24 15 22 26 26 18 14 15 23 20 21 23 16 19 17 22 22 26 16 18 24 18 15 22 26 17 16 18 20 25 17 15 19 17 21 25 21 23 16 19 22 24 20 18 16 23 21 24 24 16 16 24 26 19 14 25 15 24 14 26 21 19 21 14
21 15 21 15 14 21 16 26 19 21 15 23 26 17 22 26 15 16 15 23 19 22 16 21 21 19 21 19 15 21 23 15 18 16 19 20 21 23 26 15 14 20 15 15 23 25 14 15 14 17 17 19 26 16 26 20 17 17 26 24 18 18 26 20
14 16 15 23 24 19 18 19 24 19 23 16 17 23 18 21 15 18 22 24 21 16 17 26 18 17 15 23 14 16 20 19 15 23 15 24 14 20 16 21 26 20 23 21 16 15 14 17 16 26 17 21 19 21 19 25 20 21 23 15 14 18 18 18
15 16 20 17 19 21 21 21 18 22 22 18 20 15 25 25 16 14 18 18 17 19 20 14 23 15 19 18 25 22 24 24 22 17 18 25 21 23 24 25 15 23 17 14 14 22 14 17 24 15 23 22 17 14 25 15 14 22 19 14 15 23 21 18
26 15 26 25 23 22 16 24 25 17 21 25 16 25 17 19 22 22 17 26 25 19 17 16 20 16 15 17 25 25 16 25 14 15 21 26 22 21 17 19 20 16 23 14 14 23 25 24 25 15 15 20 20 25 21 20 26 21 26 14 17 22 21 25
17 24 24 25 17 19 25 20 14 19 18 22 25 15 25 26 21 19 22 22 24 26 22 14 22 14 15 24 21 15 21 15 14 18 20 18 16 19 23 24 14 18 24 22 20 20 24 16 20 26 19 14 14 22 15 15 19 18 19 23 22 14 19 16
18 25 14 26 24 21 18 21 14 25 21 19 25 21 17 17 18 26 23 18 24 25 20 19 26 24 15 18 20 25 24 19 17 14 16 14 18 21 24 14 19 16 24 14 15 18 19 18 24 15 25 22 20 21 24 23 19 15 21 24 18 21 19 25
15 15 18 16 17 15 17 14 22 16 26 21 15 26 18 17 21 25 16 14 19 23 20 14 15 26 18 20 26 24 16 26 15 22 20 19 25 25 20 16 21 25 18 15 14 20 23 20 26 20 19 17 25 25 21 22 26 19 24 24 21 16 21 22
22 16 19 17 14 15 25 19 20 20 19 17 19 17 21 19 14 14 19 22 19 16 20 15 17 17 20 23 16 21 22 24 24 19 21 19 23 19 24 20 24 15 26 16 22 22 19 24 15 15 26 22 24 17 15 15 23 26 25 21 18 25 23 14
17 21 19 17 16 18 15 22 21 22 22 15 17 21 20 24 17 21 20 16 26 21 16 26 23 18 18 17 23 18 16 16 24 26 23 26 18 20 14 17 25 19 25 20 21 24 24 18 25 26 24 18 19 15 24 15 22 21 15 19 23 21 23 15
25 24 23 23 24 17 20 25 21 16 14 25 14 19 20 15 18 22 24 19 16 19 19 24 14 23 21 22 26 23 18 24 18 16 19 18 24 21 20 26 19 20 19 15 25 22 26 26 24 24 25 23 20 15 14 20 21 18 18 17 21 23 16 21
24 25 23 24 22 19 25 16 15 17 16 22 21 16 19 16 15 24 24 22 24 26 26 21 21 14 14 18 18 20 15 21 15 22 22 15 15 23 17 16 25 25 14 20 18 20 26 26 16 19 18 17 18 14 15 26 25 17 16 17 17 23 20 18
