P2
64 64
255
38 29 18 18 36 22 34 30 35 28 34 38 27 20 29 23 38 36 21 38 26 35 28 19 32 26 19 34 22 25 27 33 31 25 30 36 23 18 35 35 23 23 29 32 34 36 22 20 19 35 24 26 18 19 35 38 30 36 25 27 31 25 25 26
32 21 38 24 30 27 35 34 18 20 25 29 32 28 28 36 18 38 35 36 28 33 33 24 37 30 30 21 18 37 35 32 32 21 37 38 33 35 36 19 21 20 27 24 28 28 24 23 35 20 25 25 36 20 37 28 34 32 22 18 38 32 24 29
34 25 33 35 36 30 18 30 28 32 26 32 35 35 26 32 36 29 38 38 23 19 23 18 30 31 24 36 19 35 27 24 26 30 26 22 36 24 27 19 29 29 24 25 27 26 31 25 38 36 19 19 23 31 28 35 25 29 20 30 34 36 36 20
33 38 33 19 25 34 27 19 29 33 24 26 36 28 31 29 34 20 35 29 25 38 19 26 29 28 29 21 32 29 36 37 30 36 21 26 20 22 22 34 22 33 38 37 27 34 31 18 24 21 33 25 36 24 37 22 24 27 25 26 22 24 33 19
22 31 37 26 36 38 33 38 31 25 20 26 28 23 31 23 35 28 26 32 26 35 37 31 25 21 19 27 33 19 35 31 30 27 28 21 29 34 18 24 33 26 24 21 26 30 27 20 33 26 38 30 33 22 28 19 25 26 30 20 26 30 20 29
27 25 22 21 37 23 35 23 22 35 32 21 27 20 33 35 21 30 37 37 19 25 36 32 19 32 29 20 32 31 23 31 18 36 27 36 28 31 27 37 20 36 29 31 36 22 28 33 20 25 27 26 36 18 18 32 33 19 33 37 34 29 23 28
18 36 26 22 19 27 27 28 33 24 30 26 24 35 38 33 26 29 31 30 33 34 24 22 30 32 20 30 27 20 22 37 34 24 18 37 25 27 22 22 30 29 38 28 35 36 35 18 20 32 22 30 31 30 29 27 25 21 29 25 20 30 34 30
20 36 36 25 34 37 18 36 26 20 37 31 37 34 31 23 18 21 18 30 27 19 37 18 19 26 34 29 33 33 32 34 24 37 25 28 24 29 33 27 29 21 37 31 37 22 19 27 19 18 36 24 19 23 19 37 25 18 32 24 32 23 22 28
22 20 29 22 32 28 26 34 28 29 35 27 25 30 36 32 37 31 24 24 38 32 29 33 37 18 20 18 23 28 21 20 24 38 30 27 32 21 32 30 28 26 23 37 34 23 31 37 22 30 24 18 18 36 30 18 22 21 23 24 36 26 38 31
36 31 24 28 22 29 30 27 20 25 31 20 27 22 19 38 18 18 30 34 33 26 24 26 26 38 38 33 23 27 33 29 29 34 26 33 31 27 31 24 20 35 37 37 20 36 38 25 34 37 34 35 25 38 25 27 36 33 23 24 35 23 36 19
22 18 27 27 32 25 23 18 24 34 32 28 25 35 24 37 32 20 25 37 35 30 27 34 35 33 31 34 25 29 28 21 28 18 33 20 35 37 19 35 25 32 19 20 24 27 27 37 25 22 33 36 20 32 30 21 33 30 19 20 19 26 35 22
24 20 24 34 30 18 25 34 37 22 35 38 34 26 37 28 32 31 32 37 35 36 25 29 26 25 32 28 19 34 27 30 38 18 34 28 30 37 18 30 35 20 21 21 25 32 34 30 28 30 24 27 18 27 28 30 33 36 29 30 30 21 28 20
26 24 27 36 18 33 19 19 35 38 21 31 37 19 20 19 32 36 37 23 28 25 21 20 37 24 33 29 23 28 37 28 35 21 36 35 30 26 31 38 38 18 34 25 31 33 21 18 27 22 37 21 34 35 30 36 32 23 24 33 28 38 32 22
24 35 23 26 35 20 35 28 38 31 22 35 29 27 21 28 21 38 29 36 36 38 33 26 32 18 18 29 33 24 36 29 32 35 31 31 29 20 28 32 34 30 20 20 33 30 32 32 34 28 25 22 31 26 30 22 33 32 18 38 33 20 35 19
32 28 32 21 30 36 35 22 35 29 36 20 33 33 18 23 29 36 25 29 28 22 21 18 32 21 20 23 22 34 27 35 21 31 31 31 20 21 25 27 24 26 34 31 31 21 24 21 29 25 20 24 30 27 22 34 28 33 25 20 26 28 26 24
31 30 22 25 33 20 18 36 35 34 35 24 26 28 20 24 35 30 21 36 33 30 21 35 36 23 21 29 21 24 22 26 35 21 31 38 38 25 20 20 27 20 31 22 33 24 28 33 29 22 35 20 21 23 31 21 21 34 37 22 25 29 35 36
24 35 36 22 20 25 38 31 24 30 35 31 31 31 21 33 36 29 38 22 28 22 38 36 26 35 18 30 18 25 32 27 19 36 18 20 23 35 24 21 21 24 35 18 23 36 22 26 29 36 32 18 22 37 38 32 38 20 35 35 21 20 37 20
21 33 32 28 22 35 29 34 34 24 23 37 27 31 20 30 21 21 30 35 28 29 20 19 23 34 23 19 31 31 30 34 23 32 20 27 18 25 29 26 32 35 36 34 32 30 37 36 24 20 33 29 25 38 25 28 30 33 19 31 30 36 20 35
25 38 25 37 18 34 36 32 19 34 21 38 23 26 28 38 35 30 35 34 29 34 20 33 32 19 25 29 30 34 29 22 20 22 31 34 37 26 21 36 27 31 32 38 18 22 19 36 27 20 30 21 31 19 32 22 18 18 24 34 36 32 24 26
19 23 33 20 37 21 22 26 18 34 37 25 26 18 32 31 20 36 30 24 37 26 39 31 37 35 26 21 38 27 25 23 26 32 22 32 34 26 21 39 40 26 40 32 27 29 25 30 28 30 34 19 26 38 22 35 30 24 24 19 33 29 35 18
34 35 34 38 36 30 33 37 23 30 21 36 37 38 36 30 24 33 33 39 46 44 26 29 31 36 36 37 34 28 18 28 36 22 29 27 34 39 28 35 38 34 34 45 37 26 33 40 34 29 21 35 34 35 35 31 20 32 34 19 36 33 22 23
27 37 31 26 19 32 37 24 28 33 34 36 35 26 37 35 28 47 46 45 48 31 40 32 47 41 34 23 24 37 32 31 35 26 36 21 24 39 36 28 31 30 49 44 46 32 48 33 33 40 25 22 27 20 22 30 36 33 33 31 28 36 26 28
24 31 25 28 30 37 28 30 25 20 37 29 28 40 30 38 37 42 37 42 40 38 51 48 43 38 30 37 48 37 29 28 39 30 28 30 34 30 48 31 32 40 47 45 41 40 36 35 30 28 44 42 38 25 19 25 38 28 34 22 24 35 22 22
24 25 19 32 26 32 33 33 35 32 25 24 39 31 30 41 44 37 56 48 37 52 41 40 40 41 52 54 54 39 43 45 36 35 49 42 46 53 47 46 37 41 50 40 47 54 42 36 35 42 38 47 43 41 36 21 35 31 19 33 25 32 22 35
34 21 27 25 35 34 29 29 18 21 36 43 30 31 50 54 46 45 60 51 61 55 44 48 51 60 60 66 62 64 57 54 43 50 46 52 49 60 50 50 50 43 53 42 44 45 45 54 53 43 45 45 31 44 24 35 20 33 26 30 38 37 29 30
34 25 26 31 34 37 30 38 18 34 34 36 48 50 55 48 60 47 61 65 53 51 49 59 57 57 64 59 74 69 54 55 49 57 70 57 72 64 64 72 57 69 66 51 64 60 43 51 45 53 47 50 36 28 34 22 31 21 28 22 23 34 29 32
23 19 25 24 25 29 29 26 24 37 38 37 49 43 39 61 48 62 61 60 53 62 70 79 69 78 72 83 83 78 75 71 80 68 78 67 79 73 71 63 63 59 60 52 62 66 65 49 56 48 56 48 52 32 26 28 32 38 34 23 23 33 23 37
27 23 22 32 30 19 18 34 25 31 32 50 48 41 41 60 65 66 66 64 69 64 73 71 78 82 74 86 76 75 86 74 70 86 87 89 84 83 83 89 80 70 70 73 72 56 71 58 50 63 58 37 53 41 36 43 39 36 18 35 18 32 36 26
24 20 24 18 34 33 29 26 21 31 49 33 51 57 58 66 62 70 61 60 77 73 83 88 89 92 80 85 92 93 76 94 80 84 85 90 88 98 99 95 77 77 82 87 70 65 61 52 55 46 54 55 47 40 29 45 35 32 26 21 20 29 22 35
21 24 37 27 21 31 23 23 39 31 38 47 41 59 61 67 70 61 57 82 75 76 96 90 84 89 102 94 105 92 104 86 95 93 89 90 102 92 95 91 84 93 83 92 77 68 68 62 60 62 46 49 45 36 33 46 22 21 29 20 22 27 27 34
27 28 29 22 35 28 31 23 39 29 51 41 40 47 64 60 60 63 72 88 91 82 91 97 96 99 97 105 94 110 103 97 104 94 96 98 113 104 105 95 102 88 88 85 92 72 79 74 67 64 49 53 47 40 42 38 30 31 35 27 36 29 27 25
34 21 33 28 18 22 28 22 35 38 44 39 43 43 53 60 73 72 73 86 95 100 98 97 105 109 118 103 113 118 112 106 107 110 111 106 110 116 112 102 107 100 111 88 86 93 85 63 56 67 54 52 47 40 45 29 43 21 24 24 27 25 36 32
24 29 29 19 26 18 27 39 36 47 42 50 53 52 64 52 74 62 86 82 100 110 107 105 110 112 111 119 105 103 107 116 118 116 118 117 105 118 119 119 109 102 115 105 90 81 85 76 67 65 66 55 57 43 46 37 42 35 32 29 29 32 25 35
23 35 34 19 21 28 35 28 38 33 44 43 44 52 62 70 68 68 86 79 96 98 112 104 113 118 116 111 120 121 128 128 124 131 128 119 115 106 116 122 102 113 110 106 98 87 87 67 67 59 65 60 57 47 50 41 34 21 30 26 29 29 33 27
30 24 30 33 38 23 37 23 25 38 39 50 42 57 59 52 66 77 78 86 92 108 101 112 119 114 108 123 121 125 118 121 136 132 122 127 118 114 126 104 103 115 103 110 94 77 87 64 70 64 63 45 51 36 43 30 40 33 37 33 23 34 26 21
29 20 36 28 30 18 23 32 25 30 38 42 57 52 55 63 57 62 82 82 97 91 103 113 100 108 117 110 122 115 125 132 140 127 134 113 120 108 123 119 102 114 104 106 94 84 79 61 68 65 62 45 49 47 34 41 23 28 18 31 24 19 26 29
19 36 38 36 32 26 30 26 36 29 38 42 46 39 61 61 65 60 76 85 88 91 93 99 115 113 121 125 123 128 123 121 134 123 121 129 122 124 106 118 116 95 108 99 77 71 71 58 66 66 58 58 49 52 48 26 33 24 21 21 25 29 22 35
36 24 18 18 33 24 18 18 25 39 45 44 48 42 52 54 66 52 63 76 93 90 104 100 109 99 102 109 126 111 117 116 123 129 114 114 115 122 103 111 106 100 91 85 77 81 66 64 58 64 50 37 35 32 47 30 26 28 23 31 32 33 30 38
32 33 25 38 19 32 24 26 27 25 42 48 34 52 48 47 55 59 70 73 68 74 82 101 103 110 112 110 111 123 111 119 112 122 110 112 120 107 106 101 96 99 90 76 87 70 56 49 46 52 41 52 52 42 31 25 35 18 30 28 38 33 38 30
38 33 28 33 26 24 32 27 20 25 37 42 31 33 38 46 50 53 49 72 81 78 86 99 85 96 95 108 114 114 98 108 102 98 110 112 107 100 95 88 86 80 75 84 79 62 61 42 48 39 48 50 46 29 37 20 37 35 38 20 29 22 26 21
21 38 28 25 37 25 32 33 22 23 24 29 36 32 52 35 54 45 58 61 74 75 76 86 84 97 97 91 103 104 110 99 94 90 107 96 89 93 91 93 95 81 74 63 63 57 59 38 53 36 50 47 36 34 38 31 19 24 33 26 38 31 37 25
23 18 27 23 32 38 32 38 20 38 39 26 34 44 44 37 37 53 47 54 65 76 69 69 72 87 83 84 100 95 101 82 101 91 92 85 101 83 84 76 81 78 72 64 65 62 57 41 34 48 40 46 32 31 26 26 32 35 31 28 30 19 25 30
24 30 31 34 33 20 31 37 32 24 24 21 37 29 42 42 39 47 36 50 44 63 64 62 70 79 85 89 77 87 75 87 85 78 86 92 80 90 89 81 75 75 69 57 47 56 36 33 46 43 35 27 21 37 23 28 36 29 34 32 28 38 35 20
24 21 24 25 31 22 20 19 32 36 35 20 25 23 28 33 37 41 44 49 51 46 57 59 57 67 70 71 84 78 77 86 84 79 87 80 65 77 72 59 75 68 51 58 52 32 30 38 28 32 42 34 30 38 35 37 34 28 27 25 33 32 37 18
37 29 35 25 38 28 34 35 20 32 25 26 22 33 25 33 30 39 27 38 35 38 40 46 60 50 68 74 57 65 78 68 75 81 76 78 71 64 66 53 50 48 60 44 34 32 32 34 24 25 36 27 28 22 19 29 38 28 30 24 18 25 34 29
25 31 30 22 37 31 28 29 33 33 34 23 22 24 23 34 19 36 33 36 31 47 45 44 52 61 48 54 55 58 72 68 66 62 58 57 70 65 55 54 50 56 33 43 36 24 38 26 29 27 22 21 23 35 29 27 28 20 18 34 37 28 36 26
20 20 25 32 25 26 30 24 38 27 24 38 38 38 30 29 37 20 37 32 30 32 28 41 47 50 47 57 63 67 64 60 60 58 53 47 50 46 46 46 43 47 44 23 19 25 18 27 20 34 27 26 36 24 20 29 34 19 27 25 36 24 22 29
25 24 19 23 21 37 37 31 34 26 35 21 30 27 25 37 29 38 24 19 18 19 20 26 30 33 35 50 59 42 49 62 63 47 46 52 48 48 41 38 46 28 35 24 31 25 30 25 34 28 22 31 37 19 25 23 25 32 34 25 29 20 31 28
25 18 25 23 37 31 20 22 33 38 26 34 25 34 29 21 27 18 29 36 20 24 38 26 31 29 45 45 46 50 44 54 49 45 37 35 47 33 44 46 24 34 21 29 29 36 28 28 27 37 38 18 18 20 20 22 30 28 28 34 22 26 23 31
35 20 26 19 19 32 18 21 25 37 38 34 29 36 35 21 37 18 22 31 21 31 22 29 30 21 38 29 29 41 50 33 48 39 46 46 41 45 41 25 33 31 35 19 25 27 32 21 18 19 34 34 22 32 25 29 27 25 26 27 24 18 18 26
22 33 34 27 30 22 19 30 18 18 31 22 27 18 22 35 37 28 25 26 34 21 38 23 36 23 26 22 34 38 31 43 36 28 42 34 22 28 21 38 20 19 19 37 36 19 30 25 18 35 22 29 24 36 34 18 19 27 23 36 34 35 29 33
33 34 35 24 28 30 38 23 22 18 19 27 35 31 36 28 30 31 38 34 31 27 26 20 26 18 20 30 37 19 35 23 31 29 33 36 28 21 27 29 21 19 18 26 19 18 38 19 33 28 29 38 18 21 33 30 25 25 35 29 31 23 32 18
27 25 25 24 38 20 25 23 20 25 36 35 33 29 23 27 27 35 32 30 35 33 27 27 20 18 28 31 22 18 24 19 32 35 30 35 20 20 35 32 38 23 24 19 35 28 35 22 34 30 36 31 35 26 38 22 19 24 29 35 18 35 31 36
23 26 25 30 20 30 34 24 32 25 22 29 33 24 32 33 32 34 38 26 26 35 21 21 18 24 38 18 20 37 26 24 27 37 23 30 29 36 21 38 36 19 19 18 29 33 34 22 37 22 35 24 25 22 21 19 27 32 36 37 31 20 18 30
32 23 30 34 37 38 26 25 37 31 34 36 22 22 18 26 31 28 37 35 29 31 35 26 19 38 33 34 37 22 29 23 31 34 20 24 27 23 30 35 34 35 33 37 29 29 38 26 22 26 31 31 36 26 26 37 26 24 23 27 35 32 37 28
18 29 22 33 32 32 33 23 23 30 28 33 34 29 32 21 20 34 37 27 34 29 28 37 38 31 31 18 33 18 29 24 22 21 33 22 25 26 38 23 33 36 36 31 28 26 27 30 24 32 31 34 21 22 24 34 25 28 20 30 19 34 26 27
35 36 28 27 24 22 25 37 21 24 37 32 31 26 32 28 32 30 27 37 32 28 19 31 34 27 33 19 25 24 22 37 24 32 31 27 20 18 24 35 27 32 21 31 26 27 36 32 26 21 20 27 34 35 18 23 30 22 28 22 24 22 36 31
19 23 34 33 22 29 37 20 37 31 19 26 24 23 22 23 29 19 25 37 35 23 23 23 33 28 19 22 18 34 26 30 23 26 20 24 35 27 38 33 24 18 30 20 36 24 36 35 19 27 26 38 20 29 34 38 33 33 26 19 23 19 36 36
19 32 34 35 27 30 30 27 30 28 27 20 35 33 32 29 25 30 31 29 26 32 33 25 22 35 23 26 20 34 29 27 31 38 19 30 19 22 36 35 19 36 33 37 35 25 23 36 30 38 34 22 37 28 37 23 37 27 23 18 33 34 36 34
38 25 26 18 33 28 34 35 20 34 26 32 32 19 28 38 20 20 31 27 19 23 18 25 36 23 21 27 32 23 22 30 26 26 32 19 29 29 28 30 35 33 34 35 26 29 37 22 29 30 32 28 31 27 19 35 37 36 23 22 37 29 23 24
20 21 21 38 36 36 20 26 20 18 27 19 21 21 26 37 32 26 24 34 30 32 26 18 35 29 23 25 27 31 29 38 33 28 30 19 29 26 22 32 31 27 28 22 31 35 20 24 20 34 36 33 21 35 31 38 34 26 31 22 23 27 31 34
26 32 37 29 27 24 34 37 27 26 21 24 31 23 19 30 22 28 19 36 21 24 28 22 22 23 29 36 36 28 19 35 38 32 37 33 18 26 35 21 37 34 20 19 25 21 29 27 20 19 21 34 33 22 38 35 35 36 32 29 32 30 26 24
21 31 29 25 35 38 27 24 27 21 18 36 28 20 36 20 26 22 19 35 34 31 36 20 20 38 19 18 31 26 31 33 23 31 22 29 28 19 29 18 19 23 30 29 19 27 26 34 30 35 19 23 38 26 37 38 24 24 31 38 26 30 24 26
36 20 38 30 30 34 28 21 31 37 34 33 25 35 31 30 31 31 35 20 21 38 26 18 24 23 35 18 27 32 29 29 25 25 35 24 21 36 27 27 27 37 20 31 26 19 18 29 35 24 25 33 33 35 30 29 23 37 20 36 37 36 27 31
