P2
64 64
255
22 22 16 21 21 19 22 20 18 17 22 19 20 23 26 17 19 25 14 19 16 15 19 25 14 20 16 19 19 25 20 23 19 20 23 16 16 16 24 19 18 19 18 22 20 22 15 20 22 24 16 15 24 19 26 26 14 19 16 19 17 15 15 25
19 21 19 21 22 20 25 23 17 21 21 22 17 25 20 22 15 25 25 19 15 19 23 19 15 15 15 16 15 22 25 14 21 15 24 23 23 14 15 19 24 18 21 23 22 22 20 25 16 19 19 22 19 24 14 20 18 17 24 25 21 23 15 17
23 26 21 23 24 19 22 24 17 19 19 18 26 23 26 21 22 24 24 22 23 23 21 24 18 26 18 25 23 25 23 17 25 17 18 14 14 18 25 23 18 25 20 20 26 19 26 24 25 19 15 26 17 17 19 14 19 18 18 24 23 23 19 19
17 15 19 23 18 16 22 22 16 21 18 18 19 23 25 17 21 21 23 22 17 18 24 23 20 18 21 16 18 25 23 22 22 14 14 18 21 18 24 17 22 26 23 26 22 19 15 24 24 17 14 21 20 20 23 17 25 19 16 22 15 17 23 16
23 25 16 17 26 16 14 25 17 25 21 24 26 15 25 25 14 24 19 22 23 24 19 22 15 20 21 21 22 15 14 22 21 26 20 25 16 18 14 17 24 21 21 25 17 22 15 17 17 15 22 25 22 19 17 24 17 14 17 18 19 18 21 16
24 16 15 14 15 16 24 22 22 20 14 20 14 18 17 18 18 24 15 22 16 24 18 14 24 16 16 25 24 24 16 20 20 19 18 17 18 18 24 18 26 23 24 15 23 24 22 26 14 22 22 22 20 19 17 18 16 24 24 26 19 20 15 24
23 16 15 26 21 21 21 21 26 21 20 17 14 23 22 18 25 22 21 21 23 22 14 24 26 20 15 17 22 20 20 21 22 18 16 26 20 24 16 23 14 26 26 17 25 25 18 17 16 16 25 22 26 22 22 18 17 25 26 22 14 18 22 15
17 16 17 16 14 19 26 17 15 15 19 17 23 21 16 19 17 14 18 25 20 25 19 22 20 25 23 17 17 23 20 19 20 16 24 15 15 19 18 17 18 26 25 23 22 24 19 23 14 21 18 25 15 25 20 16 26 23 14 17 20 14 26 25
16 14 20 15 19 21 18 19 20 26 15 18 20 17 24 18 18 21 26 26 16 19 21 19 16 15 25 17 25 21 23 14 21 21 16 26 25 17 16 24 21 15 22 15 25 14 18 21 18 16 19 24 15 21 19 17 23 26 25 16 14 23 25 19
20 26 26 24 19 14 24 16 15 18 16 19 17 22 15 19 24 22 24 24 22 22 20 26 24 26 18 25 20 22 24 24 18 18 24 23 24 24 17 16 25 25 16 20 21 22 25 19 16 26 23 24 19 24 15 16 18 22 19 22 26 16 18 16
15 22 24 15 19 15 24 15 23 16 22 16 25 21 14 19 18 14 18 20 18 22 20 15 25 18 19 18 18 19 16 21 22 18 16 15 16 20 23 23 17 16 18 19 16 23 21 26 17 17 18 15 14 23 24 25 23 18 19 22 14 18 23 19
24 21 24 23 24 17 23 25 24 19 16 26 26 23 23 17 17 23 18 19 19 21 14 15 22 17 25 26 26 15 17 18 20 22 21 22 22 21 24 22 24 24 16 14 24 14 24 16 18 24 25 25 20 22 25 24 26 25 17 22 25 14 17 25
20 25 25 24 14 26 16 16 18 20 20 24 23 25 16 23 19 24 23 24 20 14 25 14 18 20 22 23 24 23 17 22 23 14 15 20 25 21 26 16 23 26 20 16 22 26 23 23 24 14 19 21 26 25 25 24 14 21 20 17 20 26 23 18
24 19 18 19 24 25 26 17 22 26 18 19 24 14 19 26 23 25 20 15 14 24 25 24 20 18 19 19 22 14 17 18 16 17 23 24 25 17 26 23 26 21 20 21 21 14 22 24 15 18 15 20 14 15 25 24 16 20 17 24 26 15 20 21
18 26 26 23 21 26 17 25 23 20 20 25 26 26 24 26 20 14 19 14 18 26 21 20 17 14 19 24 14 19 20 20 14 22 16 26 25 21 23 17 25 25 20 14 25 15 15 25 25 20 21 15 20 22 24 15 21 26 25 23 16 22 16 16
21 17 14 22 16 14 22 24 26 20 19 24 25 14 20 24 23 20 17 18 19 14 21 14 19 25 15 19 19 18 26 21 23 24 24 20 20 25 18 19 16 17 25 20 18 17 14 17 18 23 15 15 25 15 16 25 25 22 15 26 17 16 25 19
18 26 20 23 24 22 18 24 21 18 23 14 15 22 14 19 20 16 21 20 16 17 18 21 22 19 25 25 25 20 16 26 21 20 25 19 19 14 21 16 23 21 21 21 17 23 19 22 21 22 25 23 21 20 24 26 17 17 24 19 24 18 25 14
14 21 21 22 23 25 26 14 18 24 26 26 14 18 24 21 21 23 23 19 18 19 17 21 24 17 25 25 20 23 20 14 22 23 26 20 21 14 17 22 14 16 16 19 21 19 14 21 19 19 15 25 17 19 17 25 22 18 24 22 17 18 20 18
14 19 22 20 19 25 19 18 26 19 19 16 26 23 20 19 25 18 16 22 26 17 26 21 15 14 17 25 16 14 17 15 18 16 20 16 19 14 15 26 14 24 20 22 19 17 23 24 17 17 17 17 15 15 15 16 22 18 23 20 20 15 21 26
17 16 20 24 17 16 25 26 17 19 17 23 16 18 20 19 26 21 25 27 23 26 25 28 17 23 23 16 14 17 26 16 25 23 20 20 14 17 20 16 28 28 29 24 18 23 22 23 17 21 24 18 21 23 23 14 22 16 23 19 14 16 21 21
15 23 16 22 25 16 21 18 16 25 21 23 15 21 25 24 24 21 25 30 33 26 22 25 25 27 21 19 22 19 26 23 17 15 15 14 20 25 23 30 20 32 23 34 25 21 21 27 30 17 22 15 20 25 24 22 25 17 22 22 22 20 15 26
21 20 20 22 21 17 21 22 24 14 16 25 24 27 20 30 22 32 36 25 36 25 34 31 28 32 24 27 18 14 20 20 19 19 14 17 18 19 31 31 35 33 31 33 26 27 28 29 23 24 22 19 22 26 25 15 19 17 24 24 21 17 19 14
24 21 17 24 22 25 25 25 16 21 17 22 28 26 30 24 36 30 31 36 35 37 39 29 31 37 33 23 20 20 15 19 25 18 25 26 26 34 34 28 32 31 33 32 30 33 30 28 26 24 31 25 27 15 24 23 16 22 25 24 15 22 16 21
24 24 22 16 24 18 23 22 24 21 20 19 23 33 36 35 30 35 36 41 35 42 39 37 31 37 37 36 26 32 20 26 20 18 17 23 34 36 39 34 36 37 34 38 38 42 42 32 32 27 28 33 30 29 26 22 18 20 16 21 14 26 15 21
25 21 18 21 16 14 16 22 26 18 19 28 35 32 40 31 42 36 37 42 41 41 41 48 40 37 40 28 37 33 25 22 16 28 30 30 31 34 42 40 39 38 41 40 48 44 47 40 42 34 30 37 25 32 26 20 15 15 20 23 18 19 17 20
18 25 25 14 22 19 24 17 24 20 30 23 32 36 33 39 46 42 47 47 47 45 46 39 43 47 44 43 40 33 23 20 19 23 28 35 39 43 39 45 39 46 52 44 46 43 50 44 41 46 36 38 34 31 31 23 23 21 26 25 21 26 16 14
15 25 21 26 20 23 25 25 16 18 21 32 29 35 44 43 46 49 47 54 50 50 46 49 53 47 40 46 41 29 26 22 23 27 34 37 43 35 48 49 42 46 51 51 54 44 52 46 43 38 46 38 40 27 22 23 20 25 26 22 14 24 15 21
16 22 20 23 15 15 22 17 23 22 27 37 31 36 46 47 53 53 53 59 57 61 52 59 51 45 39 38 40 36 31 36 31 32 35 38 35 36 41 42 53 49 58 58 61 54 59 52 50 40 38 39 33 38 29 25 23 21 14 14 24 16 17 16
26 22 23 18 22 14 16 20 27 31 27 36 39 40 40 46 46 55 53 53 61 53 59 50 55 56 44 40 38 37 28 36 28 28 39 42 40 41 53 51 56 62 58 54 55 53 62 55 51 54 47 38 44 28 27 22 28 15 24 23 16 17 24 19
14 17 25 17 19 16 16 19 30 23 37 36 40 47 52 47 58 51 62 61 57 66 63 55 51 48 52 45 38 35 40 39 42 32 32 44 39 41 51 50 52 63 64 68 66 57 64 57 48 45 45 39 44 40 30 22 29 24 19 16 17 26 20 17
24 22 24 14 25 21 17 27 28 29 32 43 36 49 50 49 50 59 67 71 65 69 66 58 56 57 50 49 48 40 36 32 44 36 37 40 43 43 50 53 58 58 68 61 65 65 56 54 53 57 45 43 46 37 27 28 27 16 26 26 14 15 16 22
14 19 22 22 15 18 23 27 24 32 35 37 44 47 47 50 58 61 70 71 76 74 62 65 63 56 59 49 44 35 43 40 32 36 41 37 48 55 53 53 65 68 71 74 76 64 66 54 56 59 50 44 36 41 28 33 26 21 17 16 21 21 15 19
22 18 16 24 17 18 24 16 32 24 35 37 44 43 55 58 57 62 64 70 67 69 68 65 65 62 48 51 40 47 42 37 44 33 42 36 46 50 48 59 61 64 68 69 76 63 62 64 59 54 46 46 46 31 33 36 25 24 25 22 20 18 18 21
24 17 23 17 23 18 16 26 25 28 34 39 41 45 50 57 61 61 61 70 72 64 69 67 62 52 48 55 42 36 42 41 40 36 43 45 51 54 51 53 59 70 69 65 66 64 63 65 55 57 49 48 43 38 33 26 24 27 26 26 24 16 26 21
17 25 15 21 16 26 24 19 29 26 35 35 46 39 42 46 56 64 62 64 67 67 71 68 53 58 49 48 38 35 43 34 39 38 34 40 41 50 50 59 65 66 62 64 71 65 68 59 54 55 43 42 40 42 33 26 29 27 15 21 18 17 14 24
20 15 19 18 20 19 15 17 27 23 27 32 39 47 49 52 49 52 55 67 62 67 60 56 53 47 52 41 41 45 39 33 35 41 30 43 44 46 55 50 54 55 67 63 67 57 65 52 59 52 45 37 45 37 36 32 28 23 24 25 17 16 26 18
22 23 15 15 17 22 21 19 19 33 25 35 43 39 51 42 51 59 55 54 63 65 62 52 60 57 46 47 47 34 40 36 29 31 29 39 40 39 54 54 56 55 64 53 63 53 51 48 56 47 42 35 36 34 34 25 27 16 15 15 23 23 15 24
24 22 20 19 17 22 22 20 22 22 32 38 31 39 41 43 50 50 58 56 59 60 55 51 50 42 39 45 44 41 37 35 31 35 29 30 42 37 41 44 52 55 53 60 52 54 56 46 42 50 40 42 39 29 25 30 16 19 19 23 15 21 16 16
17 20 15 25 16 16 26 14 17 29 22 30 37 37 42 41 40 52 45 49 46 46 49 48 48 49 42 39 35 34 37 24 27 28 30 29 40 45 44 40 52 45 56 45 55 52 48 43 51 48 35 38 36 28 30 26 21 21 16 19 21 15 18 20
28 19 23 25 20 23 26 27 20 24 23 33 32 38 35 48 51 51 48 53 54 53 54 43 45 43 41 42 41 36 37 31 29 36 28 30 41 38 40 52 46 45 53 57 57 48 44 53 48 50 46 36 38 40 28 28 22 23 20 23 22 23 27 21
32 22 28 25 21 32 28 32 30 28 27 28 39 40 42 39 47 53 46 55 54 55 49 57 43 45 46 49 38 41 36 31 30 39 36 36 44 50 43 51 47 47 56 57 50 60 52 46 50 54 49 48 42 38 33 28 34 33 26 36 39 30 33 30
26 31 29 35 29 34 27 25 31 27 35 37 37 37 37 45 43 53 44 52 48 57 48 53 54 54 47 42 44 46 32 39 36 35 33 44 44 41 46 56 53 50 50 58 55 55 55 54 53 46 49 41 46 38 40 38 34 43 43 37 35 34 34 43
26 28 23 23 26 29 26 25 31 22 27 23 28 32 39 35 46 40 36 43 37 42 46 45 45 40 43 35 32 35 32 28 23 27 33 29 34 39 34 37 41 43 43 46 51 40 39 47 43 38 45 31 38 33 35 37 34 29 27 27 33 38 35 36
27 18 29 20 27 24 18 27 29 29 24 21 22 23 26 30 38 35 39 29 30 30 35 39 35 38 31 31 31 25 19 29 23 25 19 27 21 35 37 31 30 31 37 33 39 36 38 29 30 34 31 29 31 21 20 21 20 22 27 24 21 23 29 21
25 19 23 20 20 16 18 21 26 18 20 15 23 15 25 18 25 27 29 33 24 29 33 22 29 22 27 27 26 21 16 17 24 26 26 18 24 27 28 19 26 22 31 24 34 33 21 26 25 27 21 17 19 26 14 17 18 15 24 19 21 26 16 18
17 15 24 18 20 24 19 14 25 15 24 26 23 24 15 24 16 17 22 24 22 24 24 26 23 17 19 19 15 25 23 15 16 14 24 20 18 25 19 16 27 21 18 27 21 26 23 19 19 21 23 15 19 24 22 23 17 17 19 23 18 26 19 17
24 24 19 21 14 25 19 14 24 26 15 26 20 14 25 22 26 23 23 26 20 22 26 24 20 20 21 15 18 19 17 19 20 16 21 25 20 25 23 25 18 18 22 17 17 20 15 19 22 17 26 26 23 22 24 15 26 18 18 26 17 26 17 26
23 24 22 19 26 15 14 22 23 17 20 24 17 19 22 25 23 22 21 19 22 26 19 16 21 14 14 15 17 25 21 15 26 23 24 16 23 23 25 19 15 26 15 24 20 19 20 19 18 17 15 21 26 20 23 23 21 19 24 16 20 20 20 24
26 23 21 20 26 25 20 14 26 14 23 25 25 20 15 24 23 25 17 24 25 20 14 19 25 14 14 15 20 14 16 26 24 19 20 19 16 25 15 18 24 19 21 26 17 16 18 26 17 18 24 16 24 20 20 25 15 23 20 15 17 17 16 15
18 25 22 16 14 25 16 20 25 23 23 24 24 17 22 21 18 14 22 20 15 19 26 16 24 22 16 14 17 16 14 14 23 16 15 15 24 14 16 14 24 26 16 22 16 24 18 23 19 26 18 17 25 23 17 21 20 14 18 17 16 23 21 24
22 24 24 22 18 17 23 17 26 14 20 19 22 14 23 18 26 22 20 21 20 16 20 24 19 22 21 18 23 20 14 23 15 14 21 24 19 15 18 19 23 21 24 18 24 25 24 15 24 22 19 16 16 15 14 25 20 26 19 24 22 16 23 17
26 25 23 26 25 19 24 26 24 22 23 21 20 18 24 22 25 16 25 21 16 16 15 18 22 25 19 19 21 17 20 14 21 19 18 21 25 24 19 23 21 23 23 19 26 26 18 20 26 21 18 22 23 21 26 17 23 16 20 22 15 25 22 25
22 19 25 24 18 25 17 17 21 22 23 21 17 24 20 15 18 26 19 21 25 17 21 24 17 23 18 20 22 21 22 21 25 18 26 19 26 23 26 21 16 20 23 21 18 17 19 23 17 22 24 26 22 23 21 23 16 24 16 22 21 25 26 14
14 18 18 25 21 24 17 22 17 26 26 22 26 14 14 20 17 23 18 16 15 26 24 26 14 23 20 17 17 24 23 23 16 26 23 23 19 16 22 19 24 14 22 22 23 21 17 17 25 26 22 18 23 21 24 21 18 25 19 26 25 16 24 25
26 16 15 15 21 25 24 25 26 17 15 16 15 23 24 26 18 26 17 19 26 18 24 20 25 23 16 24 26 23 17 26 23 22 25 19 26 18 16 24 14 15 15 14 22 22 17 23 25 25 20 20 23 17 26 18 21 18 24 20 15 26 15 25
18 23 23 24 22 25 19 18 24 14 20 18 24 20 23 22 18 17 24 17 25 17 22 20 15 25 17 18 16 25 22 23 15 16 22 15 18 17 14 26 25 21 19 22 25 21 20 17 21 18 14 23 17 19 26 22 20 20 23 24 22 26 16 21
15 14 21 20 18 19 17 14 24 18 25 15 26 15 15 16 21 19 26 26 26 17 20 17 24 23 24 23 19 19 14 17 22 22 26 21 20 20 22 25 18 24 18 17 20 14 14 19 26 14 20 23 20 24 15 22 22 24 24 26 14 21 17 14
17 17 24 19 26 24 17 23 18 15 26 23 23 15 19 19 20 21 24 24 15 22 21 15 17 14 14 14 23 26 22 22 25 15 16 24 17 23 14 24 21 23 24 15 24 22 14 23 23 18 25 18 17 22 20 26 20 20 21 15 21 26 23 22
14 18 20 24 19 22 19 26 20 21 25 24 18 25 17 18 15 17 24 15 25 24 18 17 18 19 18 19 22 21 25 17 21 20 15 21 20 20 15 25 21 16 25 14 21 15 25 24 26 19 24 26 18 18 23 24 26 18 24 21 25 20 24 18
26 16 22 26 25 19 23 17 21 23 19 24 14 22 19 25 17 16 15 14 26 23 25 25 23 24 16 22 18 22 14 20 25 25 24 26 21 22 22 23 17 20 14 14 22 18 26 20 15 23 14 20 14 25 22 17 18 15 24 25 20 21 17 24
20 15 23 19 22 20 19 25 26 19 26 23 18 26 19 24 15 16 19 26 14 20 19 19 21 25 23 26 19 26 16 14 17 26 21 23 21 16 16 23 18 16 17 15 26 20 19 24 23 20 18 19 25 26 14 17 25 25 18 23 24 25 23 20
20 22 18 16 23 22 15 15 25 14 17 25 24 24 15 20 25 17 20 15 24 16 23 18 17 14 26 20 17 24 18 19 20 20 23 14 15 23 24 18 20 20 23 16 25 18 14 17 19 20 17 23 15 15 26 15 22 20 17 15 25 26 23 26
17 17 23 18 20 24 15 24 19 19 23 16 18 21 14 15 24 15 19 21 23 16 16 18 26 19 14 14 25 21 18 25 19 18 18 14 19 16 24 24 19 22 20 15 19 21 24 25 16 20 23 18 24 17 26 24 22 14 24 20 14 19 15 24
26 17 14 20 23 21 23 26 20 16 19 18 14 14 24 26 14 19 21 24 17 16 21 15 21 14 21 22 22 19 23 25 20 18 22 22 17 17 18 24 16 15 17 15 15 26 26 26 22 25 17 17 17 15 23 19 15 18 15 17 19 22 19 23
