P2
64 64
255
19 19 18 23 17 24 22 15 18 18 25 17 22 22 15 25 14 22 21 15 19 14 24 19 26 26 17 18 14 16 16 15 25 21 20 24 22 16 21 15 24 20 14 23 16 24 19 17 16 26 19 19 17 25 20 19 25 24 21 24 17 17 20 20
24 21 20 17 17 26 15 21 16 14 25 19 16 19 23 21 21 22 16 22 24 14 16 24 21 26 17 19 18 25 15 18 22 20 19 20 17 15 20 21 25 14 17 20 16 16 21 18 19 26 25 18 22 24 26 20 16 17 16 23 17 24 17 21
21 23 21 17 17 20 17 16 16 24 18 15 26 25 20 18 26 20 16 20 18 19 17 19 24 15 19 14 16 26 17 20 21 25 19 16 23 21 19 19 25 23 15 18 23 24 23 22 16 19 24 21 24 19 24 15 21 24 15 18 17 20 25 14
18 18 14 26 15 14 20 17 22 17 24 16 26 15 16 19 18 25 15 15 16 14 17 23 25 19 16 19 14 22 16 25 17 21 23 14 23 20 17 15 25 23 23 14 21 14 21 23 15 20 21 21 19 20 22 22 22 20 15 19 15 20 23 25
14 22 20 26 19 24 20 19 19 24 23 23 25 18 23 26 24 14 20 16 15 14 23 21 16 14 23 23 25 14 24 22 22 17 17 16 23 25 24 24 21 16 18 23 16 17 18 15 25 20 16 20 17 14 25 22 18 20 25 25 23 14 17 22
18 23 19 18 21 17 14 17 23 22 16 18 19 16 14 23 19 22 17 25 23 21 20 21 23 23 18 15 17 25 20 14 15 25 14 24 26 23 17 18 14 15 16 14 25 17 18 14 25 26 15 25 21 22 19 18 14 22 21 16 24 25 17 25
18 20 18 20 17 17 24 19 22 15 24 21 16 21 23 17 23 17 25 17 22 22 16 16 25 22 21 21 16 14 18 16 19 17 14 24 19 25 22 16 16 16 16 21 14 25 23 14 21 20 26 23 17 15 24 16 25 19 15 22 15 25 20 26
17 23 23 24 26 16 20 17 22 25 14 19 17 19 26 19 23 22 14 14 21 20 25 26 24 19 14 21 21 22 24 25 23 14 18 25 18 23 23 22 26 14 24 22 23 24 21 25 16 14 18 24 14 23 21 25 15 21 17 24 17 22 23 17
22 19 14 16 15 14 24 14 16 23 16 23 18 19 18 19 23 18 21 22 15 19 21 22 23 17 15 16 16 21 24 22 22 16 26 24 16 15 23 21 15 25 18 16 15 17 21 15 26 25 21 15 14 19 14 20 20 16 26 26 19 17 15 17
24 25 23 22 23 17 16 21 25 22 22 25 15 25 17 18 20 17 23 16 18 22 17 22 24 19 23 21 26 25 19 16 25 23 20 24 17 21 22 25 17 19 21 24 26 16 26 15 25 20 16 23 25 21 22 19 21 15 22 23 19 26 17 23
15 16 17 25 15 19 23 16 23 16 17 23 15 25 18 19 20 20 18 22 24 22 20 17 14 24 17 23 21 25 24 19 18 15 22 21 22 26 16 16 15 14 25 20 18 22 26 20 18 14 16 17 20 18 25 25 22 17 15 21 19 19 19 14
26 15 24 14 15 25 18 24 16 18 17 19 22 20 24 24 22 20 17 19 16 19 18 17 14 20 18 15 26 17 24 16 23 19 17 17 25 14 25 24 16 16 23 22 23 24 18 21 15 24 18 22 18 20 26 22 14 16 17 14 24 25 20 22
14 16 22 19 22 19 23 23 20 24 19 19 24 16 24 21 22 23 25 25 21 20 20 16 23 14 20 19 24 15 22 18 25 16 14 24 16 22 21 26 18 17 26 22 23 18 26 19 20 21 24 18 23 26 15 21 14 23 25 21 15 25 25 15
22 20 26 24 24 19 21 25 18 21 25 21 19 19 14 14 15 15 25 18 26 16 16 20 18 14 14 20 19 20 22 17 26 17 22 24 14 22 14 15 22 22 15 15 23 18 18 18 15 15 19 16 15 19 21 17 24 18 17 20 21 16 19 16
21 17 17 26 26 21 16 25 16 18 15 21 22 22 19 25 24 19 16 24 14 21 21 21 24 23 17 17 24 18 17 18 24 21 26 18 23 21 20 18 22 18 20 23 19 22 16 19 23 25 26 14 18 19 26 21 17 26 18 25 19 20 25 24
15 20 25 19 15 21 20 20 23 20 21 26 14 22 25 16 19 14 14 23 18 20 21 18 15 16 16 21 23 26 17 20 20 21 19 14 21 19 22 17 15 20 14 25 21 18 15 19 18 19 26 16 26 15 25 23 23 26 14 17 17 19 16 16
17 14 14 17 21 15 23 18 17 26 21 15 20 19 19 15 24 15 25 24 25 25 16 16 17 15 21 17 17 24 14 16 26 25 19 22 19 24 25 26 25 15 18 24 25 22 17 14 16 19 22 22 22 15 23 23 15 16 25 23 25 19 14 15
23 25 25 22 26 22 18 25 23 15 22 16 23 19 24 18 15 26 24 20 23 25 26 19 18 15 18 21 14 23 25 17 17 23 15 26 17 26 20 21 17 18 25 24 23 20 25 16 20 26 21 14 18 25 20 22 25 25 15 17 20 16 17 19
22 15 15 21 26 14 24 24 21 24 16 18 17 20 21 16 24 25 14 14 25 25 25 24 21 18 19 15 25 15 17 26 19 21 19 21 15 14 21 24 18 21 14 17 23 22 23 25 14 15 20 15 17 23 20 23 16 26 18 24 18 21 24 21
18 14 25 16 18 19 24 25 23 26 19 26 15 22 23 21 20 25 28 21 25 24 20 23 17 24 17 21 15 22 20 19 18 17 24 18 25 15 14 20 28 28 20 22 29 21 27 20 24 19 14 24 21 20 21 14 14 23 25 16 18 18 26 19
20 14 22 20 22 17 22 14 15 25 14 25 23 16 17 29 23 28 21 21 32 34 21 26 31 25 27 15 19 25 14 15 15 20 15 25 25 15 29 20 27 27 22 31 27 28 29 25 26 22 20 26 24 14 19 16 16 20 16 15 26 19 20 18
20 26 25 26 24 25 21 25 26 22 25 21 21 28 30 20 32 35 33 26 26 37 31 25 28 26 21 30 18 16 17 24 25 19 25 23 25 28 23 27 28 29 28 36 29 34 25 27 26 20 31 19 21 19 24 17 19 24 19 24 14 21 20 14
22 20 15 26 24 24 21 15 14 17 24 18 17 20 34 27 32 28 28 38 32 32 29 29 28 30 25 34 28 31 27 31 28 35 23 33 36 32 35 30 34 28 33 35 36 41 40 32 34 34 31 24 18 25 22 21 23 25 14 16 24 24 23 14
21 14 16 23 17 21 23 21 21 20 17 29 22 34 26 30 32 31 41 37 39 40 42 43 43 34 45 37 39 42 36 35 34 31 31 40 42 40 43 40 39 37 34 42 36 42 37 39 32 29 27 35 29 24 15 16 14 20 16 21 21 20 16 15
22 22 26 18 24 16 17 21 15 18 24 26 33 29 28 33 39 43 44 46 40 46 41 39 51 54 45 46 55 49 51 47 39 43 42 47 49 53 48 43 45 48 43 46 42 37 41 37 38 38 40 30 29 31 29 24 25 22 17 21 26 14 26 17
18 20 21 14 16 18 25 20 24 21 24 33 36 35 32 44 37 44 39 51 41 51 44 54 53 53 54 53 57 55 58 58 49 47 58 52 57 59 60 59 59 49 53 43 52 46 44 38 36 45 36 28 38 26 21 22 24 26 15 15 21 19 20 14
26 14 23 26 17 26 25 15 21 18 21 25 35 34 40 41 39 50 48 44 51 57 61 57 65 65 65 66 65 67 64 55 59 55 57 64 72 68 60 59 57 65 58 59 56 50 47 41 47 40 35 38 37 31 28 23 18 23 23 22 21 19 24 25
16 21 21 17 17 23 25 26 27 20 23 38 42 35 41 40 44 52 59 59 51 65 60 75 66 70 69 72 77 71 70 74 74 71 66 79 72 68 78 75 76 67 72 58 52 58 54 47 47 48 48 45 32 34 30 26 25 25 16 24 16 18 19 24
22 17 14 19 17 25 16 14 20 28 28 31 39 39 44 50 52 54 54 59 67 76 72 82 84 79 86 79 83 80 74 80 82 77 80 87 75 79 84 75 84 71 73 73 71 62 52 60 46 43 49 39 34 31 37 32 23 24 23 15 18 24 17 25
25 15 14 20 16 24 15 20 23 26 30 31 38 47 46 47 49 61 54 71 75 77 76 87 84 90 85 92 88 83 89 82 86 84 86 81 82 82 92 90 90 89 76 83 78 71 56 59 56 47 47 38 44 39 35 32 19 22 25 24 15 17 24 16
20 24 14 14 19 20 26 15 31 25 33 34 39 44 44 51 59 64 66 67 74 86 83 90 94 94 93 93 89 97 91 100 100 102 89 90 97 95 101 88 94 94 94 88 73 68 68 62 56 48 45 40 42 39 30 34 22 24 16 14 22 21 14 14
19 19 26 26 22 26 25 21 21 32 37 35 36 50 47 54 53 63 68 78 89 85 90 95 97 100 101 104 103 100 96 108 105 99 95 96 106 99 94 104 96 95 95 92 90 78 70 56 62 50 54 45 36 38 38 30 22 24 24 24 17 15 21 16
15 15 24 24 19 19 26 16 24 31 30 32 41 39 44 48 56 63 72 80 84 93 101 101 103 103 103 100 109 108 104 115 114 113 113 101 105 101 99 106 107 94 99 91 94 77 68 66 59 51 48 51 43 32 38 24 30 16 19 22 26 15 22 21
17 15 23 24 23 17 15 16 27 28 33 33 47 45 51 56 60 58 66 81 86 91 97 105 106 104 100 106 104 104 109 112 115 116 112 112 105 112 107 101 99 100 97 88 86 76 71 63 53 57 45 40 35 34 36 24 20 22 19 15 19 22 17 21
14 18 15 26 16 20 23 17 27 26 37 37 41 40 47 56 52 56 67 72 87 96 97 95 97 108 114 114 108 110 116 118 125 117 117 117 108 111 108 101 105 104 99 91 82 83 64 66 51 54 45 47 38 42 27 25 23 23 17 22 16 24 24 14
22 19 15 18 15 18 17 15 18 22 28 30 33 46 46 44 55 62 67 70 85 88 99 93 96 98 110 110 108 116 121 117 119 119 121 111 110 110 104 98 107 98 89 92 78 77 73 57 47 54 49 38 41 34 32 34 19 24 14 20 19 24 23 18
14 21 25 16 15 15 16 17 25 22 32 28 35 39 41 54 52 53 59 77 82 81 89 94 104 101 104 110 116 118 116 116 124 124 120 116 117 106 102 101 100 89 96 87 76 77 70 53 54 53 47 47 33 38 31 33 17 14 15 20 17 21 15 25
19 25 24 22 26 24 20 21 17 21 26 39 31 45 46 52 49 51 56 63 74 76 82 86 96 99 97 103 105 108 107 117 115 114 109 108 103 110 98 97 99 89 82 84 74 73 58 48 50 48 44 41 41 28 27 20 21 24 18 17 18 24 25 22
19 26 18 16 15 22 14 15 20 25 30 25 31 41 39 37 49 47 54 62 64 72 86 84 86 90 101 107 103 104 112 106 113 102 113 101 106 107 96 97 94 88 79 70 67 68 53 48 40 49 42 40 36 28 28 27 15 21 15 22 15 25 25 23
22 20 19 26 23 24 15 20 26 21 29 23 37 38 34 34 40 40 51 57 71 73 71 84 79 87 90 93 97 98 102 97 102 100 96 104 93 99 88 84 80 86 79 65 64 57 56 43 47 45 38 30 35 26 25 24 23 20 22 26 17 23 25 17
25 23 14 23 19 19 18 17 21 26 20 31 30 28 40 32 43 45 44 51 61 62 69 76 76 78 84 93 91 88 96 91 93 90 91 90 87 87 84 85 82 70 65 60 60 53 51 34 33 39 32 27 30 22 18 22 18 19 23 25 16 21 26 22
24 25 22 26 21 19 14 14 23 17 21 25 21 30 26 31 32 42 37 50 50 58 66 68 72 76 83 78 77 85 84 80 77 82 78 86 87 80 75 70 74 73 65 61 47 52 44 34 30 30 31 27 22 22 20 15 24 26 23 16 25 19 15 20
16 14 14 16 18 14 23 25 18 20 17 20 28 26 28 31 36 29 35 47 43 50 55 66 67 72 65 70 70 75 74 73 71 74 78 80 79 76 65 72 68 58 57 49 41 37 31 38 29 31 27 31 27 27 22 26 16 14 20 20 22 23 20 19
17 18 21 24 18 23 15 24 24 26 24 21 22 23 24 24 32 30 24 32 39 45 53 52 53 58 59 71 67 61 67 75 64 66 63 62 60 69 59 58 60 47 45 41 38 29 30 28 29 32 30 28 26 16 14 22 19 14 26 26 16 20 22 18
18 16 23 15 21 20 24 22 26 14 22 22 24 25 23 24 24 27 23 22 33 38 38 42 48 52 58 56 54 62 64 66 65 61 65 62 52 59 52 48 50 51 48 39 27 21 30 25 24 19 21 16 20 15 16 15 16 25 20 18 14 14 17 22
14 24 14 17 22 20 16 19 15 22 18 16 16 20 16 19 18 16 23 18 24 32 35 43 43 39 52 48 53 57 54 57 55 56 57 57 52 53 49 48 38 40 29 29 27 20 19 24 27 18 22 16 15 25 14 21 15 19 18 24 20 25 20 20
18 14 18 17 19 25 26 21 23 15 14 25 17 22 19 24 18 14 22 21 25 26 26 30 32 39 37 38 51 46 55 52 51 54 53 55 43 50 45 44 39 25 21 21 21 22 19 22 20 19 21 23 16 14 19 16 20 19 26 20 21 21 14 19
15 16 23 18 15 18 16 23 18 16 23 17 16 26 17 26 19 25 26 15 18 22 19 31 24 34 31 41 44 39 46 46 44 44 45 42 35 33 36 34 26 22 18 15 14 23 17 19 18 24 23 14 25 22 24 25 15 19 14 24 19 14 24 25
19 17 22 26 20 22 21 18 23 25 18 21 16 25 23 24 20 23 22 24 23 21 20 18 26 23 33 38 41 36 34 33 37 38 38 35 38 36 36 23 26 26 20 21 15 16 18 26 16 23 15 24 25 16 18 22 23 21 26 15 22 25 14 22
16 17 25 19 17 20 17 24 22 26 17 15 25 26 14 19 15 19 16 19 21 14 25 22 24 26 29 33 28 30 26 39 33 30 34 30 34 23 30 22 25 25 22 15 24 26 19 16 15 19 15 16 22 18 22 19 24 17 14 26 21 19 20 19
15 19 16 23 23 22 22 19 22 19 21 20 23 14 26 20 15 20 25 16 22 17 23 16 19 17 15 23 28 19 27 22 25 26 30 30 24 26 26 22 17 14 21 18 20 15 23 20 19 21 14 24 26 15 25 15 20 16 23 15 26 19 19 24
17 14 20 26 17 24 17 25 26 25 18 14 16 22 15 19 17 26 22 17 26 24 19 24 15 16 22 19 16 25 15 26 18 15 21 18 20 26 14 15 16 15 14 26 18 16 20 23 25 26 25 25 25 25 26 20 21 24 20 20 15 14 22 20
23 24 18 19 24 25 15 21 24 21 19 25 23 24 24 22 26 22 20 14 22 18 19 22 21 18 22 18 26 19 19 19 19 19 21 24 24 19 14 21 25 18 17 21 25 26 21 17 19 26 18 16 22 19 20 23 26 16 24 26 18 26 16 23
16 17 18 18 18 17 18 16 16 23 21 14 22 17 15 22 14 20 21 14 20 22 24 15 16 17 23 22 23 18 21 26 16 14 17 22 26 19 22 26 26 17 18 19 19 15 20 18 23 26 18 16 14 21 18 16 18 25 26 19 16 23 19 21
18 21 18 23 15 19 14 19 25 19 24 19 18 22 24 20 15 20 22 16 17 14 19 19 22 23 25 24 18 24 26 17 18 15 14 14 25 20 24 14 21 17 26 20 19 15 26 14 22 21 16 22 25 24 18 24 18 14 23 23 18 18 23 24
22 20 16 25 17 15 26 16 20 15 15 20 25 24 19 19 14 17 19 20 21 17 21 20 17 16 25 23 19 18 24 24 23 17 15 21 18 20 26 14 14 15 17 24 14 20 17 25 15 25 24 17 17 23 25 16 23 18 19 25 20 17 15 24
24 23 14 22 25 21 25 19 22 26 15 26 16 19 22 22 18 21 23 26 26 17 23 16 14 17 18 24 21 19 19 15 20 25 23 23 15 22 19 16 19 14 14 25 22 19 18 25 17 26 16 22 21 16 18 17 15 18 22 25 21 17 26 15
25 20 14 18 20 26 23 14 21 16 19 15 24 23 17 23 14 15 18 23 18 25 14 20 14 18 14 25 16 18 15 14 25 23 19 26 22 15 17 19 26 19 20 16 17 25 20 15 18 15 18 22 14 24 18 24 26 14 24 20 17 18 17 14
21 14 22 24 26 14 23 26 22 18 15 21 23 24 23 23 14 22 22 15 23 18 26 15 18 14 24 20 26 15 24 19 21 25 18 15 20 17 25 17 17 16 14 17 25 22 24 26 16 23 22 18 17 23 23 14 25 19 25 22 19 18 18 22
17 20 26 18 18 20 14 23 16 19 24 26 23 21 14 19 19 20 18 24 24 18 23 16 21 17 23 18 19 26 16 19 25 17 18 16 17 18 19 24 23 17 26 23 25 16 20 21 24 24 16 16 23 23 18 16 18 23 25 23 18 20 24 21
26 22 20 26 15 18 23 21 15 21 15 17 26 18 17 22 23 15 24 16 18 25 24 22 24 16 19 26 25 21 21 20 25 25 17 26 19 22 17 26 22 24 17 26 20 21 19 21 16 25 15 26 25 25 17 20 21 22 15 15 22 17 20 16
15 24 26 16 16 26 18 24 19 24 14 20 26 21 15 24 18 15 14 25 16 26 24 18 16 18 14 25 25 25 24 15 16 23 24 18 19 17 20 18 15 15 20 21 24 17 14 16 22 23 24 15 23 25 20 17 25 21 16 15 17 25 17 24
23 19 21 18 16 20 26 22 22 14 21 24 22 14 17 23 26 22 20 24 25 22 21 21 19 14 21 23 20 21 21 19 24 16 19 20 19 23 17 18 21 26 16 25 21 21 21 20 14 18 14 17 19 26 20 26 15 14 15 26 17 26 16 15
24 20 26 17 14 24 15 16 26 23 17 24 25 18 19 20 22 22 25 26 17 15 20 23 20 24 17 17 24 18 20 22 24 17 26 14 16 24 24 20 26 19 14 25 26 23 18 23 26 20 14 16 24 26 15 25 17 19 26 16 24 14 23 24
