P2
64 64
255
32 36 36 38 37 33 32 27 20 19 32 29 31 18 21 23 34 21 37 36 23 38 22 30 20 27 23 38 22 32 38 37 23 24 24 32 38 32 37 23 23 25 35 36 25 34 26 26 26 27 18 20 37 22 19 25 33 20 20 24 30 28 34 28
27 23 19 19 30 37 36 30 38 36 32 22 18 23 31 37 36 29 19 19 21 29 33 18 31 25 26 25 37 26 32 22 25 38 35 30 22 22 31 35 35 35 25 34 25 36 19 22 24 24 26 25 22 19 24 35 23 22 27 23 34 36 28 32
23 25 27 23 30 25 18 30 20 29 18 33 36 26 22 31 21 30 25 20 37 22 26 24 24 19 37 23 35 23 33 26 25 32 25 33 27 35 26 25 20 20 26 33 19 19 32 33 33 19 26 31 29 28 37 31 33 37 35 19 25 23 32 31
35 32 22 38 24 30 37 35 26 24 25 24 29 19 24 25 35 21 25 22 21 34 32 36 27 26 24 36 20 38 35 27 21 30 26 32 34 36 37 26 35 20 28 30 27 37 26 38 25 33 27 21 26 38 18 20 35 32 29 37 23 19 19 33
34 31 31 34 20 18 28 22 24 30 23 28 28 22 21 31 37 22 36 37 25 32 21 38 31 27 29 38 33 37 36 19 25 28 37 19 37 33 19 22 30 18 22 38 21 23 23 30 30 31 31 28 29 31 21 30 38 22 26 37 35 22 31 32
31 23 36 21 30 38 33 19 36 37 28 26 32 20 25 27 26 24 29 29 35 31 25 32 38 33 29 31 37 25 34 38 38 28 24 27 33 19 34 27 38 24 20 22 38 34 34 25 29 24 27 34 36 34 25 21 28 24 29 22 21 37 31 22
28 26 24 21 21 28 23 38 32 38 27 35 24 38 20 21 18 21 31 36 25 21 18 29 25 20 37 18 29 34 34 31 34 29 30 30 33 32 28 36 35 38 28 34 36 22 26 34 19 26 21 21 32 37 25 21 30 30 35 38 19 36 37 21
36 26 37 25 20 25 27 35 26 18 29 28 28 38 29 32 21 19 22 31 35 26 25 28 30 27 37 18 33 31 38 31 38 33 34 33 32 22 18 25 26 29 23 24 33 25 36 30 24 23 23 32 28 35 26 34 23 33 33 23 18 34 28 28
29 31 28 20 34 26 37 37 31 31 33 24 25 31 22 27 36 25 29 18 19 33 37 22 18 35 22 35 34 27 27 34 21 32 28 19 21 28 25 22 26 30 33 24 18 35 36 35 30 35 24 27 18 35 27 29 24 29 35 28 36 20 28 24
18 24 21 38 20 20 24 35 22 24 19 33 27 28 35 23 36 19 30 27 38 19 30 24 26 37 30 20 22 37 33 20 23 28 25 32 38 21 35 25 23 26 23 27 33 35 35 30 31 25 29 36 36 36 28 20 34 23 25 30 37 25 31 25
32 30 18 18 22 18 21 35 25 23 35 24 28 31 19 23 35 28 30 25 19 21 37 24 29 35 27 28 38 27 30 19 34 37 20 36 23 33 34 30 33 22 31 18 22 30 19 19 18 26 26 29 38 21 34 26 37 25 37 20 37 29 35 33
35 23 25 25 29 25 23 33 19 27 19 32 29 33 31 22 29 26 27 31 37 22 26 38 35 35 32 33 37 30 19 29 32 34 32 28 21 18 31 32 35 31 19 32 18 25 28 26 33 34 19 31 33 25 32 28 18 23 29 18 19 22 20 21
22 18 33 19 21 23 25 22 22 22 31 24 33 30 29 18 34 37 33 27 21 29 37 36 36 20 36 28 27 36 22 31 27 24 27 35 31 38 24 30 37 28 34 27 26 18 37 35 32 31 30 22 30 25 36 20 26 33 33 22 29 36 30 35
31 29 37 23 25 21 38 20 36 25 22 31 30 22 24 30 29 33 19 35 33 30 21 38 18 37 27 24 25 36 32 37 30 28 32 31 19 38 26 36 32 20 19 19 25 29 18 23 22 28 26 36 21 21 32 38 24 27 18 18 19 31 30 25
19 18 36 21 21 27 33 26 24 38 23 36 21 21 32 20 27 24 37 27 31 35 33 29 34 33 22 32 24 36 25 35 30 21 33 35 34 23 36 29 29 31 19 18 21 19 22 21 22 21 32 22 29 27 28 36 27 23 18 24 29 35 38 33
36 35 23 38 24 35 25 29 28 29 21 33 34 19 36 31 23 38 26 34 27 31 38 38 23 37 31 32 35 37 30 21 27 20 22 25 37 31 18 19 22 20 32 34 34 36 20 33 31 26 18 31 29 22 38 23 26 26 21 18 31 24 32 38
35 19 37 30 24 29 30 28 27 28 18 25 35 37 25 29 18 30 18 32 23 34 19 29 35 29 33 26 19 24 18 27 34 26 26 33 35 31 33 38 22 26 25 26 22 33 30 22 24 25 35 18 25 18 37 33 29 22 30 22 18 19 34 27
24 32 29 21 30 22 25 24 27 30 31 30 32 32 38 35 23 25 24 23 34 27 30 21 37 38 26 21 32 37 33 37 25 38 36 30 23 36 37 29 26 35 27 30 24 28 26 26 24 19 35 23 21 22 22 36 33 32 25 30 38 35 38 30
32 21 24 25 20 24 37 28 30 21 26 19 28 23 33 23 37 23 26 18 21 22 19 21 29 28 18 36 36 18 19 38 35 28 30 29 26 24 34 34 20 19 32 38 29 26 28 21 22 19 18 38 26 22 24 32 30 37 35 32 28 29 31 20
29 25 33 25 22 31 24 28 31 38 25 20 34 27 38 20 25 39 38 34 26 35 36 26 36 35 21 35 24 38 27 35 25 32 18 37 20 38 25 19 29 26 33 30 34 35 26 32 22 36 19 33 37 28 19 23 21 36 29 26 20 32 22 35
24 30 35 21 31 37 37 23 34 33 28 18 19 28 32 37 35 35 27 26 41 29 34 39 27 31 33 39 30 38 37 29 23 27 21 22 36 35 36 26 36 44 31 39 41 42 44 27 25 34 33 36 34 29 21 23 20 27 38 22 33 21 22 19
20 33 26 20 20 29 24 25 32 21 34 37 19 32 37 26 44 43 29 40 44 44 34 44 47 33 40 28 30 24 28 27 33 23 38 23 37 32 26 42 30 32 31 44 32 32 42 29 38 32 39 37 26 32 35 27 28 20 29 37 26 26 28 19
25 35 20 27 37 33 22 20 25 25 30 27 27 39 40 48 38 50 48 35 48 40 40 47 36 31 48 33 36 25 34 30 22 24 22 41 31 40 47 40 46 39 41 39 35 48 50 44 38 41 40 30 33 39 25 36 34 22 20 24 25 37 34 29
19 34 21 25 23 29 22 20 18 28 34 24 27 38 36 47 43 53 46 45 47 37 55 41 44 46 34 45 44 36 22 33 20 35 29 39 38 38 34 41 44 55 46 41 46 46 51 37 34 50 49 35 30 21 23 23 21 36 26 20 30 35 24 23
31 28 25 34 28 30 36 28 24 22 40 39 36 47 46 55 47 38 59 42 54 49 53 41 41 50 54 37 38 35 44 39 37 30 44 33 43 42 43 56 53 40 55 45 48 61 49 46 39 35 38 48 44 41 25 37 27 18 37 32 33 19 23 28
33 36 37 33 23 34 33 25 22 37 30 42 47 32 48 41 56 55 43 61 63 60 45 63 50 55 38 41 36 47 33 43 35 36 39 39 32 51 49 44 42 44 57 45 47 48 59 58 57 48 52 37 32 28 26 38 35 24 34 35 35 22 24 18
31 27 35 30 20 23 32 28 26 22 45 35 38 49 52 58 61 59 48 56 59 53 51 60 48 46 43 39 50 49 41 44 46 31 30 39 44 47 57 63 53 50 59 59 50 62 51 65 52 56 39 44 43 48 25 29 23 27 21 24 25 38 22 37
33 23 29 21 30 18 28 25 33 35 42 51 38 52 45 45 63 68 71 65 56 61 70 71 63 58 58 56 40 54 38 42 41 38 36 38 42 55 53 64 67 66 64 59 73 55 57 63 63 49 49 54 49 36 31 42 37 27 30 23 25 38 36 19
25 23 37 30 38 24 37 25 40 29 43 34 55 44 48 51 52 63 64 75 67 60 64 56 52 59 61 56 55 37 50 39 42 37 42 49 57 52 49 58 69 59 69 57 68 61 54 66 50 52 58 56 54 39 44 44 25 28 18 19 21 37 21 28
34 19 28 34 38 20 32 30 26 37 42 40 54 44 55 58 67 62 60 79 71 78 76 62 64 63 58 48 57 51 34 45 50 49 39 41 53 61 57 58 66 67 76 78 67 67 74 67 58 50 57 47 45 36 49 34 41 22 19 23 27 33 33 31
27 26 18 38 21 26 35 28 41 36 36 50 51 46 64 62 69 75 75 73 65 74 63 71 70 64 62 62 43 56 55 51 40 44 42 49 43 50 67 61 69 78 65 67 82 76 72 76 54 58 59 46 52 38 41 37 23 37 22 28 30 26 30 37
34 31 35 31 29 33 28 25 29 40 42 45 59 47 51 51 63 67 71 81 70 76 74 80 72 57 66 66 44 53 43 38 48 50 56 50 50 49 61 61 78 62 82 84 82 76 68 75 58 68 47 45 50 50 48 30 40 37 18 23 20 32 34 18
20 23 27 27 28 23 35 31 42 33 51 42 39 43 58 70 74 67 80 80 71 80 83 80 63 71 56 49 54 51 53 38 54 55 41 59 49 58 52 55 74 81 86 89 86 80 75 73 69 66 58 57 45 40 48 28 42 34 28 25 30 25 18 24
21 36 18 24 37 25 25 32 35 46 37 43 49 53 59 68 75 65 62 82 88 72 83 74 77 56 60 50 54 57 53 42 38 43 53 50 48 50 55 72 63 70 73 86 69 80 76 66 68 60 53 45 40 53 50 46 30 35 35 24 20 23 31 32
36 19 29 31 29 36 33 27 30 38 35 47 41 46 58 65 58 60 66 64 83 83 71 66 66 66 54 64 60 40 46 46 52 55 48 48 43 47 65 68 69 72 79 69 67 80 62 67 59 70 48 59 54 40 44 30 23 29 20 19 29 28 29 37
28 18 30 19 21 20 22 27 27 46 38 45 54 43 51 49 69 73 67 60 81 77 74 66 63 51 57 55 51 55 36 49 54 45 50 57 50 63 49 62 58 68 78 66 77 67 65 70 59 51 64 42 53 50 38 46 34 28 36 20 38 23 25 22
28 19 27 34 33 32 37 20 30 43 32 33 37 55 63 58 65 58 62 69 61 75 68 73 72 65 49 50 57 44 50 36 44 44 37 51 46 49 58 51 61 70 76 76 70 61 63 66 64 52 44 54 52 43 35 29 30 21 35 32 19 26 26 25
38 23 23 28 29 18 31 25 40 39 43 36 40 53 44 48 51 51 59 67 70 68 70 55 65 50 50 47 44 35 44 47 29 31 34 36 38 49 54 55 65 52 62 69 71 71 51 58 64 63 59 56 37 31 45 37 23 29 33 21 31 31 22 28
19 37 32 31 36 38 18 24 36 42 28 49 50 53 50 47 44 53 63 65 64 69 52 51 65 54 42 55 54 32 48 27 34 30 40 33 39 38 46 53 52 60 51 49 52 60 51 61 51 53 42 39 49 44 32 27 30 23 35 32 25 22 20 22
29 40 40 27 41 38 35 31 30 43 38 49 35 47 43 45 62 46 62 63 63 69 55 54 61 57 58 59 41 50 33 39 38 28 43 53 49 59 51 49 66 52 65 63 66 54 53 56 57 63 46 49 52 40 43 46 39 35 44 28 34 37 30 30
29 44 44 26 38 37 43 27 29 28 41 45 44 41 46 62 62 59 48 60 60 59 63 67 50 50 64 42 57 41 49 46 28 50 45 52 40 43 63 64 50 67 68 63 53 71 53 59 62 48 46 55 48 48 34 47 39 43 37 40 45 46 41 38
46 35 33 33 30 48 31 41 32 41 43 39 51 45 57 52 55 47 58 51 58 56 59 62 67 62 55 48 58 46 47 51 34 38 48 53 42 45 49 61 60 58 68 72 73 72 63 72 60 60 58 61 44 50 53 47 47 55 47 43 50 51 44 37
34 36 37 43 43 36 25 34 32 40 35 38 29 44 41 44 50 45 41 54 48 55 53 53 46 40 52 37 49 35 43 35 38 43 32 46 45 39 51 56 57 49 63 46 58 49 50 62 61 59 52 37 37 49 41 35 38 41 43 46 47 38 37 30
41 23 30 29 23 30 26 41 39 40 32 34 23 39 35 43 36 46 41 47 50 42 44 43 33 40 31 32 36 26 27 32 37 36 38 37 37 34 41 48 50 47 40 34 46 53 44 43 48 36 46 30 29 27 23 37 37 39 40 24 31 39 39 26
26 27 32 22 30 27 20 38 35 36 19 24 20 36 35 33 38 30 36 41 42 28 39 33 41 27 39 19 26 33 20 35 34 35 23 25 34 20 34 22 29 31 41 35 42 35 41 31 27 27 24 23 38 24 19 31 34 31 37 35 25 22 31 34
29 21 28 22 33 27 26 26 37 22 26 23 33 24 30 18 23 37 35 23 29 36 34 21 22 20 35 32 33 38 20 21 30 28 23 38 26 27 25 27 25 26 29 22 40 28 39 23 20 36 18 20 36 33 28 22 29 35 19 27 18 20 38 23
24 38 30 19 36 36 38 30 34 32 23 37 30 37 29 25 36 23 34 31 35 26 28 33 32 26 20 22 21 27 28 28 30 28 29 38 38 26 21 22 31 37 18 28 33 22 30 18 35 29 25 38 20 38 23 37 20 32 20 22 34 21 37 34
23 29 23 32 37 23 19 28 27 19 32 19 22 35 22 35 22 26 33 24 19 23 34 38 28 24 34 34 19 20 37 28 19 35 33 35 37 31 31 20 22 27 33 37 21 33 30 31 29 23 27 37 20 27 27 33 32 21 22 37 32 22 25 27
25 35 34 23 26 29 24 20 33 38 22 23 35 22 37 27 21 25 28 18 34 34 33 28 27 27 33 36 27 30 28 33 19 24 19 35 38 23 36 27 36 33 21 19 33 30 27 21 18 20 20 37 38 29 29 24 38 26 24 29 32 30 32 24
30 19 32 28 23 23 25 33 18 32 34 18 34 30 21 28 34 20 19 34 28 30 30 24 32 20 21 28 37 29 32 20 21 31 24 21 30 38 26 32 21 18 22 22 30 26 38 18 34 37 26 24 29 21 31 26 36 36 19 24 28 34 21 24
38 35 26 27 32 19 34 19 28 22 27 23 19 25 30 29 27 23 22 30 38 19 33 38 35 20 28 38 29 38 36 18 33 23 25 24 37 22 19 18 27 31 26 26 38 27 27 20 21 32 27 38 21 38 32 37 29 31 31 30 38 36 26 18
22 35 19 37 25 28 18 23 21 18 32 27 19 33 36 23 21 21 19 25 30 27 25 25 25 37 29 37 32 26 28 19 34 28 27 26 18 23 19 37 18 22 18 24 26 25 34 31 22 38 36 30 31 31 36 24 24 36 33 19 19 35 34 22
36 31 22 18 23 36 32 19 26 20 34 31 34 33 32 30 27 24 18 34 23 31 22 19 21 34 18 31 22 31 33 23 18 34 26 27 38 34 32 31 37 19 23 29 23 38 34 19 21 35 32 29 24 21 23 31 26 36 20 21 20 29 33 35
23 34 38 36 18 26 31 24 28 34 18 29 23 28 31 36 21 30 36 24 28 27 32 37 22 38 34 37 21 22 24 37 29 30 25 29 35 29 26 33 26 36 22 33 25 34 28 26 32 28 20 29 22 22 34 26 27 21 29 26 27 36 19 24
26 22 35 27 20 27 19 19 24 34 29 34 25 37 38 29 33 32 24 34 25 22 30 22 20 19 34 22 35 23 19 36 34 27 31 21 36 36 30 31 27 20 28 35 31 28 38 36 30 38 35 24 31 31 27 19 21 33 30 33 37 18 27 31
27 27 29 27 18 18 29 36 20 33 37 19 37 18 26 23 21 25 24 33 30 29 35 23 36 35 30 24 26 30 29 38 36 38 29 19 30 22 37 18 26 30 33 36 26 21 26 26 20 25 24 27 19 36 38 38 27 18 28 27 38 18 23 27
19 33 33 21 33 30 28 35 24 19 20 24 28 22 26 23 37 22 37 26 37 24 23 22 35 32 38 29 31 37 25 29 32 34 27 19 33 28 38 33 19 24 18 23 23 29 36 35 20 27 19 34 38 18 25 26 20 31 20 32 37 21 34 37
21 27 22 20 18 34 38 21 24 26 18 32 37 36 35 28 24 26 38 35 36 20 37 38 29 28 32 22 22 19 19 22 28 21 35 19 37 22 32 38 28 34 27 33 38 34 29 21 38 18 30 22 23 22 37 32 22 19 24 20 35 37 28 23
31 34 22 27 28 31 32 38 21 27 20 29 32 28 21 36 18 36 19 38 34 28 25 20 18 35 18 38 19 19 34 22 35 36 25 31 31 24 26 24 38 30 24 19 27 38 18 20 32 29 19 21 18 22 28 35 34 37 24 29 24 19 30 33
32 38 30 37 29 30 38 26 32 25 37 38 22 33 33 28 24 28 25 34 24 24 21 33 38 24 18 32 26 31 36 30 27 20 22 26 24 35 19 23 35 28 33 21 24 30 35 18 29 36 22 18 28 21 29 20 30 26 20 23 22 26 36 33
30 33 34 28 33 37 26 23 24 25 20 24 38 37 33 20 19 25 34 21 19 21 23 25 26 21 26 23 35 37 38 18 29 19 30 23 19 34 31 29 36 30 36 36 33 38 35 28 22 38 38 36 18 26 20 31 34 30 35 30 24 36 30 36
38 31 32 24 37 19 31 33 30 20 19 33 35 27 27 26 36 31 32 20 35 35 32 34 31 36 29 23 38 34 22 28 25 21 29 25 22 34 33 21 38 32 19 20 21 37 27 36 35 25 22 31 35 28 35 23 37 26 24 32 36 27 32 19
28 27 32 21 36 27 19 24 21 29 24 22 25 38 33 26 33 29 38 32 22 37 32 34 31 26 25 34 27 28 32 32 34 32 36 20 33 27 24 25 22 25 30 32 34 20 30 33 19 25 19 29 19 32 19 28 18 24 25 21 37 27 24 27
32 33 19 33 20 29 20 30 34 36 25 23 38 31 28 34 32 24 27 36 38 22 31 37 29 30 22 18 27 25 32 38 36 18 35 20 30 21 33 32 31 30 21 25 20 21 29 36 23 30 33 30 33 24 18 19 28 36 33 35 18 20 26 23
