P2
64 64
255
14 20 19 24 18 24 21 14 22 25 17 25 20 20 24 22 15 22 15 15 24 20 15 23 24 22 21 14 17 23 16 25 24 26 23 21 20 24 23 21 24 16 21 20 17 23 14 19 19 24 23 18 19 19 14 26 18 16 16 26 14 26 25 17
16 15 21 21 15 22 24 20 14 16 15 17 18 16 25 18 16 22 21 22 16 20 20 14 20 23 16 22 14 24 14 26 21 24 17 16 15 23 16 24 23 18 16 26 15 14 22 19 22 22 17 19 20 21 19 14 14 19 26 17 22 25 16 16
18 23 18 19 26 18 15 26 19 17 26 26 23 24 20 16 20 22 14 21 18 20 21 18 20 23 14 25 20 18 19 16 15 16 18 19 14 21 25 21 17 22 20 24 18 16 18 20 24 14 17 22 17 17 16 21 24 21 20 23 19 21 26 25
21 16 22 21 14 18 22 24 14 14 18 16 23 18 19 18 25 14 14 25 20 17 18 16 19 24 19 24 16 23 20 15 17 25 23 17 22 22 22 19 24 23 19 17 25 16 15 19 26 16 20 14 23 16 18 22 21 26 25 18 14 18 18 19
19 18 15 14 14 16 23 22 20 20 16 17 17 14 17 25 25 20 14 22 15 23 24 19 14 25 23 20 23 16 17 15 20 25 25 22 22 21 22 16 16 17 16 23 14 19 22 25 20 19 19 15 14 15 24 17 24 24 26 18 17 22 19 21
26 25 24 14 25 26 21 18 14 21 14 25 26 21 25 24 17 25 15 23 25 25 15 19 24 26 14 22 14 24 16 24 26 23 24 18 17 23 14 18 14 21 21 26 20 21 26 22 21 17 23 21 15 21 19 23 26 18 14 19 24 18 25 19
26 26 21 21 22 26 26 23 26 15 15 16 21 16 22 15 24 20 25 25 23 23 25 23 21 18 23 26 25 16 18 22 26 18 24 23 20 20 26 25 14 14 23 14 26 14 24 23 14 22 15 22 18 24 15 24 18 22 26 22 14 22 14 22
21 25 18 19 17 21 17 20 17 26 18 19 22 17 24 25 19 14 15 24 21 14 18 17 16 14 14 19 24 20 23 14 23 23 15 20 20 20 20 19 16 23 18 23 20 22 22 19 26 26 24 18 14 18 17 19 14 21 26 14 21 24 23 25
18 22 18 20 19 22 16 22 18 25 14 14 17 15 14 22 15 21 15 26 23 14 20 25 26 20 14 21 21 21 24 14 19 16 21 14 20 19 19 21 17 18 15 20 22 22 16 25 24 23 26 20 19 18 17 20 20 18 16 17 19 21 21 24
19 24 26 26 15 21 22 24 23 14 17 14 18 14 18 18 21 22 23 15 16 17 14 17 15 15 20 26 25 21 24 19 16 22 26 22 19 25 24 25 26 21 26 21 21 23 23 17 17 14 16 15 18 23 15 18 19 18 22 15 21 17 21 22
18 20 18 16 17 22 23 15 19 19 17 25 19 24 19 19 25 14 18 17 17 16 19 24 21 26 23 16 14 20 21 25 26 20 18 17 19 24 16 21 16 23 18 24 18 26 14 22 26 24 24 21 24 21 25 15 25 20 20 25 22 21 14 18
22 25 23 18 18 26 16 17 14 15 16 22 17 15 18 19 14 26 21 24 23 25 21 22 24 19 22 25 24 19 15 14 23 16 25 20 16 19 22 25 15 22 16 23 26 16 15 14 15 22 23 24 21 19 15 21 17 19 19 14 15 14 21 15
16 22 25 26 21 25 14 18 24 22 20 23 25 24 17 19 20 21 24 14 19 23 21 19 24 17 15 26 22 14 24 15 21 17 16 22 26 15 14 20 14 21 23 19 26 14 16 23 25 25 17 24 22 25 23 21 17 22 21 21 18 23 25 24
25 17 23 17 19 20 21 21 17 19 23 23 23 20 17 14 17 17 19 19 23 18 15 18 20 20 25 24 20 17 15 15 18 17 25 14 17 17 25 23 24 25 17 14 19 22 16 21 25 26 23 14 14 25 14 17 25 23 26 21 24 14 15 21
23 22 19 24 18 15 24 21 21 24 22 17 18 18 21 26 15 25 24 16 15 23 19 14 26 22 19 20 26 20 25 14 21 19 15 15 23 24 14 26 26 24 16 17 21 17 15 21 19 18 18 18 15 24 19 23 17 24 24 25 22 17 23 17
15 17 20 23 23 22 26 14 19 16 20 23 26 15 17 15 16 26 19 21 26 23 26 23 14 18 15 21 17 20 18 25 25 18 22 20 25 14 26 18 22 14 23 19 15 18 14 17 20 15 19 19 14 21 25 21 24 22 21 20 25 19 19 21
20 24 19 22 26 15 25 16 15 23 14 23 19 24 23 14 26 21 14 23 17 17 20 16 24 19 23 21 26 18 17 26 16 15 25 16 24 18 18 20 16 26 24 23 14 21 19 26 14 19 21 17 14 19 26 19 17 21 24 22 24 22 24 14
17 15 15 19 23 24 24 25 17 21 20 26 21 15 14 20 18 16 24 23 25 21 26 16 17 21 26 23 16 23 26 24 23 26 16 26 25 26 16 23 14 18 23 16 20 15 23 18 19 16 20 24 19 18 20 24 15 18 15 22 25 19 19 20
14 19 15 22 20 23 22 18 20 14 16 19 25 21 23 18 23 16 25 23 25 14 16 23 26 14 26 20 18 22 18 17 21 17 22 21 25 25 17 21 25 19 25 14 17 15 14 25 16 15 18 14 25 24 21 25 23 20 26 26 24 23 22 22
19 18 24 25 23 24 15 19 22 18 19 18 23 21 20 22 26 28 18 28 18 28 22 18 22 17 24 20 20 16 21 26 24 22 24 18 21 24 20 18 18 21 28 29 25 27 22 21 21 21 26 25 24 16 15 19 16 21 21 23 16 20 16 16
17 20 26 25 26 25 14 26 22 16 23 17 21 25 21 21 25 24 27 22 23 22 33 22 31 26 22 15 18 18 21 26 18 21 24 17 24 17 20 30 23 32 33 28 28 21 22 29 23 20 16 20 21 19 17 17 23 26 17 15 20 26 14 15
17 17 22 17 15 24 16 17 18 18 17 16 18 19 20 32 25 30 25 30 29 27 26 35 24 26 29 29 21 17 16 18 23 20 22 15 18 27 29 28 24 33 36 36 25 29 33 23 33 21 30 22 26 16 19 24 17 16 26 24 17 25 19 19
21 18 15 18 14 20 20 15 17 18 25 21 29 31 30 30 36 37 31 33 29 32 34 28 37 34 32 35 28 31 29 23 32 32 34 25 30 36 30 27 37 36 33 36 37 31 30 36 32 24 33 29 27 27 21 20 17 14 26 18 26 22 16 20
23 24 18 25 14 20 18 18 22 21 23 17 28 31 31 35 39 31 41 37 34 33 36 35 42 34 40 40 43 40 36 35 31 32 34 39 44 42 37 39 34 36 42 45 34 42 38 32 30 28 34 29 20 27 23 21 25 25 15 15 21 14 24 21
18 14 14 16 15 21 17 17 26 15 27 28 30 35 33 40 40 37 39 49 47 44 45 47 44 52 50 55 49 45 45 39 39 49 41 50 49 46 54 48 49 47 40 49 39 49 44 42 33 40 28 38 31 22 25 24 18 19 14 22 21 23 21 19
20 20 14 25 23 23 17 26 21 28 26 31 31 37 34 36 41 43 40 50 49 42 48 49 55 53 61 54 59 54 59 50 55 47 50 57 60 63 56 63 49 46 52 41 46 43 39 38 42 35 43 31 29 33 25 23 26 17 25 14 26 24 15 23
23 26 24 17 22 21 15 15 24 21 22 33 34 32 45 47 50 48 50 50 49 53 57 57 67 63 71 71 62 67 64 58 63 64 65 64 71 61 69 60 64 58 57 55 54 55 48 51 42 41 39 36 39 26 27 18 18 22 25 18 15 14 22 24
16 21 22 21 22 19 16 25 17 26 35 34 40 33 43 48 42 53 50 48 63 57 64 69 73 79 74 75 75 78 67 73 69 69 71 73 75 68 67 75 72 72 63 66 58 55 52 46 53 50 41 37 35 31 34 29 26 23 21 17 22 16 24 21
19 17 19 18 21 15 18 16 29 25 33 28 32 41 40 46 56 54 54 63 69 71 73 83 78 86 82 84 75 80 79 77 79 85 75 80 81 85 84 76 77 80 70 71 66 65 60 49 48 53 46 47 36 28 33 29 29 24 24 19 15 19 18 22
17 18 16 22 17 26 16 23 26 26 26 31 40 43 46 52 56 63 60 66 70 83 86 79 83 84 94 92 85 81 83 93 91 83 89 88 89 93 89 92 85 78 85 77 76 68 62 54 56 55 44 42 42 34 38 30 26 23 24 20 26 15 14 24
25 17 21 18 23 15 18 23 20 35 38 34 41 38 51 53 61 57 65 72 76 84 93 90 97 87 94 90 97 89 95 91 100 98 92 94 94 92 92 89 97 95 82 81 84 68 69 64 58 53 51 47 36 37 38 27 30 23 20 17 19 15 14 25
15 25 18 18 17 24 17 21 21 35 32 39 43 46 45 57 51 65 65 79 89 89 99 92 103 92 97 96 97 97 97 102 102 106 98 101 106 99 97 96 100 96 99 95 78 74 65 58 62 57 43 47 37 35 29 26 25 21 18 19 26 17 15 24
24 14 21 19 21 16 19 18 22 26 31 40 46 47 51 58 62 67 65 74 93 97 93 105 102 98 107 101 108 102 102 104 106 108 113 104 111 109 97 106 103 99 99 93 96 84 66 59 62 49 46 49 41 32 35 35 29 18 23 16 23 15 24 26
23 16 23 23 14 15 23 24 27 25 39 36 36 51 45 58 58 63 71 74 92 93 92 105 107 99 106 111 108 115 118 113 109 112 109 111 113 112 102 98 100 101 95 89 90 80 74 65 53 54 45 49 41 38 30 30 24 23 25 16 17 16 23 16
23 15 19 15 26 21 14 20 22 23 32 41 36 42 46 54 59 64 75 72 87 98 91 97 102 101 110 106 108 119 116 123 122 116 120 119 110 109 103 102 97 96 96 87 83 77 70 65 58 57 52 41 44 40 38 32 29 20 21 19 22 23 25 15
14 22 26 20 14 23 25 25 19 33 29 31 37 47 45 53 49 60 65 76 83 94 93 95 97 101 102 113 106 115 118 117 124 125 121 112 115 108 101 102 101 101 88 84 81 74 73 61 53 49 43 49 37 38 38 22 24 16 25 22 17 25 17 22
19 19 16 18 21 19 14 17 17 32 29 28 44 41 43 45 53 53 66 69 85 88 96 97 94 100 105 115 105 110 115 118 132 121 117 113 109 104 108 108 100 97 94 85 73 71 65 62 53 45 40 47 32 39 25 22 29 19 24 16 16 25 25 24
16 16 15 14 20 25 21 18 17 20 26 30 39 37 42 46 49 47 63 67 76 80 84 89 96 94 101 101 113 105 106 114 120 114 107 113 111 101 100 105 92 93 91 82 79 62 56 58 53 45 45 39 41 37 27 22 26 25 26 25 24 14 22 24
19 26 16 14 20 20 19 18 14 24 25 36 36 33 46 47 43 47 52 66 64 80 77 82 92 100 96 99 108 102 110 103 111 105 107 102 105 98 93 90 94 87 85 80 71 64 55 44 50 42 43 35 31 28 26 19 14 14 24 19 15 19 22 23
16 24 24 25 14 25 22 15 22 16 31 22 33 34 38 43 38 40 54 63 68 71 72 78 87 90 87 99 94 105 95 98 105 99 100 105 91 100 88 95 83 82 80 65 66 63 49 49 45 34 38 40 37 32 25 20 19 17 22 21 23 19 26 18
19 25 22 22 24 15 18 16 14 14 27 32 23 34 36 31 39 40 42 57 56 62 67 77 85 84 85 82 97 97 98 94 87 85 94 87 88 86 90 83 76 79 70 60 64 52 41 45 37 36 34 30 24 30 17 22 22 23 18 26 16 25 15 19
14 26 17 18 22 21 14 21 25 15 15 18 31 31 25 37 33 39 42 51 48 58 63 66 69 74 78 81 87 87 82 84 82 83 83 78 88 87 81 76 74 63 64 54 53 52 40 34 35 38 27 29 22 25 27 14 25 18 19 17 24 26 18 25
14 19 25 21 20 19 15 22 23 17 20 23 27 27 33 25 32 30 37 39 50 49 52 57 70 73 66 78 81 80 71 73 75 75 79 75 76 73 70 71 60 60 56 46 43 43 36 32 26 27 29 25 25 18 19 20 20 25 14 18 14 19 14 24
19 22 20 18 26 22 22 15 24 20 16 21 16 24 25 25 28 30 28 29 33 46 50 51 52 65 63 65 68 70 73 75 66 70 71 70 60 70 63 55 59 55 47 39 35 40 24 29 27 21 24 18 24 24 17 18 19 23 24 14 15 21 17 16
23 17 18 17 15 26 26 26 17 19 25 15 25 23 23 26 22 25 26 25 30 32 48 43 48 49 57 55 64 60 65 67 60 70 65 59 52 55 53 50 44 41 43 34 28 23 32 25 22 24 17 20 15 15 19 15 25 24 25 18 16 17 24 26
21 24 20 20 24 24 15 24 19 19 18 21 19 22 24 22 15 19 21 29 23 31 33 34 37 46 44 48 51 51 62 64 58 54 62 49 56 49 53 48 36 42 33 32 27 28 22 16 15 14 17 21 19 20 19 15 15 24 19 14 16 18 18 24
14 20 25 14 26 16 22 14 19 19 16 24 21 15 14 14 26 24 16 23 16 25 22 36 34 44 47 43 48 53 54 57 48 50 46 52 44 45 44 35 36 26 20 25 25 22 24 20 20 14 18 18 25 14 20 20 16 26 24 19 22 15 17 15
16 22 18 26 26 22 19 26 20 22 17 18 20 25 16 25 14 15 20 22 14 14 20 22 33 34 40 44 47 39 44 44 40 50 44 44 35 35 34 39 32 27 24 15 25 25 21 21 16 22 16 24 15 22 21 20 24 15 16 18 22 22 22 15
21 18 17 15 24 26 18 16 19 14 16 25 25 26 16 14 22 21 22 19 21 25 25 17 23 22 29 34 38 39 44 38 36 38 44 40 37 38 25 27 30 25 26 18 22 19 18 24 23 18 22 20 25 20 22 16 21 14 19 20 23 15 16 14
20 18 17 16 17 15 17 18 21 26 17 15 24 21 15 16 23 23 25 17 24 22 16 24 19 23 28 28 34 26 27 39 29 34 27 27 30 26 30 28 23 19 16 14 23 20 18 24 25 24 18 18 24 15 26 18 20 14 23 17 25 16 21 23
20 15 15 15 16 17 14 20 15 22 24 19 19 22 23 25 18 17 21 24 19 19 18 26 26 20 18 21 25 29 28 31 27 23 26 23 24 25 17 22 16 15 25 19 18 23 22 18 25 20 18 21 21 21 20 17 20 19 19 18 21 17 18 20
18 26 25 15 17 19 26 21 20 19 18 20 17 17 19 21 26 19 17 18 26 24 25 22 17 16 21 26 22 23 25 18 27 18 20 24 22 15 24 24 24 15 26 17 25 25 15 18 18 26 15 16 20 16 16 24 24 24 14 26 19 18 19 26
18 21 23 15 18 16 25 14 21 25 23 26 16 16 15 23 26 17 26 17 18 18 26 14 20 17 15 19 18 21 18 18 14 18 20 14 21 16 23 26 25 16 24 22 14 19 21 14 17 15 22 25 19 17 19 19 19 25 21 23 25 22 17 17
18 22 15 24 17 20 26 23 14 15 18 16 18 18 18 18 23 26 26 22 16 23 25 24 21 14 25 20 24 18 22 17 22 14 23 20 17 24 19 25 25 26 23 16 17 24 23 16 20 14 21 24 17 20 25 25 23 26 14 23 26 16 25 19
19 19 20 15 17 21 19 21 18 24 20 21 20 25 22 22 23 20 18 24 25 16 15 24 14 14 15 26 15 14 16 17 15 24 26 17 22 17 23 20 14 15 24 26 14 18 23 16 24 19 21 21 14 24 23 23 16 16 14 21 23 25 14 19
17 22 24 23 17 17 20 22 21 16 26 18 18 14 26 17 14 25 21 14 20 20 25 26 20 21 18 22 26 19 21 23 22 26 23 14 23 14 15 16 20 20 23 24 17 17 26 15 22 16 21 19 25 15 19 16 24 25 26 17 19 19 23 21
18 22 21 18 24 24 16 18 17 17 24 24 14 24 22 23 16 14 18 23 15 21 23 17 19 14 18 19 18 15 25 16 21 18 26 25 19 23 14 26 24 19 22 16 15 23 18 18 22 15 14 22 14 21 20 26 19 24 15 26 19 25 24 26
18 22 17 23 15 24 20 24 15 22 14 14 18 20 20 14 23 20 21 16 16 19 14 25 15 26 20 19 18 20 25 25 14 19 14 26 15 24 21 20 14 15 23 25 26 23 24 15 15 22 24 16 18 24 25 19 14 25 17 20 18 18 22 20
23 19 17 18 20 23 18 22 24 22 26 20 20 21 21 21 14 25 26 19 19 14 18 22 18 18 26 23 24 24 19 26 18 19 26 22 18 18 18 26 21 26 16 16 19 24 22 23 15 22 23 21 14 20 18 24 17 16 17 17 25 20 21 18
20 22 14 22 22 25 21 14 16 18 22 17 26 23 22 18 22 24 14 24 22 26 16 14 24 19 16 21 19 19 22 16 24 26 20 14 15 23 19 16 22 24 23 15 17 24 23 23 26 17 22 16 18 23 14 14 14 23 19 21 20 26 21 17
25 18 14 16 26 22 20 17 15 17 19 16 15 18 20 19 19 25 19 22 21 25 14 22 16 22 14 21 20 16 15 23 24 23 17 21 20 17 19 25 26 15 20 14 25 23 21 14 14 15 15 22 22 19 14 18 26 17 18 15 20 26 24 23
21 22 24 24 16 18 15 16 20 17 18 21 24 23 25 19 22 26 16 14 19 26 21 24 20 25 18 23 20 15 14 19 18 15 21 24 15 22 23 26 25 26 23 20 18 17 24 23 18 18 17 22 22 15 23 25 15 18 21 23 22 15 21 22
18 23 21 16 17 19 15 20 14 20 24 22 18 25 23 20 22 19 19 18 19 17 16 19 22 24 22 20 14 26 26 20 16 21 26 16 21 20 25 20 15 21 26 22 26 24 17 26 22 18 16 19 18 18 22 20 14 14 17 25 25 22 25 15
20 19 17 22 23 24 16 26 20 17 23 19 20 15 20 18 17 24 25 26 24 17 15 21 18 26 19 23 20 18 23 18 25 14 17 19 14 21 16 17 15 25 15 19 22 20 22 14 26 17 17 14 20 24 18 14 26 18 15 25 17 20 20 26
