P2
64 64
255
21 24 24 22 15 26 26 15 15 24 24 21 16 23 26 19 16 19 21 18 21 17 16 17 18 25 25 25 18 24 25 23 18 17 18 25 14 25 20 20 26 21 25 23 19 15 25 15 26 20 22 18 14 25 20 21 18 26 24 15 19 26 19 23
18 26 19 15 22 14 14 25 21 21 18 22 19 24 16 21 15 15 18 21 25 22 18 14 26 22 26 19 14 20 23 23 20 15 18 19 14 17 26 20 17 22 25 16 21 17 23 26 18 22 24 15 17 23 23 14 25 20 18 15 16 21 14 17
19 21 18 14 22 26 18 16 24 23 18 19 17 16 20 24 16 15 26 23 16 21 18 14 21 25 15 23 25 25 21 21 20 15 18 23 15 20 16 24 23 25 22 19 22 23 26 23 18 15 18 20 21 25 20 15 16 23 19 26 21 16 14 25
21 26 14 15 20 16 16 24 17 22 20 19 19 22 15 17 22 26 23 20 21 14 17 21 18 14 24 18 16 19 15 15 17 21 25 18 23 19 19 15 18 22 21 19 22 16 17 23 15 17 18 24 22 19 20 24 14 23 15 20 15 18 26 18
14 22 22 25 20 15 14 21 21 22 16 24 22 17 21 19 19 23 16 24 14 19 24 25 19 20 21 25 24 15 17 17 14 25 19 23 19 24 25 18 21 14 16 24 22 25 25 15 20 19 24 18 14 18 18 25 14 18 17 17 22 15 26 18
20 21 26 17 22 15 21 22 14 16 25 22 19 16 26 14 15 24 20 14 26 15 26 24 25 21 15 17 14 16 16 25 19 19 18 17 24 16 26 21 26 17 26 14 24 16 21 23 18 21 17 24 22 14 23 17 22 23 25 23 23 20 23 21
25 18 16 23 16 14 17 18 15 15 25 18 19 21 15 16 18 19 22 21 20 17 20 19 23 24 15 16 20 15 18 16 17 22 22 22 25 23 24 24 15 18 16 15 17 21 15 14 16 24 21 23 23 23 26 18 24 25 26 26 20 16 23 15
21 22 23 24 26 24 22 24 25 24 21 26 24 19 22 17 17 22 24 17 26 19 18 25 14 22 25 24 26 23 17 14 23 17 21 17 21 26 21 26 16 26 17 16 16 21 17 25 17 17 17 20 21 16 23 17 22 24 19 24 15 26 21 18
18 15 24 26 22 14 21 25 18 20 20 18 23 24 18 19 22 19 24 19 24 23 17 21 26 22 16 16 18 20 23 25 25 18 18 23 19 26 17 19 16 26 15 22 22 26 15 19 15 15 22 15 14 21 18 26 22 25 20 24 23 22 26 18
22 20 20 23 19 16 19 23 14 24 19 24 15 23 26 24 19 18 22 19 23 22 15 20 17 24 17 15 19 14 24 24 23 18 19 26 20 21 17 17 21 16 24 17 14 24 19 14 25 19 14 21 14 15 14 22 25 19 16 22 22 25 14 20
14 22 22 19 17 25 15 19 23 16 25 18 18 15 23 26 14 16 16 15 18 26 15 14 18 21 21 16 14 20 20 17 23 21 21 24 17 18 18 19 19 21 22 22 18 20 15 16 16 17 14 26 17 20 16 21 22 15 18 25 20 24 14 19
26 25 19 14 22 17 26 20 17 14 26 23 17 26 24 18 17 23 15 25 16 16 19 22 19 21 14 17 17 24 25 22 18 15 18 26 20 21 16 23 26 25 25 24 21 23 18 15 25 23 19 15 17 20 25 15 18 19 26 23 21 18 21 22
18 25 17 19 17 18 23 15 15 16 24 18 24 17 17 20 24 24 25 14 24 18 24 18 16 20 16 23 19 17 25 26 18 19 18 18 26 22 24 26 23 21 19 15 25 23 22 19 20 26 17 19 25 21 18 25 25 25 16 17 23 17 16 14
26 15 17 25 23 25 16 25 16 22 15 15 16 20 14 21 18 16 26 16 23 23 25 15 25 22 16 17 14 25 21 14 15 18 21 24 19 15 18 24 17 18 23 19 25 24 18 22 17 19 24 20 16 22 18 24 21 24 19 26 20 24 15 21
19 22 26 25 21 14 17 24 17 17 19 14 26 16 25 25 17 14 24 22 15 22 26 20 22 19 14 14 21 14 24 16 23 20 22 22 20 23 25 17 21 25 21 18 23 23 22 17 17 26 16 21 14 22 16 24 14 26 22 22 21 14 20 21
23 21 26 16 25 26 14 18 14 22 23 18 26 15 23 21 25 20 25 16 18 21 23 16 14 26 19 22 14 17 14 26 23 24 17 15 25 18 14 21 21 24 24 24 16 17 20 21 19 16 17 22 25 23 23 21 14 18 23 24 24 19 20 24
20 20 23 21 20 18 20 25 14 18 19 23 21 24 16 20 26 26 20 18 17 22 21 16 22 20 16 14 14 20 20 22 24 20 23 15 26 26 21 21 21 24 25 24 20 21 23 21 25 18 19 19 26 23 22 17 14 23 24 21 20 18 21 17
16 21 19 21 17 24 20 15 17 16 22 17 15 22 14 22 16 21 14 20 20 15 18 18 16 17 17 23 21 20 15 25 21 16 15 20 19 17 14 16 24 19 14 21 21 15 18 14 22 17 26 22 22 21 15 19 16 20 20 21 15 16 14 15
15 26 25 19 15 25 26 22 22 16 24 25 15 21 18 16 22 22 22 16 24 21 18 17 20 20 19 17 18 24 23 21 17 23 22 26 16 19 23 16 22 23 26 18 26 23 21 23 17 20 20 22 23 17 26 23 24 26 25 20 17 25 15 26
24 14 22 23 25 23 26 17 20 17 17 25 15 16 22 25 16 22 24 22 20 29 29 23 22 24 26 21 19 21 18 15 24 23 24 17 22 23 14 18 20 19 17 19 27 18 19 17 20 23 26 14 25 26 21 15 20 14 18 26 20 23 14 14
21 22 25 19 21 18 24 17 17 18 17 14 20 18 16 17 30 23 22 24 27 34 26 21 25 21 20 20 21 19 17 25 22 20 20 23 21 21 22 24 25 26 32 34 29 22 28 24 28 21 15 15 21 15 17 23 22 17 15 24 20 24 18 19
24 23 14 21 20 18 26 22 21 22 23 20 23 22 31 31 34 32 26 31 25 28 37 25 24 23 24 27 23 24 19 20 24 22 19 20 17 20 21 26 29 31 28 37 32 27 30 35 24 24 28 29 15 22 26 18 20 25 21 26 22 20 19 21
21 23 20 18 17 15 24 26 14 23 23 23 21 31 33 31 36 36 38 36 33 38 31 34 37 34 36 31 30 22 21 23 20 22 15 21 21 27 28 28 30 36 34 37 31 29 37 33 29 31 34 30 21 26 16 21 25 20 22 19 16 18 21 18
24 20 14 25 25 17 22 26 18 16 17 17 25 31 30 39 34 37 44 44 39 36 33 43 33 37 36 29 31 29 22 18 21 18 29 23 26 32 32 37 43 32 42 45 38 43 44 37 32 32 25 25 30 19 22 16 26 26 15 14 14 21 20 18
24 26 26 25 16 16 24 19 21 17 26 30 31 27 39 31 35 36 41 43 38 37 38 37 42 37 43 38 36 29 28 23 18 21 20 26 26 39 37 36 36 36 44 37 47 46 48 40 42 34 38 29 29 30 22 20 21 23 25 19 16 25 25 14
16 21 23 14 16 19 26 24 25 24 30 33 30 28 31 40 48 41 44 43 53 46 48 40 42 41 40 33 35 33 27 24 24 22 25 34 33 38 41 46 39 50 46 43 43 49 39 48 47 43 34 35 29 27 21 27 16 17 26 17 16 17 21 21
26 22 18 21 23 22 15 22 24 30 21 37 37 33 45 46 47 46 44 51 55 46 51 51 44 50 38 39 42 33 30 24 34 22 26 37 38 43 46 40 45 52 51 57 54 55 51 42 49 49 35 32 34 30 32 22 14 24 15 19 25 23 15 21
14 23 18 20 24 23 24 24 18 22 33 31 42 44 48 52 45 52 51 52 54 50 59 53 51 45 48 37 45 37 30 34 31 27 38 39 45 43 40 46 57 53 58 53 49 59 52 46 50 49 49 35 42 39 24 28 17 16 24 26 20 20 26 26
14 23 19 23 19 26 25 25 20 25 30 34 33 46 48 47 53 60 55 60 62 60 55 54 59 53 44 48 45 33 33 35 30 34 28 34 40 49 44 46 52 54 55 63 60 53 60 51 51 42 45 42 34 29 36 30 24 20 21 14 24 20 20 26
26 19 19 26 20 23 16 26 30 30 37 36 34 43 43 52 57 54 62 55 62 66 64 59 58 57 51 52 40 37 34 32 40 35 41 38 41 44 55 55 61 63 56 66 60 61 53 60 59 49 50 44 39 40 37 33 30 18 26 16 22 17 20 17
14 21 15 15 25 24 23 23 25 29 37 43 40 43 42 52 59 61 67 67 70 71 67 60 59 60 58 50 39 43 39 42 43 33 38 46 45 42 56 56 58 62 61 72 68 65 57 58 60 48 50 44 34 43 28 33 25 20 17 17 20 23 24 25
25 17 18 22 26 21 24 21 27 24 28 36 35 50 53 48 61 66 61 62 72 66 73 64 55 59 56 51 46 44 43 36 33 35 38 37 41 43 54 51 62 69 67 68 64 69 70 59 56 47 53 48 40 43 30 30 26 19 17 21 18 21 22 16
23 25 24 17 26 17 14 21 31 31 30 32 47 43 48 55 55 62 67 66 77 73 69 66 55 56 52 55 45 42 39 44 43 37 44 38 39 54 48 61 58 67 67 77 76 71 63 58 54 51 51 44 37 38 28 28 26 24 14 17 19 16 14 20
15 22 22 15 22 14 19 22 22 27 31 38 41 44 54 55 51 56 67 67 69 66 62 62 54 61 59 49 44 47 44 35 43 39 34 46 51 44 58 58 59 63 62 68 74 63 58 61 54 56 53 42 36 34 32 33 23 26 22 24 26 14 23 18
14 22 19 17 19 24 14 15 19 26 35 37 39 41 53 57 50 61 59 71 71 60 67 59 56 54 56 49 40 38 40 35 42 41 41 39 38 46 56 57 58 62 60 64 61 67 56 64 51 56 49 46 35 34 29 35 29 18 17 24 15 14 24 18
21 22 20 21 18 20 15 26 29 23 26 34 33 42 51 47 47 53 53 55 60 63 63 63 62 54 48 41 46 44 32 40 34 37 32 42 43 46 48 49 58 62 63 58 65 59 54 52 49 47 52 45 40 35 26 27 20 24 25 20 18 20 26 17
18 19 15 20 23 23 17 23 24 24 32 39 35 42 50 42 49 50 56 54 62 56 58 62 56 55 52 50 42 41 31 30 39 28 35 38 37 50 52 47 49 52 58 63 54 58 55 50 57 48 47 39 44 29 37 24 26 17 25 16 18 25 17 19
17 21 26 21 24 17 19 21 24 21 29 35 35 34 40 41 47 53 48 56 53 51 53 51 46 53 47 39 41 37 31 33 34 29 28 40 36 36 46 46 45 59 58 54 57 60 59 49 54 43 44 42 42 39 31 25 20 14 24 18 19 15 15 19
23 24 25 22 22 23 22 19 14 21 23 28 32 35 42 48 48 52 55 55 47 50 52 53 43 49 40 37 33 29 33 29 24 29 35 28 35 43 49 42 42 49 56 54 47 51 50 49 50 41 34 41 31 27 30 29 19 14 24 25 19 26 17 24
27 24 22 25 27 22 20 23 21 29 27 27 37 39 39 39 42 47 43 49 51 57 55 45 51 41 43 35 35 34 28 36 25 28 27 38 37 41 48 49 43 51 46 55 55 57 54 56 50 48 47 34 43 30 29 29 30 22 26 21 24 26 20 26
30 26 24 31 30 28 28 23 26 30 29 36 43 38 39 42 46 54 54 56 51 50 46 49 48 52 42 46 39 38 37 28 31 38 33 44 46 38 41 51 53 59 48 58 59 52 55 52 44 47 40 40 42 44 40 30 38 37 34 29 38 34 36 33
27 34 33 27 31 30 34 33 29 32 34 37 39 40 49 48 42 53 54 57 45 54 57 57 55 44 44 42 47 42 40 32 37 35 36 39 39 41 49 48 48 49 58 49 52 51 57 53 56 45 43 40 47 47 45 35 33 34 33 33 45 39 44 36
24 28 30 23 28 31 23 24 24 22 26 29 33 32 38 34 36 37 47 44 39 40 48 40 41 38 39 42 36 36 33 29 30 23 29 34 36 37 39 39 41 41 51 45 40 50 49 42 49 44 40 32 39 27 34 37 37 38 28 38 28 31 36 33
29 28 17 19 24 28 23 24 29 20 27 24 19 23 28 33 27 34 36 34 39 39 32 33 38 28 26 33 28 21 25 27 25 28 22 30 31 34 36 39 40 36 37 41 31 37 37 33 35 28 26 30 31 28 19 26 23 23 29 28 27 22 20 20
14 24 26 15 20 25 26 24 19 22 25 24 23 16 27 20 22 20 33 23 23 27 27 27 31 29 19 25 24 24 17 19 15 24 14 16 20 25 24 30 24 24 26 28 25 27 26 31 24 18 16 16 16 23 18 19 14 23 15 25 18 19 14 23
22 19 16 23 22 24 15 14 21 16 15 18 16 15 16 21 16 20 22 17 27 27 22 27 18 20 19 20 25 14 25 25 25 16 19 22 17 17 15 27 21 18 20 29 20 25 23 27 22 23 20 15 18 21 20 17 18 25 21 15 19 14 17 22
24 19 20 26 25 18 24 14 15 21 26 14 22 15 25 21 25 25 24 22 26 24 21 24 17 21 14 21 18 19 19 14 22 24 22 16 15 17 15 17 14 24 16 22 25 20 26 26 17 20 22 16 14 17 17 24 21 18 26 23 15 19 21 18
21 21 18 19 17 22 20 18 16 15 22 21 26 15 19 15 20 15 15 25 24 22 14 14 19 17 15 15 18 14 25 18 24 23 18 22 26 19 14 16 19 17 17 26 18 25 14 25 19 26 24 25 15 15 25 25 21 17 26 24 15 20 15 16
18 14 18 23 24 25 26 24 15 19 18 21 22 16 26 15 16 20 18 16 22 21 25 21 19 19 15 19 22 19 19 16 26 14 17 21 21 17 20 26 25 18 20 22 19 19 26 15 15 18 25 26 18 26 24 17 21 25 16 24 22 17 15 16
25 17 22 21 17 17 14 16 18 24 15 17 20 16 20 26 22 26 22 17 17 21 17 16 19 26 26 14 16 14 21 22 14 23 25 23 26 15 23 24 14 15 23 26 20 14 20 17 21 26 25 21 20 18 17 20 24 18 14 16 18 21 23 15
26 22 20 24 15 21 20 26 17 23 19 15 19 22 14 20 23 16 23 23 26 26 15 21 26 25 21 21 22 21 18 22 20 19 22 23 23 19 25 15 14 25 15 21 21 18 26 16 14 17 25 26 19 18 23 19 23 21 25 14 20 24 15 20
18 15 24 20 19 17 20 19 18 21 20 23 22 14 24 22 25 15 22 20 20 23 14 26 21 21 24 26 25 16 22 18 16 22 22 20 26 23 21 20 24 17 18 19 18 16 25 21 23 25 16 25 21 26 26 22 21 22 16 23 14 15 15 15
17 19 19 15 22 17 20 18 16 22 23 15 14 19 14 23 23 20 18 16 24 24 20 16 23 21 17 21 24 22 25 22 19 16 16 24 14 25 25 16 17 16 24 19 16 22 17 19 26 20 25 20 15 21 16 18 16 20 16 23 16 15 24 19
25 19 15 18 19 26 22 26 26 14 20 18 16 19 22 21 22 15 19 18 19 24 22 17 25 23 16 24 17 18 17 25 16 17 25 20 21 20 24 16 19 14 19 26 21 21 20 20 25 25 21 14 20 22 18 26 17 15 18 22 24 17 16 17
18 26 16 16 19 15 19 16 20 24 17 20 14 17 23 22 24 14 16 14 15 23 23 15 22 20 18 24 24 22 23 14 21 14 15 14 16 24 18 26 21 26 19 22 14 26 14 17 23 22 21 26 19 15 26 25 26 24 19 17 20 24 18 20
16 17 25 22 18 22 26 23 14 21 23 19 25 21 14 18 23 22 25 21 23 18 15 20 22 19 22 15 16 18 23 26 19 16 25 16 15 16 26 24 19 16 26 23 16 20 14 23 22 18 17 26 18 16 19 26 18 19 16 23 22 18 14 19
23 20 24 21 18 15 25 18 26 16 22 16 22 24 17 25 20 22 22 25 19 19 16 25 23 22 21 24 15 26 14 20 14 21 22 24 23 15 23 22 17 25 25 21 23 21 23 17 19 18 15 25 19 20 19 25 18 21 15 23 15 20 24 17
19 25 24 16 26 14 26 26 26 18 20 24 20 17 24 23 17 21 17 23 15 25 18 17 16 14 16 15 18 17 22 18 19 18 14 15 23 25 17 22 23 17 17 25 16 18 17 26 19 21 23 25 18 18 19 14 24 23 22 26 20 25 25 26
15 25 26 26 18 26 26 23 17 17 19 24 24 25 22 20 25 14 16 21 21 20 20 17 22 14 15 21 23 19 16 25 26 19 15 24 17 18 17 17 21 24 14 21 17 22 24 18 16 20 21 22 16 22 19 22 22 26 22 14 21 18 24 22
14 18 17 16 21 19 23 26 16 18 15 16 17 23 21 18 24 23 14 19 24 24 16 14 14 18 18 18 16 23 25 19 15 17 19 17 16 21 22 16 24 26 14 18 24 15 20 23 21 15 16 15 21 26 24 23 14 23 20 16 19 15 22 18
24 24 16 26 14 21 15 26 19 26 22 16 16 24 20 23 14 25 22 16 24 21 15 18 18 26 15 14 17 26 23 20 15 17 23 15 18 18 24 18 18 16 15 26 21 24 16 23 17 24 14 22 25 26 23 20 20 22 19 18 20 20 25 19
22 21 15 17 19 15 17 23 23 20 24 23 21 17 15 16 21 26 19 26 20 22 15 21 21 23 14 16 22 19 22 19 23 24 22 18 14 26 15 15 15 19 14 23 15 21 24 17 14 17 22 18 15 18 14 24 14 24 24 26 16 18 21 24
21 19 26 16 19 24 20 17 23 19 20 14 19 18 21 25 19 23 24 23 22 17 17 17 20 16 22 25 19 26 16 23 26 19 19 15 16 22 14 24 20 26 24 16 15 14 23 14 25 19 18 21 17 15 16 22 18 24 19 21 22 16 19 17
24 22 17 16 21 15 25 17 22 25 21 16 22 16 17 24 17 25 21 17 25 23 23 15 25 20 25 16 26 19 21 19 20 26 15 23 14 22 22 18 19 19 23 26 18 22 16 19 25 25 17 26 25 16 20 21 19 22 18 24 24 17 25 14
