P2
64 64
255
21 26 25 16 14 22 26 24 25 23 24 26 21 23 24 15 24 18 20 18 19 20 23 23 15 17 26 17 20 25 23 20 17 15 17 14 19 19 18 22 22 19 15 20 26 14 24 14 25 24 15 23 16 16 20 17 26 25 15 14 19 25 17 22
23 21 23 17 15 16 14 21 22 15 22 21 23 17 17 18 25 23 24 25 25 18 25 16 16 25 15 18 25 21 20 16 25 25 20 19 20 17 22 15 22 24 19 24 19 23 25 18 15 19 16 19 20 22 26 25 22 26 16 20 26 22 15 24
22 15 16 22 21 18 17 17 17 20 25 19 18 21 16 14 18 25 25 24 15 22 21 19 19 25 16 17 25 14 19 14 22 20 21 24 23 25 24 18 22 22 25 18 26 21 25 23 22 26 20 21 19 16 22 17 16 16 22 18 25 15 20 14
20 15 20 23 14 20 15 21 16 20 26 16 15 25 24 26 20 16 21 25 14 15 17 25 26 24 16 25 24 25 18 18 23 21 16 26 16 16 24 16 14 15 26 16 22 19 15 19 26 15 18 23 16 20 20 20 23 26 26 21 20 20 23 14
18 18 16 16 20 14 18 15 26 24 16 17 25 16 25 16 24 14 25 26 17 19 19 14 25 26 26 24 26 25 23 22 24 26 20 17 19 24 17 15 23 25 16 16 19 21 22 16 18 24 21 17 24 20 26 25 23 19 25 16 17 25 18 15
16 23 25 21 17 25 19 24 22 20 20 21 21 21 20 26 18 16 22 19 24 14 22 25 17 24 23 14 19 19 23 17 14 21 16 17 14 21 17 21 18 22 17 17 25 25 24 26 16 16 15 19 26 21 23 16 24 16 18 26 17 23 23 23
22 23 19 20 25 16 14 24 25 23 25 15 19 21 20 17 19 14 20 19 16 24 21 19 14 20 25 19 25 24 23 14 16 14 16 23 26 24 17 23 16 18 16 18 16 23 26 23 25 25 15 14 24 20 18 15 18 14 26 25 24 22 24 15
20 25 21 19 16 15 25 26 23 24 22 15 26 23 15 20 15 14 23 25 24 18 22 21 15 18 17 25 16 19 14 19 16 20 26 18 23 14 22 14 17 19 17 26 18 20 23 19 15 15 18 24 22 18 24 20 26 15 14 22 22 26 16 17
20 17 14 23 15 25 25 17 24 14 20 25 26 18 18 15 23 18 24 19 24 22 25 17 21 15 24 18 16 15 20 17 16 23 26 22 21 14 21 15 16 25 19 25 22 23 21 23 26 15 23 17 26 18 14 19 15 24 22 18 23 20 18 16
21 26 23 14 14 26 16 24 15 19 24 22 25 23 25 14 18 14 21 24 22 20 21 19 23 24 20 24 22 24 21 14 17 25 20 24 15 14 19 15 21 14 19 18 21 19 24 18 16 17 17 26 22 18 26 18 17 26 17 22 25 19 24 15
22 23 23 18 16 23 20 25 18 20 15 14 18 20 20 26 17 19 19 26 16 18 20 25 21 17 24 14 17 26 25 14 16 15 25 25 23 23 21 24 19 24 23 20 23 14 24 20 25 14 16 24 18 25 25 22 25 26 17 24 19 23 15 18
26 16 20 25 22 18 14 21 20 16 25 25 25 25 21 19 15 22 26 23 21 25 26 23 23 18 20 15 15 22 17 16 18 20 20 24 21 24 21 15 20 20 18 23 21 19 14 14 22 26 16 23 18 14 19 22 21 19 24 15 19 18 15 15
19 19 16 21 16 21 21 14 24 21 16 15 24 19 17 17 24 16 21 18 23 22 16 21 18 16 26 21 17 26 21 23 14 20 23 17 15 14 22 25 14 22 23 21 26 24 19 22 25 20 24 17 23 26 23 17 24 24 21 16 24 14 16 21
24 19 17 23 23 25 18 17 22 21 20 14 17 24 20 17 20 15 14 25 24 20 20 25 16 25 16 14 26 25 16 14 25 20 21 14 24 17 17 16 15 14 21 19 15 17 14 18 16 25 14 23 16 16 25 14 22 14 18 26 24 20 16 19
23 26 23 18 26 15 20 24 19 19 26 14 19 24 18 22 25 25 26 17 16 14 25 20 25 21 22 18 21 22 15 20 23 26 15 19 20 17 24 16 23 15 19 26 18 22 22 21 17 22 24 20 14 25 19 17 26 22 17 22 18 24 25 25
21 20 23 18 20 14 23 16 18 25 20 15 16 22 23 17 23 25 24 20 16 25 24 22 15 26 25 14 19 17 21 18 26 22 22 16 22 15 17 25 16 15 20 24 26 18 24 25 17 19 20 20 23 24 22 15 25 19 18 23 18 19 26 25
26 17 21 19 22 22 17 26 14 19 14 19 22 23 25 24 17 21 26 17 25 22 21 25 15 19 20 23 18 18 17 25 15 22 16 19 24 23 14 26 23 19 24 25 23 20 24 23 18 18 25 23 24 19 22 14 22 21 16 16 26 14 25 21
16 14 18 25 20 17 21 15 15 15 21 23 14 23 20 17 20 24 23 21 19 25 24 17 25 14 21 25 15 14 19 26 14 25 21 20 16 19 15 21 23 24 15 14 21 26 16 16 16 25 14 24 24 17 22 15 24 25 24 18 26 19 18 19
19 19 20 25 24 16 19 16 24 23 18 22 17 19 20 21 21 24 25 25 14 18 25 14 18 23 21 22 19 25 20 15 25 14 24 24 17 22 25 16 26 18 18 17 14 17 21 25 20 21 26 25 15 16 22 14 20 21 20 22 23 17 21 20
18 16 21 25 24 24 14 24 21 23 25 16 15 14 20 15 21 27 18 21 21 19 18 18 22 22 14 22 23 26 17 17 15 17 19 15 20 20 14 27 16 20 17 27 24 26 20 22 20 14 17 18 24 18 15 17 21 24 18 23 20 19 26 26
17 15 26 19 16 21 17 16 26 14 17 22 22 20 20 29 23 28 31 24 22 26 25 27 28 27 28 16 26 18 17 26 18 22 15 18 20 23 19 26 28 26 21 33 30 28 27 20 29 25 21 17 26 15 21 21 17 25 16 14 14 19 14 14
22 16 25 24 21 19 23 18 15 26 21 14 14 28 23 26 32 26 34 26 37 32 28 33 31 30 23 22 26 22 23 20 23 28 27 24 16 21 23 23 32 35 32 26 25 27 32 23 33 28 24 27 16 14 26 16 17 22 20 22 21 17 25 18
16 23 26 14 20 19 22 26 22 24 17 26 17 28 24 26 33 29 38 31 35 30 40 30 38 32 30 31 30 35 23 30 30 27 24 24 35 30 32 28 31 37 30 39 37 37 31 33 37 31 30 21 17 19 19 23 23 24 19 26 17 18 17 20
16 25 26 17 17 19 17 15 26 23 25 19 28 34 28 32 38 42 44 36 43 34 45 43 44 39 46 40 34 41 35 35 40 41 43 33 43 43 46 38 39 35 41 43 42 36 33 37 29 39 36 32 32 23 27 24 17 20 19 20 15 20 15 18
21 26 14 19 18 14 18 21 15 16 19 21 32 32 30 37 37 44 45 46 49 46 40 41 45 44 43 49 46 54 41 47 44 41 48 49 55 53 45 45 48 45 38 46 49 43 44 43 34 41 32 34 31 28 18 22 26 24 14 18 24 16 25 18
22 26 14 15 23 20 23 15 18 25 29 23 37 32 33 41 36 41 46 46 46 48 48 57 56 63 58 62 59 62 48 51 45 52 52 56 51 54 52 52 49 47 52 46 41 45 46 44 42 39 32 37 32 33 19 26 14 17 18 25 16 26 18 17
22 24 18 17 20 25 16 15 20 24 33 26 38 38 45 39 39 49 55 51 48 50 52 64 69 64 63 71 69 65 57 62 65 56 68 67 61 68 70 59 60 58 60 48 46 51 45 48 50 38 40 41 38 26 27 22 22 18 26 24 14 24 26 21
25 20 16 16 20 15 25 14 27 22 24 28 41 34 42 42 44 51 51 50 55 68 68 71 76 71 70 75 69 67 75 74 69 68 66 73 70 72 73 73 75 71 67 68 60 48 54 46 51 50 37 42 38 34 33 26 26 15 23 15 19 17 23 15
24 19 23 25 17 18 21 26 28 21 34 32 32 44 40 42 49 53 55 56 71 68 78 79 78 86 80 87 80 81 77 81 75 80 77 78 84 79 75 81 74 74 75 68 66 65 60 60 49 49 50 46 38 29 34 23 24 21 18 26 21 18 22 18
15 21 23 17 15 22 20 22 25 25 27 39 41 39 47 53 54 62 65 61 67 72 79 90 86 90 87 83 82 91 89 89 93 93 86 81 86 93 92 86 80 88 77 74 70 71 59 52 56 55 44 37 39 42 31 27 24 24 24 23 22 25 14 18
14 19 14 20 16 19 14 24 28 30 36 42 37 49 45 53 61 53 67 77 74 78 83 93 92 93 92 95 95 95 94 94 99 100 90 93 95 92 91 87 93 88 94 79 80 74 57 56 59 46 43 48 40 43 33 30 23 21 19 23 23 15 22 23
14 19 24 14 17 19 20 23 26 30 34 39 44 42 50 48 55 66 65 79 86 87 99 98 95 103 104 98 101 103 99 104 103 98 105 99 96 99 95 92 96 99 93 85 79 80 69 62 58 58 44 50 47 43 32 24 21 17 22 20 19 16 25 16
17 23 21 16 18 20 18 19 27 34 35 37 46 50 44 48 58 62 71 85 92 97 97 100 101 98 100 106 104 103 107 110 105 110 107 104 99 108 99 97 104 95 102 95 84 77 68 57 51 47 48 46 47 33 33 36 29 18 21 21 18 19 25 18
25 17 25 22 19 22 26 24 20 23 30 40 45 49 46 55 52 60 75 78 82 95 93 106 103 110 109 111 108 110 116 116 118 113 107 108 108 113 106 110 96 95 94 89 86 82 70 66 61 55 50 49 37 33 38 35 21 17 16 19 15 24 18 19
15 20 20 21 18 26 19 27 28 24 28 33 43 48 48 46 50 57 75 82 87 92 101 94 107 106 105 115 105 109 110 126 120 121 118 118 110 107 109 111 103 106 96 90 82 81 71 63 50 53 43 42 39 38 37 35 20 26 14 26 16 25 26 14
17 19 17 26 15 14 16 22 18 24 35 36 39 44 43 55 47 55 65 76 80 88 96 92 107 103 110 111 118 119 113 127 119 122 121 116 114 110 102 99 106 92 91 84 80 71 72 53 55 45 45 41 37 33 32 28 29 24 14 20 16 15 20 16
16 24 18 19 21 17 17 19 19 28 30 31 35 37 39 54 46 51 64 68 79 81 87 89 97 104 107 109 114 111 117 116 129 120 114 120 114 105 105 105 93 98 91 91 74 69 58 53 47 51 48 40 42 37 27 27 22 17 17 26 26 17 22 22
16 15 25 15 18 16 18 20 24 31 33 30 38 36 41 42 47 55 62 69 70 87 84 87 93 104 99 109 104 116 111 118 117 112 111 108 102 102 100 99 102 90 88 76 78 65 61 48 49 49 47 40 33 28 35 27 25 22 26 16 17 21 26 14
15 14 18 19 14 18 24 23 21 29 31 36 29 39 39 41 45 46 57 58 73 75 77 90 95 100 100 95 107 110 113 104 103 102 107 104 107 98 101 99 92 88 85 80 72 66 51 52 39 42 43 38 37 35 29 19 19 15 26 26 17 22 21 14
22 14 21 24 24 20 14 19 23 19 20 24 29 28 33 37 42 38 52 63 67 69 79 81 84 90 97 95 103 101 101 94 98 102 97 97 91 100 92 85 87 87 83 72 69 57 48 49 40 34 35 37 26 22 25 22 17 23 21 16 25 15 19 22
26 20 17 14 24 19 26 22 16 19 17 23 26 33 33 31 34 45 45 59 56 71 72 70 85 87 88 91 87 98 95 94 83 90 91 93 91 87 92 83 82 75 67 63 60 50 41 45 33 39 39 29 32 23 24 19 14 22 25 22 23 15 15 16
14 17 26 23 14 24 20 16 19 16 18 17 22 27 28 30 35 42 38 42 56 53 58 66 75 77 82 83 79 82 86 88 78 86 85 90 85 86 74 82 79 73 68 61 48 49 42 38 36 36 30 28 31 24 17 17 15 19 22 22 14 23 20 15
25 26 15 23 18 17 24 18 20 23 25 24 20 23 32 24 33 27 36 37 49 50 56 67 71 69 66 78 77 72 74 70 70 80 71 70 71 69 76 73 62 67 59 49 42 40 40 39 31 34 34 26 24 25 19 21 14 26 19 16 23 23 24 25
20 23 26 16 21 22 15 20 19 23 20 20 18 28 28 27 32 35 33 38 44 45 52 59 52 65 68 67 72 63 69 72 66 65 71 68 72 62 61 66 58 57 52 46 43 33 33 25 33 27 31 18 16 14 17 23 22 24 22 25 25 26 25 16
26 16 16 17 23 22 17 21 24 18 19 16 22 18 18 27 30 32 28 31 29 38 36 42 46 46 60 61 54 61 67 62 60 58 58 60 64 51 50 58 52 43 39 41 34 24 32 24 25 26 17 26 16 25 20 23 16 19 21 20 17 17 25 24
21 21 18 25 19 15 14 14 17 19 19 26 20 20 14 16 26 20 29 26 27 24 33 43 45 48 42 46 48 53 57 63 53 59 55 59 50 52 41 42 36 39 35 35 29 18 26 20 15 18 17 24 22 23 23 20 22 21 20 18 22 15 25 20
23 23 21 25 26 16 22 17 21 19 16 14 14 18 20 15 24 26 25 19 18 21 26 35 36 36 46 40 53 48 55 54 54 47 51 46 53 49 45 35 34 27 23 23 20 18 18 24 16 15 26 18 26 18 26 20 25 14 21 15 26 22 19 15
18 24 16 15 25 25 14 22 22 23 15 16 14 15 21 16 26 19 14 22 22 16 20 26 34 31 41 38 35 44 46 49 44 50 49 43 43 37 40 31 33 28 20 18 26 22 14 21 22 17 26 25 17 18 19 15 23 17 26 19 17 24 19 21
25 17 19 21 15 16 16 25 18 25 14 22 18 16 19 25 25 21 15 19 16 16 23 24 20 34 27 39 33 38 36 39 42 35 37 35 32 32 26 30 24 15 18 20 26 16 24 15 22 26 15 20 15 16 23 19 20 14 14 18 25 21 14 19
21 24 21 17 14 19 21 17 19 17 24 23 21 15 18 17 21 23 21 23 16 19 23 18 23 20 27 28 24 32 31 32 37 28 35 36 35 29 22 16 25 24 26 26 14 16 19 18 22 24 19 23 20 15 24 18 16 19 16 23 15 14 19 17
24 24 25 18 15 25 22 26 14 15 16 18 24 16 16 26 24 14 18 15 24 22 17 14 15 15 18 21 18 22 29 27 24 27 24 21 24 28 20 21 16 26 22 23 16 18 19 25 16 17 15 18 22 23 23 22 25 19 16 22 22 21 20 21
15 25 15 23 26 14 26 18 19 26 15 20 22 17 24 21 23 20 23 16 20 21 25 19 16 24 19 25 18 17 15 23 27 27 26 17 22 26 15 23 21 15 20 22 23 21 15 19 21 14 23 25 24 20 20 16 19 21 21 22 18 16 15 21
16 22 18 15 24 15 22 18 19 14 21 18 18 24 14 21 17 21 18 14 18 18 15 17 16 22 24 18 24 23 20 17 25 15 26 22 23 23 15 17 26 21 25 24 22 19 14 25 17 17 15 23 16 16 22 20 21 20 20 21 21 22 19 15
18 14 14 15 22 19 14 20 14 25 18 14 19 23 26 17 24 16 19 14 25 15 25 24 17 23 20 25 21 16 20 24 20 15 20 25 20 15 21 22 18 25 15 23 15 23 23 19 17 25 24 21 14 24 19 18 24 23 20 19 15 15 23 19
25 17 14 21 18 24 19 15 22 16 16 24 22 16 16 18 23 24 18 25 26 21 17 20 15 26 15 16 16 19 18 25 20 18 22 23 21 18 16 24 14 23 19 15 15 22 16 20 19 15 21 24 18 14 14 18 23 25 15 16 16 20 23 16
15 16 17 24 18 24 20 25 23 19 18 23 20 16 19 21 22 14 25 15 21 24 26 24 22 26 24 20 15 15 19 22 24 20 20 26 20 16 26 21 22 16 21 25 22 16 25 24 22 20 16 16 21 26 26 18 16 26 26 14 26 20 17 23
19 17 17 17 26 19 17 25 26 19 19 22 14 22 18 25 25 25 20 25 16 15 26 16 21 22 26 25 14 14 19 15 24 17 23 20 24 25 16 20 20 25 26 19 23 23 21 18 24 26 24 22 14 20 17 18 24 17 18 17 14 17 20 15
25 20 24 18 24 24 20 20 24 26 24 23 22 17 17 22 14 18 24 23 26 18 26 15 24 19 20 15 18 20 26 24 15 24 21 16 18 18 15 25 15 23 17 17 24 20 19 15 16 14 18 24 14 26 25 26 14 23 21 23 21 17 25 18
26 17 24 25 15 21 19 15 14 25 24 26 25 26 26 22 18 17 23 15 14 15 25 22 17 16 24 14 23 16 26 16 26 14 15 24 15 20 14 21 21 25 17 24 15 15 19 20 18 26 26 24 14 24 14 20 14 25 25 21 20 20 26 17
17 17 24 14 26 19 22 25 18 17 24 21 26 24 22 16 16 19 23 19 19 21 21 25 20 16 19 14 17 25 23 23 16 15 15 16 24 18 20 20 15 25 19 24 14 21 16 22 18 14 26 18 25 18 20 25 25 17 18 17 23 24 18 20
20 17 14 17 14 26 26 20 19 23 22 14 21 17 20 25 24 16 17 25 24 19 23 15 23 17 20 18 14 23 20 15 25 18 26 18 21 24 20 16 20 21 24 23 23 23 17 14 15 18 25 15 15 18 14 20 19 19 22 25 14 21 25 19
15 26 15 26 20 23 17 16 22 16 23 21 19 20 23 24 19 17 26 25 16 24 22 26 18 15 21 19 20 21 24 14 21 21 23 25 20 16 16 24 24 25 25 25 16 20 21 21 19 24 21 20 18 23 24 23 24 20 15 15 19 24 23 26
22 21 16 26 25 25 16 18 23 18 26 26 23 17 24 25 21 25 22 25 17 23 26 16 21 16 21 15 23 15 17 14 21 25 19 20 16 16 15 22 17 14 19 20 16 15 20 19 22 14 24 18 22 20 17 17 23 17 18 18 23 17 17 15
14 23 21 26 14 18 14 23 25 16 14 22 20 14 17 14 19 16 20 24 17 20 22 19 24 16 22 22 24 18 16 18 19 26 26 20 19 24 14 22 15 26 26 18 14 24 14 20 15 16 16 14 25 25 23 25 19 19 19 21 22 26 24 17
