P2
64 64
255
35 24 29 31 23 32 35 31 22 26 20 38 18 29 36 31 36 23 24 29 30 18 25 35 31 24 24 33 35 23 31 19 34 27 30 30 31 28 38 20 26 18 24 18 18 26 26 34 34 25 34 34 23 36 30 20 28 26 26 27 34 25 21 27
19 36 29 29 26 23 22 30 24 31 25 21 24 27 26 19 19 34 37 26 32 30 31 33 37 24 33 35 33 29 34 29 34 18 35 33 35 18 23 31 37 34 30 22 27 26 32 26 29 18 31 33 29 36 26 19 27 35 33 18 32 28 30 30
29 32 32 28 28 35 19 25 30 37 37 38 27 20 20 29 26 29 29 25 18 26 31 20 37 20 30 29 30 23 27 35 36 29 38 25 22 28 30 38 19 18 23 35 19 29 38 21 26 34 20 19 30 25 36 23 20 21 18 24 20 28 32 28
33 37 28 36 30 21 20 36 37 25 31 19 34 19 33 19 33 19 37 33 30 26 24 36 18 26 25 29 38 33 24 36 21 33 33 22 34 37 25 38 38 31 32 27 27 33 29 37 32 23 21 26 28 21 18 33 31 22 27 22 37 31 19 27
22 34 19 19 33 34 31 32 18 33 34 25 26 31 25 30 22 20 38 37 26 38 33 31 37 26 20 30 33 28 27 27 21 22 35 35 21 27 20 37 32 36 23 22 25 38 28 34 31 20 23 28 27 33 27 23 20 21 31 18 35 18 26 30
19 24 35 36 36 25 33 21 27 35 26 21 26 26 37 22 22 18 28 38 24 27 18 25 28 19 21 20 22 37 33 33 29 28 19 29 26 33 32 20 27 25 21 26 38 30 19 30 31 22 35 29 34 26 32 36 25 24 32 33 26 32 19 24
18 26 25 36 37 38 26 37 27 25 24 34 33 18 22 18 24 26 24 20 27 31 30 23 36 20 26 22 26 32 26 24 22 26 24 31 38 26 28 26 33 18 24 21 30 25 21 26 19 31 23 23 38 27 24 22 32 22 25 36 38 22 30 28
35 30 32 20 34 34 26 27 34 36 36 35 37 19 27 31 31 34 29 21 32 37 38 24 37 20 29 27 24 25 35 22 35 28 28 22 30 33 32 33 18 33 35 23 26 27 34 29 28 28 31 26 25 20 38 20 32 25 24 30 29 38 35 18
33 23 23 22 32 25 26 20 37 36 31 19 34 31 35 21 28 37 29 24 33 32 36 23 35 31 20 33 32 18 24 25 38 37 29 24 29 18 18 35 24 22 24 27 20 30 36 29 34 28 20 36 35 37 25 20 29 25 18 29 27 34 34 32
29 27 32 28 23 36 25 24 22 23 34 21 25 28 24 30 22 30 32 27 38 31 34 38 20 35 22 35 38 29 27 23 25 22 20 21 36 18 28 20 34 37 19 37 33 32 37 28 19 30 33 24 29 27 37 30 18 35 29 35 34 35 22 22
29 31 23 26 18 30 27 37 26 38 21 26 24 29 30 22 33 36 28 28 19 37 26 31 33 26 32 32 37 31 25 32 24 35 33 30 20 35 24 27 29 21 28 34 18 32 30 22 20 34 38 34 20 33 34 32 34 37 38 28 18 36 22 18
34 36 33 26 35 38 28 38 24 36 18 25 32 38 24 33 21 33 22 18 30 22 34 34 38 20 29 25 18 27 21 31 33 22 19 26 33 33 31 26 18 36 29 30 24 29 24 28 33 18 18 24 19 23 33 30 27 33 36 22 20 25 30 27
35 25 18 25 31 33 19 26 32 19 31 37 23 32 37 28 31 19 33 22 18 20 22 19 28 28 23 28 21 36 38 28 28 37 23 23 38 35 31 37 20 18 37 21 33 34 20 23 24 32 31 35 32 38 33 32 25 18 23 38 24 26 24 31
28 29 29 24 25 27 29 36 19 37 38 29 23 28 32 34 25 30 26 36 33 18 33 31 34 23 27 27 26 28 20 32 26 26 29 19 33 27 32 23 35 29 21 26 19 22 30 23 34 26 20 27 20 29 29 35 32 26 27 32 22 33 27 33
29 38 34 19 26 21 36 29 24 18 23 26 25 27 33 25 22 35 34 38 21 24 34 21 34 36 32 30 24 33 19 23 18 31 33 25 25 23 38 26 31 30 24 24 33 18 36 30 25 36 19 19 24 37 33 31 20 18 36 26 25 24 35 30
29 25 18 24 37 34 32 31 23 18 32 30 30 35 35 36 36 32 29 25 22 26 26 30 36 29 27 36 37 20 37 18 26 38 32 20 26 33 27 29 26 26 38 30 34 24 23 18 34 23 22 21 35 25 25 33 27 34 35 25 18 36 34 36
36 33 30 36 38 36 19 26 22 18 21 22 36 21 25 32 21 30 21 34 22 30 37 20 24 30 31 34 36 29 23 31 35 22 22 21 25 28 18 35 30 31 36 29 25 32 25 21 37 38 27 37 35 27 37 27 22 29 38 38 31 22 25 27
34 31 28 20 25 22 18 28 24 35 27 31 27 29 20 22 33 34 29 38 32 19 29 18 26 33 30 27 25 25 21 18 23 27 38 19 37 31 30 21 25 23 30 29 24 29 23 34 18 21 37 29 34 24 20 20 27 38 19 34 37 33 23 25
38 18 34 23 31 36 27 31 24 31 22 35 21 22 35 33 35 37 24 19 31 23 21 18 33 19 32 28 26 23 19 19 35 33 24 27 26 34 33 33 27 23 24 33 22 26 24 24 28 25 28 33 27 30 20 33 29 38 25 31 27 28 21 28
24 19 30 36 27 36 34 24 34 24 30 27 21 18 20 23 20 35 27 23 42 39 31 41 21 28 32 23 24 38 36 36 30 25 32 30 30 23 33 37 37 34 41 37 30 34 41 37 20 34 21 24 26 26 26 33 36 23 36 33 38 29 31 35
31 25 35 21 25 18 29 21 21 34 35 20 37 20 36 39 32 28 27 26 42 40 26 28 25 35 32 29 23 35 32 35 31 25 26 28 35 27 39 40 40 42 40 29 28 36 44 38 28 31 32 34 26 37 28 34 28 31 19 22 32 25 22 20
20 28 21 35 32 23 37 30 37 38 35 25 34 21 30 32 40 30 45 39 46 40 48 44 45 34 33 34 37 33 37 31 38 33 26 37 28 30 34 45 35 42 32 34 29 38 46 47 36 38 36 27 22 32 18 28 27 24 35 31 29 32 28 38
22 38 27 30 23 20 21 31 31 26 29 23 34 40 32 42 32 36 48 40 45 42 51 40 42 35 44 42 30 33 20 22 25 20 30 39 39 28 38 32 47 41 40 52 50 36 40 38 42 31 37 29 33 32 38 37 24 23 25 18 32 20 20 18
24 24 28 30 30 20 29 26 25 26 23 28 34 29 39 48 41 50 49 45 51 46 57 36 53 37 37 48 32 43 30 18 35 27 27 35 29 29 37 51 51 56 42 49 57 54 39 42 47 39 49 37 40 25 19 23 20 20 29 20 32 23 18 21
34 36 23 23 24 29 25 26 18 28 39 26 39 48 32 51 47 56 45 58 58 42 43 52 48 50 47 33 44 30 26 35 34 38 39 44 32 49 52 42 58 52 60 51 57 58 60 46 53 47 49 41 30 36 30 38 34 27 24 25 18 21 20 33
27 22 35 31 34 30 23 20 19 38 39 41 43 36 46 42 60 44 48 47 51 65 47 62 56 48 48 38 47 41 32 40 36 31 26 40 37 49 47 44 49 47 52 53 49 56 47 51 49 49 47 43 33 37 27 21 19 36 33 22 34 27 34 21
20 18 31 29 19 30 25 37 34 24 37 42 46 46 49 49 57 61 53 64 65 61 56 56 60 54 46 51 48 49 37 45 28 25 36 38 55 56 53 46 53 55 64 69 55 51 48 64 56 58 46 38 32 40 38 42 32 37 18 37 27 25 37 19
35 35 21 23 33 19 32 30 37 36 28 35 45 52 51 59 63 50 66 65 64 60 60 52 56 49 59 41 52 54 31 49 42 37 49 47 39 49 50 46 69 57 72 68 58 56 68 65 60 62 42 51 53 40 44 38 37 31 36 30 29 25 35 28
21 30 31 25 19 26 19 24 36 38 34 38 49 45 56 62 56 56 58 64 66 77 61 56 57 52 51 47 40 46 32 46 51 32 36 50 41 54 46 58 53 59 59 65 70 64 59 61 50 65 60 52 39 33 29 32 24 18 24 23 29 36 31 38
25 34 20 27 38 21 23 23 34 34 41 48 47 61 53 60 64 69 57 73 81 77 60 73 61 51 60 47 50 48 51 38 54 41 54 44 60 49 68 51 64 72 66 65 67 68 62 71 58 64 50 42 53 39 46 35 24 39 31 24 25 28 19 37
19 25 21 18 34 21 27 27 29 44 42 50 39 54 64 51 63 58 74 76 84 79 64 65 63 61 58 62 49 51 41 51 38 39 50 39 45 54 58 71 61 63 83 82 70 69 72 75 53 59 61 60 48 49 51 38 39 26 27 20 28 31 37 27
27 38 29 31 23 33 21 37 28 47 35 47 57 63 51 55 66 72 72 83 70 75 74 70 61 72 59 67 53 54 37 48 50 37 50 42 43 53 67 64 64 79 69 80 72 71 72 59 69 61 57 46 57 46 47 32 24 34 28 18 21 35 32 26
24 30 25 23 38 34 23 35 36 33 52 55 54 45 56 70 65 72 68 84 73 88 87 77 76 63 51 48 46 50 43 43 47 44 45 48 46 64 67 69 74 64 81 80 78 72 81 63 60 62 57 47 57 45 46 43 41 28 36 18 36 21 22 23
18 32 26 31 25 34 31 26 31 38 38 38 52 61 60 62 60 77 68 74 75 72 84 62 65 56 51 47 49 59 52 36 43 50 47 46 46 64 68 72 60 75 76 72 75 86 75 70 61 64 65 57 54 53 49 43 35 36 26 38 32 24 21 28
38 22 23 25 18 30 27 33 27 37 48 45 47 44 64 53 66 70 77 74 83 73 72 68 67 67 54 46 44 49 39 47 50 45 49 53 52 50 53 57 66 67 72 71 66 73 79 66 61 64 65 58 45 48 32 33 30 24 32 36 38 28 30 21
18 21 27 22 36 35 26 29 42 31 37 36 43 58 53 64 60 56 62 63 73 75 73 72 59 60 48 59 42 41 44 49 44 37 49 51 59 57 48 52 66 77 75 69 79 72 66 56 64 49 51 55 48 34 37 32 32 39 18 29 29 26 38 24
29 21 26 24 34 28 37 21 38 26 46 49 36 44 49 60 57 60 71 70 70 73 57 63 70 69 55 43 45 44 33 40 41 48 34 37 47 48 57 59 63 62 67 73 60 64 74 70 68 55 44 39 39 52 44 39 30 35 26 25 30 37 35 29
33 27 24 31 36 34 35 38 33 37 35 50 53 37 45 61 58 66 65 59 61 71 57 69 59 59 45 42 38 54 41 41 31 44 46 34 54 52 44 60 62 53 61 64 56 71 69 68 46 48 56 37 38 40 30 31 34 21 28 20 38 34 37 37
26 27 23 33 30 24 37 25 38 29 32 38 45 35 50 48 47 57 65 62 65 57 56 66 59 57 51 41 54 47 29 33 34 44 42 34 35 53 53 56 53 54 52 57 67 51 50 57 49 41 45 37 51 47 28 22 35 34 18 25 22 24 18 33
36 26 34 41 28 40 29 29 36 33 27 38 36 40 45 44 51 56 59 69 53 49 58 61 50 46 47 40 51 42 37 32 27 41 35 52 56 46 48 47 51 49 66 67 63 51 53 63 63 54 48 50 43 42 35 43 43 27 36 33 41 32 38 44
42 36 29 37 38 38 34 34 25 26 45 42 48 52 47 58 54 58 67 54 54 61 54 56 63 65 62 45 53 49 50 39 48 35 54 52 41 45 55 67 49 51 65 55 59 52 65 54 59 52 56 46 48 36 52 32 44 45 37 37 42 32 50 40
34 31 32 38 39 38 35 41 46 44 39 36 48 42 58 44 51 67 58 57 54 54 57 52 57 63 62 49 48 49 55 47 51 33 38 39 59 59 51 52 69 52 57 72 58 54 52 66 53 61 49 59 54 46 37 52 37 48 48 47 40 47 55 41
24 28 37 24 36 34 37 28 31 28 33 40 45 32 40 46 53 44 53 57 59 43 57 47 47 55 40 49 51 36 43 34 44 42 41 31 52 47 55 56 57 52 61 59 61 51 53 59 41 42 52 48 40 32 49 50 35 49 41 47 47 46 43 45
27 40 39 26 23 34 39 37 40 40 28 25 27 41 43 40 41 40 39 43 48 49 52 37 32 38 47 40 26 34 33 22 30 30 41 32 29 46 32 42 47 41 46 54 52 41 46 51 40 31 38 27 41 36 34 33 39 44 42 33 28 36 37 31
29 34 29 25 20 32 20 31 37 21 38 25 27 32 21 29 34 27 37 42 44 46 27 44 41 41 26 30 32 18 19 30 33 37 21 34 20 24 41 26 29 38 28 32 43 26 39 25 31 36 35 24 34 24 25 27 30 23 29 38 26 23 26 35
31 29 37 24 18 38 21 29 19 33 38 32 34 37 18 36 37 24 36 21 36 33 21 39 25 24 36 33 35 36 29 34 21 20 22 33 38 30 38 36 29 25 37 38 37 28 37 38 19 20 23 27 24 27 21 22 21 25 35 22 38 25 33 24
24 30 22 28 34 35 22 36 27 35 36 23 35 25 21 32 21 26 35 29 29 33 27 36 21 21 33 32 35 26 22 20 25 32 22 23 34 20 30 30 18 38 24 27 29 21 29 33 23 36 27 31 36 23 30 37 21 33 38 29 25 32 23 25
38 27 28 34 24 25 25 24 33 26 26 28 37 37 33 38 37 22 22 36 38 38 35 22 19 31 29 21 18 33 20 29 24 38 27 29 24 23 38 30 25 21 25 33 20 20 25 31 35 35 36 33 32 18 20 32 20 28 28 26 32 29 29 31
37 30 34 27 24 18 37 24 30 28 24 26 28 24 29 32 35 27 25 33 26 32 27 36 31 37 19 29 37 24 37 21 21 34 36 32 26 25 37 37 32 21 32 29 22 33 36 35 22 29 22 33 25 34 27 34 38 24 34 30 22 24 37 25
35 25 28 22 30 32 34 24 34 33 35 28 34 22 30 23 36 30 19 24 25 20 33 36 25 24 19 27 36 37 28 34 28 36 37 35 18 29 38 33 21 36 25 32 35 38 24 33 29 18 38 28 30 38 30 33 28 36 34 34 36 18 37 23
23 34 32 26 28 36 28 24 22 37 23 25 30 18 31 30 28 37 36 36 30 37 35 34 38 36 30 30 25 32 34 30 21 20 38 26 19 33 32 28 28 30 24 23 29 27 19 30 31 25 29 24 24 18 24 38 22 27 25 36 24 19 20 20
33 33 29 30 28 36 33 37 30 36 22 26 24 29 26 27 22 36 25 26 20 27 29 22 25 28 20 34 32 33 35 31 37 18 18 23 31 35 37 33 22 32 22 22 23 37 22 38 27 27 38 20 30 24 28 25 23 20 37 19 27 32 32 24
20 37 29 22 34 26 21 31 33 30 37 18 34 18 34 36 29 20 29 21 25 28 37 25 36 37 20 32 36 35 23 26 28 24 24 19 33 38 28 28 19 19 30 29 23 18 36 31 29 25 24 26 29 34 23 27 28 32 19 34 32 35 35 34
24 32 18 37 36 37 28 36 19 30 35 22 37 30 36 18 37 37 20 37 20 19 34 18 34 23 38 30 36 25 33 31 32 21 25 36 37 27 25 25 25 20 19 22 18 31 36 29 23 33 38 28 27 31 28 25 19 38 26 37 20 32 21 18
25 31 36 23 24 38 23 34 30 34 24 30 34 37 27 26 20 31 19 30 22 21 32 24 30 18 33 18 30 22 21 24 36 28 31 31 21 27 36 38 29 26 18 24 20 38 21 33 37 38 25 23 34 28 29 26 18 34 28 26 35 31 26 31
38 32 30 25 22 24 33 22 25 25 29 28 37 30 18 30 30 23 24 23 24 19 38 30 36 18 37 18 23 36 26 32 22 20 29 18 18 19 21 21 29 27 22 24 29 37 22 27 26 31 31 20 25 38 33 21 27 36 35 28 31 28 32 37
30 22 34 19 19 30 20 31 30 32 29 20 25 23 28 22 23 34 26 18 37 36 21 24 19 35 26 29 30 24 34 36 38 38 37 28 29 19 27 30 20 36 32 23 30 32 32 30 21 19 23 38 29 22 32 34 33 22 33 24 34 36 20 36
27 38 35 20 21 29 26 35 29 35 33 25 26 18 22 27 34 31 23 29 34 24 24 35 20 23 29 18 37 24 31 29 24 34 28 29 28 35 29 36 29 34 21 31 33 23 21 24 22 24 36 37 33 18 36 23 31 24 35 18 22 25 36 24
36 35 23 26 36 34 23 31 34 34 19 38 31 28 23 29 32 21 36 37 26 33 23 23 29 31 27 38 24 26 22 26 29 30 20 27 25 19 29 28 33 24 31 27 29 20 26 29 37 30 37 33 21 32 25 30 28 28 38 30 28 35 29 22
28 23 20 32 25 34 38 20 36 22 24 32 28 35 22 21 28 34 22 29 32 18 20 28 38 30 30 21 37 38 32 28 29 21 30 30 34 28 31 20 36 20 30 20 37 21 35 35 31 18 28 31 23 33 35 25 37 35 36 35 38 38 38 35
30 23 32 33 35 33 28 33 24 27 35 29 35 28 28 18 27 27 25 32 34 28 27 33 28 30 35 38 27 19 32 30 35 19 30 30 34 26 25 25 29 35 38 25 36 29 29 21 18 31 37 29 34 34 20 26 27 34 37 31 37 32 25 34
34 23 23 27 21 36 21 37 27 37 29 19 28 31 25 22 36 32 24 34 30 22 29 26 19 24 29 31 29 32 26 24 29 36 23 37 20 25 36 34 31 34 18 32 24 34 23 23 36 31 37 24 25 29 24 29 31 21 31 28 27 27 36 20
20 29 22 33 23 23 25 33 31 24 26 34 21 31 18 25 32 23 28 23 29 34 34 18 20 20 20 31 30 22 36 38 22 28 31 34 27 38 30 19 31 30 35 27 37 21 24 32 37 27 38 36 18 28 27 26 24 36 36 34 21 36 27 26
20 26 22 18 27 32 25 36 30 19 23 28 25 18 25 22 23 26 37 20 35 33 28 32 20 23 35 35 33 23 36 31 20 32 26 27 33 29 25 37 25 36 25 20 29 33 35 19 32 29 34 19 18 18 31 18 28 27 32 23 23 38 33 38
