P2
64 64
255
24 16 21 18 22 17 25 14 24 25 19 18 20 21 16 24 25 17 18 26 16 21 25 18 22 22 25 16 21 25 19 18 16 26 16 23 22 18 15 22 18 23 21 20 16 25 20 22 23 19 26 18 20 26 24 19 23 17 25 23 21 16 21 18
21 15 16 14 23 17 26 24 24 16 14 18 25 19 16 20 18 17 23 16 25 14 18 22 21 20 26 20 23 26 25 20 25 21 26 20 25 22 21 23 22 22 19 21 24 20 25 16 15 25 22 17 15 25 18 25 17 16 25 26 20 24 23 19
15 18 25 15 22 15 24 24 21 20 26 18 16 25 24 25 19 20 23 25 19 15 21 23 15 21 24 17 14 19 15 23 14 25 21 20 19 20 22 14 23 18 26 15 25 17 17 15 24 24 16 16 14 20 25 14 21 19 14 19 20 19 16 19
14 17 18 22 22 16 18 15 18 22 16 15 20 15 25 18 23 17 14 17 14 23 20 16 17 23 19 20 22 26 15 23 18 24 19 17 19 26 25 16 17 25 22 19 19 19 14 14 17 23 19 21 24 19 20 22 26 21 25 20 25 17 24 21
26 20 20 23 21 22 22 18 24 15 18 21 21 22 21 25 25 18 15 22 16 16 18 24 25 22 22 22 22 17 15 18 22 25 18 16 16 16 16 25 14 16 26 24 16 15 24 21 15 21 19 17 25 15 17 20 21 20 24 14 26 18 25 24
15 18 14 15 17 25 16 17 17 15 23 18 14 19 14 20 17 20 25 23 15 18 17 15 17 24 24 19 24 16 16 21 22 26 23 25 24 19 25 26 17 17 22 19 15 20 18 19 24 25 19 25 18 17 22 20 25 15 26 18 17 23 26 18
15 25 15 21 18 17 22 16 21 22 20 26 22 21 15 14 20 23 14 26 18 25 26 18 16 16 14 16 18 24 20 24 21 25 15 24 23 19 21 24 15 26 16 26 21 20 21 15 26 17 18 22 15 18 18 22 15 26 26 15 14 25 16 23
24 18 23 24 24 21 21 24 21 22 14 17 20 18 19 17 17 24 14 16 25 18 17 23 15 18 14 23 16 20 17 25 16 20 20 26 25 21 19 17 25 15 21 22 16 21 18 15 23 23 25 25 15 21 26 18 17 15 15 14 21 17 25 19
24 20 21 24 26 16 21 18 18 15 18 19 26 22 23 24 24 22 17 18 19 15 16 14 21 25 22 22 17 25 18 23 14 17 16 19 25 16 20 15 14 18 14 22 25 25 17 24 20 18 18 18 26 17 22 20 23 25 18 24 22 20 17 24
26 18 20 21 16 26 24 23 18 23 23 14 14 14 15 20 19 22 19 16 21 22 16 20 19 24 25 22 25 17 25 24 26 24 17 17 22 26 24 25 15 15 14 26 17 15 14 19 14 21 22 15 22 20 14 20 26 20 16 26 21 22 21 24
17 18 18 14 17 18 24 23 22 21 15 24 20 16 14 24 21 16 25 25 22 22 23 18 15 23 14 23 19 17 24 24 21 19 25 20 15 19 26 16 23 26 22 19 26 26 20 16 24 14 17 24 20 14 14 22 24 26 18 26 19 21 26 22
21 19 20 17 17 20 25 21 26 23 25 18 26 19 14 24 25 21 17 23 16 22 20 19 16 14 15 22 26 22 22 25 25 14 15 24 17 16 22 15 17 24 20 21 19 16 22 20 19 23 25 15 24 15 26 15 17 20 26 23 22 14 15 19
22 24 24 23 20 23 15 25 20 15 25 21 18 18 24 25 18 18 14 14 21 19 19 19 24 23 17 15 25 23 16 20 22 26 15 17 19 15 15 24 19 17 24 25 17 21 19 24 22 22 22 17 21 21 17 14 14 24 15 23 15 23 17 23
26 16 18 16 17 24 14 15 22 19 14 25 18 22 22 24 15 19 18 15 20 24 23 14 18 26 19 23 21 17 25 15 22 22 22 25 22 16 24 23 26 22 23 16 22 15 16 23 19 22 19 17 14 15 26 19 26 19 14 17 16 19 19 24
20 22 21 23 17 24 22 21 23 21 23 23 21 24 25 24 25 16 26 15 23 21 22 26 20 21 18 16 25 19 21 23 23 26 21 20 19 23 23 16 21 17 15 15 23 14 26 22 19 24 17 21 20 14 17 19 15 25 17 14 23 22 16 24
14 21 21 14 26 19 14 16 17 26 20 17 21 16 18 14 19 14 24 20 18 14 26 22 20 23 16 25 16 18 25 14 22 21 23 18 18 17 17 14 15 23 23 20 23 20 17 16 25 15 14 26 18 25 24 19 19 17 22 21 14 22 18 16
19 19 23 23 25 24 25 23 23 18 15 24 15 18 14 24 16 18 21 21 14 14 17 15 21 26 19 18 18 14 16 18 25 15 24 19 23 26 25 15 19 22 24 25 19 24 14 21 21 24 19 22 23 22 26 26 17 22 14 17 18 26 23 16
21 18 22 23 22 17 22 15 15 14 16 24 23 23 20 20 14 22 23 26 15 19 24 22 21 18 25 24 14 18 18 24 21 23 19 18 17 22 18 25 21 22 26 17 17 14 21 14 23 18 14 16 26 16 25 21 15 25 25 22 21 21 19 16
26 20 25 24 16 22 21 19 19 23 18 20 22 17 14 21 14 26 21 17 18 23 23 21 24 26 20 21 21 19 15 21 16 25 17 26 25 25 21 21 25 15 25 26 14 19 21 15 20 18 18 26 15 26 21 17 21 23 25 18 21 23 25 16
24 25 20 22 17 24 26 14 17 20 20 20 18 22 19 26 16 16 29 18 23 22 26 19 21 25 20 15 26 15 16 19 19 20 25 19 18 26 21 25 22 20 20 28 19 22 22 23 18 17 21 22 14 18 14 20 21 26 17 26 17 17 20 16
18 24 21 22 16 25 26 18 21 15 26 25 17 16 19 20 18 21 26 29 32 33 31 22 32 23 20 19 17 18 20 24 16 16 18 21 18 20 17 25 23 28 23 26 25 22 26 26 22 24 19 26 26 19 24 16 26 22 24 26 19 26 23 19
26 16 15 19 21 16 20 17 14 14 18 19 15 24 21 24 24 23 31 33 26 31 30 33 32 33 26 28 28 27 22 19 26 28 26 26 23 19 22 26 33 29 31 37 37 34 34 27 32 28 27 19 17 16 23 18 17 25 14 22 17 17 25 22
25 24 22 23 25 24 24 23 24 24 16 16 29 20 28 28 30 27 40 30 39 29 32 37 33 26 34 37 32 29 35 34 34 34 33 32 34 35 30 36 39 28 38 30 37 41 38 36 33 27 26 23 26 23 25 24 16 18 18 17 19 16 21 14
22 16 22 15 25 25 21 14 23 17 24 27 32 25 36 27 35 41 35 38 34 44 34 34 44 34 35 41 34 37 39 29 41 35 34 41 40 34 39 39 35 38 33 42 40 37 37 34 36 32 35 27 28 22 18 20 25 22 15 15 15 14 25 26
20 24 25 20 17 15 21 17 26 14 23 21 23 37 39 34 34 39 44 39 43 37 44 45 44 52 50 55 47 45 42 42 47 45 41 48 53 44 46 45 40 49 45 39 46 44 47 41 35 42 40 31 25 25 19 24 25 20 17 16 24 17 21 17
22 26 26 22 17 14 23 23 15 17 23 26 29 30 34 38 40 48 45 41 51 45 46 53 49 63 62 54 53 52 54 54 54 49 56 58 61 54 59 61 57 52 49 52 52 51 46 38 45 43 31 28 35 31 24 28 18 26 23 22 15 15 26 20
22 17 22 23 24 19 19 25 17 18 23 25 39 36 34 39 45 49 50 54 48 58 60 63 58 68 70 61 61 63 60 55 62 56 60 66 71 60 64 69 67 55 54 57 52 46 44 52 41 49 36 36 37 30 23 18 15 24 25 19 26 25 26 14
20 19 17 24 21 22 15 16 22 23 25 35 40 37 47 49 44 48 55 60 51 61 72 69 76 75 75 71 79 69 74 70 75 66 69 75 75 79 70 77 69 66 61 59 62 56 59 53 54 50 38 45 35 29 30 28 20 14 24 14 25 22 14 20
22 26 17 23 25 24 22 17 20 26 36 36 37 38 44 53 57 54 59 65 65 69 68 82 75 75 76 84 76 76 76 86 80 86 80 82 85 79 76 81 76 72 69 72 71 64 51 57 51 50 39 45 36 29 36 22 19 16 22 19 18 18 22 16
23 15 18 15 14 26 25 23 27 34 30 34 35 49 42 53 51 51 58 61 77 74 82 84 80 81 85 87 94 86 88 94 91 83 82 88 87 91 88 82 88 82 76 71 75 60 54 52 51 54 51 49 44 41 27 29 21 23 22 20 25 22 14 25
22 24 17 17 25 14 14 19 31 30 30 39 34 48 53 57 58 54 60 74 73 83 82 95 90 95 92 98 91 99 96 98 98 98 100 94 98 93 90 98 89 92 86 82 72 77 63 65 57 53 54 41 37 31 31 31 28 27 26 14 19 22 22 20
26 20 17 23 15 18 19 24 22 34 36 41 43 40 46 56 52 60 70 79 78 93 94 89 103 95 98 96 99 101 102 108 99 97 97 101 105 96 102 97 99 96 98 91 86 71 62 62 58 48 45 42 46 38 31 35 20 28 24 20 26 14 25 20
19 15 23 18 21 21 19 22 22 36 31 41 41 51 55 51 62 59 65 84 92 95 91 97 107 98 108 102 111 104 112 108 107 104 102 99 110 99 99 99 105 97 94 95 85 75 73 60 63 56 45 49 35 42 28 29 25 27 26 19 22 18 22 18
16 16 22 19 24 25 20 25 24 28 27 32 35 50 44 58 51 61 68 74 85 94 99 102 101 98 109 107 113 104 106 119 118 113 113 112 114 106 100 101 100 100 101 90 93 85 70 59 58 58 49 47 47 37 32 30 28 20 20 14 23 26 18 15
22 24 21 24 26 15 20 26 20 24 29 35 36 43 46 57 50 58 68 75 87 91 92 99 97 108 110 107 114 111 114 115 121 124 115 115 105 109 105 102 102 105 91 88 86 72 73 56 55 58 45 50 36 38 37 29 27 24 22 22 23 19 24 23
17 24 14 20 19 16 19 18 26 33 26 36 37 39 48 52 59 57 66 79 87 93 97 104 99 98 104 108 109 109 115 126 121 117 114 119 108 112 112 106 107 101 96 93 89 78 64 55 57 56 51 43 37 32 27 34 21 26 20 20 21 26 26 14
20 24 15 23 24 20 23 23 17 21 34 34 39 36 49 50 47 54 67 66 83 84 87 96 100 97 108 112 111 119 121 125 123 126 110 112 110 111 103 103 93 89 95 85 76 71 70 51 46 53 47 44 38 36 32 26 19 21 22 14 16 17 26 15
19 21 25 14 23 14 25 26 19 27 34 34 30 45 42 44 49 46 57 65 74 82 83 88 100 94 108 106 102 113 108 114 119 119 107 114 106 110 99 94 90 93 80 87 70 65 56 52 53 51 44 43 37 39 33 26 20 22 21 17 26 24 22 14
20 26 25 24 26 22 17 23 19 23 30 36 33 38 39 38 48 50 55 60 73 72 82 82 89 92 95 97 100 106 106 101 110 109 112 101 104 97 98 97 85 84 79 75 73 62 61 42 46 48 41 40 34 29 28 29 21 16 26 16 26 22 24 23
18 17 23 25 17 22 15 25 18 19 24 31 30 34 40 42 41 40 53 54 69 71 80 86 82 83 90 94 91 96 98 103 105 93 101 104 102 92 87 93 90 81 75 73 71 54 48 42 38 34 39 37 30 31 29 26 20 25 18 19 21 21 18 16
18 26 25 16 14 16 26 24 16 17 19 27 33 37 39 35 44 35 52 50 60 66 65 77 75 77 81 92 85 89 89 94 89 88 86 88 91 86 91 86 79 69 68 60 57 47 51 37 34 36 40 35 30 29 19 18 22 24 17 14 17 25 19 24
24 21 17 22 24 25 19 18 14 17 15 22 31 35 30 31 35 31 36 52 54 58 67 67 67 75 77 78 86 85 86 79 79 79 86 87 85 79 82 71 70 62 67 64 58 41 46 35 41 38 31 34 30 23 25 23 21 19 16 18 20 16 17 23
18 18 20 18 21 25 23 16 23 19 19 21 26 25 31 26 30 38 31 40 48 57 61 56 60 68 76 76 70 77 73 79 76 77 77 77 78 72 67 71 60 64 63 50 48 41 40 30 35 24 23 30 23 22 19 21 20 23 22 18 14 14 15 25
24 19 23 16 18 24 25 16 18 14 23 25 15 22 28 22 30 23 27 28 34 47 51 48 57 59 68 65 64 62 63 76 72 73 65 61 69 65 65 59 55 55 53 43 42 28 25 35 27 32 26 19 16 14 17 23 15 14 25 20 14 18 23 21
25 16 23 20 26 22 19 26 15 20 26 14 16 26 16 25 30 31 28 31 35 39 40 48 51 53 53 52 63 65 64 67 61 70 60 67 63 55 53 58 54 51 42 44 33 22 25 24 18 17 23 15 17 19 21 22 14 26 22 22 16 17 14 24
18 20 21 18 18 21 17 24 16 16 17 18 20 26 15 21 15 20 24 21 30 28 36 40 47 45 51 54 50 54 52 62 56 59 56 57 59 53 46 40 37 35 32 36 30 23 24 26 16 15 18 24 25 20 23 17 15 15 21 17 18 17 23 16
14 25 14 16 15 25 18 20 18 21 20 26 23 26 20 16 14 26 19 18 18 22 20 25 33 32 38 50 48 46 44 50 56 54 54 50 50 45 41 41 37 33 24 22 16 26 18 16 19 26 15 26 21 25 14 17 25 26 23 22 24 19 22 22
22 19 14 26 21 23 20 17 15 21 15 26 24 22 26 19 23 24 18 25 22 19 25 26 28 37 30 35 40 40 50 46 42 48 38 39 41 36 41 27 28 23 18 22 14 19 24 18 22 25 24 25 24 24 22 15 19 20 18 23 15 20 14 17
22 16 15 24 22 26 23 25 25 17 25 14 18 19 15 24 19 20 16 19 17 16 14 15 21 33 31 29 39 39 38 38 33 41 34 31 38 37 34 31 24 26 26 25 22 15 21 18 14 26 14 15 26 20 19 17 17 17 14 19 16 17 26 24
14 26 17 20 18 15 22 14 19 23 25 14 23 21 15 23 21 19 17 16 25 20 22 14 21 25 29 32 31 29 30 31 32 36 35 31 32 22 22 16 26 17 22 24 18 26 25 20 20 24 22 14 23 18 23 14 18 18 17 16 19 18 26 22
20 19 14 16 19 14 14 15 19 20 19 14 18 18 15 20 17 16 17 20 14 17 16 18 20 22 17 20 18 28 30 21 23 28 29 21 21 20 21 24 16 22 21 22 17 20 24 26 19 18 17 24 22 25 26 17 18 26 16 26 15 15 18 20
18 21 26 15 16 14 14 16 24 20 18 19 15 14 22 20 26 14 18 17 18 26 26 15 15 26 18 21 24 15 25 27 15 24 16 26 15 22 20 15 24 15 21 15 26 23 24 23 26 24 22 14 17 24 21 22 14 26 17 26 24 25 25 22
16 21 23 21 23 25 26 22 19 18 24 26 23 18 17 17 16 24 19 21 16 19 19 26 25 19 14 25 25 21 23 21 16 25 14 25 16 15 21 16 24 23 16 18 20 25 19 14 15 21 17 21 19 24 16 22 20 22 26 18 15 23 15 16
16 14 18 25 17 23 17 26 23 22 23 22 22 26 16 15 26 26 24 20 26 18 21 23 18 14 24 14 19 15 17 23 14 24 15 25 17 18 24 15 23 23 22 23 24 15 24 17 26 20 14 24 15 14 21 20 25 15 15 16 24 14 18 24
15 17 21 19 17 26 14 18 20 26 21 15 17 20 15 21 20 23 26 16 24 22 20 23 17 21 19 24 15 19 26 23 14 18 15 17 17 17 14 26 25 23 16 16 21 20 17 14 24 25 23 21 16 18 21 21 14 25 24 17 26 18 20 26
16 17 19 21 17 14 25 14 23 26 18 26 17 25 25 14 14 26 14 18 15 15 16 15 25 26 21 19 22 23 26 15 19 26 17 21 25 26 22 19 17 25 18 20 22 15 25 23 16 15 22 21 17 18 19 26 16 22 22 15 22 14 25 24
19 24 19 18 23 24 21 25 23 18 21 25 24 21 24 18 23 16 20 19 20 19 21 14 18 17 18 26 24 23 25 15 20 14 22 19 15 25 16 14 18 24 17 22 26 14 20 20 22 15 19 24 16 19 22 14 22 17 22 15 26 17 26 15
24 24 23 23 22 23 16 21 21 23 17 25 15 14 24 26 20 14 23 18 15 19 23 20 17 18 23 20 14 23 20 21 24 19 21 24 20 16 20 23 14 16 14 14 20 24 25 26 17 17 19 15 15 15 17 20 19 21 25 22 24 24 20 16
26 17 15 20 24 17 25 14 20 23 21 24 16 23 19 16 21 23 23 17 14 22 23 25 25 24 20 21 15 22 22 24 20 15 21 14 17 15 15 23 23 22 26 19 26 24 26 24 16 25 19 14 14 16 21 14 14 24 14 15 16 25 23 17
19 18 20 16 20 16 17 18 14 26 14 23 21 23 17 14 15 16 23 26 16 25 25 17 19 24 16 21 24 14 21 17 22 19 17 23 20 22 21 20 17 25 19 14 20 17 23 26 15 20 15 19 22 26 23 17 17 16 17 15 16 14 24 17
21 16 23 14 16 21 17 15 22 20 19 17 20 18 20 17 21 17 23 14 15 14 17 23 25 20 26 21 22 22 21 18 18 22 15 25 20 20 22 14 22 17 24 20 25 24 15 19 18 26 21 26 16 14 25 15 24 14 18 20 26 20 25 26
22 25 22 24 24 23 19 26 22 24 18 16 26 26 21 25 18 24 21 19 20 22 20 23 16 20 26 15 22 21 25 24 20 23 25 19 26 15 14 16 23 18 21 20 14 15 16 17 24 20 21 15 17 24 25 25 25 18 17 18 20 25 18 21
26 23 17 20 18 24 17 14 18 22 20 21 18 20 22 18 26 21 16 15 20 22 24 23 15 18 17 16 18 22 16 22 15 23 21 20 15 17 23 17 26 16 16 25 16 22 15 17 17 22 24 24 16 22 14 24 17 21 17 15 21 18 21 22
15 14 20 23 15 17 15 23 22 21 23 25 16 18 16 20 23 26 24 23 25 19 17 25 21 22 20 19 23 25 18 18 25 19 15 15 20 24 26 23 16 16 14 17 22 19 15 20 16 21 15 18 23 17 18 18 20 14 20 17 19 26 22 14
