P2
64 64
255
20 21 26 24 23 17 22 18 16 15 17 16 18 22 17 14 21 14 22 25 17 22 20 20 16 16 23 25 15 19 19 17 15 24 15 26 24 25 14 16 18 14 20 18 20 16 18 23 24 15 21 16 16 18 18 20 15 25 16 19 19 24 21 24
22 21 14 17 19 15 14 14 14 15 14 14 24 18 25 19 21 16 19 17 23 21 22 20 14 23 22 25 21 22 15 21 26 23 19 14 20 26 14 15 25 14 17 17 17 25 21 16 19 22 14 16 15 22 22 26 18 19 17 15 23 22 17 17
24 24 19 22 18 18 23 15 24 21 24 23 18 14 15 20 17 21 14 25 18 26 26 14 17 23 25 21 24 17 23 24 25 18 17 23 19 19 20 19 18 22 16 18 25 18 26 25 19 19 24 20 16 19 16 24 19 25 24 18 19 14 18 16
23 26 20 16 23 16 19 22 25 18 17 21 17 24 20 24 25 15 18 19 16 26 21 19 16 16 22 23 17 16 25 17 20 26 21 22 18 15 22 20 14 16 15 17 17 21 21 21 26 17 19 25 22 20 25 15 22 21 25 26 18 25 16 18
26 22 16 18 26 25 16 24 25 24 25 26 20 25 20 16 23 16 20 25 16 24 16 20 22 22 14 14 24 22 21 21 21 26 18 17 19 20 23 25 18 17 16 19 15 17 25 14 18 19 17 24 23 24 23 20 26 17 14 15 20 19 21 25
24 22 18 26 24 14 26 20 17 17 18 25 21 22 17 23 26 16 26 20 23 19 23 17 24 25 19 17 18 20 16 17 20 26 15 25 14 20 15 16 22 17 21 21 25 21 26 20 15 26 19 22 23 22 20 20 19 16 25 14 23 15 23 19
17 16 22 25 18 19 22 19 24 16 25 15 23 17 25 19 14 18 15 14 16 20 24 17 19 15 14 17 22 14 21 14 20 24 14 21 18 19 20 14 16 24 18 17 22 26 15 14 19 17 21 22 19 20 24 15 17 26 18 25 20 14 22 15
23 21 14 21 20 23 20 24 15 16 14 26 16 17 14 14 25 26 16 23 23 22 20 15 19 18 19 24 22 25 25 18 24 24 19 18 15 18 14 23 23 26 19 22 20 20 19 19 15 17 23 26 18 18 19 14 22 15 25 20 22 17 26 22
21 20 19 19 18 19 24 16 18 16 19 21 19 24 19 15 26 20 22 17 20 14 21 25 16 14 14 16 26 24 15 14 22 21 26 26 16 24 15 22 18 18 21 17 25 23 23 20 23 24 14 24 24 21 15 23 15 26 17 17 19 25 15 22
25 18 19 21 19 20 20 15 22 20 21 22 16 19 14 16 20 17 23 23 22 18 15 26 24 23 22 14 26 17 21 23 22 24 19 15 15 18 15 17 16 21 18 14 14 16 17 20 21 24 18 19 18 23 23 18 17 21 24 14 19 22 25 20
19 19 14 24 14 22 15 26 26 20 19 20 18 20 19 19 14 25 22 16 26 17 15 17 19 22 17 16 22 18 17 24 21 14 25 26 25 20 21 18 14 15 24 19 20 14 18 26 24 18 24 17 20 22 26 26 15 19 16 15 24 15 15 26
17 17 15 24 20 14 18 26 18 26 25 18 14 22 26 14 21 26 26 25 26 23 19 14 16 17 25 25 25 17 23 15 24 15 22 20 22 19 26 20 15 22 21 24 23 21 23 25 19 21 18 16 21 16 18 15 22 24 21 25 26 26 24 25
16 23 16 17 14 17 24 23 18 25 26 24 21 16 24 15 26 20 24 26 24 26 22 17 17 26 16 22 18 15 16 24 22 15 25 23 25 20 18 16 24 16 23 14 21 17 22 20 21 22 21 14 24 26 22 16 20 17 21 21 16 26 19 15
19 19 25 19 23 24 16 19 14 22 26 21 17 25 18 23 26 21 17 15 20 21 22 25 23 15 20 21 15 21 24 20 18 14 15 22 14 21 14 21 20 16 15 23 18 26 19 15 25 22 25 19 23 21 15 20 15 18 14 22 26 18 18 21
22 21 20 26 18 16 24 24 16 23 18 26 18 26 16 15 22 16 25 15 22 23 18 21 15 21 25 15 18 19 17 18 25 14 26 16 25 20 20 22 25 18 20 22 19 18 26 19 18 17 21 26 24 14 17 20 18 26 20 14 19 15 25 23
14 19 19 18 17 14 19 15 20 16 22 18 24 19 20 20 22 16 17 20 22 25 17 26 21 15 16 15 22 24 18 21 20 17 14 18 26 17 22 15 26 15 26 23 14 14 23 25 15 14 24 20 19 17 22 26 15 17 24 24 16 25 21 20
14 22 26 26 20 24 17 15 15 21 25 15 22 25 22 14 22 22 14 22 16 22 18 16 26 25 23 14 25 23 19 20 14 22 21 24 22 25 23 20 17 19 15 15 21 20 24 15 26 14 16 20 24 21 16 15 19 20 21 15 21 26 19 23
19 24 14 15 19 25 26 14 14 23 20 17 15 16 21 20 26 20 20 25 17 26 23 23 25 24 20 26 22 18 17 19 26 17 24 19 16 16 17 23 23 20 24 19 14 25 24 14 26 19 15 22 16 16 17 20 24 24 18 24 23 23 24 25
19 17 19 19 19 19 19 14 15 21 23 18 17 16 20 26 24 25 25 22 17 23 15 19 22 14 25 17 17 20 16 20 16 22 17 15 22 16 21 15 23 20 22 15 19 15 25 18 25 16 21 21 20 15 17 17 18 17 18 26 19 14 22 22
22 22 19 15 22 25 26 26 16 16 15 20 17 21 16 22 17 26 28 20 28 29 22 26 22 23 23 14 15 20 20 15 21 26 24 17 16 20 20 19 24 22 25 27 29 21 24 27 21 20 26 19 22 25 17 14 22 17 22 19 23 14 23 22
23 20 24 22 24 15 25 24 20 16 20 16 25 15 27 20 24 28 23 26 22 22 27 30 30 26 27 22 25 15 24 16 15 16 25 22 16 25 17 21 21 31 27 30 30 23 32 29 18 26 26 25 20 25 18 22 15 21 20 22 24 23 14 24
22 23 25 15 25 23 22 17 19 19 16 25 25 25 29 21 31 26 25 33 35 32 30 33 27 25 29 22 19 17 26 29 19 17 22 21 17 21 27 22 32 24 26 37 35 28 32 29 30 20 27 20 20 15 19 17 22 23 15 15 18 21 19 14
17 16 24 21 21 16 16 16 16 15 21 18 23 32 22 28 26 35 38 38 33 30 35 30 37 37 33 29 29 33 27 35 31 30 29 25 35 36 27 31 37 38 32 39 32 33 40 39 36 25 27 24 25 15 21 24 16 24 24 16 15 23 17 19
19 17 14 14 20 14 22 23 19 17 16 17 30 25 34 39 36 42 39 42 33 45 34 36 37 45 44 44 40 36 43 39 41 36 38 45 37 39 45 36 41 42 45 34 37 42 38 33 35 32 34 32 31 22 26 18 25 20 20 16 19 17 15 23
16 24 15 22 20 22 15 16 17 16 29 21 35 32 35 37 33 41 43 44 47 38 37 41 47 52 54 45 53 46 42 49 45 45 41 49 45 47 44 44 43 44 48 48 46 47 37 40 45 31 37 36 33 27 27 14 23 25 25 23 26 14 19 22
21 14 26 19 16 20 17 18 19 19 22 28 31 39 37 36 45 48 50 47 42 49 47 47 52 54 57 61 59 55 58 47 55 50 57 50 62 53 55 59 57 55 53 43 43 52 49 39 39 39 35 29 26 33 25 24 17 17 14 23 26 23 19 24
15 14 24 26 26 21 19 19 18 28 30 32 33 41 37 40 40 43 50 52 49 52 52 66 61 66 63 72 71 64 65 62 66 65 68 66 70 68 64 69 58 60 63 50 57 49 44 41 48 46 40 33 28 33 26 27 20 23 14 19 19 23 18 16
14 23 25 19 17 22 26 15 24 23 30 28 32 40 42 42 50 51 47 53 54 65 71 66 66 77 67 80 68 70 69 73 64 70 65 79 68 77 67 69 71 68 71 63 54 51 47 46 51 41 41 35 36 37 25 27 19 19 24 17 17 14 25 23
26 26 17 20 15 14 18 24 18 24 26 31 43 41 46 53 55 57 50 62 68 67 79 74 82 76 85 79 83 83 82 80 83 79 72 82 78 79 75 76 75 76 73 67 60 65 53 59 55 54 48 41 39 36 35 27 26 18 18 23 17 18 23 14
26 24 17 14 21 20 25 21 20 31 34 31 39 38 51 49 57 57 64 68 73 72 77 88 87 87 84 85 83 86 86 89 92 86 81 93 83 86 85 84 91 78 81 78 67 63 56 52 48 51 44 40 34 34 34 25 23 26 17 16 25 24 21 21
22 24 25 20 20 24 14 17 24 31 30 31 38 39 42 56 60 54 69 72 72 86 91 94 86 94 100 92 101 92 89 90 99 97 93 97 94 89 94 95 86 85 91 85 77 66 69 53 51 53 49 42 40 31 36 24 27 15 23 21 19 14 19 15
16 20 21 23 26 24 24 20 25 23 28 41 39 49 45 59 57 57 62 74 80 89 89 96 93 92 95 94 99 104 106 105 104 103 103 94 106 102 105 93 97 97 95 87 90 73 65 57 55 47 52 50 40 34 36 33 26 19 14 23 21 22 23 18
21 23 17 14 17 15 24 18 30 33 28 34 44 44 55 51 61 64 73 74 84 97 96 101 102 100 102 109 110 110 104 113 109 107 107 109 102 102 100 102 107 93 95 91 85 86 71 58 55 52 50 44 45 41 35 31 24 24 26 25 24 26 17 22
26 19 23 21 16 21 22 21 24 23 37 38 47 39 52 58 61 57 76 80 93 91 103 106 100 101 110 109 103 112 114 119 112 118 116 113 111 112 101 107 104 95 97 97 82 82 72 55 55 51 45 46 36 37 33 26 21 18 18 15 24 21 20 16
19 17 17 21 18 20 21 15 23 33 35 41 40 47 48 53 59 63 69 78 90 94 95 99 107 104 111 116 110 113 116 126 116 114 114 115 105 104 103 107 99 97 100 87 89 74 64 58 50 57 49 50 45 32 30 28 23 20 17 16 15 15 24 21
17 17 20 24 14 25 20 16 23 34 26 42 38 41 52 49 50 58 69 71 84 83 93 98 106 107 106 115 110 110 117 120 125 121 115 118 110 111 108 101 99 104 95 87 79 70 67 65 50 45 45 43 35 33 26 27 29 17 23 26 21 15 22 23
25 16 19 20 15 17 24 26 29 25 29 37 37 42 44 43 56 50 70 69 79 83 96 95 101 103 109 111 114 120 122 126 128 119 118 114 110 104 100 96 95 97 91 79 80 73 62 54 47 47 45 42 35 33 33 33 18 23 19 24 19 20 22 21
26 14 22 24 17 17 14 25 23 30 32 27 31 34 43 44 44 56 67 73 79 78 92 91 100 105 106 100 112 109 111 113 117 119 113 112 110 99 104 101 101 95 81 86 73 73 58 51 49 41 48 34 39 39 27 23 19 19 14 25 19 22 26 26
14 23 24 22 25 14 15 14 18 19 25 33 40 40 34 49 45 45 56 66 70 80 85 80 92 91 102 104 99 102 112 112 114 101 113 103 109 103 100 96 88 90 81 72 65 67 59 43 41 40 38 36 35 25 27 18 23 23 17 15 18 24 19 17
22 21 21 18 20 24 21 15 26 26 22 33 28 28 38 42 47 50 46 57 64 71 80 84 91 83 96 95 93 105 93 96 97 101 101 101 92 96 95 87 83 77 80 71 71 64 53 48 47 46 42 36 31 34 27 16 24 18 15 14 16 20 14 20
22 21 25 26 21 18 24 14 22 16 17 23 23 29 36 41 41 34 41 58 56 63 72 72 84 85 90 83 86 86 96 91 92 90 98 97 91 88 81 86 80 76 71 67 58 47 48 46 35 34 33 35 34 29 26 23 22 15 24 22 25 17 17 24
14 15 26 14 16 14 17 25 14 17 18 22 20 34 26 35 30 42 36 51 58 61 65 65 77 78 79 80 78 80 89 83 85 87 79 88 77 85 85 72 77 62 62 55 52 52 39 35 31 29 28 25 27 21 22 22 19 22 15 18 17 19 16 24
14 16 26 15 16 14 22 18 19 15 25 22 26 29 32 33 37 29 32 39 41 46 57 56 60 75 70 76 79 79 81 76 82 75 81 73 71 69 70 70 61 65 55 54 44 37 37 30 30 36 27 26 22 16 24 24 15 19 23 20 19 19 26 23
20 18 25 15 18 18 25 18 17 26 26 20 22 24 26 30 24 27 25 37 34 38 46 56 63 65 65 60 63 62 64 67 70 68 75 70 66 71 64 62 56 50 44 47 37 30 27 31 26 27 25 25 19 16 19 16 21 21 21 22 23 26 20 26
14 17 18 23 26 22 18 25 18 19 20 26 21 14 25 25 26 21 32 25 34 38 48 52 51 46 52 61 56 61 65 67 63 69 57 57 61 56 61 47 56 45 44 39 27 23 28 21 25 24 18 22 16 15 15 24 25 18 14 17 22 21 18 24
14 20 22 17 14 18 21 26 26 16 20 23 19 25 21 15 16 27 19 25 25 35 32 37 46 43 47 49 58 53 55 62 64 55 62 57 47 48 53 41 39 44 40 27 31 28 25 20 27 22 22 19 15 24 15 23 20 25 26 20 25 19 14 22
16 23 24 21 25 25 24 23 19 24 22 14 15 19 17 18 17 20 24 18 22 16 28 34 34 44 48 47 48 51 49 50 53 50 56 52 41 49 40 32 40 28 25 28 23 26 18 20 16 21 14 19 21 17 26 26 19 26 16 20 16 17 25 24
22 25 23 25 24 25 23 25 17 21 21 17 22 25 19 18 19 20 21 26 15 19 25 30 24 29 32 34 42 40 45 39 41 45 50 40 44 42 31 32 29 26 24 18 17 21 14 17 18 20 23 16 22 16 18 17 19 14 18 23 19 17 17 22
24 16 20 16 19 16 17 16 17 14 14 17 15 24 24 20 17 15 15 24 22 14 21 15 30 29 27 34 36 32 32 35 44 34 37 35 32 32 28 25 27 22 16 24 17 17 18 17 15 24 15 17 17 16 21 23 16 14 23 20 16 20 25 26
23 16 23 19 16 25 15 20 25 21 18 20 23 26 14 22 21 18 16 16 19 14 25 24 21 22 26 32 29 31 26 38 30 34 36 36 33 21 28 19 17 24 18 22 19 18 14 18 24 20 17 20 22 25 24 25 16 20 19 23 15 23 19 16
26 14 14 19 17 24 16 17 19 24 15 16 18 23 17 15 17 21 25 22 26 17 19 15 15 20 18 26 21 24 27 22 22 29 22 23 17 17 23 19 25 21 23 22 20 25 15 23 16 14 23 18 23 17 15 16 23 16 19 20 14 21 21 17
25 23 17 15 21 17 20 14 17 22 22 21 17 16 14 16 23 22 24 15 23 16 19 22 22 16 23 18 21 16 23 24 26 27 16 18 16 22 23 24 24 21 19 21 21 22 15 22 20 15 24 25 22 18 22 21 20 21 26 16 25 15 15 18
17 21 24 26 14 20 14 21 15 20 21 26 18 18 22 19 15 17 22 15 23 16 18 26 23 26 17 20 26 19 18 16 21 21 25 19 26 22 23 21 25 24 21 17 15 14 16 19 20 14 26 17 18 15 26 25 25 14 14 26 18 19 14 23
23 16 18 25 25 22 20 20 23 14 23 16 25 15 21 21 18 21 18 26 26 14 24 26 25 22 20 21 15 17 24 20 25 20 21 19 18 25 14 20 16 18 22 25 26 22 15 25 16 21 20 21 26 22 25 20 17 14 24 19 14 23 19 20
16 17 18 17 17 26 16 14 16 19 26 22 15 23 25 20 26 24 16 17 17 15 17 26 26 17 14 25 21 26 26 16 19 20 20 23 14 23 24 26 16 25 14 18 23 22 18 17 26 17 20 14 16 15 25 20 15 25 23 21 23 17 16 16
25 15 14 15 17 22 20 26 17 26 16 24 17 22 22 21 17 22 23 24 26 25 16 17 17 26 14 22 24 25 14 19 26 14 17 22 15 25 26 15 21 21 22 20 24 24 22 25 15 26 23 22 15 21 15 22 17 25 24 14 25 24 17 19
20 14 14 15 19 19 14 19 24 17 23 17 25 23 16 18 15 14 16 20 22 22 24 17 18 14 14 18 19 24 15 18 24 18 14 23 18 17 18 26 20 24 17 18 22 24 20 24 16 17 25 18 24 25 23 21 22 17 23 25 17 23 22 14
26 26 22 18 26 20 18 14 23 26 24 26 16 24 22 15 15 24 20 23 20 15 25 22 18 21 20 26 15 22 17 25 16 24 26 19 14 16 22 16 18 16 17 20 15 23 26 15 23 18 26 22 18 26 21 25 15 14 21 20 25 23 23 16
14 15 24 20 14 26 17 25 20 22 17 22 25 24 15 24 21 26 20 26 21 26 22 25 19 21 19 17 18 20 15 19 18 18 26 23 14 26 22 22 19 26 14 25 22 17 16 20 15 25 16 20 20 14 19 25 23 23 23 22 21 19 19 23
17 21 19 24 19 15 21 15 22 22 20 23 16 18 19 17 17 15 20 25 20 17 18 25 21 15 14 23 15 20 26 21 24 23 21 20 24 24 23 26 23 22 26 14 16 22 19 18 24 16 24 23 22 16 19 19 19 24 23 24 22 21 15 22
24 15 21 24 22 25 19 26 26 20 22 14 17 16 17 17 19 22 17 14 23 25 17 22 14 14 16 15 20 20 18 20 26 26 17 26 17 17 24 14 18 18 19 23 25 19 21 14 14 23 23 21 20 25 21 15 19 19 15 21 23 14 19 17
14 19 18 22 17 20 18 18 22 23 21 18 22 16 23 24 18 26 22 17 26 20 22 25 20 25 18 17 17 19 19 17 14 23 22 24 15 20 23 14 15 26 23 25 14 25 22 24 22 24 16 23 14 20 20 19 24 17 22 19 26 24 18 16
26 16 23 14 25 15 17 17 17 24 19 17 14 26 19 18 19 16 20 15 26 15 25 18 22 20 23 19 16 22 21 26 17 15 24 24 21 18 21 26 22 17 23 25 15 21 16 26 15 17 18 24 24 17 16 25 25 22 26 20 18 15 19 19
16 18 22 26 23 16 25 26 22 16 14 23 16 23 14 14 24 16 15 19 21 16 18 20 16 19 20 24 25 26 17 21 26 14 19 22 26 15 23 25 17 24 19 19 21 18 15 20 15 26 17 23 26 14 15 23 14 21 14 21 26 18 21 22
