P2
64 64
255
14 17 17 14 24 20 19 26 25 21 14 17 22 15 20 26 22 21 26 24 20 23 15 25 26 24 14 26 21 24 25 19 23 26 25 26 17 23 14 24 19 15 17 15 17 15 23 23 24 19 15 21 26 14 21 20 19 18 14 16 21 22 23 19
20 25 23 15 26 19 19 15 20 24 19 23 25 24 20 25 18 14 20 17 16 15 15 23 15 22 16 25 22 16 21 23 14 19 15 25 21 19 21 16 18 26 22 20 16 21 25 16 21 14 22 18 24 26 24 18 22 15 17 26 24 26 24 17
24 23 16 19 22 24 21 16 20 22 21 22 14 24 26 20 17 22 16 23 26 24 25 22 14 25 18 22 26 15 14 23 17 15 14 20 14 15 14 24 26 21 20 16 16 18 21 20 23 19 26 19 23 23 23 18 20 21 20 20 17 26 26 26
16 21 21 17 20 26 25 23 25 21 23 21 22 14 24 25 17 26 18 25 22 25 24 20 25 19 16 17 14 14 25 17 18 14 23 26 19 23 19 21 15 23 26 14 24 14 26 25 23 16 19 17 23 19 24 25 18 19 23 19 18 18 26 15
17 17 25 24 14 21 17 17 14 23 24 20 16 20 22 21 15 26 26 26 15 17 16 15 14 17 22 20 14 23 20 19 16 24 18 24 19 19 20 26 19 21 18 15 16 22 24 23 21 23 22 14 15 26 20 15 15 22 18 17 17 18 15 26
17 26 25 24 23 25 24 17 26 26 25 22 25 16 22 25 17 21 25 15 22 17 19 17 24 16 20 26 17 14 17 15 15 17 17 17 22 19 22 25 17 24 22 25 14 21 17 18 23 16 20 26 15 26 18 20 18 16 21 25 21 14 15 19
14 26 24 26 23 15 19 25 16 19 17 21 14 20 26 19 16 21 21 14 26 24 24 26 20 24 24 17 25 14 22 23 22 23 16 14 20 14 23 15 23 18 21 17 15 22 19 25 21 24 14 15 21 17 26 21 24 17 20 22 20 23 21 19
24 20 16 21 21 17 22 25 17 15 23 23 14 26 24 25 19 23 23 16 24 16 24 25 18 26 26 16 25 21 22 15 14 18 14 15 22 22 17 24 26 25 17 16 23 20 23 24 20 24 22 16 17 16 20 24 24 24 14 20 24 15 14 19
21 18 16 24 23 17 20 16 14 21 22 21 20 16 21 16 22 16 22 23 25 16 25 19 18 25 18 16 20 24 26 20 23 26 21 21 24 21 24 22 25 16 16 20 21 14 22 21 23 18 26 21 23 19 25 23 20 21 18 14 18 22 23 15
25 19 26 26 21 23 14 16 20 14 19 16 25 21 17 21 20 25 23 20 14 18 21 19 16 14 23 18 21 15 14 17 17 21 16 25 22 17 26 22 25 21 23 16 25 15 16 15 16 26 26 22 20 26 23 14 14 20 24 24 24 21 25 20
20 15 14 23 23 25 24 21 17 23 22 18 25 18 16 26 24 22 22 15 15 20 19 26 17 16 24 18 18 22 20 21 17 21 26 23 14 19 17 25 16 22 26 24 23 18 15 22 26 23 20 15 14 17 20 18 24 21 21 22 24 24 26 20
19 25 21 24 17 20 17 23 24 22 22 19 24 25 21 18 22 15 16 16 23 24 26 19 17 15 24 21 21 23 18 21 19 19 20 20 23 14 15 26 19 25 18 26 15 20 15 17 24 17 26 18 24 14 26 17 15 21 24 16 19 19 24 21
15 25 24 16 23 14 15 19 19 17 22 17 17 14 26 25 19 20 23 22 17 21 24 26 25 20 22 15 21 21 26 22 19 15 19 18 20 22 21 22 23 25 20 19 18 15 17 22 24 25 19 19 25 25 22 15 26 24 16 18 14 18 19 18
26 21 17 25 16 18 26 21 19 17 19 19 22 23 17 22 20 26 15 25 25 16 21 21 22 14 24 14 23 24 18 23 19 15 25 19 18 15 18 14 18 23 19 18 18 22 25 23 26 21 18 18 18 15 24 15 20 23 25 18 26 14 20 20
14 18 20 15 21 25 15 18 19 26 26 23 14 19 23 24 15 22 23 24 23 25 26 17 18 25 15 14 18 19 26 22 15 15 15 26 24 21 22 14 15 19 23 18 25 18 26 25 26 22 25 17 19 17 14 26 20 24 24 18 19 21 18 16
17 16 15 25 19 22 22 14 19 23 25 21 17 26 15 22 18 19 20 17 15 26 24 19 23 15 22 16 26 15 14 24 24 16 23 15 26 26 15 26 17 17 19 24 15 26 16 22 17 23 21 18 20 24 19 25 17 14 18 15 25 20 24 16
18 16 26 17 18 15 21 25 15 25 18 20 24 15 23 23 18 15 18 19 23 16 22 24 18 17 20 14 15 22 23 23 17 18 17 22 17 17 20 24 24 14 14 26 24 23 22 16 25 16 24 17 21 26 16 24 15 26 14 22 26 21 24 24
15 24 23 14 14 25 19 25 17 23 25 14 18 15 26 20 23 23 15 21 25 26 25 16 19 24 18 16 14 25 24 19 17 20 17 23 14 23 24 17 15 17 21 16 21 20 22 18 22 16 17 20 18 15 26 22 18 17 18 23 16 17 22 25
22 22 16 21 20 26 17 19 23 17 14 14 24 23 14 23 18 17 22 20 20 17 15 23 14 26 22 14 22 22 14 14 20 22 14 21 21 26 18 19 18 14 26 19 20 21 21 23 24 19 20 18 19 23 18 25 15 23 22 20 22 15 24 22
18 22 26 22 22 17 17 25 14 15 23 22 16 21 16 21 26 23 27 17 29 20 29 26 18 26 22 16 14 17 24 15 26 18 14 20 21 24 18 17 22 17 17 24 28 20 21 26 21 24 21 17 25 24 26 18 21 24 18 19 20 18 14 21
23 23 17 17 26 24 20 19 22 14 23 18 26 19 19 27 21 22 31 24 25 23 21 33 24 21 17 25 22 17 16 18 21 22 26 26 26 26 21 25 30 25 21 24 25 29 28 32 23 18 25 21 15 24 22 25 14 17 26 15 26 17 24 23
23 17 17 14 17 24 21 22 25 23 18 24 26 28 21 28 27 31 33 28 25 31 31 32 35 31 29 29 22 17 20 29 20 18 27 25 18 30 21 32 25 35 32 35 29 32 26 27 26 31 24 27 14 21 25 16 24 19 16 19 23 14 16 14
18 23 19 19 24 22 14 20 23 19 24 20 25 28 25 25 36 35 36 34 35 40 33 32 36 38 28 36 32 33 33 34 25 27 35 35 30 28 26 35 29 36 39 39 36 37 29 37 26 33 28 21 27 15 19 24 15 16 15 17 19 23 20 18
17 25 16 16 22 26 25 20 20 16 20 23 30 35 34 29 38 37 39 41 33 39 37 42 36 36 42 40 40 41 35 36 36 39 36 41 38 40 39 41 38 44 43 40 40 35 41 33 41 27 27 30 20 20 16 16 26 19 17 22 22 18 24 16
17 18 17 24 15 25 18 19 17 15 22 22 25 33 33 35 40 46 40 46 48 41 49 42 47 52 49 52 50 51 52 39 37 44 43 43 54 43 55 46 47 42 37 39 48 43 48 40 36 43 33 33 25 29 29 17 15 19 15 17 20 21 22 21
20 25 19 18 16 23 24 21 22 16 24 32 35 40 36 39 45 38 46 52 50 44 46 49 57 51 53 54 58 52 60 57 53 56 54 59 57 52 62 63 55 48 49 46 43 52 48 49 37 40 33 33 37 26 20 26 21 24 21 25 14 22 21 18
14 23 23 16 21 25 14 18 21 30 24 25 35 39 40 39 50 41 48 52 56 53 59 62 60 71 71 71 71 64 63 64 67 66 65 70 67 70 60 59 65 57 52 48 49 46 52 44 44 44 46 42 28 32 28 20 19 26 14 18 19 21 16 23
18 18 24 24 24 19 23 22 17 28 24 37 35 35 48 52 47 53 59 57 54 63 67 70 74 73 69 71 75 73 71 71 76 65 70 67 79 69 74 73 73 68 69 61 54 52 59 45 53 51 45 35 40 38 23 30 27 14 16 15 23 24 24 25
18 15 15 21 16 15 14 14 25 25 25 29 39 42 41 48 47 58 59 56 65 73 73 80 82 77 76 80 82 79 76 76 83 82 75 81 80 83 85 81 75 78 68 69 61 64 50 59 49 52 47 47 34 37 31 27 17 17 17 14 26 18 19 18
15 22 24 23 20 21 23 15 26 24 33 33 34 40 51 56 55 57 55 66 75 75 78 81 80 91 90 89 92 92 81 89 84 89 86 84 87 87 91 90 87 88 83 73 67 67 53 60 48 44 53 37 39 37 37 30 29 16 26 24 15 20 20 26
15 14 26 26 24 19 22 25 31 27 31 42 40 49 54 46 57 63 62 71 72 80 87 88 98 95 98 101 101 95 93 92 91 99 92 92 89 94 92 91 93 86 87 77 81 72 62 62 61 58 53 49 40 38 37 23 25 26 16 24 20 24 16 21
14 21 19 20 22 25 19 20 31 25 36 36 46 42 52 53 58 62 72 72 82 88 88 101 94 94 94 96 105 102 100 104 100 98 102 95 98 99 96 94 91 98 87 93 79 80 62 56 63 56 45 48 46 38 27 27 20 16 21 19 15 17 24 15
21 25 25 25 15 15 14 27 27 34 32 41 39 51 45 52 52 67 71 83 94 90 98 102 96 102 102 100 104 101 113 109 107 114 104 99 109 110 102 99 107 103 99 92 85 75 65 63 55 58 53 44 35 36 40 27 30 26 20 18 15 19 25 20
14 21 18 24 18 15 17 20 23 25 33 36 40 42 47 56 60 54 66 76 85 90 98 101 104 107 106 106 111 104 115 119 114 118 116 105 113 111 104 105 99 105 99 98 87 77 71 63 52 56 48 44 35 34 32 29 22 17 21 20 25 17 16 23
19 18 19 21 17 16 17 25 29 27 39 36 40 40 52 57 58 54 66 77 90 88 91 96 100 102 104 109 106 110 113 120 127 115 117 109 112 114 107 105 105 96 93 93 83 74 65 65 50 58 45 43 37 34 39 25 28 20 26 25 25 19 25 20
16 25 23 26 26 20 26 18 18 25 38 34 40 48 42 49 53 55 66 75 77 87 95 101 106 99 109 106 112 109 115 119 122 125 121 113 111 112 107 100 96 101 98 83 84 74 63 54 58 51 41 49 37 42 38 24 29 24 15 21 25 14 19 20
20 19 24 22 14 14 24 17 24 32 37 31 43 41 46 42 45 53 66 66 85 82 92 91 93 105 103 110 111 109 118 127 126 116 122 109 113 108 103 103 100 101 94 84 80 75 61 60 54 43 39 36 40 30 30 27 21 24 25 25 17 19 25 21
14 25 20 15 24 24 26 18 22 26 24 32 33 39 43 43 45 57 64 62 77 75 83 88 97 93 107 99 114 109 115 120 120 117 115 113 105 102 101 97 90 96 82 77 73 65 56 50 46 47 48 34 36 36 29 26 28 15 15 17 16 25 21 19
16 23 17 23 14 23 24 17 24 22 21 28 36 38 43 45 42 45 56 57 76 70 85 90 92 100 92 103 97 106 105 111 110 111 112 109 101 98 101 91 90 84 78 71 67 61 53 42 44 46 35 42 31 30 30 19 22 19 24 19 19 26 18 22
17 17 14 24 24 19 19 17 20 28 28 31 32 36 34 37 44 48 57 58 63 68 77 82 79 94 89 97 94 104 102 104 97 101 103 104 99 98 97 95 80 82 74 71 61 61 55 46 43 42 31 33 37 26 29 24 16 17 20 14 26 14 23 16
24 25 24 21 15 22 16 24 18 17 21 22 29 33 40 39 40 43 52 53 64 61 69 71 74 85 92 85 89 94 94 90 90 92 88 87 95 87 87 87 85 77 74 66 62 58 42 46 34 41 29 29 34 22 22 14 21 16 19 26 23 26 21 23
22 26 23 24 17 24 20 15 21 17 15 24 26 26 26 33 38 43 39 47 58 53 64 66 68 71 81 86 82 78 88 88 85 79 79 79 80 81 73 71 74 74 66 61 55 53 36 34 32 36 36 26 26 22 17 14 21 19 21 24 21 26 23 19
23 15 21 26 20 20 18 24 25 26 18 16 27 20 31 26 36 37 30 43 47 46 59 66 69 65 74 70 76 69 69 72 79 77 77 72 70 69 77 70 66 56 63 52 52 43 36 31 30 34 22 26 23 25 17 22 26 22 23 14 21 18 19 20
21 23 23 20 26 24 19 19 24 23 15 23 19 21 21 30 29 23 25 32 38 50 51 52 52 57 65 70 69 64 66 71 72 73 65 67 72 66 62 61 52 49 50 41 33 36 29 32 22 20 20 20 20 22 24 17 15 22 26 21 17 20 21 23
17 26 20 14 15 23 20 21 24 25 23 25 14 23 25 25 28 32 27 21 39 42 39 50 53 54 56 58 60 67 69 58 63 58 57 62 63 60 56 49 48 48 40 41 34 32 24 30 25 20 22 17 21 26 22 26 14 24 20 15 26 24 20 21
17 23 20 21 26 16 22 26 25 18 17 17 16 24 26 18 24 20 21 27 23 31 38 39 47 47 52 46 47 60 51 54 58 63 53 59 56 47 48 40 38 43 39 35 24 19 22 24 17 22 14 26 19 25 15 20 14 17 18 25 26 20 14 15
24 16 14 25 14 20 21 20 24 23 15 23 19 21 17 21 17 21 20 22 18 18 25 26 35 36 41 38 42 51 47 56 58 51 55 48 41 43 40 34 37 25 21 18 24 26 23 23 16 15 18 14 25 18 18 14 24 20 26 20 23 21 23 20
25 20 21 16 25 19 21 23 17 23 22 24 24 20 18 15 16 25 17 26 21 23 25 29 25 30 30 43 44 40 50 47 45 49 46 49 45 43 40 32 25 27 20 26 21 23 22 15 21 24 20 20 19 21 20 20 24 18 25 14 24 17 16 21
21 25 16 22 16 26 18 15 26 25 19 18 22 15 24 23 22 15 16 23 22 24 22 15 29 27 33 30 35 42 34 42 37 35 39 33 37 31 26 31 20 19 16 18 16 18 18 18 17 16 18 16 17 21 16 19 17 23 22 15 15 20 17 26
16 20 16 19 24 19 25 24 23 25 16 17 24 15 21 17 20 20 14 18 25 26 16 23 25 26 26 30 29 25 38 33 30 38 37 28 24 22 29 28 22 18 21 23 20 14 24 20 18 25 24 16 22 14 25 24 23 21 19 26 14 23 17 18
23 18 17 15 16 15 26 21 17 23 21 24 22 24 22 16 23 16 18 14 18 15 20 17 26 15 25 28 18 29 32 26 23 21 29 30 28 26 25 24 17 18 20 24 25 14 15 18 19 23 21 16 16 23 17 15 22 15 21 18 15 16 25 21
23 21 22 26 19 24 26 17 25 20 16 16 26 22 20 26 26 22 26 26 15 21 16 26 22 15 23 14 15 16 24 27 23 23 16 21 22 17 19 17 26 15 17 19 24 23 15 21 22 26 21 21 17 21 14 16 21 23 26 15 15 16 14 23
21 17 18 20 21 24 25 22 19 25 22 17 24 18 17 16 20 26 15 21 25 23 21 15 26 25 21 17 25 21 26 15 14 16 18 22 21 23 26 18 25 20 23 20 18 24 15 23 22 19 25 23 20 15 23 17 26 25 20 15 25 26 19 16
23 17 14 26 24 26 18 18 24 15 15 14 21 19 20 22 18 15 20 24 25 21 19 25 17 24 22 22 14 25 16 19 15 19 20 17 23 26 24 21 14 20 17 17 26 17 20 24 23 17 16 18 17 14 24 25 16 14 24 18 26 14 26 21
14 23 26 19 18 17 19 15 16 22 21 17 15 22 18 22 22 20 25 20 15 16 21 14 22 20 15 23 24 22 21 20 20 15 22 25 16 20 22 22 20 25 22 21 20 15 22 25 15 24 20 22 17 20 18 23 23 26 19 20 20 21 16 24
25 22 22 16 16 22 14 26 23 15 14 21 15 26 14 22 19 16 19 16 26 22 22 22 19 20 21 26 18 25 25 23 25 22 22 20 26 22 16 15 16 24 23 20 21 18 25 16 26 15 26 17 23 15 14 20 14 14 24 20 22 25 26 24
25 17 23 25 22 20 16 17 23 26 17 19 18 17 23 23 19 14 24 14 20 26 22 19 20 20 19 21 14 25 15 19 24 25 16 22 14 16 16 24 20 20 17 22 19 14 22 24 14 26 18 25 21 21 21 20 18 25 16 25 22 23 17 26
14 24 19 19 16 22 16 25 25 19 17 24 14 26 22 18 19 23 23 21 18 23 17 14 21 16 19 17 25 18 26 25 19 15 19 24 17 18 18 26 25 14 23 21 18 23 23 19 22 18 19 26 20 14 14 23 17 23 17 16 19 25 23 14
20 25 16 24 20 17 24 16 17 15 25 18 24 26 15 15 24 20 26 22 16 14 24 19 26 14 17 18 17 19 15 14 22 17 17 19 14 17 26 16 17 17 25 17 17 24 14 26 19 26 14 26 25 24 16 21 22 24 26 18 21 17 24 15
26 20 14 14 26 14 24 22 17 22 24 17 22 21 22 23 26 20 26 16 23 21 19 19 16 17 19 22 18 22 24 20 15 17 25 26 15 17 18 25 26 25 16 18 15 14 26 21 15 15 22 23 26 18 15 14 22 17 20 18 21 23 20 16
24 22 20 24 14 20 21 18 26 17 22 20 17 22 22 25 16 15 15 23 22 24 19 25 14 23 23 25 19 21 21 23 16 24 21 18 17 21 23 19 14 23 26 14 22 14 20 26 15 19 25 24 19 22 17 24 17 14 20 25 15 18 26 25
22 16 18 17 19 24 17 17 17 23 23 17 17 19 22 24 22 16 25 25 22 25 20 17 18 26 16 24 18 24 22 18 20 21 26 16 16 20 16 14 22 21 24 23 19 18 14 24 25 24 21 15 14 24 25 19 19 25 19 20 16 14 15 24
25 21 19 26 26 14 18 14 16 17 23 24 17 17 17 17 19 23 24 14 14 21 16 14 14 16 26 25 18 25 20 20 21 22 20 21 15 22 25 24 18 16 19 21 23 15 15 16 20 22 18 23 26 20 15 14 24 25 24 18 16 20 21 19
20 18 18 14 17 23 24 22 20 20 21 22 17 21 26 14 25 25 17 22 17 26 14 25 19 14 19 16 25 22 15 15 25 18 18 21 16 14 14 26 24 15 20 18 16 14 24 14 25 20 14 16 20 18 25 18 23 22 20 24 23 26 25 19
