P2
64 64
255
35 34 35 18 23 19 30 28 38 33 28 24 23 30 21 20 25 22 36 32 35 29 19 25 25 30 25 38 30 19 35 31 23 36 34 28 28 21 18 26 32 35 38 34 25 35 36 32 28 22 23 25 38 19 30 33 35 24 21 34 29 29 27 18
31 37 23 28 28 19 38 21 26 20 31 20 21 31 36 26 20 19 18 18 30 25 32 34 31 20 22 36 24 19 18 24 22 25 38 33 37 23 34 21 18 24 26 23 38 30 32 32 34 27 29 24 38 37 28 24 18 36 35 32 21 38 38 34
33 38 19 19 34 31 27 21 20 21 31 33 28 36 21 34 23 23 25 31 32 32 32 23 26 19 34 23 31 18 38 20 27 26 32 28 37 19 21 35 30 25 22 33 25 29 19 20 37 35 38 30 27 23 31 38 24 24 36 36 32 29 25 23
26 37 22 37 28 37 21 28 38 33 19 29 28 31 27 36 38 20 22 37 28 21 36 30 23 33 18 23 34 23 36 37 36 23 31 38 34 32 21 38 32 30 28 34 27 33 22 18 25 38 24 35 32 37 18 36 33 21 36 28 37 36 18 21
25 33 35 19 38 35 23 22 31 35 34 19 19 21 34 18 35 35 31 29 31 20 25 34 21 37 35 22 22 18 26 25 23 23 37 19 19 29 28 23 25 19 19 25 38 36 31 19 29 27 21 29 23 21 36 27 19 20 26 18 21 35 18 34
19 25 37 32 24 29 27 33 18 21 27 21 32 30 37 18 31 30 35 38 30 32 30 23 18 28 37 34 37 21 20 27 19 28 24 21 25 26 30 31 27 20 18 38 31 20 25 24 31 37 22 32 24 31 37 34 24 35 37 22 26 21 21 31
22 29 18 34 36 25 37 30 24 25 37 22 25 31 23 21 35 28 21 35 28 33 21 20 31 21 33 31 37 34 28 33 22 22 35 18 22 18 34 25 18 26 29 37 29 19 35 24 27 34 30 27 32 37 24 36 22 25 30 35 33 22 34 23
36 37 20 30 25 27 29 31 20 27 19 37 26 28 35 27 19 26 23 36 18 27 23 33 23 28 30 32 26 22 24 28 35 28 26 22 26 23 18 35 22 27 32 28 32 32 20 20 32 24 34 25 24 36 35 24 19 36 29 18 21 29 37 31
22 26 22 30 31 20 20 37 33 27 27 28 23 32 25 18 25 20 32 30 30 23 21 21 23 19 33 19 19 20 30 18 21 38 21 29 26 37 30 29 24 25 32 36 23 36 29 37 37 31 31 31 23 27 29 25 25 21 22 29 21 34 35 20
28 28 25 34 31 24 20 28 35 32 32 32 31 36 23 28 36 18 29 38 23 27 35 32 23 21 29 31 20 36 25 20 26 33 27 22 31 33 31 33 23 26 33 28 37 21 29 25 28 26 21 36 29 35 24 32 36 34 29 24 19 24 21 20
29 32 32 30 23 36 23 24 34 29 20 27 21 36 21 26 31 29 20 29 29 25 38 34 34 32 36 27 34 24 19 36 35 36 27 21 35 36 25 28 18 30 37 26 36 38 30 32 24 35 34 31 31 34 18 21 21 25 28 25 31 22 25 21
26 28 19 28 22 28 31 35 33 25 24 34 38 22 37 37 32 18 20 29 22 30 27 24 19 38 26 35 36 28 37 36 32 23 26 38 29 30 23 38 27 35 29 32 27 36 22 32 28 21 21 29 28 21 32 34 38 26 33 37 32 35 29 36
24 21 23 19 19 30 26 33 38 21 26 26 20 32 23 37 22 27 24 20 31 19 19 27 21 35 19 22 18 31 24 32 18 32 35 37 22 18 21 23 29 34 24 27 32 28 29 31 23 31 36 33 21 19 28 24 21 32 35 19 29 21 20 33
38 29 37 30 30 32 30 31 19 37 31 25 23 38 37 26 32 38 25 28 37 36 24 20 29 30 20 35 22 29 22 18 20 25 31 30 35 30 23 27 24 22 22 26 27 27 18 31 23 18 27 19 27 32 29 34 27 21 32 24 35 18 36 21
26 23 35 33 38 20 25 19 25 32 32 18 34 19 38 27 37 27 21 34 26 34 31 35 24 22 26 24 38 21 22 22 18 25 35 21 24 24 36 18 32 29 28 36 25 32 32 21 30 25 33 20 36 32 34 27 19 30 23 19 22 37 34 31
27 28 25 30 22 33 18 38 26 33 32 30 33 19 38 19 21 22 36 24 35 25 32 24 32 37 23 27 34 21 20 21 19 35 28 28 35 36 27 37 28 38 30 33 34 37 33 29 27 31 27 27 29 37 26 33 35 38 18 34 19 34 29 34
32 36 30 33 28 24 36 37 27 23 34 23 19 27 29 34 36 30 36 37 25 21 35 18 38 18 32 26 34 24 20 30 35 37 37 23 19 22 26 28 21 25 32 35 27 35 31 33 20 26 29 37 31 25 30 23 31 33 33 35 25 29 29 31
25 25 29 24 38 37 38 23 30 37 29 23 33 38 37 38 36 27 36 22 30 33 25 34 21 26 25 21 22 32 20 34 29 33 30 34 35 25 33 35 22 22 20 31 22 32 31 37 31 21 20 31 23 26 25 37 37 38 35 18 29 36 33 28
35 20 28 22 37 31 33 25 37 26 32 21 25 25 24 26 18 34 37 22 36 27 29 26 19 21 23 37 30 20 31 28 24 38 20 34 21 24 25 28 26 20 21 21 25 26 30 37 23 18 38 26 29 19 27 23 30 21 19 32 19 24 35 26
32 22 20 22 20 36 24 34 36 18 33 34 33 19 21 38 28 31 24 24 35 29 27 26 39 25 27 18 32 33 19 37 23 37 27 29 29 23 37 30 23 33 36 34 29 28 25 21 31 38 24 37 25 28 37 23 27 28 33 36 19 31 23 31
36 34 37 18 32 26 35 19 27 33 24 34 21 35 24 39 40 41 35 42 45 27 45 37 43 35 48 33 34 41 25 20 35 24 32 38 30 24 35 34 24 45 26 27 28 32 41 43 39 31 29 38 33 34 29 26 34 23 18 30 32 38 30 21
24 30 18 19 27 38 28 27 35 36 33 28 29 41 37 36 26 34 43 36 38 42 36 52 57 55 49 55 49 35 44 23 18 24 38 36 38 28 43 33 38 32 36 36 47 46 46 40 28 37 38 28 31 18 28 30 31 34 22 35 27 18 32 27
18 18 33 20 27 25 38 20 19 18 26 33 38 25 38 45 36 34 34 49 45 59 64 54 57 66 66 58 49 45 38 46 39 24 37 24 28 30 29 30 41 46 42 38 52 47 42 49 49 46 41 38 31 28 18 26 29 22 27 33 34 38 22 21
22 23 22 31 22 36 30 30 36 29 22 24 29 39 49 41 43 35 40 41 58 63 73 66 67 72 78 74 68 60 44 34 39 33 30 44 38 37 47 39 39 39 37 56 52 45 37 54 49 49 46 34 40 28 33 37 18 32 20 22 23 28 30 18
30 18 19 33 29 29 21 22 29 26 24 30 36 35 34 55 55 49 50 51 70 64 78 71 72 90 86 74 63 63 58 45 40 40 27 47 30 51 49 37 58 45 45 45 44 57 50 53 53 47 45 37 27 35 38 27 31 29 26 21 27 33 30 23
27 34 32 36 24 38 30 29 21 28 36 41 49 51 41 53 56 55 64 59 69 68 80 82 97 84 88 84 88 72 68 63 44 51 41 42 45 51 50 40 57 48 63 62 55 47 50 54 49 47 47 38 38 31 27 37 28 18 28 22 22 28 20 23
32 21 31 30 37 22 23 24 22 28 28 29 43 36 40 59 63 53 55 69 76 77 92 95 93 94 103 97 82 72 67 52 58 41 51 36 36 42 47 51 56 49 65 49 49 68 47 48 61 41 41 49 36 36 29 22 24 25 35 34 32 18 37 18
37 29 28 25 24 37 18 25 38 33 30 37 42 38 45 49 56 52 66 68 86 80 97 108 116 111 99 99 103 85 69 76 62 44 45 43 40 46 62 63 52 53 69 56 60 70 66 54 66 61 54 57 38 45 35 29 25 38 38 22 22 37 24 31
32 18 28 29 29 25 18 28 29 28 41 44 53 45 51 53 62 56 78 74 92 89 107 112 105 117 128 105 93 81 80 65 55 46 49 55 49 57 56 65 66 72 73 57 64 56 54 63 58 61 63 44 46 32 40 34 38 18 25 35 38 32 27 26
36 35 26 28 23 34 36 23 22 33 50 36 48 52 49 57 58 67 76 80 82 102 97 101 114 115 117 97 109 80 68 71 59 50 60 57 73 65 67 70 80 86 77 67 77 69 75 59 69 53 63 49 38 40 45 32 38 32 18 24 25 19 27 30
31 20 30 34 24 29 37 23 40 47 43 41 48 46 47 54 57 62 79 86 91 105 102 116 112 121 118 103 97 92 84 70 62 64 57 64 72 71 81 97 99 91 88 69 84 75 69 64 61 61 60 62 50 46 31 44 33 34 18 35 32 18 36 38
30 19 25 36 18 20 30 21 41 46 35 49 59 56 64 69 61 69 72 86 93 101 95 115 104 112 99 90 84 76 77 73 68 55 61 71 73 85 88 101 92 102 92 92 80 69 76 75 62 61 53 46 51 47 32 41 33 27 26 27 29 37 21 30
28 22 31 21 25 18 24 37 39 43 52 54 41 44 54 62 66 64 72 88 90 99 100 109 120 106 117 109 84 86 61 66 74 74 68 69 86 94 114 117 113 96 99 86 83 69 81 74 74 61 56 49 42 46 37 32 32 24 23 37 20 21 29 29
37 20 36 27 38 25 18 27 38 30 33 39 58 56 54 57 67 59 72 69 91 92 116 122 115 126 115 104 104 73 72 58 54 54 69 83 95 113 106 107 101 113 104 101 91 74 75 66 73 65 67 53 59 51 50 39 34 30 23 18 32 18 36 27
35 18 18 30 31 18 34 26 33 40 33 52 44 45 48 60 72 62 70 79 72 102 120 129 128 134 134 117 96 88 64 58 53 67 80 79 97 102 116 115 107 103 101 91 73 70 69 69 65 61 63 62 38 41 47 36 29 19 30 22 31 30 29 21
33 35 38 18 33 19 34 36 31 27 37 48 50 46 51 63 53 62 63 75 89 101 110 131 148 148 135 110 100 73 51 55 50 64 59 86 91 98 105 101 100 99 104 87 71 77 63 62 59 56 56 42 41 37 48 27 25 39 28 25 35 34 33 22
20 20 24 32 24 33 35 26 21 34 46 37 55 49 44 57 50 69 67 71 75 90 110 125 138 154 136 121 94 76 64 38 57 54 66 77 80 99 96 103 91 90 84 77 68 76 69 54 60 54 48 58 42 45 32 32 31 30 36 22 38 28 27 23
22 30 29 22 24 35 25 24 22 40 37 35 44 47 59 45 55 62 71 59 88 94 121 137 131 156 131 107 89 77 60 44 42 50 66 60 85 82 97 95 90 89 72 74 64 63 64 60 46 61 41 40 51 47 34 32 33 37 37 30 21 36 31 28
25 21 31 26 34 19 34 30 21 36 44 35 35 45 51 61 60 47 56 55 83 88 113 114 122 133 133 119 84 76 50 28 30 34 40 56 58 72 80 88 73 73 63 63 61 64 66 48 53 46 51 50 42 49 39 32 24 22 36 27 28 29 26 27
33 19 24 29 22 35 25 36 23 39 39 44 43 35 49 56 52 47 60 52 72 71 103 97 122 108 104 91 89 55 41 38 28 33 39 41 62 65 67 71 68 72 55 58 65 61 62 59 49 49 55 47 31 31 34 24 29 27 36 27 24 22 26 35
34 24 24 38 19 18 29 38 21 19 41 42 44 40 43 55 51 41 59 58 48 61 82 93 87 90 82 83 70 50 43 28 33 33 42 46 51 48 51 54 56 53 48 60 42 49 42 56 49 49 32 34 32 38 24 21 18 31 28 24 21 22 25 27
23 36 25 22 29 19 20 27 29 20 32 21 31 29 45 36 44 52 36 44 39 54 69 78 84 81 81 64 43 39 24 28 36 22 35 30 46 47 32 35 39 39 42 48 43 53 42 50 35 34 40 39 40 21 34 22 25 29 29 32 37 18 31 31
26 32 32 20 29 22 21 26 26 36 30 32 27 38 32 40 31 46 41 44 36 42 36 44 61 63 55 47 46 25 22 32 35 34 19 25 43 42 40 43 39 39 39 33 46 45 48 40 32 46 33 24 36 21 38 37 33 28 28 23 25 33 19 36
32 35 22 34 29 33 23 28 34 28 37 34 18 35 38 34 44 39 44 39 43 37 38 36 36 33 34 24 24 19 24 24 30 34 30 19 37 37 30 26 27 30 49 35 35 38 47 36 37 28 34 39 19 27 19 21 20 32 38 25 20 22 35 31
34 32 36 26 20 33 32 30 38 33 28 34 27 27 31 33 33 44 29 34 27 33 45 43 27 27 41 20 18 31 23 35 27 28 22 23 19 26 22 32 24 42 40 30 37 32 34 29 33 31 30 32 35 26 37 35 19 31 24 34 20 21 28 18
35 31 22 37 38 29 30 22 35 28 25 23 27 38 38 38 36 26 37 23 29 29 35 40 27 33 30 32 19 32 18 31 20 35 38 23 19 25 26 19 36 36 22 28 26 23 23 25 33 31 22 24 28 29 23 31 20 21 25 30 26 19 22 34
35 20 22 29 32 37 27 18 29 26 20 27 26 36 30 32 30 35 22 23 22 36 25 24 29 20 35 34 30 26 35 21 30 32 36 33 19 35 18 19 20 19 28 32 31 30 37 23 38 38 35 38 28 27 30 30 19 34 37 29 18 27 21 38
38 37 23 34 21 33 19 30 28 26 28 25 33 22 31 24 33 22 28 31 21 28 24 30 38 30 27 27 34 31 25 30 20 30 30 24 26 37 18 20 27 21 37 21 35 36 18 27 21 33 32 18 30 33 28 37 26 28 25 21 22 34 33 36
32 37 19 35 32 32 28 21 36 31 19 20 28 19 35 36 20 33 37 33 20 35 29 19 29 23 21 19 32 20 29 23 31 28 29 28 24 26 33 25 33 34 21 27 20 23 37 32 28 18 31 24 35 25 36 20 27 26 36 20 29 26 26 19
38 29 21 36 32 25 36 31 24 26 23 20 27 25 32 19 31 34 25 30 35 35 35 30 32 32 36 21 27 18 35 36 23 20 38 22 20 26 23 37 25 26 29 34 24 35 22 35 20 19 33 21 28 26 26 31 27 21 28 27 34 27 35 37
38 23 34 22 27 21 33 21 23 28 20 33 29 37 22 34 30 25 36 25 26 18 27 33 20 26 20 18 21 26 26 37 29 27 29 30 37 18 30 35 32 33 21 35 26 22 35 24 24 29 37 27 24 23 23 32 22 35 21 37 24 36 31 20
22 33 19 19 34 23 35 33 22 24 21 30 25 33 21 25 32 19 35 34 31 33 21 35 34 37 36 24 29 33 32 23 35 38 35 27 20 36 30 20 25 27 31 19 31 19 29 27 38 22 23 23 35 31 24 38 19 29 27 34 22 25 21 19
23 19 25 21 24 18 25 21 25 24 25 31 26 23 18 22 31 22 26 29 18 26 36 34 19 27 30 29 36 24 21 38 31 28 20 20 20 38 38 33 37 31 33 21 38 24 18 26 29 21 18 20 33 34 18 20 24 21 26 35 30 24 30 24
24 23 27 21 34 32 33 32 19 33 33 35 25 24 38 38 36 19 37 25 22 22 22 30 27 25 38 24 24 22 23 31 20 29 33 25 33 24 26 18 20 34 27 26 29 33 18 32 24 31 21 24 24 20 35 21 20 38 25 32 22 24 19 32
36 38 27 23 37 21 38 30 30 21 25 21 22 34 30 38 19 30 18 25 35 37 28 25 37 23 36 38 35 32 22 38 18 22 27 21 34 27 29 22 20 38 37 38 30 22 25 26 37 34 19 18 37 24 38 28 25 19 34 30 27 25 21 20
32 28 37 26 30 38 20 22 34 23 21 26 22 34 20 26 26 37 36 32 33 22 34 36 30 30 29 27 33 32 35 38 37 32 30 34 27 38 22 34 29 19 38 23 33 26 24 27 20 30 27 24 32 22 35 32 37 27 34 27 34 26 25 38
34 24 20 38 19 35 21 33 32 34 30 22 38 34 32 33 28 23 24 28 35 22 31 37 29 36 23 32 38 25 25 31 21 27 27 37 33 37 37 37 36 34 34 28 34 34 25 29 24 26 37 30 36 31 25 20 29 37 33 30 38 27 23 37
27 28 25 27 33 32 18 35 34 32 38 29 28 27 23 32 33 18 19 35 30 28 19 20 22 38 23 22 37 32 38 21 18 35 36 31 24 26 20 38 25 38 25 22 22 24 37 34 28 21 38 26 24 30 23 35 23 24 23 18 27 21 37 28
35 20 21 37 18 37 26 28 37 24 30 35 31 18 33 20 24 28 20 34 35 35 38 38 26 38 33 23 31 24 22 31 32 37 35 19 37 26 27 29 26 19 34 30 25 27 27 28 30 23 21 20 18 30 25 31 20 29 22 24 31 22 25 35
33 30 26 35 33 20 38 24 29 35 22 22 35 26 24 19 28 19 27 18 24 20 33 22 38 22 27 25 35 36 24 19 34 23 38 35 22 34 18 30 20 33 30 19 18 27 35 35 26 24 20 33 27 29 22 38 28 28 36 25 18 23 34 34
30 35 33 37 32 21 38 38 31 32 18 31 34 26 26 20 34 19 29 23 27 25 26 32 18 22 38 35 33 26 31 24 19 30 30 26 19 31 35 33 18 19 29 18 31 22 37 23 29 32 19 32 18 37 23 23 28 37 37 38 25 30 24 34
22 26 35 30 19 34 38 28 28 19 27 25 38 34 26 28 19 35 28 30 33 24 31 23 33 35 21 35 21 25 38 19 30 36 22 30 36 37 34 32 18 30 31 19 31 18 23 22 23 25 26 32 37 36 35 38 19 33 27 21 25 19 32 26
30 30 37 38 23 38 34 21 22 27 21 30 26 25 30 24 35 19 31 30 36 31 37 18 22 18 29 36 25 26 32 38 22 32 18 30 34 35 34 28 28 22 23 36 37 38 27 22 20 31 33 36 18 38 38 19 21 29 23 23 38 30 33 26
25 29 30 21 23 23 18 37 33 27 26 35 23 23 24 38 24 29 25 18 31 37 35 38 23 30 28 28 21 27 32 28 25 35 33 19 29 20 38 18 18 22 23 31 22 31 24 32 26 22 32 34 22 28 31 30 33 34 21 37 22 30 28 24
