P2
64 64
255
25 22 27 23 19 24 34 23 31 37 30 29 28 22 24 30 35 32 30 34 23 35 25 29 32 38 22 31 37 25 23 22 18 31 24 18 37 27 25 37 29 36 26 23 25 29 23 34 38 29 34 25 25 34 37 23 22 22 37 25 35 25 24 22
25 26 38 24 20 31 19 38 35 25 23 21 23 23 30 36 28 20 21 25 25 28 29 36 36 37 33 27 37 27 25 29 23 21 22 24 19 35 24 23 21 35 20 22 35 23 21 36 27 26 25 33 22 22 27 27 22 23 25 31 22 35 19 38
19 23 24 19 34 35 18 35 37 29 38 28 37 32 20 31 34 37 30 26 31 33 27 20 29 27 37 29 26 22 28 23 27 25 33 30 28 24 37 29 18 23 27 30 25 38 36 25 35 33 37 36 33 25 23 37 26 29 22 31 34 25 31 37
30 35 24 32 29 20 38 31 33 30 34 33 30 32 31 38 23 37 36 21 20 18 23 32 36 24 24 30 27 21 23 26 18 27 26 31 26 22 30 28 23 23 32 23 28 30 25 38 22 18 26 18 27 19 23 32 22 30 32 18 29 21 19 28
36 31 34 31 22 20 25 32 24 30 23 30 35 30 38 37 31 32 21 30 36 18 27 27 19 36 27 31 24 24 27 30 33 29 19 24 19 22 33 31 27 24 20 18 20 20 22 38 26 33 36 27 37 35 24 32 21 30 20 18 34 38 25 29
19 18 28 26 28 23 20 19 38 26 25 31 20 36 27 28 32 29 18 24 36 21 26 38 24 34 21 27 30 34 26 36 20 37 22 30 36 37 38 34 22 29 18 19 37 18 25 36 26 38 25 21 31 21 18 33 36 18 31 29 18 27 23 27
18 21 19 27 22 23 20 29 23 37 36 22 24 23 31 38 29 30 33 32 23 34 31 32 31 34 32 21 22 30 36 31 22 25 38 20 32 28 32 35 38 26 35 21 21 31 33 30 27 21 34 23 23 28 28 36 19 23 28 22 33 36 36 22
22 32 37 18 30 30 34 18 21 30 27 30 29 38 30 35 24 34 32 27 19 31 32 18 31 37 29 22 30 20 21 21 34 21 37 27 20 18 28 33 24 38 24 18 24 27 21 19 19 29 24 25 38 20 23 20 20 35 29 38 29 26 29 37
30 20 25 35 28 27 19 29 27 28 26 29 38 30 34 22 30 37 20 31 36 21 20 29 26 30 23 34 29 30 25 34 32 22 27 19 28 29 18 19 37 33 36 36 34 25 32 23 34 27 27 30 20 33 20 34 19 24 26 26 18 20 33 27
23 31 33 25 24 27 31 20 26 22 28 19 31 29 18 19 38 24 19 20 35 31 22 27 28 24 26 22 27 35 19 18 26 33 22 27 18 36 31 37 30 27 29 37 23 30 27 21 22 37 32 31 33 35 22 20 31 35 32 25 32 21 23 27
31 30 30 35 19 34 27 22 28 30 32 30 24 19 35 30 32 23 18 32 37 31 32 21 34 29 20 26 30 33 27 21 37 19 30 25 32 22 19 33 21 33 26 37 37 21 35 27 22 38 32 18 23 34 29 32 20 23 37 33 21 19 28 20
21 37 26 34 38 38 32 32 30 28 29 27 22 27 36 32 35 36 29 30 30 22 27 24 38 29 35 30 32 19 21 30 21 20 35 24 18 35 29 28 23 23 18 28 33 27 38 19 31 34 35 27 30 32 37 18 25 21 23 27 34 18 23 34
23 20 20 19 22 35 26 35 30 27 21 34 30 30 31 36 35 26 20 23 22 27 33 35 33 32 34 21 19 22 32 35 21 19 38 26 38 18 19 27 19 18 25 28 19 34 21 28 20 35 18 30 28 23 35 32 35 26 29 23 22 34 24 19
25 25 30 33 27 36 27 18 20 29 36 23 35 28 28 34 36 22 27 25 20 37 24 19 20 18 28 33 35 24 36 18 30 33 23 25 31 25 33 27 24 19 23 30 25 18 28 38 25 37 36 25 36 27 28 34 37 25 24 29 35 32 34 35
21 21 23 31 34 23 21 32 19 30 19 23 34 35 20 32 28 27 22 31 38 32 25 37 28 30 38 33 30 24 29 26 22 25 36 24 22 19 28 20 33 25 21 20 19 21 30 36 33 38 20 34 33 23 36 34 34 22 32 37 34 29 23 24
29 24 35 22 37 26 29 37 20 33 29 34 21 33 23 21 19 26 33 28 28 31 22 28 33 27 30 36 19 33 27 28 19 38 25 21 24 18 36 30 30 18 28 32 26 38 38 24 19 32 26 23 23 26 28 26 22 22 25 24 23 34 20 38
25 34 26 21 29 33 21 24 25 34 38 19 26 18 26 31 18 30 28 36 27 19 37 24 29 32 22 35 31 38 27 30 20 30 33 23 26 25 26 29 22 36 30 24 31 21 30 37 26 22 26 38 19 18 26 19 34 32 18 19 37 19 18 21
35 18 24 23 27 25 38 26 31 32 33 30 21 22 35 23 34 37 30 31 29 34 18 35 18 21 20 24 21 34 31 31 27 31 21 24 38 26 24 32 22 28 38 27 31 32 25 35 21 35 22 19 22 37 37 24 30 25 19 33 36 28 18 19
35 29 21 29 19 31 27 29 21 32 23 24 18 20 31 30 27 31 20 23 30 29 32 33 37 19 38 25 24 22 38 28 25 22 35 26 31 21 30 26 26 35 24 28 20 23 32 22 38 36 18 26 37 31 27 33 24 24 25 27 22 35 26 26
38 32 35 23 35 30 37 34 23 38 25 27 30 31 37 19 22 29 30 40 36 41 26 36 29 36 22 36 29 25 32 20 25 36 24 35 34 19 38 28 39 25 25 27 35 21 24 28 34 20 19 25 26 38 19 31 25 28 35 29 20 36 34 25
25 25 28 36 19 20 26 30 18 35 23 30 33 18 32 26 39 38 31 29 35 43 39 30 39 31 38 35 22 35 21 36 38 25 28 23 33 24 23 23 38 34 41 31 42 37 43 30 41 21 37 23 32 30 21 19 24 35 25 18 38 33 21 31
23 28 30 32 23 27 20 19 31 23 25 27 23 31 34 37 34 28 44 41 37 33 47 30 44 45 41 23 39 23 40 23 30 35 20 26 25 42 44 26 40 41 48 45 35 32 37 37 37 24 32 36 30 29 29 27 34 29 35 25 26 33 38 20
29 30 22 18 36 26 21 21 24 32 34 22 34 37 45 37 50 34 38 49 46 41 42 32 33 42 39 39 44 31 39 45 43 37 40 35 42 33 46 48 41 37 43 34 53 40 41 39 45 44 35 31 23 20 26 27 38 22 36 21 20 33 34 21
27 18 28 23 33 35 26 32 28 37 22 23 41 30 33 45 38 39 39 44 45 44 49 56 38 42 42 58 50 40 54 50 44 53 51 42 56 58 42 40 49 39 46 45 50 51 42 43 35 36 34 46 38 33 35 18 28 28 27 25 24 18 27 35
24 26 19 36 22 27 28 33 38 34 39 36 33 33 44 38 38 55 54 49 51 59 44 62 53 66 60 54 67 59 55 52 53 55 44 64 58 53 64 59 47 46 48 50 46 58 54 40 50 55 38 31 42 38 38 24 22 34 26 31 35 26 21 30
32 37 28 34 31 27 32 27 31 31 41 35 32 37 47 53 48 47 63 52 56 64 67 66 53 71 70 70 64 71 52 69 65 61 70 64 72 66 57 63 72 58 55 60 54 62 59 52 54 38 37 41 32 35 24 33 35 28 24 28 29 20 31 35
36 25 26 26 23 30 24 21 19 27 26 30 35 49 55 42 45 47 48 59 51 70 68 63 70 71 77 65 73 74 73 72 78 74 66 82 84 84 65 66 72 65 70 69 69 58 67 50 43 57 58 43 32 39 38 30 18 35 19 38 33 30 30 29
18 27 22 38 35 35 33 18 30 28 44 33 39 51 48 44 64 65 56 65 65 62 76 86 75 72 81 86 89 76 69 80 72 81 83 71 76 89 72 90 85 74 71 62 57 65 56 54 58 53 60 54 52 32 30 36 21 31 25 25 26 18 31 24
23 24 22 33 18 31 29 20 32 39 42 52 36 57 49 64 61 54 70 61 69 70 90 93 88 96 85 82 98 93 87 87 97 91 83 98 82 81 99 95 87 76 72 69 81 65 68 62 60 54 63 54 56 36 35 45 22 27 22 21 23 18 25 33
38 20 38 21 34 19 18 20 41 29 32 41 56 52 48 56 71 67 58 72 79 85 82 88 100 95 94 86 106 102 89 90 90 91 93 90 103 95 94 97 86 97 88 78 75 81 60 69 61 54 61 58 38 51 32 37 24 21 36 28 29 18 20 34
20 33 31 31 36 29 32 34 23 45 47 40 47 49 62 69 65 69 72 70 86 96 90 89 105 111 108 94 93 108 93 102 113 98 103 100 113 107 109 94 94 101 101 99 85 89 66 64 72 52 50 61 45 50 37 36 39 35 31 30 26 32 22 31
33 18 20 33 34 34 31 39 31 34 44 41 44 47 48 71 75 63 65 90 87 102 100 106 110 114 113 99 105 117 112 103 121 100 103 101 118 101 115 115 107 100 101 105 91 89 67 74 59 60 65 52 48 49 43 45 43 38 28 20 28 19 36 36
31 27 23 36 36 29 23 21 44 40 34 48 40 47 50 55 68 74 71 97 92 100 103 117 100 112 109 122 107 119 124 115 111 123 113 119 119 110 115 107 116 101 95 105 98 83 74 74 72 52 52 59 57 50 34 37 43 21 23 37 36 25 20 24
35 19 33 36 31 38 28 32 38 29 49 55 53 47 61 62 56 68 76 97 94 93 106 113 110 110 122 125 125 111 120 131 127 114 122 122 126 109 104 104 120 116 98 97 87 94 72 64 69 58 57 50 57 45 37 36 40 21 21 34 24 21 30 30
32 20 24 34 34 18 18 38 34 44 51 54 44 49 47 50 71 59 79 83 89 109 110 117 107 104 125 119 120 121 122 121 133 123 118 123 114 116 108 123 115 112 111 110 97 79 73 62 58 51 59 57 58 49 51 39 31 26 24 20 20 35 32 33
30 24 30 32 24 19 20 32 31 37 39 42 40 43 51 68 53 59 76 75 91 104 92 99 112 112 105 123 126 125 115 120 137 136 123 115 124 126 121 114 109 106 104 90 82 75 73 72 58 56 63 53 49 44 45 40 36 35 37 34 28 30 18 29
25 23 23 32 32 29 31 30 28 31 31 41 36 40 62 49 52 73 82 77 78 93 100 94 107 114 105 116 117 118 123 137 146 128 123 122 125 121 123 101 101 96 96 90 86 70 69 71 65 55 50 56 44 37 48 44 32 34 28 37 29 32 27 23
31 27 28 25 19 36 18 30 28 28 47 41 46 41 59 54 66 55 65 72 80 98 89 95 100 106 120 107 112 123 116 124 120 123 121 113 110 116 120 117 101 103 88 81 82 80 61 53 54 53 58 55 45 43 46 34 39 19 35 37 24 19 36 34
33 25 31 23 38 37 24 38 35 23 35 38 39 46 54 41 43 65 71 65 74 74 79 101 104 92 100 113 107 116 116 119 108 124 105 117 115 119 98 105 97 87 81 86 84 80 70 58 60 42 51 40 40 45 39 34 32 38 23 20 20 34 26 35
35 28 20 31 23 18 35 29 28 21 26 32 43 41 37 47 53 46 56 74 72 78 87 90 87 101 105 99 100 117 105 107 109 114 99 113 103 109 110 95 87 80 84 71 71 66 53 43 40 49 42 44 31 29 30 30 20 21 33 36 29 37 38 27
30 30 23 38 20 19 31 22 26 21 39 33 34 35 51 42 39 50 53 55 70 70 73 93 96 101 100 87 108 98 93 95 92 95 100 96 97 100 90 101 80 85 80 68 71 64 49 40 55 52 37 32 36 40 30 36 29 23 32 27 33 26 30 26
37 32 23 18 31 37 20 20 38 31 20 22 29 40 37 36 39 53 41 50 59 73 70 71 84 83 91 90 101 84 90 92 101 93 94 102 83 95 87 84 82 73 72 56 66 50 47 50 42 51 48 27 26 32 24 28 37 21 23 23 22 26 34 38
21 28 28 34 25 38 28 29 38 38 22 39 25 32 27 34 31 51 51 59 54 69 60 69 77 81 85 78 89 85 79 84 87 75 82 77 79 87 80 79 80 72 73 50 64 50 47 34 45 47 35 34 30 29 19 31 25 19 30 27 36 21 37 32
36 21 21 23 19 19 18 20 27 18 28 24 31 37 36 30 46 29 37 50 42 55 55 65 72 61 73 78 76 82 71 70 76 69 84 64 81 67 80 72 59 58 60 62 53 35 36 45 31 25 38 37 31 34 33 23 27 30 26 24 18 20 29 31
22 18 24 32 30 37 29 36 31 37 33 28 35 24 33 28 31 27 33 42 48 39 42 47 62 62 68 71 60 74 63 76 65 62 67 66 76 60 68 60 66 57 60 36 37 34 43 39 31 30 20 33 35 20 38 38 37 35 22 27 30 35 22 34
35 33 36 24 21 32 31 25 23 34 27 37 35 21 27 34 36 22 40 36 28 39 42 48 46 42 51 55 68 55 70 58 61 70 74 72 71 67 57 54 58 49 50 42 31 22 35 28 27 27 30 32 35 25 20 29 26 24 29 37 23 25 28 20
27 34 27 19 21 37 21 29 24 36 31 24 32 18 20 30 28 23 30 30 27 29 43 44 33 49 43 57 52 63 50 69 69 67 54 51 53 49 45 47 50 42 26 27 28 31 18 29 33 28 24 25 35 21 22 34 38 35 19 18 24 21 19 23
38 27 31 26 25 23 31 18 21 35 32 20 18 23 28 37 31 38 34 28 25 34 37 31 37 31 44 48 46 44 58 55 55 62 49 44 41 45 35 44 32 37 30 20 36 18 38 36 28 37 23 24 21 35 25 37 27 29 28 34 36 25 38 38
34 32 29 29 28 28 19 29 19 35 37 28 30 25 21 20 19 18 29 38 36 35 23 38 31 38 35 41 50 36 47 54 39 49 45 52 42 34 33 42 34 27 33 23 26 23 37 25 21 33 32 19 37 34 18 38 38 22 29 27 26 36 20 34
22 18 35 23 20 27 34 32 28 21 31 25 23 18 18 32 23 27 37 29 24 35 36 25 35 34 40 43 46 31 38 43 42 46 49 39 45 36 34 40 24 36 37 25 30 25 31 28 22 22 28 38 22 23 27 34 31 21 34 26 37 26 28 36
33 26 34 34 38 26 29 31 18 38 23 29 35 26 19 19 19 32 29 28 20 27 22 28 18 26 35 22 25 34 35 45 32 29 42 24 38 21 24 19 29 38 22 34 33 30 32 18 36 29 25 35 24 35 18 34 30 30 28 27 19 34 30 23
25 33 30 22 26 34 20 20 20 28 18 29 33 27 26 18 22 33 27 33 34 26 33 19 23 25 36 36 23 26 23 38 29 34 21 19 26 34 31 18 30 34 36 32 20 20 24 22 21 25 32 37 37 25 24 23 18 30 25 24 37 18 34 27
29 29 33 26 27 18 29 25 25 19 35 33 31 32 18 22 30 18 22 27 24 28 33 31 38 38 37 33 19 25 33 32 27 36 28 22 35 28 37 20 27 19 18 26 19 23 21 18 35 24 19 20 36 37 30 28 36 25 23 26 37 24 18 22
22 29 29 22 34 21 36 31 27 21 35 23 30 38 23 23 19 23 31 26 29 21 29 31 29 35 34 35 20 37 32 24 36 22 36 30 20 38 33 19 33 21 24 27 33 27 37 36 24 28 26 27 25 31 23 34 32 33 28 20 25 29 20 22
29 31 35 20 30 27 23 30 25 22 34 22 25 35 22 21 20 34 22 32 34 23 22 33 35 18 22 37 32 28 33 24 23 37 29 18 20 26 25 25 38 30 37 26 38 32 24 26 35 37 30 28 32 23 18 31 36 31 20 27 33 20 37 31
32 25 35 27 38 32 25 38 30 27 32 31 34 36 36 34 19 23 18 35 24 29 38 30 33 25 23 33 33 38 25 28 26 21 38 29 27 38 24 27 35 20 28 33 20 38 18 37 31 21 23 37 37 18 28 35 30 36 32 35 34 38 18 33
29 25 19 19 38 24 22 35 33 28 30 38 36 29 23 37 37 33 33 25 19 30 24 31 36 18 30 29 27 38 23 26 30 24 22 22 20 24 27 31 37 20 29 28 24 35 25 19 35 29 32 32 24 22 35 22 28 34 22 24 23 35 38 18
30 31 18 25 30 33 26 35 37 32 36 25 31 33 26 20 31 35 34 36 18 24 37 23 18 36 20 21 21 33 28 38 36 20 24 19 26 31 21 19 33 19 24 30 19 24 24 21 35 18 22 23 27 22 26 31 20 29 27 37 23 22 36 26
25 24 32 30 25 22 22 29 34 38 36 25 18 18 37 30 38 22 18 20 18 28 34 33 31 29 30 24 35 27 31 33 18 22 23 32 26 29 38 25 28 37 27 30 38 35 23 23 37 32 23 29 30 24 32 20 22 37 18 35 28 38 33 19
34 33 31 33 38 19 21 32 32 25 22 28 23 31 31 27 31 32 34 19 30 30 19 37 36 28 18 38 29 32 24 36 35 31 37 29 32 30 24 33 19 26 37 18 34 36 33 34 25 35 28 34 24 29 35 21 32 33 18 38 34 24 30 23
19 32 33 18 29 35 34 30 19 38 25 24 35 38 32 26 27 21 33 33 19 25 31 31 19 28 32 24 28 34 38 36 29 18 26 34 31 18 19 28 28 27 27 32 25 37 24 18 23 18 18 36 31 23 33 23 31 30 20 18 30 31 31 35
34 25 28 30 22 33 29 20 20 24 37 34 37 29 34 26 23 28 26 28 29 18 31 22 19 34 38 26 27 31 29 24 35 23 34 36 24 22 27 20 31 21 21 35 35 37 32 37 24 27 23 18 36 22 32 38 27 26 22 24 35 28 29 37
18 30 21 22 36 21 35 28 33 36 36 22 20 23 24 29 31 26 29 23 28 26 22 27 28 19 29 30 27 29 27 24 38 22 28 38 19 27 35 23 22 18 27 23 19 34 25 35 37 32 28 20 33 20 29 31 25 19 34 21 27 20 19 19
21 30 36 37 31 27 37 31 23 19 30 37 37 25 32 18 18 23 38 31 36 34 29 35 29 38 19 24 23 38 30 33 20 23 31 26 38 22 27 20 21 29 32 34 36 20 23 19 38 25 29 32 18 25 22 31 24 25 34 34 37 33 25 28
