P2
64 64
255
20 19 14 17 19 23 14 18 16 17 15 19 19 19 15 20 26 16 16 21 25 19 21 21 24 22 15 16 22 14 19 21 21 19 22 26 21 23 17 19 26 19 17 16 16 17 17 17 25 16 25 26 19 23 20 20 19 26 21 16 20 18 20 14
22 18 23 20 22 18 21 21 18 21 21 18 14 22 20 18 20 25 14 18 23 24 19 18 26 17 24 25 26 16 23 22 15 15 24 15 20 16 18 15 25 18 23 18 19 14 19 17 18 20 15 17 15 24 24 17 16 16 24 15 20 23 14 21
21 17 17 23 22 15 26 18 16 21 26 17 14 23 17 15 14 18 26 18 16 14 22 26 14 20 19 15 22 23 20 23 24 20 23 25 20 22 14 18 26 19 17 24 24 21 14 19 21 16 14 24 26 19 18 18 22 21 19 15 22 16 18 26
23 15 22 26 14 14 22 25 19 26 15 15 19 24 26 24 20 21 26 16 19 17 15 14 15 26 23 25 18 15 25 16 15 21 22 26 25 18 19 26 19 24 14 20 19 21 16 17 17 14 26 23 18 16 22 21 24 25 23 17 25 21 24 25
16 22 17 20 22 22 15 15 17 14 20 21 22 26 22 23 20 25 25 21 20 26 23 14 18 25 17 18 23 24 18 22 19 18 20 20 15 16 17 16 24 21 25 14 22 25 26 24 22 21 15 17 17 14 26 21 25 24 24 16 21 22 26 22
20 22 21 21 19 14 26 25 18 20 20 20 16 24 24 14 22 25 18 16 19 21 22 14 22 26 15 18 15 22 15 21 14 17 19 17 23 20 14 26 20 15 24 26 20 14 17 24 21 21 14 20 26 19 19 17 19 22 21 15 20 21 21 21
16 26 20 18 24 20 26 20 23 18 24 16 26 21 25 18 16 16 25 19 14 18 26 20 19 22 17 24 17 24 16 22 19 16 22 17 15 17 21 16 24 18 24 19 26 19 22 22 26 14 22 21 23 19 20 25 20 15 14 19 15 19 23 24
15 26 21 17 17 21 24 20 20 24 24 20 24 21 22 25 17 26 17 25 16 25 25 21 18 23 23 17 17 19 22 23 19 26 19 18 25 21 16 25 17 15 25 19 15 20 22 24 14 23 22 19 18 14 15 24 26 16 19 15 16 17 20 20
26 17 25 24 25 16 21 16 19 16 15 20 22 19 19 16 20 19 20 15 14 25 26 20 26 25 14 24 17 18 23 20 21 20 21 24 17 15 19 26 21 20 25 20 18 15 15 16 19 18 22 22 26 25 18 26 14 15 18 19 20 15 26 20
23 21 17 20 18 17 24 24 15 24 20 24 22 18 22 22 14 16 16 21 25 18 24 20 14 26 26 26 21 24 17 15 17 20 17 23 18 25 26 25 26 24 24 21 15 24 18 18 26 21 15 25 22 15 25 23 15 24 15 21 21 21 21 26
23 25 20 14 18 14 16 17 14 26 18 15 22 16 17 20 15 23 24 20 24 24 15 23 23 24 24 19 22 24 16 25 20 19 19 26 26 18 16 14 20 19 25 24 23 24 22 23 20 22 25 19 20 15 26 26 23 26 26 23 23 19 20 15
25 19 26 24 17 17 15 24 26 16 23 16 20 26 22 18 21 22 22 25 15 26 15 26 17 24 15 21 24 15 17 23 19 20 26 23 17 19 19 22 25 25 20 16 18 26 18 23 19 21 25 21 25 26 14 16 18 20 19 18 14 21 15 23
17 17 21 22 16 23 15 22 15 20 22 25 23 23 26 19 25 23 22 15 23 21 17 17 23 22 23 14 17 16 21 23 18 18 15 14 20 21 18 18 23 19 21 24 14 14 24 23 14 18 21 21 25 15 22 16 22 24 25 15 23 24 26 20
25 20 15 15 17 14 26 21 23 25 22 14 14 24 19 25 19 24 17 20 15 24 15 22 26 17 22 15 20 22 22 21 17 19 15 25 25 25 20 16 14 18 16 20 20 18 25 21 24 19 25 19 15 16 18 15 14 23 14 20 17 22 25 23
23 23 18 19 17 22 25 22 20 14 25 22 22 14 14 21 17 23 18 20 26 14 26 20 22 16 17 21 23 25 21 15 23 19 22 25 26 20 20 23 16 23 17 19 23 15 21 15 21 22 24 21 14 21 16 14 14 22 25 15 24 19 26 21
15 14 21 15 16 26 16 20 15 24 16 24 20 14 17 14 22 22 22 17 24 21 23 26 14 17 16 19 26 22 20 24 26 17 16 26 24 14 20 19 19 18 18 20 25 18 16 18 16 16 14 16 24 26 21 17 17 23 14 18 17 14 20 25
26 16 14 21 14 17 21 18 20 16 19 21 24 19 15 19 15 19 23 20 26 24 14 24 18 21 17 23 15 20 25 22 15 18 25 15 21 15 20 14 21 20 17 25 26 26 18 24 23 26 18 16 14 18 16 19 23 23 20 16 19 22 24 14
17 17 24 25 14 26 24 21 24 19 18 20 19 14 25 20 21 21 19 22 18 20 23 18 21 14 20 16 15 15 21 24 26 17 21 20 19 21 23 14 22 25 17 20 23 16 16 23 19 14 16 25 21 20 26 23 14 14 14 21 21 20 18 18
22 25 24 17 14 26 17 20 17 26 21 18 22 21 23 23 25 19 21 16 16 26 24 25 15 14 18 22 22 20 25 20 16 21 20 16 19 19 18 14 24 17 21 17 15 14 25 24 16 17 23 21 19 18 26 15 25 20 25 17 19 22 24 22
21 19 14 19 25 25 18 20 24 22 22 25 19 17 25 25 17 16 27 24 21 20 20 26 22 23 19 20 15 20 22 17 22 21 26 17 17 16 16 26 16 29 26 18 19 18 25 25 23 26 23 25 24 17 24 16 16 14 20 23 22 15 19 15
20 21 19 15 14 22 23 14 20 20 15 18 21 19 21 22 23 29 32 31 26 28 25 32 32 29 18 22 21 16 21 22 25 24 24 14 18 18 23 30 23 29 21 28 24 25 28 27 23 26 27 22 22 17 18 14 21 21 26 16 15 25 15 21
21 26 16 26 16 26 14 20 20 21 18 15 19 26 27 26 32 26 30 33 29 34 28 25 30 25 25 22 16 26 25 18 22 28 16 15 20 22 20 29 33 27 37 36 25 27 33 25 25 29 19 28 20 25 20 19 21 21 18 23 22 19 22 21
24 15 17 16 25 19 18 14 25 14 20 26 21 28 30 34 29 29 38 34 36 30 37 37 31 35 34 33 34 36 33 27 26 27 28 24 34 36 26 32 32 34 35 35 40 37 38 33 37 26 23 28 26 18 18 21 24 23 17 22 26 14 22 24
14 21 23 16 22 15 22 26 22 14 19 17 29 31 26 27 32 35 42 45 37 41 44 36 34 40 44 36 45 41 34 29 31 36 39 33 40 41 41 33 33 38 37 44 45 36 43 32 29 36 36 28 26 19 23 22 24 14 23 23 23 19 24 26
26 23 14 25 19 26 26 16 16 17 19 23 33 36 33 38 43 40 45 46 44 45 38 39 52 53 44 43 53 52 52 49 38 41 49 49 44 46 46 54 46 39 44 45 47 38 43 44 45 32 29 31 34 31 17 16 15 24 19 25 19 23 24 16
19 26 23 16 25 15 23 20 15 23 31 24 31 40 38 37 48 49 46 46 53 52 53 55 57 60 58 59 58 62 56 58 46 54 55 58 51 63 53 51 60 56 55 49 50 52 45 50 42 41 42 39 31 28 20 22 18 17 18 25 20 16 15 23
25 25 26 16 19 18 20 18 21 20 31 32 35 43 46 47 43 49 54 44 52 56 62 58 64 67 65 67 72 68 63 59 59 65 64 68 64 72 62 63 68 62 61 54 53 51 44 47 50 37 39 42 40 28 21 23 26 16 23 21 26 18 26 18
25 26 26 23 14 25 26 19 28 23 29 35 36 45 40 43 50 56 49 50 59 56 68 68 67 71 71 78 69 68 69 71 64 66 68 74 73 75 74 71 76 65 69 59 61 53 59 47 42 49 38 34 31 38 32 23 16 21 24 23 21 21 25 23
21 18 19 17 19 22 16 23 28 27 32 30 42 45 46 44 45 49 56 57 65 70 76 74 85 86 76 87 83 76 73 77 79 84 84 81 87 87 81 81 76 77 71 76 61 63 55 53 55 52 40 46 38 36 28 28 23 20 18 21 22 19 24 18
15 24 16 26 21 15 25 25 30 28 27 31 33 37 46 54 50 51 54 71 76 81 81 85 86 91 84 87 87 93 88 83 86 91 90 90 91 82 91 88 85 79 85 80 78 67 55 52 56 44 41 48 33 39 31 29 27 16 15 23 24 20 15 21
18 17 18 15 25 20 25 27 25 26 29 33 36 50 42 58 61 56 58 75 75 80 91 91 98 87 101 91 89 92 93 93 91 90 91 99 96 98 93 97 87 85 93 81 77 77 67 54 59 46 43 44 41 33 38 32 29 24 18 22 21 24 18 16
26 22 20 22 17 21 21 16 25 34 32 38 44 43 47 53 57 57 69 77 88 95 99 100 101 94 97 103 100 99 107 97 104 99 106 99 106 97 94 96 93 101 97 84 87 78 69 65 55 50 50 45 38 41 33 24 30 23 14 16 26 25 19 22
16 21 14 15 14 16 18 27 21 27 39 32 47 47 44 59 56 67 76 78 84 89 92 101 98 108 105 100 102 109 107 104 117 103 107 106 107 99 99 107 101 100 95 94 89 75 73 57 59 59 45 47 36 33 37 31 24 24 18 25 24 18 16 26
26 20 19 17 23 14 19 17 27 32 35 32 42 50 52 49 52 57 66 85 90 97 100 100 100 100 109 103 104 109 109 112 120 116 116 107 107 103 111 101 97 94 94 88 85 86 66 64 54 53 49 51 35 36 32 33 20 17 15 23 14 15 26 26
22 24 21 20 14 20 21 23 30 25 32 42 43 38 54 57 61 63 64 83 83 91 99 94 109 109 105 105 113 113 122 118 124 123 113 110 108 111 108 101 99 105 96 93 87 78 69 61 61 49 46 46 41 39 39 32 26 20 22 18 18 24 16 25
20 22 17 24 22 19 17 27 22 32 38 36 34 48 46 46 52 65 61 78 83 88 94 98 104 107 106 114 117 113 123 123 129 117 115 119 116 109 103 102 98 97 90 87 87 75 65 54 49 52 52 46 41 42 35 31 24 20 21 16 26 17 25 19
23 17 19 17 18 19 23 14 20 32 31 29 38 37 40 45 56 62 69 73 84 91 87 93 94 108 106 107 116 108 110 124 134 117 121 120 107 112 106 104 98 99 93 79 85 72 61 51 56 46 49 41 32 32 37 24 22 20 16 15 23 25 14 26
26 22 15 26 26 18 19 26 28 28 31 30 32 37 47 43 50 46 55 66 70 83 88 85 91 98 105 108 113 110 110 116 116 113 106 110 109 103 108 97 100 86 81 79 72 62 65 46 50 50 43 38 30 34 26 31 24 16 22 25 16 22 24 24
17 16 25 19 24 20 14 21 24 26 22 32 28 41 44 39 40 54 55 67 68 80 76 82 91 99 92 105 97 107 108 109 106 101 101 102 103 98 104 96 95 82 86 71 74 64 61 50 50 41 45 33 36 33 26 23 18 18 17 15 21 26 25 19
15 16 23 14 14 25 23 19 15 19 30 25 36 30 37 35 47 38 51 59 70 67 78 86 83 85 93 93 93 102 103 101 97 93 104 100 92 93 97 90 90 80 71 73 60 53 51 44 48 35 31 29 30 26 23 24 16 21 16 23 24 20 24 25
14 24 20 20 22 19 22 15 25 22 28 28 27 28 35 36 33 42 46 47 57 64 72 69 76 85 84 87 96 95 97 87 91 97 95 88 88 87 85 88 81 77 77 69 59 55 44 39 39 40 29 30 26 23 17 16 26 22 20 17 17 19 20 25
14 16 26 26 18 19 19 18 16 16 23 26 25 33 33 28 29 36 43 51 54 60 58 68 74 73 78 82 86 86 80 82 78 85 79 81 86 83 75 70 68 67 61 64 49 42 36 37 39 35 29 30 31 23 27 17 16 26 15 14 17 17 25 22
22 25 14 15 26 26 19 20 26 20 20 25 25 24 22 33 36 34 37 42 47 52 52 63 60 71 75 76 71 78 73 72 72 79 72 80 71 79 69 66 65 60 53 57 50 40 37 37 28 25 30 23 24 19 22 19 20 19 19 19 22 24 21 19
17 23 26 23 15 22 17 15 18 21 17 21 20 29 30 24 32 28 32 33 38 49 50 49 56 62 58 71 66 62 70 75 74 70 68 68 64 67 63 64 60 58 47 38 36 37 34 29 30 20 30 21 25 15 19 22 16 16 20 16 19 14 25 14
14 19 25 25 26 22 14 22 22 19 26 15 22 26 21 21 21 20 23 27 27 41 44 48 50 47 60 55 55 56 58 65 59 59 67 64 60 50 53 57 50 44 37 34 30 28 26 32 30 29 24 14 16 22 19 14 25 26 20 14 19 25 25 19
19 23 23 19 21 16 23 20 21 17 16 19 19 16 19 15 23 28 27 22 22 26 32 34 38 41 44 47 56 59 53 53 53 57 62 50 48 45 46 45 36 38 28 27 30 29 21 18 18 24 15 14 21 16 15 26 19 19 24 21 22 18 14 21
26 22 18 25 20 22 23 20 24 25 18 15 20 21 17 24 23 23 17 16 14 25 22 34 32 39 39 41 49 46 45 50 55 52 51 43 52 41 40 44 38 34 32 27 15 19 25 22 14 15 15 17 20 14 19 26 18 24 17 21 19 26 20 26
20 21 19 26 22 19 25 25 24 24 16 22 25 20 19 25 16 21 20 15 15 18 20 20 30 37 40 41 39 49 46 47 50 44 47 47 38 35 33 39 35 21 17 23 21 23 19 19 17 17 19 18 16 14 15 17 26 19 17 16 17 19 21 19
22 25 14 17 24 23 14 15 23 24 24 15 14 20 21 24 25 21 21 22 24 18 16 16 29 31 26 38 38 32 44 36 37 35 38 36 37 28 32 28 19 20 16 15 21 16 25 14 24 15 23 16 20 15 25 20 15 20 18 26 24 24 15 24
20 14 20 15 23 25 26 19 14 20 24 25 14 19 22 16 19 24 18 14 20 14 22 22 18 28 22 29 32 32 37 35 39 35 32 33 34 21 27 16 19 17 15 18 21 14 14 21 23 26 16 14 26 15 21 18 17 24 20 26 18 17 26 24
20 24 18 18 23 24 26 14 19 15 15 17 25 22 17 25 22 14 26 19 22 25 14 21 14 15 14 20 24 24 26 21 29 26 29 31 17 27 20 19 19 18 20 23 22 15 14 24 26 16 19 19 16 23 26 22 18 16 18 14 16 15 15 20
20 18 17 23 20 25 19 23 24 17 20 26 16 14 15 24 24 14 25 19 16 24 22 18 17 18 22 21 20 23 19 18 21 23 21 18 21 25 17 17 16 16 14 14 14 14 24 24 19 23 15 19 14 20 23 14 14 21 20 18 22 18 18 18
25 14 19 15 21 21 25 18 25 16 14 21 18 17 25 16 19 16 17 19 26 21 14 21 14 15 24 15 23 26 25 25 14 14 23 15 21 25 25 20 20 16 17 20 23 16 17 21 19 20 24 17 17 19 21 18 20 16 26 18 23 18 25 26
14 19 14 25 24 20 15 18 23 22 20 25 22 16 24 17 26 19 22 20 20 20 14 20 25 21 14 19 23 16 18 16 18 18 17 19 17 22 25 18 16 25 14 22 14 14 24 17 23 21 25 14 25 16 26 22 22 14 15 26 19 22 20 16
25 18 23 23 16 24 16 19 16 18 18 23 22 26 19 18 19 21 19 23 19 17 15 23 22 22 23 17 21 21 21 15 14 20 23 24 17 22 19 19 22 26 21 25 25 14 14 24 25 23 18 23 21 24 16 21 21 18 24 18 26 17 15 24
16 23 22 25 26 24 15 21 19 24 22 21 20 19 20 23 24 18 24 26 15 18 18 23 21 23 25 14 23 24 19 20 25 26 15 18 24 24 25 20 22 25 19 16 16 14 14 16 19 20 26 25 15 26 26 18 15 21 26 19 23 15 23 19
17 21 24 22 24 16 16 14 22 24 26 22 26 26 23 16 14 15 20 18 15 19 22 21 22 21 14 19 26 14 16 16 20 15 19 15 20 15 16 21 23 15 22 17 15 23 14 16 25 15 23 17 19 14 24 15 23 20 21 17 19 14 22 21
14 18 18 19 21 21 17 18 16 23 15 25 23 24 22 25 24 16 26 15 23 22 19 17 20 14 23 25 22 25 21 15 21 21 14 23 14 25 20 24 21 19 25 26 15 26 24 22 16 17 24 23 25 25 24 26 24 25 19 24 16 24 14 15
22 26 20 25 24 15 18 18 20 23 26 14 21 21 22 26 17 16 18 25 16 16 15 25 15 21 14 17 22 16 15 26 21 24 15 26 14 22 15 17 25 15 15 15 21 15 17 17 24 25 16 24 19 22 20 17 26 23 22 25 25 16 23 17
21 22 16 24 23 14 15 14 16 14 19 14 21 21 24 19 26 19 14 23 20 18 18 18 18 14 26 26 19 16 14 14 22 18 23 25 24 24 16 15 23 20 17 25 14 22 20 23 14 26 23 17 15 19 21 19 22 25 19 17 23 22 25 17
22 18 20 18 18 24 21 22 25 22 18 21 17 21 24 15 23 26 25 24 23 17 17 21 20 14 25 14 19 18 14 20 20 19 16 25 17 18 21 14 14 18 16 18 21 21 18 25 22 22 23 14 17 25 18 17 23 19 21 14 25 21 21 24
24 22 24 25 20 26 15 16 17 24 22 19 14 16 26 16 15 23 24 25 23 20 14 24 18 20 24 17 23 16 26 19 16 25 16 26 26 25 21 24 14 17 20 21 22 19 18 24 24 17 21 15 24 21 18 22 14 15 25 21 23 20 23 17
14 14 15 25 20 20 17 18 26 20 15 22 24 22 22 25 26 16 15 25 20 18 22 25 24 25 14 24 23 16 15 25 15 25 22 19 26 16 21 26 16 24 19 23 24 18 15 21 25 14 17 24 26 26 14 26 14 14 18 25 21 16 24 19
19 18 23 26 15 22 16 17 17 15 19 22 18 20 15 18 17 15 24 24 22 17 22 19 17 18 21 17 16 17 22 16 19 26 23 17 24 25 20 24 25 22 18 18 21 20 18 21 21 23 17 22 17 20 15 22 14 19 21 20 21 16 25 18
