P2
64 64
255
20 17 24 19 18 14 23 23 20 23 14 20 19 15 16 14 21 22 25 26 14 20 16 14 26 22 25 15 19 19 22 20 26 25 15 15 17 18 16 24 20 24 19 16 25 25 20 26 24 26 26 22 17 14 22 21 20 26 20 23 16 21 14 15
16 17 20 17 15 23 25 22 26 24 26 14 24 14 18 18 16 14 26 19 26 17 24 16 14 15 24 26 20 14 26 14 15 18 16 21 21 20 18 22 17 17 25 16 17 17 14 14 18 22 26 14 19 21 26 25 17 20 21 20 19 17 24 16
20 26 21 17 20 15 18 14 21 17 20 20 23 18 21 22 14 15 23 21 26 17 22 26 19 23 24 19 20 14 23 17 23 24 25 17 21 19 25 16 16 23 16 21 26 18 20 15 24 21 18 24 21 20 22 14 15 23 21 18 24 25 17 26
18 21 18 14 18 23 17 20 14 16 18 19 15 18 24 17 16 16 15 22 16 19 19 21 24 14 21 23 21 25 18 17 22 15 19 20 19 19 17 20 18 16 23 17 17 24 17 25 19 24 19 23 19 14 14 24 17 16 25 17 20 21 14 18
25 18 14 25 25 23 15 21 17 18 24 14 26 18 15 20 22 20 14 23 16 20 14 23 22 18 17 22 26 23 23 22 17 25 14 22 23 23 20 25 26 22 22 25 19 21 17 21 17 17 14 22 24 14 14 26 23 14 18 19 17 14 15 15
14 20 14 20 22 22 23 19 23 21 20 14 20 20 16 21 24 20 19 17 25 24 24 24 24 22 22 18 20 16 19 17 18 18 21 20 24 22 21 17 26 24 15 19 14 25 22 15 15 15 16 20 19 21 22 25 26 17 21 17 19 22 21 23
21 20 21 18 22 23 20 14 14 22 14 22 14 22 25 21 26 24 16 25 25 19 17 17 14 18 16 21 24 15 16 22 26 16 25 21 19 14 23 20 25 18 18 22 25 14 14 19 22 18 19 19 19 16 25 15 24 15 17 22 25 15 17 19
24 19 21 14 25 14 19 17 18 19 21 26 16 26 25 18 26 19 14 18 23 23 19 15 15 17 17 16 22 23 24 23 23 19 16 26 16 25 18 15 17 26 25 14 18 17 15 26 16 25 17 19 18 20 17 24 15 20 20 21 23 20 22 17
23 26 24 26 23 15 18 17 20 18 22 19 26 23 17 23 15 15 22 25 26 17 20 19 20 21 14 23 19 24 20 20 26 18 18 24 21 22 24 15 26 15 16 24 15 19 23 16 23 23 19 20 26 19 17 24 22 15 24 15 26 15 23 25
20 22 21 20 22 18 26 16 24 24 14 19 23 22 14 16 26 19 22 16 17 16 17 15 18 19 20 15 16 20 14 23 23 17 21 16 25 20 16 16 14 16 14 18 24 14 23 22 24 20 15 21 25 24 17 23 23 19 15 14 14 16 15 19
15 15 15 20 18 26 22 22 22 25 25 15 14 18 22 26 15 23 16 14 20 24 15 20 18 18 18 20 18 22 23 23 25 23 14 16 26 23 16 26 23 23 18 22 21 25 20 19 15 24 17 22 19 26 17 23 19 14 17 21 26 21 23 22
14 22 23 23 20 22 23 16 21 19 17 14 21 14 23 22 25 18 20 25 22 21 21 23 19 21 25 22 14 26 24 21 23 19 24 16 23 22 17 15 18 23 15 23 18 19 18 14 23 24 19 21 18 26 14 18 24 23 23 25 24 23 24 20
16 26 15 25 25 14 15 16 18 17 24 25 15 21 17 18 26 26 17 21 16 23 15 15 16 20 21 20 16 15 18 23 17 18 17 14 26 26 24 18 23 14 14 14 19 21 16 21 19 14 18 21 26 16 17 16 23 15 20 26 22 23 26 15
18 23 19 16 22 17 22 20 21 23 16 21 18 23 16 16 15 19 23 25 25 21 21 24 19 23 17 23 18 21 18 23 17 21 19 22 20 23 25 21 26 24 19 19 23 21 19 19 20 20 18 23 17 15 14 23 15 16 16 15 19 21 19 18
18 18 24 18 26 24 17 22 24 19 14 19 23 24 21 21 20 18 25 26 16 15 23 14 24 21 26 14 17 22 15 21 20 24 24 20 19 22 18 14 18 24 26 18 15 23 24 16 17 22 25 25 17 15 15 19 15 23 14 20 20 19 23 14
22 19 22 26 26 24 26 15 21 18 21 16 16 14 22 14 19 16 26 24 23 22 16 20 23 26 24 16 16 23 23 19 20 24 17 17 17 17 23 16 24 19 26 16 18 21 22 24 17 16 26 21 24 26 20 15 24 19 23 16 19 19 23 18
26 18 22 23 25 16 23 22 22 15 17 17 20 22 25 20 16 19 25 15 20 22 17 16 19 21 16 22 14 24 14 15 16 17 17 23 15 23 14 26 17 23 19 25 17 23 26 16 14 21 14 25 25 23 17 25 19 15 21 26 26 18 25 25
15 23 19 20 16 22 25 14 20 16 22 16 16 14 23 18 23 18 15 19 26 18 22 25 15 21 16 20 17 25 14 17 22 25 15 19 21 26 18 21 23 19 23 24 24 25 24 16 25 16 19 23 14 22 26 23 18 20 21 16 15 23 16 17
26 15 25 23 14 26 18 25 23 15 15 22 21 17 22 14 14 14 20 23 17 15 25 21 21 22 14 24 19 18 19 17 20 21 25 20 16 14 14 14 24 14 21 18 17 14 19 16 23 23 16 25 26 16 19 17 14 25 19 24 24 21 20 24
17 15 18 21 14 14 22 25 25 17 24 23 17 17 25 19 26 26 18 20 27 22 22 23 28 20 22 20 20 15 24 25 14 16 15 16 20 17 26 27 25 26 21 20 23 22 24 27 20 25 25 19 17 24 26 18 23 23 16 20 20 23 22 20
26 26 15 22 16 14 19 17 15 18 21 14 26 20 23 26 25 26 30 27 22 33 25 30 24 30 20 26 14 16 21 20 24 25 18 17 24 26 29 22 25 31 23 25 27 24 21 25 28 29 15 26 21 15 20 19 22 16 20 23 15 19 24 14
26 20 18 20 19 21 26 25 23 22 25 24 16 22 22 20 33 25 24 33 32 37 35 24 27 29 30 22 21 16 22 20 18 24 24 21 25 22 23 31 33 32 33 35 31 32 24 29 25 20 22 29 22 25 21 20 16 21 20 22 19 17 16 17
15 26 15 17 24 22 20 20 21 20 19 15 21 32 28 29 31 34 38 36 33 32 35 34 39 32 29 33 30 21 27 15 22 23 24 18 27 29 35 31 27 29 36 35 34 33 28 34 37 29 29 25 19 27 14 19 16 25 20 26 25 18 18 19
25 20 23 19 22 18 23 22 21 20 27 25 31 34 32 28 33 40 33 33 45 35 37 34 39 30 27 26 24 27 20 24 18 21 19 30 35 28 30 33 39 36 33 40 36 41 42 43 33 27 25 34 29 18 17 25 25 25 17 22 15 19 25 20
25 21 15 21 17 25 20 22 15 14 19 27 23 38 32 40 42 35 43 43 37 47 49 41 35 45 34 29 26 28 24 25 26 17 30 31 33 31 33 38 39 42 45 40 44 46 43 39 36 43 39 35 26 22 26 26 25 17 14 26 22 15 23 24
16 26 18 21 23 17 19 25 22 20 25 28 31 29 32 40 48 43 50 46 43 45 52 51 47 44 34 37 34 37 30 22 26 27 30 37 32 33 37 41 46 44 41 42 52 41 46 42 45 37 40 38 31 22 20 18 15 26 23 17 26 25 17 25
22 19 15 18 18 24 19 14 14 18 24 30 28 33 42 43 41 52 51 56 48 50 49 46 45 48 45 45 32 35 30 21 34 31 30 29 37 42 39 51 42 47 46 57 55 55 43 49 51 39 43 31 28 34 32 26 18 16 22 14 20 20 19 18
16 18 14 19 14 22 18 21 17 29 27 32 41 40 49 49 49 49 56 49 60 51 56 52 47 45 47 40 43 36 37 35 26 37 31 31 44 36 48 46 57 59 51 52 58 55 49 50 52 40 41 33 42 28 35 30 17 20 21 22 17 16 22 17
25 20 24 19 19 22 18 25 26 30 34 40 32 44 45 45 47 54 60 52 56 53 61 58 57 48 47 43 35 39 36 36 40 35 37 44 38 47 52 48 58 54 54 57 57 63 57 54 45 43 47 44 34 33 33 25 29 19 26 17 16 21 18 18
18 23 18 20 15 22 26 27 24 31 32 42 36 45 47 55 55 51 54 59 65 61 59 65 59 50 48 50 38 38 33 42 35 34 36 40 38 45 55 52 51 62 61 58 64 65 58 63 47 51 41 37 45 39 29 34 26 26 16 20 26 26 17 21
14 25 25 15 24 25 15 17 24 26 29 37 44 39 47 48 61 57 58 60 72 68 63 64 56 49 46 44 44 46 33 35 36 44 40 44 46 44 50 58 57 58 61 67 62 71 68 62 54 56 48 46 36 39 29 31 25 25 23 23 23 25 26 18
14 17 19 26 24 20 24 20 26 35 33 35 47 39 47 54 58 57 69 74 68 71 63 58 64 57 58 45 46 35 37 32 36 35 42 43 44 52 54 56 55 60 63 74 74 65 60 58 59 52 55 48 44 33 30 35 31 21 14 24 21 25 21 18
24 26 25 19 24 22 16 17 31 25 28 35 47 48 54 58 52 61 63 73 67 66 63 71 56 63 57 49 39 39 40 42 45 34 37 39 48 46 57 52 66 68 75 74 68 75 63 61 52 47 44 42 45 35 32 29 27 24 15 23 24 17 14 15
22 21 25 15 21 26 20 17 20 23 27 34 41 46 47 57 63 58 63 64 72 75 63 60 59 61 47 51 47 43 43 39 44 40 40 45 44 51 52 52 60 69 62 70 68 70 70 65 63 53 49 44 45 37 31 28 23 21 20 23 25 21 25 24
16 22 18 14 15 19 14 25 25 33 34 37 40 44 46 57 50 62 61 66 67 63 67 60 53 55 57 47 44 34 41 44 37 40 39 38 49 50 55 50 65 67 68 60 63 63 68 59 53 52 53 38 42 32 31 27 21 16 17 26 23 24 19 16
23 26 15 17 19 26 24 20 25 27 28 42 39 45 47 51 55 60 54 55 69 60 64 57 52 58 48 47 46 45 39 37 41 35 33 34 46 44 51 51 50 65 56 60 65 55 53 51 56 45 51 45 39 35 35 25 22 25 16 24 21 24 20 16
15 18 22 22 14 25 21 21 25 21 37 32 34 44 39 50 51 57 51 54 54 61 57 54 58 56 42 48 46 44 33 30 34 35 35 38 35 45 51 50 51 60 58 63 61 58 51 56 46 46 44 41 40 38 28 24 28 21 14 25 16 23 18 19
23 26 23 17 25 17 23 20 22 21 29 33 35 39 42 43 45 54 55 51 51 59 52 56 49 53 39 40 41 30 32 26 26 25 38 42 42 40 40 46 56 59 55 56 61 51 53 51 54 45 48 34 33 32 28 28 17 19 16 17 14 19 21 22
24 21 14 22 14 21 15 20 22 25 30 35 29 37 41 49 48 48 53 52 53 57 44 54 43 44 49 42 43 35 27 22 23 30 34 34 37 34 41 50 52 51 49 51 48 54 54 50 51 45 34 41 36 36 33 19 14 15 16 22 15 22 19 14
19 22 24 28 24 24 20 19 28 23 27 30 34 35 43 49 51 43 46 56 46 53 51 50 50 46 40 38 38 39 38 32 31 28 36 30 37 45 49 52 55 52 46 50 55 54 54 50 54 41 40 36 37 33 30 23 27 23 20 22 23 21 22 30
26 32 25 33 33 22 29 30 29 28 27 27 39 46 46 40 48 54 51 54 55 52 49 55 52 44 48 43 42 37 35 33 31 29 42 38 45 49 45 55 55 51 59 52 57 54 53 55 48 45 45 38 43 36 40 36 26 29 28 29 27 28 28 37
24 26 32 32 28 30 26 34 27 32 29 40 42 42 44 43 52 47 51 46 45 53 56 52 46 48 52 45 42 35 31 40 28 40 33 47 43 51 50 48 58 60 57 54 49 55 53 54 55 50 51 41 44 37 33 33 33 41 40 39 44 42 36 37
21 29 21 25 23 32 29 30 28 32 33 27 24 36 33 42 41 37 41 46 43 45 38 38 36 42 34 43 37 34 29 24 23 26 30 35 42 34 38 40 42 50 51 50 42 44 48 40 39 44 41 31 33 31 36 27 35 37 29 33 26 34 35 31
23 29 29 21 27 21 24 28 28 26 21 19 21 22 25 24 34 35 40 38 36 38 32 39 30 36 29 34 22 18 29 23 26 23 18 22 31 27 30 30 39 41 37 36 30 36 30 36 37 26 25 24 24 24 22 23 24 20 29 31 20 29 22 31
24 21 15 14 22 18 17 18 25 14 15 17 14 14 15 23 22 32 21 21 25 34 32 22 23 24 19 17 25 24 17 22 26 25 20 14 24 26 28 26 22 33 33 32 26 32 30 25 18 28 16 23 26 25 16 23 17 16 14 17 26 21 23 15
24 24 17 26 19 21 24 25 16 21 22 26 23 17 16 25 20 22 26 22 21 19 24 27 25 15 22 25 24 21 17 21 17 15 15 14 20 18 20 16 18 29 18 22 23 25 20 22 22 25 15 22 17 24 26 17 17 26 24 14 19 25 19 24
18 26 21 19 14 17 22 21 17 26 14 20 21 14 24 24 24 16 18 25 19 23 16 21 15 16 16 16 20 17 14 22 26 17 16 17 20 18 18 21 18 18 18 16 22 19 26 14 19 23 25 26 26 15 18 18 15 16 26 25 19 24 14 25
17 22 23 21 24 25 26 19 15 17 15 15 17 21 25 18 19 21 22 24 19 15 14 17 19 25 24 17 19 21 16 20 18 20 21 18 18 16 21 24 16 23 19 18 23 17 18 21 26 17 26 26 21 26 22 18 18 19 15 26 23 25 26 16
14 19 15 24 15 26 26 22 21 23 19 18 17 20 17 20 15 15 22 18 14 26 19 19 20 20 26 20 26 14 15 24 24 17 24 18 26 23 15 15 16 25 24 16 18 19 16 17 25 18 21 14 23 17 16 21 20 26 21 15 15 22 22 20
14 25 21 24 16 15 14 17 17 22 19 17 25 17 20 16 16 26 17 23 22 20 25 16 26 24 18 18 26 23 18 19 15 22 17 16 17 16 23 25 18 25 18 18 23 16 21 20 26 19 23 20 16 18 23 17 17 19 19 17 15 20 14 20
15 26 25 20 21 17 17 24 20 14 14 17 16 21 18 15 21 25 25 24 21 19 16 22 17 26 24 21 14 23 26 15 16 18 20 18 14 17 23 22 24 18 20 15 24 20 19 16 26 16 22 18 20 24 19 18 22 22 25 14 20 26 21 24
21 16 25 18 17 26 14 15 19 19 24 16 24 15 20 22 17 25 23 20 19 14 17 25 20 20 15 20 23 23 26 26 24 17 23 20 23 14 25 20 25 19 18 25 20 17 18 15 16 18 23 14 17 15 18 17 24 15 21 16 17 19 16 15
17 19 24 26 26 19 19 18 17 26 26 16 19 19 23 22 22 16 16 14 25 14 17 18 15 20 26 26 16 24 14 14 26 20 21 18 20 17 15 25 20 22 15 24 14 19 23 24 21 21 19 25 23 22 15 26 22 16 22 23 26 21 14 19
26 23 23 14 20 16 25 21 24 20 23 22 23 17 15 17 22 24 25 23 17 17 25 22 22 21 14 22 23 22 20 18 25 24 19 26 20 21 23 20 20 22 19 19 14 22 17 15 26 22 19 17 24 15 14 14 17 26 16 16 16 25 26 20
17 14 20 15 14 16 20 25 19 25 16 22 26 23 26 14 23 20 26 15 16 17 21 22 24 23 26 23 23 20 23 26 26 16 19 20 19 14 14 26 19 26 18 19 24 14 22 24 14 24 14 19 19 16 20 22 20 19 15 21 17 26 22 19
18 20 24 26 20 24 23 24 25 24 23 15 18 22 19 24 26 14 19 14 24 15 24 25 18 23 16 16 20 26 16 19 21 21 20 17 22 23 14 18 21 24 15 23 20 19 22 20 19 19 18 16 26 20 26 26 26 15 25 21 22 19 18 18
25 15 20 18 14 21 15 15 26 17 23 25 21 25 17 15 25 21 26 22 14 26 20 14 26 15 14 22 26 25 18 20 20 23 18 20 23 17 17 14 14 17 23 15 14 22 26 19 20 25 19 14 21 18 23 26 16 26 16 25 21 15 14 17
21 15 18 21 26 15 16 24 24 19 17 23 14 25 22 16 24 14 19 20 17 24 20 14 24 15 16 20 15 21 22 17 24 22 23 25 24 22 16 16 18 22 15 15 17 22 17 16 14 22 18 14 25 24 18 26 18 19 26 26 14 15 16 15
14 15 26 26 24 24 18 15 24 16 15 21 25 18 19 22 24 19 21 22 23 17 18 14 20 20 26 18 20 14 20 14 20 19 14 22 17 14 26 21 16 21 15 22 21 24 19 21 16 22 20 19 20 25 21 20 22 21 21 17 19 17 22 20
24 17 15 24 18 23 21 20 21 16 15 23 16 16 19 19 22 25 25 19 14 17 14 21 16 18 23 18 16 20 23 21 15 16 22 23 25 22 26 26 17 25 15 24 14 25 21 24 23 24 22 17 19 25 14 19 23 24 24 14 26 20 19 23
26 14 22 22 19 26 25 17 23 22 23 24 16 15 21 15 16 14 23 23 18 23 25 16 14 21 15 17 18 17 14 21 23 23 23 20 14 20 26 22 23 17 20 24 21 25 24 21 20 26 24 23 15 14 15 16 23 24 14 17 24 14 21 23
18 20 25 18 24 16 14 25 15 14 17 14 22 21 22 25 24 14 22 21 17 18 24 20 16 24 22 20 15 22 25 18 21 14 24 17 20 25 14 19 26 14 20 16 16 19 24 18 18 22 23 18 23 23 14 21 18 16 21 16 15 22 16 15
22 15 18 23 14 18 23 19 19 17 17 17 18 21 20 18 16 16 15 17 25 14 14 19 21 24 18 25 17 26 23 24 25 26 15 20 22 15 16 25 17 22 23 19 24 21 22 22 22 21 17 21 19 17 15 23 25 20 17 17 14 20 19 16
22 20 23 22 17 18 20 17 14 23 20 20 22 14 20 20 20 14 19 14 24 20 22 19 14 24 23 22 16 16 21 24 24 17 23 26 24 19 16 26 22 20 15 22 15 14 20 16 22 18 26 21 23 16 23 21 20 21 21 20 18 14 16 15
