P2
64 64
255
23 23 17 24 20 23 25 23 20 14 26 18 19 15 22 17 14 18 21 14 24 25 22 26 15 14 24 21 23 17 25 22 25 21 22 17 15 14 18 26 17 17 24 14 23 15 20 14 15 18 16 19 15 20 22 15 23 15 18 21 22 24 17 26
21 15 14 17 26 20 21 17 15 18 26 23 18 22 20 24 26 18 23 19 14 18 24 18 24 16 15 20 23 21 26 18 22 16 22 16 18 25 25 21 18 24 23 18 21 18 20 17 21 20 19 16 16 19 23 21 23 25 14 21 19 24 25 14
22 21 26 21 21 25 23 19 24 22 15 18 17 15 18 19 25 24 21 21 18 16 18 21 17 23 18 23 26 18 26 25 17 24 20 20 15 20 23 14 20 22 26 20 19 22 17 15 16 19 26 19 18 18 16 22 22 20 19 21 16 15 23 17
26 14 20 14 18 20 26 24 19 25 24 19 26 22 19 14 25 18 18 19 24 23 24 25 25 23 19 17 17 24 25 15 18 26 25 15 16 26 25 14 18 17 23 20 19 15 25 26 21 20 18 17 24 20 16 16 19 14 23 24 16 25 22 26
17 14 22 18 23 21 14 15 24 18 23 15 25 24 26 25 20 16 25 22 17 22 24 25 14 15 14 25 15 21 19 24 21 25 21 15 19 25 17 23 23 20 20 23 17 20 23 23 17 21 21 23 21 17 15 16 16 19 16 20 24 20 24 25
16 14 25 18 19 16 15 15 16 21 25 16 24 20 15 25 19 14 15 20 17 24 24 18 22 18 22 22 22 21 26 18 14 23 26 18 24 20 26 20 14 17 20 19 24 20 16 22 20 22 17 16 25 22 20 19 14 17 25 21 17 22 26 16
17 20 25 24 16 23 25 18 16 17 17 17 25 20 24 19 15 24 21 22 21 16 26 21 24 18 16 25 19 22 20 24 23 18 23 15 22 26 24 17 23 15 24 17 23 15 17 23 14 23 23 22 22 23 25 17 15 21 16 25 20 25 14 21
20 17 18 16 21 26 18 14 21 20 23 19 19 17 15 22 17 16 22 14 18 20 22 18 15 14 21 16 16 21 21 14 20 21 19 24 23 21 25 22 23 23 19 16 23 18 25 26 24 15 16 15 15 25 26 17 26 14 24 14 21 21 25 16
20 19 17 16 20 16 25 15 23 20 16 20 19 23 21 19 14 25 14 21 25 23 25 24 26 20 22 24 25 19 25 17 22 25 16 19 26 25 21 20 23 14 21 22 24 16 15 18 19 17 16 25 14 20 19 18 24 25 16 23 21 18 25 14
19 21 14 16 15 19 18 22 25 16 16 14 21 26 25 19 26 26 20 25 19 17 25 23 15 19 19 18 24 21 25 18 15 19 17 14 15 20 16 19 14 19 25 16 26 25 24 26 26 24 16 16 20 26 15 21 24 14 16 15 14 24 15 16
19 14 18 15 26 14 25 17 21 18 17 17 14 21 22 26 16 18 20 22 23 25 20 15 20 22 21 14 16 23 17 20 26 20 15 19 19 22 26 17 18 19 16 23 14 14 14 20 24 26 16 24 17 18 20 22 21 14 19 18 15 15 23 21
15 21 14 23 24 14 26 26 24 23 18 24 15 20 25 17 24 19 22 21 21 14 24 19 18 15 26 14 20 23 26 26 20 18 20 16 17 24 24 14 15 15 26 21 17 17 15 23 23 18 20 16 15 20 20 25 17 18 18 15 17 16 17 17
16 22 23 18 25 22 23 14 25 17 26 16 25 23 17 15 14 23 23 15 21 25 17 20 26 22 23 18 26 20 20 14 18 23 16 14 19 24 25 16 20 23 18 17 16 26 21 20 16 20 15 23 21 23 25 25 16 16 25 19 22 16 15 21
25 19 23 24 14 25 15 15 19 20 23 14 22 23 26 18 15 18 17 21 18 24 25 14 26 18 22 22 22 20 23 16 22 20 15 19 15 19 15 24 15 25 22 16 19 18 23 24 14 16 18 26 19 24 26 24 19 26 24 16 18 18 15 21
18 20 20 15 15 24 18 25 14 19 25 17 20 19 21 23 16 16 17 26 18 17 16 24 24 24 20 22 17 24 15 26 15 18 24 18 25 14 24 21 26 21 23 20 21 26 19 23 22 19 14 15 24 14 17 23 18 17 14 19 16 23 14 19
20 19 15 24 22 21 19 24 17 19 23 25 23 26 16 24 21 22 20 19 20 14 21 25 22 24 17 23 14 14 22 15 25 24 15 21 14 15 14 26 18 18 16 14 15 14 14 17 14 16 15 16 14 19 18 25 14 21 25 26 25 17 17 18
15 14 15 21 23 18 20 22 24 19 17 22 24 23 26 22 16 19 23 14 25 19 14 25 22 18 24 22 21 22 16 25 24 18 14 19 21 18 19 15 22 23 22 15 23 26 23 19 16 21 20 25 26 16 23 21 23 22 21 24 23 22 23 20
15 15 17 23 21 19 25 21 22 19 22 20 25 20 20 23 21 19 24 26 26 15 14 24 23 23 17 15 15 16 16 15 14 23 16 24 22 25 18 22 14 23 25 14 23 25 21 18 22 21 25 15 19 24 20 15 19 19 24 20 22 18 24 22
25 24 14 23 25 25 24 18 22 17 19 15 22 24 21 25 18 25 21 24 14 25 17 21 21 15 16 18 15 18 20 26 26 18 24 25 22 23 20 14 17 16 22 17 20 24 15 22 17 16 23 25 15 17 23 15 14 19 26 16 15 16 22 20
22 19 24 22 19 18 25 23 25 18 17 23 20 17 22 25 23 19 21 29 25 26 18 27 24 24 25 22 18 26 20 17 23 24 25 18 23 23 21 17 21 20 20 26 30 28 19 23 15 17 24 20 23 16 17 19 17 20 17 21 26 18 22 18
18 14 24 24 22 21 15 26 21 21 20 18 23 26 18 24 27 26 28 32 27 34 21 24 32 26 20 17 17 21 20 23 25 14 18 16 26 16 27 22 20 30 32 23 25 29 30 32 18 25 18 24 14 21 23 19 14 22 22 22 19 22 17 14
16 24 17 17 19 25 22 20 21 14 21 22 23 17 26 25 25 32 31 33 25 29 30 33 29 32 27 25 27 22 18 27 28 27 23 21 25 19 24 34 24 32 35 28 36 29 27 31 33 27 20 23 26 25 23 24 23 22 25 15 15 18 24 19
17 16 21 26 16 25 25 25 26 15 18 27 28 30 26 34 30 33 34 39 36 32 31 30 32 26 29 36 31 34 25 29 31 29 33 36 29 29 34 34 34 34 41 40 41 41 36 30 31 24 34 23 17 17 25 25 21 21 20 23 17 18 23 16
23 25 20 14 14 25 14 19 15 16 26 21 30 33 30 33 39 34 34 37 38 40 36 41 43 36 35 34 46 34 43 31 36 38 39 36 35 36 42 41 41 44 37 34 43 43 40 38 29 38 26 26 27 25 22 18 17 21 17 14 17 16 19 18
22 20 21 16 17 19 20 18 21 20 18 23 34 35 40 40 35 35 48 40 41 40 39 40 42 53 44 43 44 43 41 49 41 43 48 47 45 48 45 44 44 46 47 40 39 41 46 44 37 35 32 31 35 29 17 14 23 17 21 25 15 20 17 15
22 15 15 23 18 18 22 18 26 23 31 33 26 30 40 46 46 42 46 48 43 43 51 51 49 61 57 58 61 58 52 51 54 51 52 57 61 63 63 62 54 58 45 44 43 42 49 49 38 38 37 32 37 28 27 28 16 26 20 19 22 15 26 14
20 21 16 24 17 20 25 19 19 26 22 25 31 37 40 43 50 46 55 48 55 54 60 67 67 64 66 63 67 59 57 55 66 55 61 64 67 70 63 66 66 61 62 53 48 47 52 50 48 48 44 41 31 27 25 30 22 26 23 21 22 19 14 26
16 22 14 19 14 22 17 22 25 27 25 31 33 42 47 50 54 52 59 49 60 64 66 63 68 76 70 70 72 70 73 65 71 74 65 73 70 75 67 75 70 64 60 64 58 58 55 56 43 48 46 38 32 37 27 26 26 17 19 16 22 24 26 18
21 20 20 26 15 24 21 19 18 26 26 37 41 38 48 47 55 58 59 65 66 74 69 78 82 81 76 83 80 75 75 80 86 86 80 79 82 82 85 79 75 79 79 67 62 56 54 60 54 44 47 39 42 31 25 28 26 17 25 17 18 26 15 20
17 18 14 20 22 24 21 16 29 28 29 42 44 42 42 56 49 53 60 59 77 82 87 83 80 81 89 91 92 89 90 93 90 83 81 83 86 88 94 83 79 80 76 78 75 65 56 57 48 53 41 44 43 38 30 32 23 27 20 20 22 23 19 17
21 18 25 21 19 18 21 19 26 33 39 33 43 44 42 49 60 61 66 71 72 84 88 93 88 87 90 89 95 99 97 96 95 98 100 98 101 91 96 91 92 86 94 84 77 68 57 63 56 48 46 47 43 41 30 23 26 17 22 16 26 21 21 14
22 25 16 22 14 18 23 18 28 23 33 42 36 45 54 54 55 59 65 82 85 91 95 89 98 92 100 102 96 98 102 97 97 105 105 104 103 103 103 94 93 97 96 88 81 81 66 54 57 53 47 44 43 42 27 31 22 28 24 20 24 17 20 17
19 26 16 25 16 17 20 26 29 29 30 36 41 47 46 56 51 63 68 76 85 92 91 98 101 106 103 104 102 108 111 114 117 112 108 99 108 101 97 99 107 93 102 100 91 79 64 57 53 55 48 48 44 34 32 25 27 24 25 24 21 14 20 24
22 25 17 14 24 23 17 16 21 25 27 33 47 49 53 58 58 62 65 79 94 91 101 94 108 109 107 108 113 105 114 118 113 118 114 110 111 106 104 109 108 99 95 96 85 80 75 59 57 59 51 49 47 37 27 30 29 17 19 15 22 20 16 25
23 26 17 23 26 22 19 27 20 35 34 32 42 40 45 56 52 56 68 77 85 92 99 95 100 100 110 112 109 118 122 124 125 118 115 111 109 114 104 107 108 95 100 93 82 73 71 65 59 52 53 50 42 40 38 26 20 22 18 16 25 23 20 25
14 26 15 15 15 18 17 21 23 23 32 34 34 46 45 45 48 63 62 74 83 84 97 98 104 103 112 109 107 108 119 126 125 128 121 119 112 115 106 104 100 100 92 84 79 81 70 61 55 51 53 40 41 31 32 24 20 23 23 18 21 15 15 26
20 18 23 19 17 17 22 24 20 32 29 40 33 36 50 52 53 52 64 72 84 86 85 98 98 103 110 114 106 114 113 126 133 120 121 120 114 108 107 96 94 97 91 86 80 78 70 56 46 46 48 45 39 28 37 31 27 22 17 21 23 17 26 20
16 18 23 26 26 16 15 18 21 31 34 36 32 35 44 40 53 48 60 74 72 79 89 89 96 101 97 99 110 105 115 110 112 119 108 116 104 101 104 94 94 86 83 75 75 65 62 56 44 42 41 41 39 32 25 26 23 23 24 22 24 20 15 21
24 24 24 24 21 22 24 25 18 21 23 34 35 38 43 48 49 52 58 63 75 72 86 90 92 93 92 96 108 104 105 106 108 109 102 102 108 97 103 94 84 90 77 74 73 57 61 44 45 37 42 42 35 28 31 18 24 20 19 17 18 18 23 17
24 25 24 26 15 18 25 21 25 28 25 26 36 40 43 43 39 38 52 57 60 69 81 87 84 93 97 100 102 97 105 101 102 101 102 96 91 101 91 88 85 75 79 74 64 61 53 49 43 34 36 37 26 27 30 28 19 15 17 25 20 18 20 19
24 26 21 19 22 21 20 15 21 21 23 27 23 34 40 34 40 45 43 56 53 61 69 76 84 86 84 83 88 98 89 87 94 85 95 89 94 94 88 80 81 81 72 64 58 54 45 38 35 36 38 30 23 24 28 20 24 26 20 25 24 23 15 22
16 25 24 17 22 22 17 19 23 14 27 29 28 23 29 35 41 42 44 41 58 52 61 66 74 73 79 78 83 79 82 81 82 84 82 81 82 79 83 78 70 65 65 59 58 41 42 34 37 35 32 29 25 20 16 17 15 15 22 23 15 20 24 21
19 23 16 14 19 25 21 21 19 15 22 20 21 31 29 29 31 31 28 35 44 56 62 63 63 70 77 78 74 76 78 80 75 80 75 72 80 77 77 64 64 55 53 58 48 45 35 29 26 35 23 22 25 25 16 24 15 20 25 26 17 21 15 25
26 24 19 25 23 16 20 26 26 24 22 15 26 29 30 26 30 34 34 28 33 47 55 52 54 62 63 64 71 63 70 69 75 64 66 69 72 65 66 59 56 48 45 43 43 34 26 32 24 32 21 22 16 17 14 19 18 16 17 17 23 15 25 19
18 26 26 21 15 20 15 25 18 15 21 22 24 18 16 20 20 23 32 27 30 34 46 46 50 46 59 59 55 57 68 70 69 61 66 57 57 62 55 53 51 49 37 38 33 27 24 32 24 23 23 19 24 19 21 22 23 18 21 25 19 26 26 17
23 26 21 18 26 22 19 23 20 17 18 22 24 15 24 16 26 25 18 27 31 36 34 35 38 45 53 46 52 60 54 59 64 56 51 53 52 45 41 44 39 40 33 34 20 20 21 16 20 25 19 25 22 14 22 20 23 23 26 19 25 24 15 19
15 18 24 23 23 18 15 26 24 23 16 20 15 20 24 15 22 16 22 23 24 17 30 26 33 42 38 39 49 51 47 57 56 49 46 50 42 40 46 43 41 32 31 19 17 19 20 19 24 19 17 15 21 25 22 25 22 17 20 20 26 22 23 16
17 25 14 14 20 23 25 23 18 18 26 25 16 14 16 16 23 18 26 23 16 18 22 30 30 32 40 33 43 47 38 47 44 47 49 41 42 39 36 29 29 29 21 15 22 25 15 19 17 26 26 18 19 23 18 24 21 19 26 18 26 21 25 24
18 17 17 26 20 25 25 23 26 21 22 21 19 18 18 16 23 20 21 25 17 23 24 25 23 26 34 32 40 34 39 41 41 40 33 36 41 32 32 31 19 15 15 21 19 19 24 19 20 17 18 17 17 19 23 22 16 19 24 23 23 20 23 16
17 25 20 16 21 22 19 24 25 16 25 22 16 24 23 22 20 15 20 16 16 21 22 19 22 16 21 31 35 29 38 37 30 32 27 26 33 29 31 19 16 17 19 17 15 16 24 18 24 16 26 25 19 16 22 16 15 22 22 14 22 26 24 25
26 24 15 21 21 20 22 18 14 14 24 14 16 18 19 17 23 21 23 15 23 22 23 23 18 14 14 23 17 26 30 32 24 25 25 20 21 16 26 17 23 18 15 17 15 26 15 25 21 15 18 22 21 14 20 23 20 25 20 25 24 26 25 17
15 15 17 25 19 24 23 17 18 19 16 19 25 14 16 18 19 18 21 21 24 22 24 17 24 26 26 24 24 19 19 24 23 15 15 17 24 20 25 19 20 19 18 16 23 21 15 20 21 18 24 19 26 24 14 20 22 26 16 23 22 24 22 22
14 18 24 17 26 14 17 26 25 14 14 24 17 20 17 15 16 15 23 25 17 23 17 26 21 22 23 22 15 14 24 17 25 19 17 18 18 24 15 18 16 16 15 19 17 23 21 24 14 16 25 15 22 20 14 23 16 23 14 21 14 20 20 26
24 19 15 16 19 26 20 26 26 20 26 19 26 22 24 15 19 26 14 17 20 15 17 24 20 26 15 18 19 22 25 25 19 25 20 14 25 19 14 23 26 21 18 17 25 25 23 15 16 24 16 21 24 24 22 26 20 21 26 21 14 18 18 14
22 14 14 18 24 17 21 20 22 20 25 24 25 16 14 24 21 16 26 18 25 18 16 16 23 24 19 18 24 18 23 26 20 18 20 23 23 26 18 21 23 19 17 16 25 18 18 22 22 23 18 14 25 18 16 21 18 15 26 18 25 23 24 26
25 23 15 21 22 15 22 21 17 19 22 16 24 18 22 24 23 14 21 22 17 25 14 14 26 25 25 24 25 15 14 24 20 24 25 17 24 26 17 26 20 16 25 22 23 15 17 17 24 17 25 20 16 19 26 26 22 19 14 16 23 19 19 14
15 23 20 18 25 23 17 25 17 23 14 16 25 21 19 14 20 21 20 19 18 22 25 20 14 19 22 14 16 25 23 17 14 15 21 15 17 25 25 16 14 21 15 16 16 21 21 23 26 20 24 23 14 17 25 14 21 14 15 22 22 20 26 15
19 19 26 24 24 22 20 14 15 15 25 19 21 21 19 16 25 22 22 25 22 21 15 14 21 24 21 24 14 25 24 24 19 17 21 15 24 23 25 17 26 17 23 25 15 26 19 26 15 19 20 14 15 21 21 14 23 22 15 24 16 17 18 18
21 15 16 25 14 26 22 24 17 25 22 19 21 26 17 19 18 14 26 21 18 24 17 17 21 22 14 25 17 23 21 19 20 18 25 25 19 19 16 17 16 18 26 17 23 23 15 20 15 15 17 22 26 19 26 25 18 14 16 18 26 18 16 16
21 21 20 25 22 14 15 16 23 21 24 16 26 15 19 26 26 20 20 23 15 23 25 25 17 20 15 19 22 20 15 18 25 17 17 16 20 21 25 16 25 21 23 15 14 16 22 14 15 25 26 25 24 19 18 23 19 26 14 21 15 14 22 21
17 18 14 22 19 24 21 17 16 22 18 23 20 18 18 23 23 15 14 15 17 24 17 17 26 19 14 16 14 24 25 26 19 26 26 26 26 25 16 16 18 14 26 18 24 18 15 25 25 20 18 14 19 18 18 24 22 18 19 15 25 19 18 22
20 26 16 19 18 15 22 18 17 14 25 23 16 14 24 16 20 20 22 14 14 14 22 17 15 23 20 20 26 19 22 18 20 15 25 15 15 23 19 18 15 21 16 20 24 17 23 22 22 24 17 17 19 15 18 17 19 24 18 21 14 18 21 24
24 26 21 18 24 21 14 22 25 23 23 18 25 25 15 22 19 19 26 15 16 14 19 16 20 15 18 17 19 17 20 18 17 23 25 18 15 25 23 20 14 24 25 23 25 15 21 20 16 19 20 26 24 22 20 17 19 25 23 19 14 16 26 25
17 14 26 19 15 23 19 21 26 15 25 14 19 17 17 21 24 17 21 24 24 21 18 24 17 16 26 19 26 22 25 19 25 26 22 21 21 22 22 24 22 24 24 15 22 14 15 17 20 20 26 24 16 16 26 19 20 19 14 20 19 23 14 17
