P2
64 64
255
38 26 18 36 35 27 37 24 21 35 30 38 26 19 18 21 38 26 32 29 22 29 22 38 27 23 18 25 23 32 22 23 29 34 18 29 29 37 29 24 24 35 19 18 24 24 36 35 35 31 32 20 30 25 27 25 27 24 24 21 36 22 25 19
38 32 26 28 37 33 22 37 32 37 31 20 22 34 23 32 20 37 19 18 34 19 36 20 20 20 36 37 25 25 20 31 30 32 32 26 29 19 32 22 29 35 35 30 24 32 28 19 37 25 28 24 26 25 22 26 18 31 34 34 31 36 20 19
23 35 23 36 19 38 26 22 30 31 38 31 20 18 33 24 37 23 28 25 38 23 36 22 23 28 36 22 27 21 38 23 32 38 37 29 25 19 22 35 20 32 38 19 28 22 29 33 36 25 36 18 22 30 25 19 35 26 26 35 33 22 20 26
24 35 31 33 29 26 26 36 26 33 21 33 33 35 23 21 27 23 30 37 27 36 28 32 36 29 23 25 19 34 21 28 23 36 30 30 38 28 27 33 29 27 19 32 25 24 19 38 31 35 25 29 23 29 23 24 26 30 24 20 23 35 37 21
37 28 26 21 31 38 21 31 28 29 19 35 19 26 35 24 36 29 36 26 34 37 28 36 33 19 31 28 35 19 18 20 38 31 24 31 22 28 21 21 19 38 38 20 32 38 38 37 33 22 27 27 34 19 34 35 38 31 27 31 22 37 37 22
25 35 28 34 20 21 35 38 33 20 31 31 21 30 23 25 25 35 35 21 30 19 32 25 22 38 20 31 34 24 27 34 31 25 20 32 31 19 21 36 23 35 31 34 35 23 32 32 36 18 25 24 28 35 38 32 21 24 32 24 28 34 33 38
23 37 23 21 20 31 20 20 38 21 32 32 31 21 38 21 34 23 35 31 18 22 27 33 37 30 19 31 26 29 28 38 35 21 36 32 30 25 21 21 28 37 26 30 31 23 22 30 24 26 33 28 26 19 18 34 38 25 20 37 35 24 32 19
28 22 21 31 19 29 25 18 37 27 32 38 33 24 33 25 27 22 26 19 28 31 19 30 35 23 25 25 36 25 19 23 22 37 19 36 25 36 21 25 30 26 21 28 34 20 35 21 24 25 22 31 31 18 30 26 20 38 33 23 18 23 22 24
24 37 34 35 35 37 23 30 33 21 37 19 23 19 30 23 28 27 19 29 38 31 31 30 19 37 26 25 24 34 26 19 28 36 25 25 28 21 30 38 35 37 36 33 23 33 23 31 18 36 34 35 30 24 20 38 38 36 20 23 24 33 31 38
36 22 36 29 38 27 38 30 35 37 37 35 22 23 21 24 25 32 24 29 36 35 38 33 33 35 33 24 24 28 36 36 35 20 26 27 19 19 19 25 31 35 27 27 27 22 30 33 27 21 19 23 26 28 23 18 32 22 23 22 30 19 37 29
21 38 37 29 31 38 38 22 25 33 30 28 32 18 36 19 31 23 18 21 37 21 19 26 21 32 20 23 26 28 22 28 31 24 36 25 38 20 29 21 31 35 36 34 33 37 23 21 20 19 37 21 30 26 29 33 30 32 31 25 37 23 27 33
28 38 38 34 37 35 32 28 27 25 38 24 37 22 30 29 24 19 35 30 32 32 34 38 18 26 31 24 36 35 27 29 29 21 34 35 18 38 35 28 37 33 28 24 24 35 18 29 21 31 33 20 30 21 21 19 27 36 36 33 33 21 24 31
30 36 30 37 18 20 20 28 29 21 25 31 25 37 18 31 18 34 19 28 32 35 35 33 21 38 31 20 20 26 23 23 28 36 29 34 19 27 23 19 28 26 36 29 25 33 28 29 20 24 22 20 34 35 24 33 33 29 35 30 38 24 28 37
26 33 31 29 36 38 19 21 31 37 30 38 23 33 38 18 23 38 29 24 38 27 20 31 37 27 38 34 20 29 23 22 37 37 32 21 28 35 19 20 33 29 23 37 26 19 37 20 22 20 18 29 30 31 20 35 30 31 18 34 29 33 20 24
35 21 26 38 29 35 18 34 22 30 19 38 22 19 31 20 25 18 38 28 19 33 25 33 35 24 36 35 22 20 32 24 20 29 22 19 27 24 24 18 30 25 35 38 21 18 27 32 32 34 29 38 29 19 30 38 30 34 30 33 31 19 19 24
33 23 35 38 26 32 34 35 37 34 20 31 34 23 22 36 38 31 32 21 32 23 22 35 32 28 36 25 27 25 23 31 23 24 38 24 24 34 35 28 34 21 27 30 21 25 31 34 35 26 26 28 20 35 24 18 30 19 36 24 23 20 37 25
36 19 37 26 20 26 34 18 19 29 25 35 25 22 32 22 20 22 32 28 24 26 21 20 31 21 34 23 22 19 23 26 28 20 37 19 32 30 35 22 24 37 32 38 35 37 26 37 35 36 26 20 26 38 28 18 30 20 28 29 32 24 30 33
36 19 32 34 38 35 18 35 21 33 34 22 24 37 31 31 28 37 37 38 22 23 33 32 38 27 22 35 20 29 18 24 34 31 21 25 21 22 31 29 21 18 26 33 31 26 29 32 27 18 19 22 32 18 38 19 28 35 22 35 33 23 26 18
33 25 23 32 38 33 22 20 18 31 23 28 19 33 34 33 27 24 34 38 34 20 26 19 38 23 30 33 23 23 36 18 29 33 18 38 18 31 37 35 20 28 27 23 29 20 18 38 37 34 20 36 22 24 27 35 32 21 36 38 33 37 31 34
36 28 34 19 24 34 18 19 29 38 26 25 29 31 25 37 28 21 22 37 23 38 23 30 27 22 33 32 30 23 38 36 22 20 24 21 27 32 32 30 36 25 35 24 22 24 34 20 23 30 34 22 18 21 22 26 36 18 19 23 23 22 22 37
30 32 18 22 38 27 31 30 38 32 37 29 24 23 28 26 41 43 40 33 32 31 41 36 38 32 36 33 31 26 28 32 23 21 23 36 21 20 41 27 28 43 29 35 28 44 44 24 30 26 21 30 29 35 26 24 29 30 29 32 30 32 28 27
33 18 25 27 23 20 23 19 32 29 23 38 28 35 42 29 28 39 39 34 31 37 48 45 44 40 37 35 39 34 31 29 36 37 40 28 33 31 37 27 39 40 47 30 33 43 36 31 27 29 31 39 26 20 19 37 19 29 34 21 21 35 24 25
36 31 29 24 28 31 27 34 36 29 26 20 27 29 27 38 39 32 47 47 46 34 53 47 34 39 31 38 42 46 41 27 40 42 43 43 43 48 48 41 38 52 45 46 40 47 39 38 39 44 32 38 22 24 34 38 25 23 38 26 25 37 21 36
34 21 20 38 18 27 36 37 37 33 33 38 42 37 34 41 36 35 55 44 39 43 56 46 49 48 56 38 38 52 49 35 46 47 38 42 53 51 53 42 52 54 54 54 54 40 39 47 51 44 40 29 42 40 35 38 38 37 25 29 35 18 26 19
38 34 23 34 29 29 20 33 28 30 35 42 33 42 52 44 38 54 55 48 45 61 60 62 64 60 65 61 47 47 55 52 43 50 52 62 55 58 48 47 48 46 57 50 57 58 58 46 46 37 50 48 43 41 30 30 24 37 25 18 33 22 32 34
19 36 38 34 26 37 38 33 23 24 24 42 49 37 47 46 51 43 60 61 50 46 67 62 67 65 72 72 63 59 60 54 57 51 65 54 55 69 58 60 57 65 49 46 53 56 61 56 53 52 49 37 44 39 41 25 22 38 24 37 34 33 19 32
26 20 25 20 18 19 30 27 26 23 28 36 34 51 48 60 55 59 63 53 65 70 68 77 75 73 78 76 72 64 65 72 66 67 62 75 78 66 66 71 79 71 58 65 54 68 64 57 50 55 57 42 47 29 43 33 21 36 29 25 29 28 18 29
21 26 26 22 24 28 33 25 29 31 35 48 34 47 60 56 49 58 57 69 58 62 78 67 76 84 84 77 74 91 75 70 75 73 88 84 84 78 85 80 80 75 78 80 64 72 61 55 47 48 57 37 46 39 33 40 30 34 31 30 35 37 18 34
35 32 19 20 21 36 28 28 23 31 36 37 41 42 56 64 54 61 74 66 64 79 73 77 87 82 79 95 79 87 96 90 85 81 78 98 80 96 90 95 97 83 74 74 71 67 63 64 50 62 45 40 41 41 31 26 25 26 25 27 23 27 32 21
19 25 24 20 21 28 28 35 39 36 34 49 56 51 48 57 62 55 72 79 79 94 86 86 96 96 94 89 98 94 93 102 89 91 86 92 88 96 98 97 94 87 79 79 77 66 62 61 53 66 55 55 52 53 46 26 33 26 31 19 32 32 27 35
25 31 22 22 28 28 29 33 36 41 40 50 38 45 48 51 56 71 69 85 87 88 100 89 92 93 106 98 99 107 110 108 97 99 98 101 102 113 105 91 95 105 105 87 96 88 73 67 71 66 54 55 50 38 46 45 36 39 24 28 31 37 20 21
34 33 30 27 34 33 33 20 25 32 42 35 54 54 62 64 68 68 76 79 97 102 106 93 104 103 107 115 107 100 119 100 104 101 119 102 99 109 104 97 96 103 107 88 102 77 66 59 55 61 58 61 55 41 49 36 37 27 27 22 27 32 18 21
25 20 21 20 32 37 22 27 41 36 52 50 46 57 57 54 56 77 69 98 103 99 96 113 114 117 113 104 110 114 111 120 118 107 115 122 111 114 102 116 108 107 115 96 93 85 73 72 71 59 55 59 47 37 50 30 27 39 32 25 25 34 22 34
36 38 29 36 30 25 31 33 44 41 34 49 53 53 65 53 56 62 88 92 102 97 100 104 115 105 115 110 112 125 119 117 131 122 118 125 119 109 115 104 119 112 97 104 90 82 84 66 56 71 57 60 50 35 33 28 26 27 22 27 23 35 23 34
35 33 26 23 22 31 36 26 43 29 33 48 42 62 63 60 54 64 76 79 97 101 98 108 119 105 111 115 113 126 129 121 119 121 131 127 124 128 122 111 101 103 98 99 103 94 78 60 57 56 60 60 56 35 43 27 35 30 21 34 18 18 22 18
21 26 18 35 37 28 34 29 37 32 45 38 38 47 58 50 60 60 77 77 88 95 98 107 108 117 111 116 118 115 126 125 140 132 134 118 112 111 112 112 101 100 91 105 89 80 81 59 62 65 46 52 42 51 41 37 40 35 20 24 35 27 29 35
29 26 36 25 31 37 18 36 35 30 34 40 56 42 46 49 60 70 69 71 77 94 100 103 102 117 103 119 118 119 123 125 145 135 116 123 115 111 110 107 105 100 109 85 94 80 72 55 69 65 54 56 50 33 37 27 21 32 19 32 23 28 33 21
33 38 20 31 18 27 34 26 29 42 37 43 54 48 49 46 65 61 71 78 84 81 93 108 106 113 117 118 119 119 111 126 135 115 115 125 107 123 111 104 99 91 86 91 88 70 67 53 46 47 46 57 46 39 46 32 39 20 33 31 23 27 37 34
25 38 20 25 27 21 18 38 30 25 45 45 42 47 57 49 53 58 58 80 75 82 92 90 105 100 98 107 121 119 121 112 126 119 108 114 117 106 98 111 91 88 88 82 72 69 59 47 58 49 50 50 33 29 44 26 34 24 29 35 31 20 18 36
28 25 32 33 35 38 23 29 37 29 34 42 31 48 42 47 58 55 62 59 67 78 82 86 98 100 96 106 97 111 107 102 98 112 108 113 96 99 93 88 98 89 83 82 72 77 55 51 58 42 51 45 32 30 28 31 38 24 18 29 20 31 32 23
22 25 33 20 32 23 22 26 27 18 37 40 37 36 52 50 42 38 45 64 58 73 85 88 80 84 86 92 89 100 90 91 90 109 95 90 104 100 95 82 84 85 74 70 71 62 56 53 55 38 48 31 44 28 31 31 22 37 25 23 29 25 20 21
29 36 36 23 31 23 33 22 25 28 35 27 44 32 32 33 52 55 50 64 53 73 81 77 75 81 79 85 101 86 97 80 85 83 90 100 101 93 93 94 84 86 75 76 68 47 39 45 37 39 43 47 28 26 37 28 19 21 26 27 28 30 35 37
21 23 35 20 19 24 21 22 18 38 19 37 21 43 39 40 49 36 50 56 49 60 67 77 68 86 82 78 92 82 85 85 75 75 87 88 89 78 76 75 65 74 73 51 48 39 38 40 37 32 43 40 27 32 26 18 29 28 21 36 32 35 34 33
34 25 35 30 22 22 35 24 26 32 21 29 32 41 40 33 26 41 45 42 46 56 54 56 55 70 72 66 83 71 78 69 72 81 78 69 76 79 77 69 57 57 52 48 54 47 47 31 31 27 43 25 25 38 26 30 23 33 18 21 36 18 19 35
29 37 22 33 29 33 24 27 23 22 31 25 31 33 30 36 35 44 42 43 38 45 57 62 67 50 55 62 62 79 73 74 72 71 71 60 61 67 55 62 55 47 50 39 39 30 30 37 39 39 28 28 37 21 31 22 28 30 29 38 26 19 24 29
25 38 25 31 37 28 20 37 38 37 37 36 18 19 27 20 30 21 29 33 23 33 40 40 54 60 48 66 55 69 58 57 71 75 71 72 67 61 50 59 46 53 32 42 42 39 24 36 20 27 28 29 22 29 23 36 31 28 23 33 32 32 34 30
19 31 28 25 25 34 38 31 23 22 31 20 26 35 21 36 33 18 25 23 36 21 40 42 37 50 46 59 48 49 62 66 57 56 60 61 57 52 60 47 51 38 39 28 36 34 20 23 26 33 20 32 19 23 25 21 25 26 22 36 38 35 23 20
35 21 38 22 28 18 27 32 19 35 31 26 32 31 31 26 18 36 25 38 35 21 39 43 39 37 50 42 55 56 51 61 46 56 49 43 47 47 51 44 32 29 30 24 23 35 23 20 26 35 34 29 18 24 31 23 22 19 18 38 23 25 18 25
35 35 34 23 31 28 38 29 38 35 25 19 34 37 31 36 34 24 37 25 19 38 38 31 24 39 45 50 50 42 44 40 42 43 56 40 48 39 39 31 41 36 29 25 20 36 25 34 25 27 18 30 23 36 26 19 34 34 35 28 18 35 33 27
29 24 22 33 31 28 35 32 31 19 33 26 22 31 37 19 22 33 22 33 21 35 27 38 21 34 34 42 41 48 37 39 33 46 50 35 29 45 24 23 30 28 18 35 34 38 33 38 37 23 24 19 21 18 19 31 18 19 36 26 21 33 32 35
31 24 37 30 33 27 34 19 18 35 20 38 38 24 32 19 30 18 31 37 33 29 37 35 26 31 22 34 39 30 25 34 30 43 35 29 33 27 36 25 36 18 38 26 34 26 18 33 19 32 35 34 25 35 29 21 24 18 30 35 30 20 29 28
35 32 27 27 36 36 33 38 29 32 29 35 30 31 29 33 27 19 34 32 35 21 34 34 25 33 19 19 22 30 28 29 21 32 31 18 34 24 23 18 38 24 33 34 18 35 27 30 28 33 31 30 25 22 30 32 36 29 34 20 31 37 33 28
28 18 34 23 32 22 29 32 23 28 26 35 33 29 18 27 19 34 22 22 22 34 33 25 38 22 27 32 28 30 32 31 28 21 36 30 37 22 35 36 26 25 25 35 38 35 34 18 28 28 31 35 20 21 19 34 37 20 20 20 28 21 23 29
24 25 23 20 28 27 22 23 33 37 19 22 26 32 34 26 30 21 27 29 36 21 29 36 34 28 38 27 23 19 28 20 37 33 38 22 21 24 27 26 27 21 21 20 36 35 33 27 32 33 37 36 23 26 18 38 22 24 27 34 23 19 29 35
25 22 36 34 18 34 38 21 29 24 29 29 32 27 23 29 26 37 20 25 26 29 24 31 19 25 32 32 26 31 31 31 26 18 31 35 37 34 30 36 19 19 31 37 32 32 28 25 19 28 28 25 22 32 36 22 25 19 21 24 33 32 18 18
37 27 31 35 23 37 30 26 35 23 25 33 34 26 38 38 18 24 38 22 23 34 27 28 28 21 36 32 33 20 33 23 30 30 37 19 38 22 25 32 29 21 27 21 35 30 24 37 33 25 25 34 22 26 38 23 23 19 20 33 29 25 24 18
20 33 24 31 28 25 20 23 34 21 33 35 22 21 37 24 33 20 22 19 35 32 19 24 30 30 21 37 18 33 30 38 35 31 30 31 32 35 22 32 22 31 36 33 37 32 27 23 38 27 26 38 24 35 34 26 19 28 32 18 33 18 20 33
19 38 23 18 30 28 28 33 36 27 32 24 38 26 34 19 23 33 18 37 35 37 35 36 31 25 25 21 26 26 21 29 37 28 24 21 30 19 22 25 26 35 18 35 36 25 31 30 33 19 29 20 22 36 29 26 34 21 25 26 38 31 19 36
29 35 27 22 34 36 20 37 22 33 35 25 30 35 23 20 33 37 26 33 27 18 26 38 30 38 29 19 27 32 34 29 22 36 32 33 34 20 35 26 34 26 19 35 33 31 29 24 20 21 33 20 38 28 25 33 32 20 33 32 23 21 29 29
27 25 30 22 23 33 19 33 21 18 24 29 18 26 20 23 26 34 32 21 33 32 29 36 31 21 28 19 33 33 29 23 37 27 18 30 34 29 34 18 29 35 21 24 38 30 22 24 31 35 21 29 37 34 20 35 38 23 24 32 30 35 27 28
34 25 22 23 27 29 30 34 29 27 26 18 31 31 20 35 37 26 30 26 19 27 36 23 27 31 33 34 24 21 36 36 20 19 18 19 32 25 25 20 37 18 32 34 24 29 32 37 21 20 34 28 31 19 30 36 30 18 23 25 28 19 34 26
24 33 29 23 30 37 33 28 34 32 24 24 32 20 23 36 32 19 25 26 34 24 38 20 25 37 38 18 37 31 27 25 20 29 37 29 29 28 34 26 22 35 23 32 20 23 35 20 32 27 29 32 30 36 36 36 33 34 23 33 26 37 32 25
33 38 18 30 37 20 29 23 24 35 24 28 28 34 28 34 28 37 21 28 31 30 21 19 19 30 32 34 19 32 20 22 31 19 38 28 27 18 18 32 33 35 19 30 35 27 32 25 35 28 22 25 31 21 36 18 29 20 37 33 28 25 20 28
18 24 38 33 27 32 23 27 36 36 19 29 21 38 30 34 36 19 38 23 38 29 36 20 30 26 20 38 24 21 35 23 37 31 33 25 18 30 21 27 36 20 28 33 19 34 24 36 33 38 18 33 21 21 33 26 23 38 24 21 26 20 19 29
