P2
64 64
255
29 31 34 24 35 26 38 26 21 26 19 19 27 28 38 32 23 28 35 30 23 18 35 35 26 35 20 31 24 35 23 34 25 30 28 20 20 38 26 32 37 30 30 26 25 34 18 20 38 26 33 34 33 29 38 26 26 35 34 20 26 36 25 21
22 18 25 26 22 28 20 23 36 22 31 37 18 21 32 36 30 35 34 32 31 22 27 20 22 30 38 31 29 38 30 26 30 35 24 26 30 35 34 24 22 26 25 31 29 33 23 30 35 32 28 21 33 25 19 37 30 21 27 31 21 31 23 24
30 33 34 19 30 29 31 25 33 24 33 28 31 34 37 28 30 37 21 35 35 34 28 27 24 37 37 26 22 36 28 22 22 33 35 31 18 18 20 31 25 33 35 34 32 25 30 22 20 34 32 24 20 22 34 37 32 30 36 25 37 23 24 32
31 27 23 28 38 32 22 29 18 24 33 38 30 30 38 27 29 19 29 25 33 29 37 33 26 28 23 23 20 26 21 20 25 36 36 25 20 28 38 22 33 24 37 31 28 26 18 19 37 25 20 35 30 22 33 37 27 19 38 33 30 30 34 30
25 32 22 24 19 30 21 30 30 31 22 36 36 35 27 33 19 37 26 20 33 21 35 32 19 22 26 35 36 33 20 32 33 38 33 28 36 38 35 36 31 23 25 21 35 21 35 33 35 29 19 38 35 27 23 29 31 37 37 36 38 21 35 34
19 20 18 30 26 37 25 32 21 30 36 19 38 33 22 30 21 35 29 22 19 25 28 37 25 31 37 37 31 25 20 30 34 20 21 24 37 21 37 38 35 37 19 29 37 23 34 38 26 21 36 36 27 25 18 20 31 27 23 37 23 35 23 35
29 20 21 19 19 33 22 35 38 33 20 30 21 22 35 25 23 32 36 35 28 37 22 27 20 27 28 28 36 25 28 27 22 23 31 22 26 24 23 20 28 32 24 36 35 37 24 38 29 23 34 33 36 25 35 22 32 37 24 32 18 21 35 33
36 28 31 30 25 27 23 29 22 31 30 22 26 29 19 21 28 35 19 18 32 38 24 26 38 31 35 37 27 26 18 25 29 28 28 24 19 31 37 33 36 26 27 37 34 25 34 18 20 30 22 29 27 37 25 25 25 28 22 34 21 31 33 38
25 38 28 37 36 29 18 22 37 35 31 21 22 21 30 26 19 22 34 36 26 36 20 22 18 31 26 31 32 31 30 35 38 29 25 22 26 31 19 31 37 22 26 36 28 36 31 20 36 20 27 29 24 25 34 34 29 21 26 18 25 37 27 37
26 30 36 25 19 30 25 25 37 21 27 31 32 29 36 36 38 37 33 31 34 37 32 26 27 19 21 31 20 30 37 32 36 25 24 27 38 35 27 25 33 23 37 37 27 19 36 28 33 19 28 20 32 23 38 33 38 25 26 35 18 36 32 31
26 33 23 24 26 35 30 20 24 24 25 33 38 25 22 28 37 19 19 31 20 38 32 25 26 32 27 37 28 18 33 19 25 25 22 24 33 23 33 33 28 31 37 33 37 32 30 28 20 29 36 36 32 36 38 24 27 22 21 20 38 33 30 25
26 25 29 22 22 35 28 34 29 34 23 22 38 31 24 30 23 28 20 27 27 31 29 30 33 19 19 30 30 35 18 22 22 33 18 33 30 32 30 25 28 19 18 28 32 22 18 30 21 33 33 32 28 26 30 21 26 26 20 20 23 34 37 37
36 35 19 37 24 33 28 36 31 18 23 38 31 20 36 29 35 26 22 18 35 25 34 26 36 29 37 35 24 28 29 21 29 28 21 18 26 19 29 35 33 36 38 26 24 27 33 22 37 31 37 36 21 20 38 19 37 35 18 22 19 27 37 32
26 25 24 18 29 23 19 20 30 24 35 34 25 33 31 29 19 30 33 25 22 33 21 33 38 38 37 30 20 34 28 33 37 22 31 23 29 22 22 19 29 35 21 29 31 27 29 32 29 35 19 36 31 33 36 35 28 25 37 27 35 24 32 34
29 26 30 30 21 30 22 24 23 32 26 23 21 33 19 31 18 25 18 33 32 36 33 26 32 30 38 36 33 22 29 30 25 25 31 32 21 27 19 21 33 31 28 35 37 30 25 33 34 32 31 38 31 31 32 30 33 38 29 37 35 32 32 33
37 19 35 20 30 28 26 23 20 23 19 21 20 37 24 28 31 25 30 24 31 37 26 19 25 37 35 36 27 38 25 20 26 29 28 38 26 18 20 34 31 35 37 35 27 22 29 19 34 20 21 23 24 34 37 28 36 29 18 22 18 38 30 27
22 26 18 27 32 30 21 24 18 25 37 32 36 34 23 36 30 18 23 20 24 32 21 36 36 22 31 20 32 25 36 23 26 19 35 26 31 26 28 36 24 34 26 20 32 29 32 28 28 26 26 32 33 19 36 19 21 38 38 31 32 22 34 37
18 30 34 31 25 21 31 34 30 19 19 26 21 22 18 23 32 30 35 21 28 35 35 37 38 30 21 29 38 33 19 32 24 33 34 24 35 32 23 29 35 22 27 38 31 19 22 33 29 31 30 22 31 27 26 35 25 28 25 37 29 19 36 21
36 28 33 29 35 36 32 35 27 21 29 23 28 20 18 19 29 19 27 26 34 19 34 25 21 35 35 20 24 20 23 20 30 23 37 23 19 34 33 21 30 24 20 18 24 27 21 24 28 34 25 21 37 27 21 23 35 27 37 37 26 24 29 35
24 28 38 31 24 29 20 28 32 31 20 37 34 31 34 34 19 35 31 23 31 31 29 23 24 38 35 22 21 23 22 22 23 27 30 33 33 20 27 33 35 35 29 34 40 24 40 21 22 28 28 27 21 33 24 20 22 22 28 21 19 18 36 19
38 23 23 19 21 35 25 36 29 28 36 34 36 36 24 34 30 44 41 26 44 27 42 26 42 23 21 26 34 21 38 26 35 22 20 26 26 19 38 25 35 27 28 33 45 37 32 35 25 26 22 23 29 37 27 28 38 25 22 35 33 30 37 31
35 31 35 21 33 29 22 34 19 19 25 20 34 22 32 30 41 45 43 33 49 30 45 33 38 46 37 30 23 25 21 23 27 32 34 24 36 42 28 33 27 45 33 36 36 39 31 30 32 44 32 31 34 23 28 32 36 30 37 33 20 35 37 18
23 38 20 22 30 24 37 25 27 26 30 38 21 41 42 44 40 37 45 52 33 52 35 41 44 46 33 40 30 26 28 33 21 19 21 27 44 28 41 40 32 47 47 41 40 47 42 31 37 41 41 35 26 22 38 27 33 28 28 32 24 24 31 27
25 25 34 29 29 22 34 36 26 20 20 32 42 31 36 47 41 45 42 51 38 40 48 51 40 53 34 48 37 41 37 26 36 20 36 31 42 41 40 44 46 51 57 51 57 54 37 43 37 32 48 29 41 41 24 21 27 26 35 18 19 36 37 24
36 21 32 34 36 28 31 19 23 24 25 27 45 35 46 43 40 43 58 47 59 56 46 56 44 54 50 50 32 46 41 37 19 39 24 31 39 42 48 46 39 41 42 42 42 43 42 53 48 50 49 46 44 36 37 36 38 28 23 27 38 29 32 30
38 21 28 38 23 21 24 22 18 36 23 44 49 41 48 38 55 51 46 64 60 53 65 61 44 59 44 41 45 46 39 26 39 33 31 35 46 43 46 68 61 52 61 46 62 58 43 47 55 53 36 40 38 36 25 27 25 26 34 26 36 20 19 35
20 22 27 20 22 26 21 27 31 38 44 36 37 38 43 54 58 52 62 60 57 62 58 57 56 44 42 39 41 42 46 43 45 34 38 50 62 72 70 75 73 63 57 61 57 49 67 56 58 56 49 48 43 37 27 37 25 18 22 19 28 31 20 34
26 32 30 29 29 34 32 27 29 36 34 36 46 38 48 52 61 69 59 57 55 59 61 53 66 47 46 48 48 39 37 45 48 50 48 67 75 82 72 71 75 79 85 82 62 52 69 55 48 50 59 43 35 42 34 31 34 26 28 23 19 22 28 37
26 18 33 38 31 31 36 27 27 27 41 39 47 48 59 53 57 58 59 58 66 65 59 59 54 56 48 48 43 61 66 67 68 68 62 65 81 82 84 102 83 99 86 73 79 76 54 63 53 55 61 47 42 51 49 40 37 38 37 33 18 26 19 26
32 24 22 33 26 36 30 21 22 29 35 39 52 57 48 64 56 73 60 64 63 77 66 76 60 63 50 56 64 70 85 87 100 83 94 95 91 86 103 102 94 106 99 94 76 78 69 60 59 54 59 46 46 46 37 27 31 35 33 31 23 36 19 25
29 34 36 38 19 38 21 20 33 45 40 35 52 47 66 58 62 70 61 66 72 64 65 67 70 55 63 79 85 98 91 104 105 116 110 104 101 107 105 107 105 100 117 91 87 94 76 70 63 61 55 62 54 46 37 44 30 25 29 32 31 35 38 21
22 19 32 31 34 27 37 29 34 35 47 43 50 51 56 70 58 59 74 78 84 72 80 63 63 54 73 87 87 98 129 122 144 137 120 112 115 112 133 124 122 129 108 104 94 90 69 78 64 56 54 55 41 45 37 35 34 40 20 21 27 26 35 29
30 22 33 36 34 31 28 25 30 35 32 48 50 54 59 61 61 75 81 70 77 77 85 74 60 72 74 80 104 115 136 143 143 156 148 139 141 138 151 162 138 147 128 108 102 100 88 68 61 52 51 48 58 55 49 38 26 39 18 38 36 18 26 36
21 30 34 23 29 28 25 37 27 30 42 40 51 44 48 64 72 61 75 66 84 88 69 74 60 59 74 100 101 125 140 168 156 154 140 137 157 159 182 166 170 154 134 126 109 97 84 78 67 53 65 45 39 35 36 30 33 33 34 28 30 31 37 22
30 26 23 18 26 22 30 37 24 41 47 37 48 43 48 65 63 77 64 72 70 69 81 63 76 72 75 97 108 119 128 151 154 138 138 145 151 154 175 177 169 163 152 132 109 86 71 71 53 56 61 48 49 53 51 43 36 21 22 28 37 26 25 25
36 31 22 24 20 21 28 39 41 38 49 36 48 45 61 59 54 70 62 63 81 78 73 75 67 69 64 75 103 93 110 137 141 122 131 136 154 161 176 187 162 155 147 133 97 79 65 74 52 66 53 59 38 35 50 33 38 30 37 33 38 21 18 18
36 29 29 27 28 31 24 34 30 39 36 49 52 47 57 62 60 59 65 57 76 58 57 73 62 49 64 66 73 86 86 110 118 111 126 135 140 158 162 178 165 152 143 112 98 80 71 59 59 58 62 45 39 51 32 36 25 19 20 29 38 29 24 30
18 27 37 27 19 25 19 28 38 34 38 38 47 56 45 48 52 52 54 53 53 65 67 65 52 66 59 50 74 64 79 80 79 85 91 103 117 126 141 150 159 145 121 106 86 78 63 66 62 63 53 41 34 35 38 27 38 28 33 19 27 33 28 26
30 25 37 37 25 26 31 23 37 24 43 37 39 39 46 54 55 46 62 67 49 50 56 61 45 55 49 41 52 58 51 48 60 62 61 92 102 115 139 130 132 116 110 91 76 66 60 58 45 52 47 55 42 40 40 38 34 35 32 23 27 21 24 18
30 36 22 18 21 21 29 26 19 39 25 29 38 49 37 55 40 61 61 64 47 59 53 62 47 58 51 36 44 49 42 28 28 36 50 76 81 94 98 107 113 111 96 84 67 53 58 54 51 41 53 32 46 33 38 34 32 38 27 21 32 19 24 20
29 20 25 31 33 29 28 32 36 30 29 36 37 37 51 51 50 41 60 60 52 45 59 58 47 55 38 52 49 34 43 33 28 42 35 59 64 86 89 80 77 88 77 67 46 44 49 54 52 44 40 48 29 29 35 23 20 37 20 34 22 19 29 22
29 23 38 33 32 30 19 19 34 18 25 30 24 40 35 45 40 45 46 53 42 45 50 53 45 45 43 44 39 31 35 35 34 29 26 43 50 63 51 58 51 46 46 39 52 57 44 37 44 38 43 30 24 24 37 20 23 31 22 24 32 36 28 36
21 35 27 23 26 18 21 18 23 33 35 30 34 30 29 43 40 39 45 39 45 51 52 38 46 47 36 42 33 29 29 34 35 19 20 25 44 26 31 39 35 33 39 51 48 35 43 51 42 32 43 36 38 22 36 21 27 33 25 34 24 27 19 33
32 26 25 36 18 33 31 21 34 26 31 30 31 30 41 24 44 30 37 32 29 37 44 47 46 27 28 41 35 33 37 22 23 37 27 18 30 42 33 34 38 43 30 34 40 43 34 32 31 43 29 26 18 36 22 37 25 37 33 37 34 32 33 33
30 25 37 25 25 18 37 23 29 22 22 26 30 27 26 26 31 43 39 41 37 41 43 43 34 36 41 34 29 34 26 34 38 21 31 22 33 24 33 28 24 44 26 31 42 40 43 27 41 29 19 37 19 36 35 31 30 35 21 37 34 19 32 21
24 19 37 33 20 24 30 19 38 31 22 34 18 33 25 19 19 27 39 36 31 36 27 33 38 21 30 29 23 37 31 32 21 34 35 34 23 27 18 26 39 34 31 37 40 34 36 38 39 37 19 26 22 32 36 18 38 18 19 26 36 21 25 29
26 29 31 33 37 28 20 27 34 21 31 30 38 25 28 35 29 36 27 31 18 28 27 18 33 23 33 33 34 18 31 19 23 28 29 22 18 25 38 37 18 32 19 19 22 18 26 22 20 37 24 37 28 24 38 25 32 28 35 19 18 21 31 23
18 32 18 31 37 22 37 22 34 29 36 19 24 27 32 24 35 32 30 34 31 18 33 37 34 28 23 21 37 32 21 38 36 27 29 22 22 28 28 20 19 21 24 37 26 20 30 38 22 21 33 29 26 25 24 29 34 30 25 25 27 37 33 34
37 19 37 28 26 24 35 35 34 30 24 34 26 21 32 31 28 26 22 24 37 37 33 33 22 38 20 31 33 23 22 26 31 26 33 19 27 29 31 24 36 26 21 23 18 25 30 22 33 33 24 32 33 27 37 32 26 32 20 35 18 28 32 38
36 36 34 28 31 21 28 31 18 34 32 29 35 35 38 34 21 18 28 31 37 30 28 18 35 36 27 35 21 28 26 20 24 24 29 32 27 26 30 20 24 31 33 20 38 36 22 28 38 29 21 27 35 28 30 29 37 35 32 23 26 20 25 35
28 26 21 18 36 36 31 31 38 27 34 35 25 29 19 29 37 31 24 33 25 25 18 25 21 22 24 34 37 21 32 35 30 19 33 18 24 18 22 18 34 34 29 22 19 26 23 37 20 31 22 32 33 22 29 20 19 24 19 37 19 29 20 34
18 18 35 18 31 32 38 32 23 25 26 20 35 27 20 37 24 18 32 29 36 34 19 28 37 23 20 29 37 28 38 37 31 30 21 22 36 27 24 32 19 32 19 25 22 36 26 22 21 19 25 38 18 36 38 37 29 28 38 30 26 35 37 19
19 29 30 30 29 30 26 23 20 32 24 35 21 19 36 18 21 35 25 32 31 36 33 29 18 38 37 20 36 36 18 20 34 30 31 19 32 38 31 22 33 20 38 34 27 32 30 33 18 27 33 25 29 18 33 37 25 20 32 22 31 18 35 22
38 21 33 22 21 26 23 30 21 19 31 19 37 23 28 32 25 38 22 23 22 37 32 27 32 26 23 22 18 27 36 23 35 37 36 38 25 35 18 28 21 27 26 32 18 18 33 20 21 21 18 34 35 26 25 30 30 21 21 25 37 33 32 18
37 18 37 20 25 32 26 31 22 24 37 21 32 26 27 21 31 32 34 36 35 18 33 28 29 31 33 23 28 19 35 33 30 29 23 35 33 33 28 22 20 21 20 32 27 23 36 37 18 37 25 36 35 38 26 21 27 18 33 31 26 37 19 24
22 25 25 26 35 36 19 18 29 33 19 28 25 38 19 18 38 20 25 35 37 31 22 18 31 26 36 19 34 33 23 34 22 28 27 23 20 36 18 37 33 22 21 29 27 21 33 31 19 34 22 30 23 23 37 19 20 28 34 18 26 19 25 26
28 35 27 23 30 26 35 19 37 26 30 24 38 34 35 24 25 30 37 33 35 19 28 28 27 29 34 28 32 23 24 26 19 22 37 36 23 31 18 38 32 30 30 30 26 36 20 20 24 36 31 26 23 27 37 27 18 18 33 32 25 33 31 29
23 22 21 34 27 18 38 24 28 28 37 33 34 31 30 31 21 21 35 36 18 26 25 31 23 31 29 26 34 30 37 38 35 37 23 21 18 35 25 29 38 24 20 20 37 28 32 27 21 37 28 30 24 19 32 25 30 38 32 36 21 22 26 25
32 34 36 22 19 19 31 23 24 18 38 34 30 29 21 28 26 37 27 33 24 19 21 38 30 34 30 23 19 35 36 30 35 35 30 37 22 27 26 25 19 26 21 37 19 19 30 22 32 37 31 26 38 32 26 36 33 36 36 27 31 29 24 22
37 23 36 35 34 35 19 32 31 31 36 24 29 23 27 23 23 24 30 37 20 19 37 18 25 20 26 31 34 37 37 33 26 26 30 30 34 32 26 19 26 38 36 20 19 21 30 23 26 20 23 38 25 35 36 27 19 29 32 25 26 36 24 37
26 38 21 36 18 38 25 24 29 25 31 37 30 28 20 31 28 36 35 22 25 29 19 33 34 18 26 34 26 32 26 22 22 37 31 29 30 37 19 23 35 37 28 35 35 36 24 37 22 21 19 18 18 21 38 18 21 23 37 35 20 33 29 33
25 29 37 28 18 28 19 20 21 34 36 33 36 32 31 29 35 25 36 32 21 36 28 35 24 34 26 20 37 37 32 27 29 28 27 35 28 21 31 28 32 36 26 37 27 18 36 38 27 26 38 22 31 21 37 29 38 32 24 35 25 22 23 20
18 20 18 20 33 35 24 22 24 26 31 37 37 31 30 19 24 23 31 37 21 20 34 28 24 28 23 19 33 23 38 37 27 29 26 27 28 25 32 29 32 25 31 22 37 34 28 18 29 35 34 36 31 27 37 24 18 22 34 22 19 26 29 37
18 24 32 22 29 19 25 20 36 19 37 35 21 33 32 31 22 28 37 25 28 32 26 23 18 30 34 24 36 33 37 22 20 23 27 19 19 36 28 30 37 26 38 25 34 38 35 30 25 35 32 38 26 26 21 18 27 35 23 21 37 35 38 31
