P2
64 64
255
38 38 23 27 37 22 29 22 26 33 27 37 20 24 26 27 26 18 27 19 27 37 25 23 32 26 38 27 33 32 33 35 36 34 37 20 36 23 38 21 25 22 24 23 27 35 18 32 26 32 21 23 21 33 24 20 22 23 29 22 20 21 33 31
28 35 35 27 27 36 30 23 30 18 38 20 22 32 31 23 23 24 37 38 32 36 18 19 31 24 35 21 37 28 21 38 36 35 30 29 34 38 28 33 38 31 36 37 24 19 25 23 19 21 38 18 26 35 22 28 26 25 36 33 22 18 31 34
38 31 31 22 35 30 24 21 21 34 25 27 25 32 30 32 34 19 35 35 21 29 28 27 27 25 26 18 38 24 37 18 33 27 36 29 18 38 28 27 23 31 31 35 24 34 36 32 28 20 23 37 35 33 32 19 30 23 21 29 26 25 22 31
38 30 35 20 28 20 32 28 25 18 34 29 36 28 29 34 22 19 31 30 19 19 23 34 34 26 35 31 32 34 33 34 29 38 22 36 37 32 29 35 29 23 29 26 32 32 21 36 24 24 23 20 37 35 18 18 26 36 31 26 34 29 23 36
29 32 24 20 38 28 35 31 18 20 33 35 21 27 30 25 18 18 31 25 28 34 21 21 26 32 38 37 36 23 30 25 33 29 19 26 24 22 35 21 32 25 22 32 37 35 29 21 32 35 18 21 20 27 29 18 24 34 35 27 34 34 26 28
28 23 28 22 36 38 25 21 32 34 30 38 36 35 38 24 26 24 33 30 25 24 32 19 20 21 22 18 21 21 22 30 19 35 37 22 34 22 29 36 37 21 27 29 20 30 18 30 23 22 27 25 21 38 20 24 31 20 34 37 23 36 37 20
33 24 34 22 37 30 32 37 18 30 24 29 29 23 20 34 28 23 22 19 22 33 38 18 28 24 21 18 21 28 30 22 30 25 37 36 26 29 38 35 35 28 26 37 24 20 29 24 18 37 19 36 36 25 38 37 19 32 28 27 36 34 32 36
21 20 29 29 23 29 26 34 26 36 30 28 24 38 25 38 38 27 20 26 23 33 25 25 38 27 31 30 28 24 22 29 18 22 29 32 21 23 25 36 32 21 37 25 24 36 20 26 27 24 22 29 38 21 24 34 19 38 25 22 21 20 32 38
19 28 19 26 23 37 27 34 34 27 31 38 19 33 19 24 24 35 33 19 31 36 25 35 33 38 26 38 22 28 37 28 24 23 28 37 27 23 37 29 27 27 35 35 37 22 35 31 31 18 34 32 19 26 30 18 23 35 23 20 20 19 25 33
37 30 27 33 33 38 37 29 20 25 26 19 20 28 36 36 31 21 27 31 24 36 32 33 37 19 34 38 18 23 33 25 25 20 22 20 20 26 18 18 18 29 28 23 33 32 35 27 29 22 25 18 35 19 37 34 35 25 35 26 32 26 38 38
38 29 32 30 20 25 37 33 38 37 19 31 36 21 27 19 21 26 30 28 24 33 38 37 37 27 36 31 31 20 32 30 37 21 22 29 19 34 37 29 35 22 22 26 29 34 18 32 29 32 31 23 29 28 30 36 33 23 28 36 22 19 38 24
24 18 34 31 36 32 31 30 21 31 38 21 32 20 18 28 31 18 23 20 36 38 27 33 36 26 20 26 25 26 28 28 30 37 37 22 25 37 29 20 34 23 38 18 31 19 38 32 22 27 21 21 30 19 25 21 18 33 20 30 31 35 35 23
31 19 32 37 34 38 38 31 18 34 26 37 30 28 23 28 34 24 36 32 32 38 38 36 36 31 28 19 20 32 32 20 35 36 29 36 21 28 34 25 35 28 37 38 30 26 29 24 34 29 29 25 22 33 33 24 35 35 19 27 36 19 29 28
33 28 38 26 24 37 27 23 36 35 34 29 26 27 30 36 28 22 26 30 36 37 26 27 33 38 21 19 36 26 31 36 29 31 22 19 27 25 34 19 33 24 28 35 36 27 26 25 25 34 25 27 23 22 36 35 33 25 33 37 34 32 37 28
25 29 26 22 23 22 24 35 29 23 26 23 34 21 35 31 32 33 26 21 21 29 20 37 22 19 38 29 36 27 24 37 20 28 18 32 24 30 30 34 35 34 33 35 25 23 31 18 24 35 27 33 34 26 34 26 31 29 27 25 38 23 38 24
35 21 36 29 31 29 38 28 38 28 27 33 38 22 23 34 18 35 20 26 38 24 25 19 26 31 38 21 33 33 20 21 18 30 29 24 18 33 23 19 34 19 26 24 18 21 36 29 30 26 19 38 31 24 34 33 18 21 26 34 26 27 25 32
22 22 21 23 32 19 25 29 22 33 34 30 35 18 38 26 38 19 26 37 27 38 38 31 23 34 31 36 20 29 32 26 27 26 23 31 33 22 22 22 30 33 35 30 27 26 34 26 32 31 27 25 36 30 26 29 38 22 23 28 21 21 21 20
26 20 26 26 18 23 26 30 23 19 28 38 21 30 35 34 27 35 18 36 28 33 23 24 31 28 23 22 20 35 22 37 18 22 35 32 27 32 24 26 21 37 22 33 36 20 25 35 18 29 32 36 25 18 35 33 29 20 32 18 28 33 19 37
32 35 36 19 28 23 18 23 23 28 33 18 32 33 38 35 37 38 35 35 19 18 36 34 28 24 26 24 19 32 29 30 31 36 37 24 34 36 31 25 25 38 32 29 35 22 18 31 19 30 25 19 22 19 32 24 32 22 18 37 19 19 26 32
20 27 22 30 19 25 27 25 21 27 31 25 30 36 37 33 39 28 30 26 22 33 33 40 32 23 27 31 31 22 35 19 32 28 21 38 29 28 19 19 40 23 30 31 29 23 25 26 34 37 27 35 31 24 37 29 28 27 30 32 36 35 30 20
28 21 38 23 23 26 35 30 32 19 25 18 29 23 32 30 24 28 35 33 46 35 34 33 33 38 26 39 22 29 37 26 28 21 34 37 30 28 32 37 39 38 28 44 36 45 31 36 38 34 31 19 26 19 35 32 25 24 38 24 23 31 22 25
24 31 37 22 27 22 37 33 31 34 35 32 24 26 30 27 43 45 44 47 40 32 46 39 44 39 28 36 27 38 27 25 23 37 38 24 28 38 29 30 44 44 42 35 39 44 44 30 43 43 37 33 34 28 31 32 30 25 32 19 18 29 33 20
23 32 29 34 23 20 28 25 18 37 23 28 41 24 39 34 41 39 35 51 44 33 49 45 32 48 40 39 26 33 25 35 30 19 21 23 38 35 45 35 33 44 45 48 41 37 38 39 43 39 29 25 27 22 18 22 36 37 32 38 20 37 36 32
35 21 25 35 31 27 22 36 38 28 31 34 24 33 45 39 42 39 38 53 42 48 49 57 58 47 57 46 45 44 26 38 27 22 32 39 35 34 41 48 44 40 55 51 50 49 44 48 33 38 31 37 34 23 21 30 34 25 27 32 18 31 24 21
22 26 28 24 33 19 26 32 34 37 22 31 45 33 48 43 40 47 41 44 41 55 65 60 68 80 83 73 64 43 34 36 35 27 30 37 50 49 64 59 54 69 48 59 44 61 55 43 49 42 34 33 38 25 29 23 32 34 36 26 29 27 36 34
23 25 18 33 32 25 31 29 36 30 35 32 38 32 37 50 46 48 56 55 59 58 73 68 77 83 92 91 70 67 51 37 42 30 28 55 50 68 74 87 86 70 69 54 60 46 62 48 57 50 36 44 43 36 42 27 37 20 36 36 20 21 38 19
36 24 33 35 37 20 26 25 22 35 27 37 44 42 58 46 61 62 66 68 54 69 79 96 102 112 116 107 87 75 55 45 43 33 50 53 72 83 87 91 92 99 86 87 63 56 56 51 51 43 58 50 36 47 26 26 29 18 23 27 36 25 31 32
34 35 26 25 35 25 35 34 39 35 32 48 45 47 60 57 64 60 61 70 61 72 84 107 110 132 124 107 104 75 72 59 32 41 59 62 93 102 115 112 114 106 106 83 74 65 52 51 55 63 46 41 54 39 45 26 35 33 36 20 26 33 35 27
31 38 22 19 33 31 36 34 39 39 30 32 36 48 50 51 53 63 71 62 63 71 88 103 126 131 139 132 114 82 69 53 46 58 74 81 91 114 124 135 126 122 119 103 90 71 65 56 53 55 61 41 53 46 34 34 21 21 28 25 21 35 24 33
34 33 35 31 35 32 22 20 23 31 43 36 57 53 54 62 70 65 71 70 69 83 96 100 112 135 123 120 108 84 70 64 35 54 61 91 109 131 132 154 144 130 131 109 94 76 69 74 63 49 47 56 52 54 49 40 41 30 21 29 36 29 33 18
33 35 31 19 20 35 36 22 38 30 40 46 57 46 64 65 59 77 79 66 73 82 86 96 108 110 125 102 95 86 60 45 36 50 81 92 118 121 134 152 146 143 127 121 108 85 73 62 73 54 56 61 46 50 40 43 29 39 33 32 34 25 35 27
20 34 26 38 28 24 33 35 24 35 41 39 39 57 67 65 65 69 77 72 81 78 94 102 107 102 102 89 95 84 75 57 53 69 71 104 103 123 130 149 151 142 119 109 112 91 67 66 67 68 50 51 50 52 51 40 30 31 22 26 18 29 34 24
21 18 26 34 38 24 20 26 37 42 35 40 53 58 63 53 57 69 75 74 72 74 91 82 99 90 95 94 78 78 61 71 67 79 81 89 111 115 138 132 146 125 133 115 106 90 78 76 65 53 50 57 47 48 44 35 42 22 28 27 24 29 37 37
35 32 36 22 26 18 38 40 30 38 37 44 56 50 61 67 73 76 81 77 75 68 75 78 69 68 91 90 87 80 79 66 70 73 80 109 107 125 119 127 116 126 109 112 103 75 63 74 73 59 63 50 52 51 46 33 43 22 21 31 33 27 23 19
26 22 34 34 22 18 25 20 37 45 49 55 43 54 64 65 68 73 60 71 70 79 76 74 63 73 83 74 78 85 88 74 79 84 98 94 115 110 122 112 108 107 100 90 85 63 66 71 69 57 54 52 40 36 44 47 30 33 33 21 26 34 27 30
38 37 27 30 36 20 29 22 34 33 49 46 48 60 63 64 66 69 65 61 74 79 66 66 78 68 83 78 90 91 98 92 92 93 87 97 107 95 107 95 95 99 93 72 78 69 70 59 56 66 54 61 54 35 43 42 32 33 37 18 37 18 37 27
18 28 28 31 35 35 37 25 23 30 46 40 47 45 44 49 69 65 67 69 62 58 67 75 82 87 83 90 86 94 89 90 91 92 90 85 96 91 101 91 92 80 65 62 64 70 59 66 51 59 52 59 38 40 46 31 36 18 20 22 28 19 38 19
34 30 36 22 30 28 27 20 40 37 32 49 43 39 60 44 66 65 56 72 60 55 59 69 67 77 90 84 103 105 100 97 114 100 110 97 87 100 89 85 77 74 58 58 71 57 66 65 60 54 44 52 53 37 32 30 20 22 30 23 26 32 19 30
24 30 37 29 32 35 18 32 26 34 28 36 46 52 56 55 55 55 48 59 59 51 68 73 81 88 93 102 103 106 112 114 111 121 111 113 98 97 89 72 73 63 49 58 61 68 65 45 58 50 49 46 39 33 43 29 26 30 24 33 22 22 32 28
34 36 32 22 36 26 20 28 34 35 29 29 42 47 36 42 50 55 55 50 48 48 60 68 65 75 84 89 96 98 115 124 121 108 122 100 91 86 81 69 61 60 53 54 55 62 45 49 52 57 55 40 30 26 42 36 37 26 19 36 18 36 31 37
37 20 38 20 20 23 25 26 18 23 30 32 27 48 33 45 54 49 46 48 50 49 57 60 65 75 94 89 100 102 110 111 117 125 108 103 91 90 84 77 59 64 51 44 52 50 44 40 39 42 46 35 44 30 35 30 19 21 29 32 21 34 20 22
28 24 30 38 26 24 26 19 32 18 22 40 30 32 42 35 49 37 44 39 48 44 38 45 63 68 89 89 89 108 107 104 114 108 97 94 100 85 86 76 62 64 51 41 48 43 56 42 43 31 46 27 26 34 36 32 34 37 38 19 22 18 18 36
37 20 25 35 26 32 33 20 25 24 38 36 36 25 37 28 44 45 46 52 51 40 43 52 62 73 74 76 84 90 93 106 115 106 95 91 89 89 73 63 67 41 40 53 52 48 32 35 30 48 30 37 22 35 31 18 29 28 25 34 26 27 35 23
37 38 19 23 27 24 30 19 23 29 26 30 31 27 38 29 27 45 31 42 47 32 30 47 46 52 63 64 79 89 85 104 106 95 80 82 86 79 58 65 50 44 43 49 45 35 38 27 26 40 25 29 27 37 29 30 34 35 20 30 22 25 38 30
25 38 31 20 37 21 19 29 19 30 24 31 27 29 32 22 36 26 32 37 33 42 39 29 49 59 51 65 71 87 91 75 84 86 82 80 71 67 52 52 46 40 33 34 45 33 38 27 22 36 38 35 31 18 35 22 28 19 19 25 21 21 38 22
20 21 18 21 23 20 33 21 20 29 27 37 25 22 29 36 26 33 24 24 35 23 29 38 28 47 53 48 73 63 75 68 86 68 82 70 62 59 55 32 32 37 36 22 42 35 33 26 35 37 32 23 28 33 18 30 32 20 25 36 20 23 34 23
33 28 37 22 23 19 18 21 32 26 34 26 22 32 37 36 18 19 28 38 22 33 27 38 23 34 51 41 53 53 59 75 71 63 61 50 47 55 48 39 38 28 34 21 23 18 29 33 32 32 20 22 37 31 25 28 23 30 28 38 34 38 23 36
25 19 23 34 32 23 25 32 35 21 32 28 18 28 31 38 33 28 28 36 24 22 37 31 27 21 43 39 53 43 47 48 55 51 47 60 40 48 45 36 27 29 23 37 33 28 37 31 21 32 38 22 29 28 25 38 18 35 27 27 28 32 35 28
31 24 28 31 20 31 18 18 33 18 27 18 30 20 26 27 22 26 22 32 19 31 30 18 28 37 25 33 35 46 39 46 49 49 52 32 28 33 30 35 35 19 31 24 19 34 25 28 33 36 30 33 21 37 37 34 38 26 29 37 34 27 18 26
35 25 20 20 29 21 23 33 24 19 33 19 36 19 21 38 24 18 20 38 32 21 21 29 24 33 38 27 20 38 43 41 30 45 25 32 23 28 31 37 36 20 21 31 31 18 36 37 19 23 18 36 28 27 37 37 19 36 38 31 26 29 37 37
33 24 26 27 33 29 19 37 38 34 22 31 33 35 26 18 28 33 20 28 31 31 26 33 28 35 29 18 27 38 30 23 24 30 37 22 38 34 19 21 38 34 24 37 18 33 29 30 23 29 25 31 24 29 33 37 38 31 38 25 25 18 33 34
19 37 29 30 23 23 31 23 21 28 35 31 23 21 27 25 27 23 20 24 20 28 31 25 23 21 28 19 35 35 29 24 34 26 21 18 37 26 35 35 33 33 28 33 30 25 30 21 25 24 28 32 38 25 22 25 24 34 22 38 26 22 24 22
18 31 37 23 25 32 34 22 27 36 21 19 28 38 20 29 23 38 19 24 26 32 31 30 24 38 22 19 28 32 34 28 32 34 20 20 37 35 35 38 19 24 19 29 24 38 24 24 19 37 27 19 20 26 21 20 30 20 30 21 30 31 32 20
36 31 32 20 32 35 22 25 27 18 32 23 25 33 38 36 28 23 19 31 37 19 30 19 19 32 29 20 23 27 18 24 38 19 32 19 20 29 32 32 33 32 37 18 26 28 20 29 31 27 37 27 33 32 34 30 35 26 28 19 32 29 18 35
33 23 20 33 32 31 31 30 20 21 31 28 24 26 28 24 22 34 33 32 19 34 35 27 19 21 19 31 23 20 37 37 31 38 26 24 25 34 29 19 32 19 28 29 25 22 28 19 19 27 27 22 32 37 29 20 25 18 28 18 31 24 18 32
30 38 37 26 35 28 36 18 21 30 20 31 23 19 36 21 18 22 25 19 32 28 27 26 36 30 25 29 24 31 38 23 19 26 29 23 22 25 37 21 32 28 28 21 20 37 38 27 32 18 35 34 35 18 34 34 28 19 21 18 29 34 21 28
23 29 34 29 23 35 38 37 26 19 30 33 19 24 32 34 38 29 35 19 27 33 21 25 22 23 38 19 30 30 28 21 23 35 24 28 24 37 31 31 33 25 37 22 34 26 26 25 28 25 32 38 36 18 20 19 28 22 25 28 19 27 36 30
26 36 25 36 26 27 21 34 31 32 20 38 29 27 33 22 25 22 38 18 29 21 35 37 19 27 26 25 28 20 36 29 30 19 27 34 31 29 18 38 18 28 30 32 25 23 36 18 32 38 28 30 37 35 29 33 34 18 27 18 22 22 28 32
37 38 32 27 32 36 25 21 32 33 24 36 30 37 28 38 32 28 31 29 29 27 38 24 35 29 36 38 29 36 33 30 23 18 32 38 33 23 24 35 22 31 20 34 37 19 22 22 30 33 23 34 35 24 28 19 32 21 38 34 38 36 32 36
30 29 34 19 27 38 25 33 30 26 31 34 37 22 24 20 36 24 28 26 30 30 35 35 36 28 29 21 32 32 34 20 24 28 34 29 22 27 19 38 34 31 37 24 34 26 24 18 35 38 26 20 32 21 37 25 29 19 37 27 23 35 18 27
19 23 25 19 23 33 21 29 37 24 34 20 26 36 37 24 24 35 28 32 25 34 21 33 33 31 38 32 30 37 36 33 34 29 28 36 34 33 34 38 29 27 25 24 32 21 30 25 26 37 38 31 33 34 37 35 20 28 34 35 31 26 37 38
27 24 20 34 30 27 34 34 26 21 25 31 28 19 19 35 29 33 36 19 22 37 31 21 25 38 20 29 35 34 36 27 38 26 36 33 30 35 34 19 30 22 20 23 30 30 31 35 26 21 37 22 36 36 36 21 36 30 20 29 24 19 35 24
31 31 30 27 18 34 25 26 21 36 29 19 29 18 23 33 35 23 30 24 26 27 18 30 29 35 34 34 37 24 32 18 31 18 19 27 21 37 33 26 21 26 24 20 35 34 28 38 38 34 23 21 30 30 32 32 24 34 28 28 37 36 21 19
29 29 28 29 32 25 20 25 36 32 21 28 23 23 37 24 30 36 32 27 25 33 33 37 35 38 24 32 24 19 30 35 33 26 30 28 29 27 31 34 34 18 33 38 32 22 22 34 27 20 28 31 34 38 34 27 30 31 21 37 29 34 36 32
