P2
64 64
255
19 27 28 33 24 29 26 24 32 28 19 36 27 22 22 20 31 37 38 32 31 22 37 33 37 19 36 25 37 24 22 35 32 18 30 30 35 25 19 22 20 34 27 34 38 25 20 37 36 21 23 29 28 19 34 34 33 18 31 34 21 37 26 21
33 20 23 27 35 18 21 24 19 21 34 31 25 24 38 20 36 36 26 30 25 27 32 38 22 37 38 30 27 34 33 29 31 21 28 25 24 32 31 32 31 22 28 19 28 32 25 33 33 29 19 20 18 26 24 27 30 27 25 18 18 33 25 35
19 36 28 20 33 32 25 20 34 23 30 19 32 21 38 19 37 23 18 31 33 22 34 37 30 33 25 27 34 27 38 33 34 26 31 26 18 38 29 35 35 20 36 33 38 35 33 35 30 28 19 28 25 21 26 32 29 32 21 28 29 25 23 24
30 36 18 32 20 20 19 33 23 37 22 26 29 38 34 22 31 28 38 25 33 28 19 22 27 33 36 37 38 33 18 27 20 22 25 24 18 20 27 21 25 30 21 38 31 18 34 34 20 21 23 21 22 20 32 26 32 24 36 31 27 20 27 21
32 35 18 31 34 26 35 30 31 38 28 36 23 25 34 28 33 19 34 22 31 36 28 36 32 37 19 33 18 22 36 30 35 27 23 31 26 22 18 35 33 35 33 24 31 27 20 20 27 26 29 18 19 18 18 30 19 33 35 26 25 37 27 35
34 36 26 30 26 20 27 34 36 20 34 24 35 36 23 35 34 24 37 23 25 18 22 22 19 23 29 19 27 22 33 23 26 23 36 25 34 24 33 24 34 36 20 24 33 29 31 32 23 38 38 33 34 19 33 26 35 34 19 20 18 36 18 37
35 21 31 18 29 30 35 19 32 22 19 30 32 29 22 27 36 35 33 19 37 19 22 37 18 25 38 25 27 22 21 28 22 21 35 38 33 22 35 37 22 37 33 25 27 32 24 18 19 21 27 24 29 38 38 34 28 18 18 29 37 32 35 18
31 19 30 30 35 34 26 36 35 18 36 34 28 33 28 37 30 19 18 21 29 21 31 35 23 26 31 37 26 26 21 19 21 27 36 20 24 29 34 29 25 35 27 22 23 34 28 33 37 26 28 38 34 23 22 26 24 24 20 34 34 21 20 29
36 29 27 27 22 32 32 22 27 33 19 18 37 26 38 23 26 32 35 21 34 20 20 18 33 36 26 22 29 37 36 35 31 35 35 19 38 25 26 33 28 33 21 34 22 33 23 30 21 25 30 20 18 34 18 37 29 33 28 20 30 34 32 29
34 30 28 34 22 32 20 36 35 32 35 18 38 24 23 19 35 21 29 37 29 29 26 32 18 18 24 34 25 23 38 21 29 28 36 27 18 33 32 31 38 29 27 36 30 23 18 30 36 35 20 21 22 21 34 23 30 29 30 19 22 27 37 36
21 37 28 34 22 27 23 24 26 18 33 31 33 29 35 30 23 29 29 31 25 19 38 38 21 35 31 28 29 30 33 36 36 28 35 19 38 27 37 25 18 24 25 38 21 28 38 28 37 31 23 21 28 34 24 21 35 24 31 27 29 20 23 19
23 23 29 31 28 19 38 36 37 32 32 31 30 23 33 29 24 29 20 36 28 35 27 32 18 38 34 24 21 23 35 25 33 19 35 32 29 22 24 32 35 31 33 30 35 23 19 28 23 22 36 36 22 32 21 26 29 27 37 22 31 19 20 32
29 29 32 21 29 29 33 20 29 30 30 22 36 25 20 37 35 37 31 18 26 36 30 25 31 23 34 30 30 34 36 29 21 34 34 36 27 38 32 32 27 34 35 37 20 23 24 22 20 36 29 34 31 18 33 22 21 20 37 26 26 35 26 18
35 18 36 35 23 31 32 38 34 35 36 28 18 23 22 24 24 23 22 19 37 20 21 27 27 22 19 37 25 33 24 36 18 28 18 36 36 27 28 25 37 34 21 34 19 18 34 34 21 37 18 20 19 32 38 25 34 21 34 35 37 36 23 28
27 33 29 36 19 24 35 37 37 25 25 27 26 18 18 19 31 32 33 26 36 19 38 35 30 33 24 29 32 34 22 24 36 29 29 26 27 27 21 19 31 30 20 36 36 26 38 37 22 36 26 38 26 35 35 20 32 25 20 18 29 34 30 38
27 30 33 35 37 20 32 26 19 19 37 30 36 26 29 30 30 36 35 38 29 30 37 22 25 29 21 20 21 18 33 19 25 19 24 30 30 29 28 20 19 29 29 31 38 33 36 32 37 24 27 26 23 38 24 35 37 18 21 37 25 38 22 27
37 18 23 19 22 30 37 29 19 23 18 25 34 35 21 28 31 21 25 19 30 18 21 20 25 27 26 26 37 35 21 27 32 32 27 31 31 21 38 23 35 20 22 23 38 18 38 26 22 18 36 27 25 21 30 31 34 35 35 22 29 20 22 31
18 30 27 22 37 21 22 27 20 22 19 24 34 26 26 36 29 28 20 26 23 33 33 31 33 21 32 29 36 34 21 36 26 34 23 27 19 19 28 25 33 37 28 29 23 36 20 32 36 29 21 23 19 34 21 34 26 31 33 25 26 28 31 22
28 29 29 22 22 18 27 34 19 22 36 38 35 27 22 35 26 21 20 21 34 19 29 34 29 35 36 35 30 19 29 30 29 33 31 37 35 20 27 32 35 34 37 23 19 38 34 20 33 29 34 30 36 26 26 30 26 33 31 36 34 27 33 38
25 27 33 29 33 18 18 36 26 26 31 32 36 19 23 25 27 25 25 27 40 23 26 22 38 27 24 25 23 23 18 27 36 23 37 36 28 28 32 32 21 22 21 25 27 41 26 27 33 19 23 26 23 20 23 28 37 21 32 25 27 18 21 18
38 20 19 19 25 20 32 32 23 18 37 26 31 30 24 25 28 37 39 30 36 37 32 41 40 36 30 24 30 28 33 28 20 38 19 36 19 27 31 28 41 26 26 30 42 27 35 28 41 37 31 25 24 30 18 24 23 31 34 23 18 27 21 27
36 21 24 35 18 20 25 26 37 32 38 19 27 32 37 34 41 45 30 31 34 29 47 35 38 35 27 30 31 29 19 21 32 25 18 29 21 39 24 34 28 45 35 33 41 46 38 42 29 33 30 33 33 20 23 27 28 26 34 21 36 28 30 38
22 36 21 30 32 22 35 37 28 26 32 33 25 34 31 33 42 31 47 51 53 38 45 34 41 43 45 27 42 39 33 20 37 27 26 28 29 38 48 50 39 49 36 44 46 43 33 48 30 35 30 31 21 34 20 36 21 38 33 21 30 34 19 22
31 22 31 34 27 32 19 36 19 28 33 26 36 40 36 42 53 36 49 37 37 52 43 38 46 38 44 29 39 38 32 36 36 26 41 39 42 30 42 45 46 46 41 37 55 51 46 46 36 49 47 32 40 35 35 25 33 24 20 29 25 31 34 37
21 25 27 29 24 18 33 30 25 19 23 27 37 50 37 44 50 49 45 60 60 56 45 52 40 44 50 32 38 45 41 23 23 34 44 47 50 47 38 43 47 45 56 46 60 44 40 49 49 53 48 43 34 30 22 36 34 22 27 31 38 33 38 37
38 32 33 33 33 34 34 21 25 23 32 26 44 47 54 58 41 49 49 58 53 53 52 51 56 49 53 40 44 34 31 34 37 28 32 29 49 42 50 59 48 58 46 45 50 56 56 42 52 42 36 52 39 37 31 32 36 28 27 26 23 34 38 19
36 26 37 32 23 36 22 30 25 25 36 29 43 46 38 42 56 49 67 55 56 63 56 61 48 47 56 57 46 43 47 39 31 41 40 43 38 54 58 62 64 67 56 66 66 67 66 60 49 46 38 48 46 44 32 30 26 37 32 37 22 33 37 21
37 32 21 21 38 30 25 21 35 38 37 46 46 45 55 45 60 65 56 70 54 61 52 58 53 49 45 40 38 49 44 35 42 29 36 40 55 53 43 47 67 55 55 70 62 55 66 57 58 47 51 37 47 44 45 37 34 25 20 34 24 29 31 23
29 37 27 22 24 30 25 22 40 27 44 42 52 59 48 51 63 69 60 62 77 58 60 66 53 58 53 60 47 43 38 42 40 43 41 37 46 43 65 64 58 59 60 66 58 63 73 52 67 62 49 44 55 45 40 38 29 27 20 31 18 30 37 38
37 36 19 19 36 36 37 20 29 45 43 47 54 50 54 57 60 61 68 59 64 71 79 77 65 65 60 47 60 54 52 40 49 46 35 45 60 61 60 57 67 68 67 71 71 68 67 73 63 66 60 44 37 36 30 38 30 32 37 18 24 34 32 18
32 23 25 23 23 27 29 29 35 36 49 40 40 56 57 59 72 58 67 75 69 84 70 65 69 60 69 63 59 53 53 43 52 40 42 42 43 46 62 60 61 61 79 65 65 81 74 71 58 61 47 51 58 46 31 35 30 35 36 31 24 28 29 27
30 31 20 29 18 24 19 24 39 41 41 38 44 51 67 71 72 66 73 67 83 88 84 70 74 63 52 51 47 45 55 56 41 45 41 53 55 61 69 64 70 69 65 72 81 79 62 64 63 56 48 49 41 43 40 33 37 27 37 21 20 34 27 19
28 18 20 32 35 21 27 23 24 35 47 51 49 62 53 51 56 77 77 84 81 70 75 71 67 61 62 62 55 52 39 52 44 56 52 52 61 49 65 56 60 63 79 79 75 77 76 74 74 51 58 51 42 51 41 34 34 39 24 32 37 18 33 37
30 34 18 30 38 38 22 27 24 35 48 51 50 59 57 66 60 67 76 75 78 81 75 78 65 63 51 53 48 41 39 56 50 51 42 57 59 59 66 69 69 80 65 75 81 67 77 66 74 55 59 45 53 51 47 40 36 32 27 32 31 35 20 23
21 38 32 38 29 36 24 28 30 37 33 50 46 55 61 60 55 63 71 66 74 78 82 60 72 63 55 62 50 54 43 40 48 52 49 53 57 46 70 60 75 72 76 74 69 80 71 76 72 62 64 57 50 44 44 39 28 25 18 21 32 18 32 19
18 38 36 22 19 28 23 35 39 27 43 39 45 43 50 62 64 72 62 61 80 74 74 60 67 59 52 62 42 50 37 41 38 39 44 57 59 64 48 52 65 76 73 61 79 71 76 61 59 59 59 51 54 36 46 30 25 37 34 35 33 28 38 36
22 31 26 32 37 22 36 35 32 32 45 42 51 59 59 65 53 63 54 73 58 71 75 72 55 51 64 49 42 44 35 46 51 52 46 45 52 63 47 52 62 64 72 76 64 66 58 64 59 58 62 42 50 36 41 42 29 31 21 26 34 31 20 19
24 34 38 28 21 32 29 27 32 26 28 40 36 51 59 59 51 51 58 53 58 63 65 54 52 55 54 43 44 48 37 33 40 41 42 35 50 58 50 57 53 69 56 53 73 58 62 60 54 50 41 41 37 36 28 27 25 33 27 33 30 25 32 26
33 38 22 20 20 29 24 20 28 23 33 37 42 48 41 47 43 46 61 51 51 51 50 50 49 43 47 55 49 39 41 42 43 25 44 32 43 41 46 50 61 49 65 61 59 51 54 51 45 50 42 45 43 40 44 29 31 19 28 24 26 36 28 36
24 32 26 38 37 32 37 34 22 30 31 31 50 37 53 44 47 58 57 55 66 61 60 58 65 53 49 51 53 42 32 28 42 39 49 51 54 47 54 64 65 65 62 67 61 52 64 67 47 61 52 42 53 34 39 29 27 40 30 27 32 27 28 35
29 36 37 41 31 34 44 39 31 42 34 45 42 52 45 50 51 63 51 51 68 53 70 59 64 63 57 53 55 39 38 43 36 43 39 45 58 50 65 64 69 69 66 69 55 68 59 57 48 60 52 45 54 39 36 50 43 30 44 37 51 44 50 38
33 42 28 44 34 48 45 28 40 42 44 45 55 45 60 49 47 53 62 53 58 59 59 50 58 66 59 50 41 44 46 32 52 52 55 41 46 47 52 66 64 68 59 66 61 56 70 62 56 64 48 63 60 52 56 36 37 42 50 41 40 44 57 57
29 37 25 40 26 32 25 41 29 43 32 31 45 31 50 44 51 58 47 45 49 52 47 58 48 57 47 44 43 40 41 42 34 40 42 42 41 39 45 46 53 42 62 44 56 64 46 61 52 57 44 50 41 36 38 35 45 47 32 37 45 34 40 33
34 37 35 29 30 40 36 22 32 40 25 38 36 25 36 32 30 35 50 38 35 43 49 34 48 40 47 34 42 26 32 33 33 39 40 23 27 33 41 36 45 34 35 40 52 50 45 43 41 39 28 26 40 34 28 24 34 26 44 27 35 32 37 34
31 27 25 31 34 37 25 33 19 25 29 29 33 27 19 21 37 26 44 38 35 34 43 40 34 41 26 31 31 27 29 21 22 33 37 23 19 33 27 29 34 44 40 26 26 31 39 33 31 33 33 18 27 36 21 33 30 23 33 36 25 38 27 23
38 34 19 20 36 37 33 31 19 20 26 30 21 29 30 35 36 38 31 25 24 41 32 35 25 28 38 20 18 32 31 33 37 35 19 28 37 37 32 25 24 35 36 33 28 24 27 23 37 28 28 28 20 21 37 35 20 28 36 23 23 24 19 18
24 37 21 19 31 37 34 27 29 21 26 34 21 21 25 18 24 28 23 33 24 38 29 38 25 23 20 21 34 33 38 34 32 28 22 26 35 25 33 30 28 31 37 33 35 37 36 28 38 22 31 21 19 38 18 34 18 30 19 18 21 35 23 23
36 18 20 27 26 23 19 28 32 21 38 20 23 20 31 21 24 23 32 22 34 22 31 23 19 33 22 23 24 20 34 29 32 30 22 23 31 28 24 37 19 21 37 33 18 35 28 28 24 37 33 20 30 36 24 37 21 30 34 23 23 21 37 30
29 21 38 26 27 26 32 28 25 38 22 27 22 29 34 26 33 25 35 19 35 27 32 18 27 30 38 25 33 25 18 18 20 29 18 21 34 25 25 35 33 32 33 28 18 26 22 27 20 30 21 31 22 29 31 22 28 20 23 35 20 29 27 23
36 38 20 36 34 21 22 38 36 28 33 35 25 23 21 29 20 25 37 35 38 25 23 19 37 24 25 36 29 32 30 19 20 23 22 27 21 32 27 28 26 34 38 32 18 24 27 19 19 35 27 34 22 24 20 31 22 20 31 21 27 19 26 18
20 25 21 19 18 31 24 20 36 18 18 20 34 37 35 34 19 36 23 29 29 32 30 22 22 27 32 37 31 20 32 34 25 33 35 33 29 33 32 31 37 19 38 35 29 22 31 24 18 33 36 18 31 30 21 36 27 38 33 31 27 25 23 18
34 27 30 25 23 33 35 20 22 36 20 22 24 22 18 30 37 29 28 19 28 38 38 21 23 32 37 33 22 38 27 18 28 25 18 18 30 22 25 34 21 28 31 20 30 28 28 29 37 22 31 34 18 35 23 20 29 22 38 23 18 18 18 37
35 25 23 22 33 18 32 31 29 29 25 36 21 32 36 34 33 33 20 22 23 36 22 22 26 38 35 37 25 23 19 24 19 22 35 33 31 20 18 21 26 24 25 22 35 37 37 20 22 20 19 37 25 36 26 28 34 31 24 28 38 26 18 35
22 22 19 38 28 22 33 22 27 27 26 37 26 33 21 34 29 18 21 22 26 19 38 24 20 36 20 38 28 27 25 20 37 23 26 30 37 30 27 28 29 26 34 24 36 36 29 25 32 32 37 34 35 37 30 18 33 38 18 19 29 38 35 36
31 25 31 37 22 26 18 24 23 20 19 19 32 21 34 37 19 34 24 27 32 38 37 25 35 31 21 22 24 19 22 30 38 33 34 23 29 23 21 34 38 25 33 30 30 22 26 30 34 34 30 25 37 26 21 33 31 19 25 23 36 19 26 35
29 19 26 27 26 29 37 27 34 30 35 38 33 24 30 19 33 27 28 22 33 34 18 27 36 32 37 31 23 23 34 32 31 37 28 26 21 20 18 36 38 28 28 26 26 32 38 31 38 28 35 33 26 22 18 35 25 32 26 28 38 38 38 34
30 24 37 30 20 22 18 38 35 34 22 31 31 30 18 30 19 38 24 23 21 38 26 24 24 24 30 19 34 22 25 29 19 37 31 29 22 27 33 34 26 37 23 25 25 27 28 18 19 38 26 36 28 32 21 24 26 28 38 22 27 30 27 24
26 24 24 23 34 25 21 18 23 29 28 27 24 19 34 29 28 19 36 32 33 18 23 36 33 36 32 22 19 30 29 29 33 31 26 19 32 30 26 34 18 36 22 31 29 28 36 22 35 20 35 33 27 33 35 32 27 27 27 34 20 24 26 36
32 25 32 25 29 18 28 37 33 25 34 27 27 32 30 25 22 30 26 19 25 18 20 35 28 19 38 33 34 37 34 37 28 24 37 35 19 31 29 34 20 38 33 31 19 22 37 33 32 37 18 33 31 28 30 20 21 30 19 30 30 22 38 24
32 29 25 37 35 23 18 31 18 20 37 32 36 22 33 28 33 34 38 18 21 21 24 25 33 24 33 38 27 22 19 26 27 28 36 27 21 38 31 27 31 23 30 21 29 20 18 25 29 19 36 26 21 28 31 19 26 35 27 23 20 33 23 38
20 29 21 32 37 21 19 24 19 36 24 19 21 24 34 21 33 25 25 37 25 38 27 24 36 20 33 24 18 33 31 35 19 36 37 26 35 27 28 27 23 27 23 33 21 28 22 36 24 20 32 31 35 21 37 24 38 32 34 34 35 23 25 18
22 20 33 22 26 24 36 22 19 33 33 37 18 21 26 22 36 23 26 20 28 20 22 27 38 29 32 24 33 31 21 38 27 27 31 23 34 20 28 21 25 23 24 35 37 28 31 18 34 23 26 27 32 37 36 18 31 25 18 18 35 27 19 26
37 28 25 34 20 24 29 23 33 37 27 34 33 22 25 37 20 28 23 37 38 22 27 33 30 26 36 31 31 32 31 30 29 37 20 35 36 24 31 30 26 20 26 21 36 34 31 30 26 18 28 36 25 26 26 35 18 37 28 26 19 34 37 28
20 20 30 18 28 34 38 35 22 30 35 34 18 24 36 23 36 22 22 32 30 29 35 28 18 24 20 30 20 27 26 25 31 20 37 24 37 37 28 21 20 27 21 19 32 34 28 21 29 31 23 33 31 24 20 38 26 20 31 28 20 31 30 32
