P2
64 64
255
19 17 26 23 24 14 16 21 25 20 15 14 20 17 21 14 25 15 22 17 14 26 24 18 14 23 19 26 18 17 15 15 19 21 25 25 21 14 15 26 16 25 15 20 23 24 26 17 14 17 14 17 14 23 15 26 18 21 22 18 18 20 25 23
24 16 25 15 14 24 25 26 25 21 24 22 23 15 19 21 21 14 22 24 24 16 15 24 16 26 19 14 19 14 25 16 25 21 22 20 20 14 15 20 19 25 24 26 23 15 14 25 22 22 15 18 22 23 17 14 14 22 19 18 19 24 20 14
15 14 25 14 22 17 22 22 23 14 17 26 14 26 15 25 16 22 22 22 18 21 24 21 16 26 18 20 17 17 14 20 26 25 21 14 25 18 18 19 18 26 24 22 24 21 18 18 16 22 24 16 14 17 22 19 24 25 19 24 18 17 15 17
23 24 14 15 21 21 18 20 22 18 16 19 18 23 24 21 20 24 23 14 25 14 14 19 23 26 24 14 16 16 19 23 18 23 15 15 19 15 17 16 17 26 19 16 26 23 19 18 26 25 15 19 18 19 24 23 19 14 22 14 17 18 14 22
21 20 20 15 20 26 22 21 14 18 16 20 17 25 14 16 26 15 16 25 16 17 21 15 19 14 14 22 14 24 14 24 17 14 15 20 14 21 26 18 22 19 26 20 25 17 21 17 21 26 16 25 19 15 25 14 22 22 23 24 25 18 17 16
17 16 25 16 23 25 23 16 25 14 21 19 23 25 16 25 19 26 15 26 19 14 14 20 22 20 23 21 18 17 25 19 22 17 20 16 26 14 20 17 23 24 20 20 18 22 18 26 14 22 16 22 16 23 14 18 15 16 17 23 26 25 21 21
19 14 17 20 24 18 16 20 18 14 14 24 18 23 21 22 18 19 26 22 15 26 17 18 24 16 26 23 16 26 14 17 14 17 16 20 19 19 17 17 20 15 25 25 23 15 14 21 17 21 18 16 23 17 20 16 14 17 23 22 23 14 17 18
19 23 15 22 15 19 15 22 14 20 21 20 23 16 15 17 25 14 20 26 21 17 16 17 24 18 16 26 15 17 17 25 21 16 26 16 16 21 25 26 17 26 26 23 14 16 26 19 19 26 21 21 14 18 24 18 25 16 17 15 15 23 20 18
18 14 14 23 22 20 15 24 26 23 25 15 15 20 19 26 20 14 25 22 15 26 16 19 19 21 14 23 14 19 25 16 23 20 22 18 25 22 20 23 22 15 15 25 25 23 20 21 20 17 19 23 18 18 14 24 18 26 26 19 15 14 22 17
18 18 17 26 15 21 26 20 18 18 17 16 20 16 25 23 26 23 16 21 17 17 14 18 26 26 16 18 21 19 24 15 20 21 26 21 24 26 24 14 22 25 20 22 15 14 23 14 21 23 25 22 17 21 23 16 17 26 26 20 14 24 17 14
21 19 20 15 14 26 18 21 16 21 14 23 24 23 25 16 18 23 22 18 22 17 22 25 18 19 22 23 25 15 19 18 19 21 16 26 18 22 22 14 25 20 24 16 20 19 15 23 25 23 14 14 19 16 14 14 23 20 25 24 18 22 15 21
23 23 21 25 25 21 25 25 22 26 14 14 26 14 26 18 21 19 22 18 22 23 19 18 21 14 14 26 20 22 25 17 18 24 24 19 22 16 15 17 26 16 16 16 25 18 20 25 17 26 22 16 25 15 21 19 20 18 24 18 18 15 22 14
18 26 26 17 21 14 17 21 16 15 26 24 21 22 18 14 26 26 23 22 16 18 14 24 14 18 22 19 26 25 23 25 25 19 15 19 23 20 23 19 25 21 14 21 25 21 17 21 16 14 23 26 22 24 16 23 15 21 26 25 16 25 24 18
18 14 22 16 24 25 19 25 22 15 21 24 22 19 26 23 22 24 26 18 16 25 24 23 18 18 21 26 24 26 26 22 21 21 14 15 19 24 17 21 24 19 26 23 24 21 17 23 17 22 23 14 14 24 21 17 24 23 23 25 20 19 16 26
20 16 25 20 19 18 17 15 17 22 15 18 19 16 17 16 17 19 22 24 20 26 18 25 24 19 15 16 15 15 23 21 16 18 19 21 23 19 16 17 25 23 18 26 26 15 22 23 24 20 24 16 14 16 15 25 23 21 25 22 19 14 23 16
26 19 26 17 19 24 17 19 25 24 16 18 25 24 22 24 24 25 14 19 24 26 16 25 21 21 22 18 19 22 20 23 15 26 23 18 24 23 16 25 18 17 25 26 15 15 21 14 16 19 17 20 26 26 20 25 24 18 16 19 14 20 20 22
14 19 23 26 21 21 17 19 25 16 17 24 25 20 16 22 17 21 25 15 14 18 21 22 18 19 20 17 16 22 16 24 23 19 22 24 14 16 26 15 26 24 25 14 17 14 19 14 16 24 15 18 26 14 20 17 16 19 21 14 14 21 20 19
16 24 23 15 24 17 16 21 25 14 20 25 18 14 20 19 18 16 24 14 22 14 16 21 26 14 21 19 21 20 16 22 15 24 17 16 23 15 20 18 26 26 17 19 20 21 20 21 23 20 14 25 21 18 15 18 22 20 14 16 21 22 15 24
15 18 18 24 23 24 18 14 15 21 21 21 19 26 23 19 16 17 16 16 14 19 17 18 16 15 18 25 25 22 26 21 26 21 23 23 24 14 15 20 17 16 19 19 25 24 15 16 16 23 21 19 20 19 16 16 18 26 14 25 16 26 18 26
15 23 20 20 23 14 25 25 15 24 17 19 25 23 17 18 17 19 17 28 26 30 23 23 25 25 19 19 17 15 16 18 18 19 18 14 16 26 19 22 17 18 17 27 25 21 26 28 16 16 25 15 17 25 25 26 16 21 24 26 14 18 24 19
22 17 25 17 14 16 25 26 22 14 25 21 17 17 21 25 20 31 30 22 23 34 21 26 31 30 23 24 26 21 15 18 22 23 23 23 19 18 26 20 26 24 22 28 22 23 32 20 20 22 20 21 16 26 17 24 25 17 18 21 24 16 25 21
20 18 14 20 18 23 14 19 21 19 19 17 24 25 20 21 26 30 29 25 27 30 37 29 24 24 20 31 23 19 18 25 27 23 24 24 16 26 29 27 32 26 30 26 31 28 30 26 28 27 20 29 23 23 23 14 25 15 25 26 22 17 20 26
18 26 19 23 16 19 14 20 19 15 21 27 25 25 28 32 33 29 40 40 35 34 32 33 39 38 34 32 30 27 33 24 35 31 31 28 37 37 34 31 28 29 39 40 37 32 34 27 32 28 33 29 29 18 23 20 14 22 20 19 14 24 21 22
21 24 16 20 23 26 17 24 24 16 22 28 26 24 33 29 29 43 39 45 44 35 44 43 37 34 39 39 45 42 37 33 34 40 36 33 34 42 39 41 41 40 41 40 43 36 38 36 40 35 33 24 28 18 27 15 23 19 19 24 15 23 15 16
26 22 17 22 20 16 24 22 24 21 29 23 25 29 33 41 35 35 48 40 38 41 39 44 51 48 53 44 45 43 47 41 37 39 42 43 55 53 51 46 40 51 46 45 49 40 48 37 38 34 35 31 31 22 20 17 16 15 25 17 15 17 18 17
24 21 22 15 16 23 26 21 21 16 24 33 30 31 38 38 38 50 47 45 50 49 46 49 61 57 61 57 57 57 50 58 48 52 59 54 53 55 62 52 53 48 51 49 52 44 40 43 38 46 42 29 38 26 28 18 18 17 19 15 16 24 16 16
21 17 19 15 24 15 17 16 19 19 24 25 39 34 46 47 42 42 54 45 48 53 60 59 69 67 64 63 60 66 69 60 62 61 67 61 66 70 67 71 64 61 54 51 49 47 51 45 45 48 42 43 34 35 21 23 20 21 26 20 26 23 23 16
16 26 18 17 26 18 22 24 21 31 31 37 31 45 43 51 44 48 59 53 63 61 68 71 70 71 73 68 71 74 69 70 66 65 65 71 79 70 71 69 69 72 60 56 60 58 56 54 44 49 44 33 41 39 24 30 17 15 25 19 17 16 14 23
18 17 18 19 20 20 23 23 22 29 36 37 42 35 43 53 56 52 58 65 69 69 77 72 77 74 76 81 79 77 83 75 84 79 73 75 85 86 79 82 81 76 68 69 64 63 61 59 53 44 41 45 32 32 36 27 17 15 14 15 14 22 22 24
22 23 16 14 19 14 24 15 22 27 37 39 35 48 48 55 47 56 62 68 77 75 86 90 90 81 90 86 92 83 84 89 84 85 85 81 87 94 94 88 84 82 85 71 70 71 60 60 49 53 44 37 39 34 38 31 21 18 21 26 24 21 14 20
26 24 20 25 19 19 15 15 24 34 27 41 46 41 47 52 58 54 63 75 74 87 83 88 92 93 97 96 101 99 97 94 97 93 99 97 94 100 96 97 97 94 92 79 79 74 57 55 61 58 53 42 45 40 29 25 25 20 18 20 15 15 25 24
15 23 14 24 15 25 16 22 24 25 27 43 41 42 52 49 56 60 61 81 89 90 95 99 98 102 106 104 101 101 97 105 100 98 104 104 104 97 94 100 103 99 93 88 87 74 63 59 53 59 54 41 43 37 39 34 21 26 22 23 14 18 25 17
16 25 18 17 14 16 26 24 30 30 37 34 36 46 45 59 60 67 75 79 90 93 99 103 99 101 102 101 105 99 107 106 111 115 103 107 106 109 107 100 107 102 92 91 86 82 75 59 62 59 50 40 41 33 35 24 31 27 14 20 19 15 18 26
16 16 20 26 23 21 21 17 25 23 38 40 39 51 54 49 61 66 71 74 85 92 102 96 101 107 110 110 107 106 117 115 117 108 117 113 110 108 102 110 98 99 93 97 85 83 75 63 52 59 47 50 43 40 35 24 20 18 23 14 15 23 14 14
17 16 16 25 14 16 17 18 30 25 32 39 35 39 42 47 53 66 68 77 86 94 94 105 103 103 105 104 112 109 113 114 124 126 116 118 105 111 110 107 108 98 98 88 88 79 67 58 51 52 54 40 37 41 31 31 23 24 16 14 16 20 23 24
26 15 26 14 26 24 25 21 26 30 32 32 41 41 49 47 55 55 61 79 78 94 95 94 97 107 105 107 111 120 123 120 127 120 119 116 106 113 107 110 106 96 97 83 80 77 63 57 48 53 49 44 34 34 32 27 24 27 18 15 21 17 24 16
26 14 23 23 23 23 20 20 21 26 29 35 33 37 41 49 47 54 64 73 74 80 95 96 95 103 104 109 112 118 119 126 127 128 113 111 113 103 104 106 98 99 89 82 75 75 65 53 51 48 48 45 44 31 26 31 23 18 22 19 21 19 20 21
21 26 22 22 14 16 20 20 20 28 26 36 36 41 41 51 48 55 62 71 76 84 88 97 92 94 100 107 107 109 116 116 111 110 109 109 110 107 97 97 95 90 85 85 76 74 61 52 54 48 41 33 41 31 24 30 19 22 19 20 15 24 19 15
23 21 19 21 23 18 23 17 14 20 33 30 38 32 40 39 44 53 54 67 71 76 84 80 88 96 102 99 109 106 102 109 103 112 109 104 98 99 102 98 86 80 78 74 73 62 61 50 48 48 45 33 35 27 33 20 17 21 17 21 19 24 22 19
18 15 14 22 17 15 23 26 15 17 20 25 38 40 41 45 37 48 54 60 63 72 73 81 91 90 96 93 100 104 103 94 101 97 102 102 103 93 90 87 87 82 77 65 65 58 53 50 42 36 37 38 31 33 23 18 26 26 17 20 18 16 17 26
19 26 14 14 24 21 24 16 22 16 23 29 29 26 31 33 43 37 41 47 53 62 74 76 85 87 91 85 90 98 86 91 94 88 97 87 92 83 92 86 84 79 76 67 60 57 44 39 39 43 29 34 24 30 20 21 26 14 25 16 18 15 18 19
15 17 23 22 20 16 15 17 21 23 22 18 20 30 35 37 29 38 40 52 54 58 61 68 69 72 81 87 85 89 80 86 88 77 77 88 82 81 85 76 78 67 62 64 53 42 39 41 33 30 28 29 32 25 19 17 18 21 22 24 22 26 20 19
14 22 25 16 14 18 25 16 22 14 26 27 18 32 23 26 36 34 36 39 43 55 51 61 70 67 68 76 69 76 79 79 82 76 72 75 72 69 68 72 64 58 52 56 45 37 30 39 26 36 33 25 27 19 25 20 16 15 15 26 20 17 24 14
21 19 23 23 15 21 23 17 26 14 23 17 14 27 26 32 22 28 36 37 38 46 49 50 52 58 57 69 64 68 68 64 64 66 74 72 68 65 60 58 59 53 46 48 37 34 28 27 30 21 28 25 25 15 26 18 26 25 14 20 21 16 26 25
17 18 15 18 17 18 26 15 14 14 20 21 24 25 24 23 23 20 28 25 31 40 45 45 47 53 57 54 60 63 65 64 58 69 64 59 54 53 49 53 45 44 41 40 35 25 27 31 30 26 15 16 16 24 15 19 19 17 26 26 17 22 21 19
19 25 17 24 20 23 26 22 25 17 15 18 19 18 17 14 25 26 23 27 20 27 31 39 41 47 45 54 58 56 53 62 52 56 52 58 51 46 47 45 40 39 28 30 29 17 25 22 26 23 21 14 14 18 18 19 18 15 21 21 22 21 26 25
26 23 16 22 20 17 19 21 23 26 19 18 26 26 15 20 14 18 21 20 18 26 32 34 30 39 38 43 43 48 47 53 53 51 48 50 44 42 39 40 29 37 22 27 24 14 17 14 17 20 22 25 19 26 24 24 19 14 21 25 23 17 22 14
17 22 15 18 15 14 22 20 17 15 15 25 17 22 16 21 17 17 22 25 14 23 18 28 30 29 32 40 35 48 40 43 39 43 43 48 46 34 37 29 30 27 28 26 22 20 19 21 20 22 22 25 15 22 25 24 25 20 15 26 18 16 25 24
15 17 15 16 20 20 14 19 18 21 15 17 22 15 19 25 26 22 22 16 19 17 17 16 23 33 34 35 29 36 38 39 40 41 38 38 35 33 33 24 30 18 25 23 15 25 17 15 26 25 15 23 16 22 25 24 25 24 21 20 18 22 22 20
14 25 20 18 22 14 16 17 19 19 24 23 15 24 25 21 22 16 14 15 21 24 16 19 14 21 20 31 23 32 28 34 27 29 36 25 32 29 20 17 19 23 15 24 15 22 15 18 22 23 18 16 21 19 26 26 25 23 17 24 14 20 20 22
15 23 22 17 18 25 25 26 20 20 23 16 14 14 21 21 23 26 22 21 23 23 19 22 22 25 18 28 17 29 27 21 29 31 26 27 17 27 18 19 20 26 26 17 24 16 18 26 21 18 19 26 20 18 17 14 18 20 16 14 15 15 25 25
20 16 14 15 21 24 14 17 21 19 16 20 16 23 24 17 23 25 14 21 26 14 23 23 25 17 24 18 26 17 18 24 19 24 19 21 25 17 16 19 20 23 17 18 15 24 26 20 15 21 20 25 21 20 21 26 22 20 16 17 22 21 23 22
21 14 20 24 22 17 16 21 18 17 14 26 18 17 25 20 17 20 25 19 24 17 25 22 19 16 16 22 19 20 22 16 23 21 18 17 20 26 22 19 21 19 24 14 23 23 24 21 17 19 22 18 18 17 25 26 23 25 15 17 17 21 19 24
15 22 16 16 26 22 25 22 20 22 14 17 17 20 20 25 19 16 17 19 22 25 25 22 16 24 15 19 16 21 17 25 14 17 18 26 19 22 20 26 15 22 22 14 22 22 16 19 22 19 20 20 22 24 16 16 24 23 24 15 25 23 17 21
23 19 15 26 19 14 16 19 24 19 23 18 25 18 14 18 19 19 25 22 17 16 22 25 15 16 16 14 21 15 16 23 19 19 14 22 17 23 16 18 17 26 23 26 19 25 18 23 25 16 19 14 26 18 26 20 21 14 24 22 18 14 15 20
26 25 21 14 24 15 23 23 15 23 22 21 22 16 22 23 17 19 16 25 19 18 23 21 16 17 21 22 25 26 20 21 20 16 16 14 19 17 20 19 24 20 24 18 17 20 20 14 18 22 21 20 15 23 25 18 22 16 23 22 25 16 14 18
23 26 21 26 21 14 19 21 23 24 15 14 16 16 22 22 18 15 21 17 14 22 22 18 23 15 14 23 14 22 22 23 26 19 21 18 14 24 16 23 16 26 21 18 25 17 22 19 17 21 23 21 18 17 21 17 25 25 15 14 18 24 21 20
23 24 18 19 16 22 17 15 22 23 22 22 21 26 18 18 22 24 16 26 23 22 18 14 22 19 24 20 24 22 15 26 19 23 20 20 17 19 23 23 25 17 20 14 19 25 19 24 23 24 20 21 26 20 19 16 19 24 22 17 22 16 18 21
17 20 25 14 24 24 23 18 17 14 17 17 17 22 14 22 23 23 18 19 20 22 14 14 20 19 25 19 20 19 17 23 14 26 26 19 14 14 19 19 14 17 19 20 23 21 26 20 21 22 24 19 22 16 25 25 21 20 16 14 22 18 26 22
24 21 23 19 23 16 21 25 19 19 24 18 19 25 14 17 25 22 15 25 25 17 25 23 17 18 17 24 21 15 21 15 20 21 14 22 23 25 25 25 26 22 25 14 23 24 18 15 26 14 18 17 21 25 17 16 14 16 15 21 20 20 23 14
14 17 17 22 23 22 22 20 23 24 26 14 14 22 26 15 16 26 23 25 18 25 26 23 26 25 17 19 18 20 20 25 14 19 17 23 17 17 15 14 22 14 14 18 24 22 18 14 26 23 18 24 23 25 22 15 24 20 14 16 15 17 19 15
14 15 25 19 22 25 15 26 22 23 21 23 18 14 20 17 25 15 25 22 23 16 25 14 26 26 22 20 26 19 17 15 18 22 26 26 25 16 20 26 22 14 14 26 22 16 25 24 14 25 23 16 23 25 24 20 22 16 25 25 21 14 24 26
20 15 14 24 19 22 21 16 24 14 23 18 16 24 24 18 18 14 17 17 21 22 16 15 19 23 26 26 24 19 26 25 15 26 21 25 19 24 18 18 23 24 21 23 23 25 18 24 18 17 14 19 23 20 17 18 21 24 14 23 14 20 21 18
15 22 26 15 18 22 21 25 15 21 21 26 23 15 25 17 23 22 22 24 25 20 22 14 14 26 26 25 19 20 25 20 20 16 20 22 23 24 22 17 14 14 23 24 15 22 14 19 24 20 17 23 26 22 22 15 19 17 16 23 26 18 17 18
