P2
64 64
255
32 29 25 26 32 25 31 35 34 18 38 36 25 23 36 37 26 23 37 31 36 24 31 20 21 36 38 21 26 18 26 19 27 26 23 29 28 32 28 18 37 18 29 31 36 25 27 19 22 25 24 27 27 27 19 23 24 37 20 24 28 25 37 21
21 32 22 37 36 38 19 29 23 34 36 18 19 20 26 33 25 30 36 24 31 21 37 23 18 30 21 31 35 22 22 35 24 37 33 35 24 27 34 19 22 34 19 36 19 37 25 24 27 29 25 25 20 25 28 19 22 19 32 21 37 25 24 30
37 31 34 33 18 21 23 34 38 28 18 20 31 30 20 23 35 35 35 31 29 36 20 38 23 29 29 23 30 33 32 25 35 31 30 22 36 26 37 27 31 29 22 21 18 23 30 33 31 37 28 30 26 29 23 24 34 33 36 21 30 26 25 29
21 31 23 20 20 29 36 30 37 34 33 32 27 19 21 26 31 38 30 32 28 28 37 25 23 29 33 31 23 29 38 32 34 19 23 35 30 27 31 23 23 33 29 36 38 33 35 35 25 24 36 21 34 25 25 30 38 21 32 20 30 22 36 32
29 19 21 33 23 28 32 20 18 28 27 33 24 34 25 28 24 23 35 26 28 28 23 36 26 27 36 23 19 20 33 36 26 32 25 35 38 29 19 32 27 35 29 24 38 33 32 26 25 29 36 18 31 22 22 21 31 23 20 29 26 37 30 20
21 37 27 20 22 18 33 37 30 30 30 28 21 22 31 20 30 34 33 20 20 32 29 31 32 19 37 35 28 21 23 31 22 34 24 19 22 31 27 29 25 25 21 24 29 36 31 18 38 34 27 26 18 30 31 19 25 27 30 38 26 18 28 22
25 35 25 33 25 21 20 18 25 18 33 29 18 21 19 29 20 23 21 37 33 18 33 18 25 29 21 25 32 35 32 25 25 32 35 36 35 18 26 21 32 29 22 25 32 33 28 33 36 23 18 24 29 21 32 18 22 29 38 24 33 24 21 28
37 22 34 21 21 34 19 20 38 36 38 30 29 31 36 38 29 36 19 35 28 37 29 36 33 22 30 26 26 34 18 33 23 22 22 27 37 33 38 26 38 24 31 21 27 37 37 33 22 21 38 29 22 20 27 26 22 24 38 25 28 31 22 18
38 33 27 22 21 29 36 37 38 19 31 33 25 27 31 34 35 22 37 29 27 18 29 33 34 18 32 30 20 22 35 23 30 31 18 33 19 20 18 36 30 36 34 22 28 20 24 21 31 36 24 34 34 34 23 24 21 25 31 32 33 38 23 34
32 22 27 19 34 26 31 31 21 33 18 22 22 29 20 38 35 21 38 30 23 26 25 27 27 24 30 36 36 21 37 30 19 29 34 26 31 25 32 30 37 18 19 24 23 20 35 19 29 26 20 35 18 23 23 38 18 30 34 29 32 37 20 26
38 24 36 32 28 25 22 38 31 21 25 34 19 26 21 31 31 22 30 28 37 34 28 18 23 25 29 27 25 21 37 38 32 35 35 29 30 28 24 36 36 33 37 31 20 33 25 27 36 20 28 37 22 29 22 26 29 24 35 38 24 37 25 26
24 33 37 31 30 22 33 24 27 26 20 21 36 26 29 34 37 27 34 18 21 18 30 32 21 34 32 38 38 27 26 19 20 24 31 29 33 18 36 32 26 24 34 32 30 24 37 36 32 33 26 29 27 38 23 34 25 23 25 34 18 37 18 36
38 20 29 34 31 23 20 38 24 35 19 32 38 25 19 19 34 34 38 28 24 38 38 35 30 30 30 28 19 24 27 30 18 34 18 33 20 36 19 32 28 37 23 35 26 26 19 31 37 21 26 30 26 29 35 37 21 19 38 21 25 32 27 23
29 28 27 35 18 38 33 25 33 33 19 29 36 18 26 34 27 34 32 32 31 32 30 23 35 23 24 35 24 32 34 34 19 24 20 36 20 22 20 30 18 21 34 33 29 29 32 29 38 25 32 27 37 37 23 30 20 35 27 30 38 24 35 38
18 22 38 28 27 32 27 22 21 30 38 24 32 19 35 29 18 35 19 29 19 27 18 29 24 36 36 22 20 23 20 36 18 29 23 30 36 37 34 20 28 20 18 25 38 18 20 38 37 18 35 22 36 28 33 26 35 34 25 29 29 35 18 38
30 19 33 38 31 30 25 20 31 21 28 28 34 27 37 20 23 18 23 38 19 19 22 22 33 37 18 23 32 25 38 28 25 28 38 33 32 26 19 21 29 38 19 33 27 21 28 23 23 20 29 31 30 27 32 22 19 37 20 35 34 37 37 19
33 35 29 18 36 27 19 27 21 38 38 31 27 24 34 38 20 30 25 28 24 22 34 31 25 23 31 35 26 35 21 29 23 23 20 33 37 22 33 24 23 29 30 34 23 33 36 37 23 37 31 27 32 35 21 22 25 38 21 32 31 36 19 19
26 25 27 36 29 29 33 21 20 38 33 23 36 25 38 26 36 27 37 27 30 37 25 29 18 25 30 37 23 30 30 31 18 36 32 19 29 32 35 19 30 34 32 30 38 19 38 29 20 34 22 36 29 23 28 34 30 26 31 21 24 33 22 26
37 21 21 19 24 19 26 34 20 24 20 35 28 29 28 33 37 37 26 28 21 20 36 21 21 34 33 34 21 38 19 37 22 23 36 34 35 24 19 31 19 34 23 33 26 24 19 19 38 31 24 24 33 22 37 18 26 23 38 32 33 26 34 27
37 32 33 20 36 38 37 19 36 24 24 36 37 36 32 30 22 28 33 33 41 26 39 41 30 29 24 28 29 19 24 35 24 27 36 27 30 33 23 24 22 36 37 27 30 31 38 20 26 18 28 37 21 31 24 35 27 32 28 23 31 23 31 37
29 18 23 27 21 32 30 24 30 28 32 35 25 19 35 25 25 37 26 44 29 27 38 32 39 34 26 37 28 36 23 36 37 19 38 28 30 30 40 30 24 43 28 46 29 37 43 24 32 33 28 18 31 26 29 31 33 34 31 26 30 18 21 25
35 19 21 31 27 38 19 20 30 34 37 38 22 23 37 42 42 29 40 46 45 34 31 37 38 33 26 38 32 26 38 37 24 28 35 31 30 34 27 34 39 48 46 33 43 40 42 45 41 35 38 35 26 19 36 24 37 23 19 27 31 32 27 34
21 27 30 28 38 29 29 22 26 36 30 22 35 36 41 41 38 36 52 50 49 52 49 36 40 32 28 39 27 29 32 37 35 32 29 28 36 33 47 36 42 48 51 47 40 50 39 47 40 28 36 25 24 28 35 23 27 25 35 26 24 24 18 34
23 35 21 32 21 36 26 38 24 24 19 31 42 42 34 32 36 37 52 53 45 52 47 50 55 38 44 31 41 39 37 22 19 24 30 26 35 38 38 53 45 52 44 44 57 50 44 49 33 34 41 43 34 35 36 24 36 27 28 21 20 24 38 36
35 35 19 32 38 38 19 18 29 24 26 26 44 40 50 39 54 38 53 55 42 58 61 53 41 53 46 34 31 32 26 36 26 26 24 41 43 39 39 53 44 56 55 48 52 44 56 56 52 49 44 50 40 27 31 26 19 27 38 28 20 34 35 35
23 34 28 28 25 19 29 30 37 33 37 37 37 47 50 42 48 42 51 52 47 49 51 60 61 48 54 42 50 43 37 30 27 39 44 33 49 50 54 47 54 63 51 65 58 64 52 56 49 53 55 37 47 42 37 37 37 32 32 19 29 36 26 28
30 18 31 23 22 24 23 23 29 37 43 33 42 45 53 57 47 48 48 53 63 65 68 60 47 57 61 56 37 33 36 43 39 41 38 36 41 55 47 49 53 49 67 67 59 59 53 50 58 50 50 50 47 36 33 38 22 34 23 19 21 27 23 27
32 32 29 25 20 18 20 33 34 39 31 47 53 37 49 54 53 55 60 53 57 72 64 59 68 54 54 47 46 54 49 40 32 37 48 38 56 58 52 46 57 71 65 65 67 66 60 51 49 45 47 50 40 41 27 35 39 22 24 27 22 38 33 27
35 18 37 27 34 38 29 31 40 28 41 36 49 50 58 49 61 58 62 76 77 65 72 58 56 69 66 56 51 39 46 47 34 39 49 43 53 49 54 66 54 74 69 66 76 56 67 62 56 65 48 50 46 49 41 27 21 25 25 22 23 22 26 24
29 20 27 35 20 28 21 33 38 43 37 48 41 59 61 66 69 56 66 73 72 80 68 74 65 61 59 54 56 48 48 34 50 42 44 41 47 52 65 60 72 66 63 69 76 65 70 61 66 63 62 43 49 54 35 26 36 33 30 21 34 19 36 33
29 38 30 22 30 28 28 21 28 43 44 49 49 56 57 55 57 61 77 76 79 80 76 78 57 65 52 50 61 41 47 39 39 43 40 39 49 47 70 58 68 70 71 79 64 71 63 65 65 57 61 62 40 53 41 38 37 24 21 38 30 24 37 20
25 32 35 38 38 20 21 31 43 34 45 55 55 50 55 61 61 67 65 83 69 69 78 81 76 61 69 56 51 56 39 49 47 38 50 44 57 49 60 58 59 76 78 68 88 66 64 64 74 61 58 45 43 50 37 46 37 31 37 30 32 22 25 33
18 20 26 23 22 30 35 20 25 39 51 54 47 50 53 56 71 68 81 75 89 84 82 76 63 66 71 53 55 47 37 43 58 44 42 59 55 58 54 73 67 73 80 88 73 75 79 74 64 68 61 46 40 38 47 33 33 20 37 38 28 24 19 27
27 31 26 38 34 34 18 29 29 33 51 39 39 56 60 66 56 68 72 73 78 80 66 80 66 59 53 54 52 39 40 38 55 48 49 40 44 61 68 64 63 75 68 88 68 86 76 72 69 60 64 46 54 55 31 32 29 26 28 19 21 31 18 19
34 37 31 37 21 31 21 23 32 31 37 44 55 45 66 61 72 68 66 71 69 81 73 68 65 71 57 55 61 44 41 38 53 37 40 58 44 65 50 64 74 63 76 74 74 81 66 66 62 58 46 59 51 54 42 31 30 22 36 29 24 37 35 25
28 37 27 18 35 38 18 29 37 35 48 52 38 51 63 60 64 58 57 72 64 70 59 74 73 51 65 55 42 53 53 44 36 54 47 52 61 57 54 60 64 71 70 61 78 64 75 56 68 51 58 46 56 54 50 27 40 38 37 30 25 19 32 23
28 30 23 38 37 18 20 21 35 40 49 47 49 44 58 49 57 64 67 66 65 63 57 67 64 63 46 52 48 41 44 43 50 36 36 48 42 59 61 59 67 69 74 72 60 62 59 66 52 48 51 55 44 34 34 33 31 31 20 27 28 36 38 28
37 29 30 18 29 28 23 32 40 24 36 49 35 48 46 60 65 49 54 58 70 58 63 54 49 51 43 51 47 45 40 45 37 34 38 37 55 46 56 63 60 56 58 58 67 68 58 54 65 63 58 44 41 50 45 31 31 24 18 34 30 35 35 23
38 24 31 21 27 32 25 26 27 31 32 48 51 41 56 55 43 56 65 62 50 51 55 47 51 56 57 45 48 45 42 41 41 34 30 39 46 40 46 43 45 66 52 64 56 59 61 61 51 52 43 54 40 40 42 27 26 20 23 29 35 32 28 24
36 22 34 30 35 21 32 23 26 35 46 48 53 39 58 52 51 49 52 67 68 58 53 51 61 45 59 55 37 36 32 30 33 29 46 43 38 59 58 47 47 51 63 54 70 57 67 65 62 44 44 44 54 47 34 42 32 37 24 44 34 44 32 24
31 44 35 27 36 35 44 34 27 42 38 44 42 58 55 45 45 48 50 55 51 56 56 62 57 61 47 45 47 47 45 47 42 44 38 57 50 54 54 62 49 57 59 61 60 54 64 49 53 66 52 50 50 36 46 30 34 30 41 47 36 43 34 32
39 34 44 44 42 29 37 37 41 46 50 37 51 39 49 50 52 67 63 69 69 64 67 66 59 48 50 62 52 41 40 40 40 40 36 48 44 48 46 61 58 72 61 57 60 71 54 71 56 68 56 62 57 56 50 37 52 44 40 49 47 44 39 49
39 38 35 29 36 29 32 37 25 45 43 30 46 33 45 36 40 59 41 43 50 56 42 58 50 54 50 39 42 31 30 34 28 32 30 31 52 39 38 57 51 50 50 45 53 48 63 51 59 39 41 44 39 45 36 47 40 48 30 40 36 41 39 40
34 38 37 24 34 31 27 23 24 21 24 41 38 27 30 40 46 31 52 41 37 41 39 52 48 49 43 37 43 29 40 37 40 39 39 30 35 44 42 49 39 49 42 54 35 51 49 51 34 41 29 41 23 42 30 27 29 38 28 37 31 38 37 32
23 36 20 30 34 37 32 22 36 38 20 34 25 28 24 21 31 35 43 45 38 37 43 42 33 30 27 33 34 20 31 33 37 26 21 31 19 35 38 24 36 44 32 39 40 45 30 26 23 32 32 21 24 21 19 19 36 37 32 30 21 20 28 33
35 32 18 38 36 22 31 24 33 19 26 28 24 28 38 38 34 25 39 23 26 24 26 31 23 28 33 29 31 26 19 19 19 38 21 33 32 21 21 25 26 35 36 31 24 39 38 31 33 19 19 26 27 36 36 34 27 36 38 33 19 24 34 26
38 26 25 20 28 33 30 28 19 25 26 26 29 34 36 22 26 30 37 36 33 20 27 32 27 26 22 36 18 24 36 38 33 18 18 26 32 31 24 21 34 29 31 37 25 32 21 32 18 19 22 36 22 24 25 32 34 24 22 37 37 18 27 35
25 27 29 28 21 18 33 32 36 35 37 23 25 36 27 37 36 27 38 29 31 21 31 19 26 33 31 24 26 24 24 34 29 35 29 36 32 24 23 30 38 18 25 19 34 21 25 35 22 20 36 19 23 36 33 18 25 37 20 32 30 29 23 26
36 37 36 29 32 30 29 30 28 37 21 34 38 34 34 27 37 38 21 29 24 20 24 19 20 28 24 28 35 36 32 30 30 38 26 28 27 20 30 24 32 31 35 29 34 25 19 31 36 38 37 30 24 28 20 38 37 32 33 22 24 24 18 21
37 23 36 21 24 34 31 19 34 25 31 18 37 23 25 22 21 18 20 22 34 20 21 28 23 34 24 19 35 24 32 24 24 24 33 25 19 25 35 28 26 23 18 29 24 22 26 38 37 29 19 28 27 34 28 36 27 30 18 32 25 32 35 24
35 25 24 31 21 22 37 32 21 34 28 26 38 36 36 38 24 33 36 22 21 34 30 36 23 37 27 24 28 35 29 30 18 26 35 26 18 22 24 26 25 24 37 22 32 19 26 27 29 29 30 28 33 27 35 29 33 38 37 33 18 33 24 26
21 31 38 19 35 34 38 28 27 31 24 30 20 37 27 25 34 24 29 36 28 22 28 36 24 29 27 28 37 19 19 38 38 26 38 25 21 38 33 34 18 30 23 22 21 27 35 25 35 23 28 19 38 23 24 37 37 37 38 28 31 29 35 21
20 32 32 21 35 28 27 22 27 24 37 27 31 18 34 25 18 28 20 29 18 34 38 37 24 28 29 22 33 36 32 32 26 35 26 25 35 28 37 36 20 33 22 18 31 19 25 36 36 35 29 38 26 28 28 25 18 19 22 29 29 24 21 20
29 38 28 27 30 37 29 31 28 30 26 28 20 38 33 21 31 20 32 23 28 18 29 19 38 25 34 29 19 22 34 25 26 37 38 20 33 25 29 21 32 31 18 36 18 18 26 28 20 38 28 30 33 21 31 19 20 21 25 37 33 20 23 38
34 31 23 32 34 18 35 24 35 34 18 26 25 37 21 20 25 26 38 38 25 37 38 28 34 34 25 30 27 29 36 31 27 26 23 30 32 18 28 26 37 35 20 33 20 20 37 24 24 27 24 26 32 35 34 24 26 20 25 34 25 30 23 18
29 25 37 25 21 20 33 24 35 38 30 18 27 29 23 29 32 38 26 37 24 30 34 24 22 29 33 33 22 28 20 21 26 29 24 25 26 33 36 37 32 32 26 20 22 27 36 24 33 37 29 35 31 29 22 28 29 18 37 35 23 24 25 19
37 22 22 35 21 33 25 36 27 30 21 31 21 31 37 34 24 29 24 37 27 33 18 27 30 33 32 37 33 29 26 26 23 36 29 29 34 20 22 21 32 31 19 35 37 24 18 25 23 33 23 18 37 31 26 21 30 21 34 33 24 27 27 22
35 29 23 29 33 19 29 37 34 35 37 34 33 21 37 22 38 26 37 26 30 35 23 33 27 24 25 33 36 32 19 32 34 35 26 19 22 23 25 20 23 30 34 31 25 20 30 36 24 19 21 33 19 29 29 18 26 33 22 22 31 29 30 30
31 18 30 27 20 20 27 22 19 24 37 26 22 32 24 19 36 29 38 19 32 23 23 21 31 36 27 30 32 31 26 23 37 21 18 34 21 19 30 36 29 33 38 23 31 34 22 20 28 36 32 23 28 26 35 36 23 31 18 33 27 22 21 26
33 32 31 21 26 26 29 24 18 24 37 23 34 26 33 38 35 37 22 27 21 26 37 36 21 35 38 19 25 37 30 21 21 21 21 33 27 38 28 19 21 22 34 23 33 21 19 28 19 18 22 23 30 31 31 28 28 29 37 23 32 23 29 22
36 36 29 30 19 33 21 33 25 38 23 33 35 24 18 24 33 32 35 31 33 27 21 32 28 26 27 26 33 36 33 34 36 35 35 37 36 23 27 34 36 32 31 19 34 28 21 23 34 36 21 27 31 24 19 19 25 27 36 31 29 26 22 21
24 38 21 35 30 25 30 29 25 26 29 26 33 25 19 33 25 19 35 29 29 23 34 23 27 29 23 34 19 21 37 19 33 23 34 30 20 26 19 38 28 30 36 19 25 23 24 37 21 22 36 23 37 32 28 20 19 20 38 28 37 33 20 23
33 29 18 25 36 31 24 35 19 23 18 21 28 23 22 18 22 29 20 18 20 19 32 23 18 31 36 21 33 18 21 35 18 22 37 35 29 21 21 28 37 21 36 32 25 37 22 18 20 37 23 35 35 26 36 20 18 31 20 35 26 21 27 20
24 29 33 29 35 30 21 24 31 20 21 20 22 32 34 22 38 34 23 29 32 22 25 18 37 30 30 24 18 23 31 23 34 22 31 28 23 22 38 21 35 34 33 19 36 34 23 24 29 20 21 36 29 31 37 34 38 18 38 38 36 19 22 35
