P2
64 64
255
19 25 33 18 26 20 18 31 33 35 25 34 22 20 30 37 30 31 26 27 30 26 26 27 34 27 27 21 20 38 28 31 35 28 23 37 35 18 19 26 37 18 31 35 28 25 27 31 25 29 31 28 18 22 27 18 27 36 18 38 37 21 28 37
29 32 37 19 18 30 35 34 34 18 33 27 37 25 19 27 18 23 26 20 37 35 35 24 31 26 31 21 18 28 33 21 19 27 22 27 23 27 37 30 29 22 21 18 37 36 30 24 24 26 24 19 19 27 36 20 29 26 26 27 36 38 38 19
24 31 33 27 29 24 22 30 37 22 23 35 35 32 34 38 36 28 31 29 26 30 24 19 35 32 27 30 36 38 21 29 30 21 33 28 23 22 30 30 29 37 32 35 27 30 27 29 37 28 36 38 29 32 29 36 20 25 28 22 36 20 36 18
24 31 29 30 18 36 34 37 34 18 22 30 20 21 29 23 38 31 18 29 24 34 38 31 34 34 34 34 32 23 38 25 36 34 22 20 35 23 25 33 21 21 36 28 32 28 21 26 22 36 27 33 27 31 26 23 18 34 27 19 24 37 38 32
19 38 34 24 20 24 26 22 35 37 19 18 25 38 26 28 38 20 28 29 37 37 20 34 35 38 34 33 33 28 32 38 30 35 28 22 36 31 34 25 27 36 21 36 32 27 32 27 23 24 34 28 23 20 18 36 26 35 31 28 24 38 32 25
31 18 30 22 38 34 18 21 28 34 23 20 22 24 18 32 21 30 35 34 34 21 21 35 28 27 31 27 33 21 20 34 36 25 26 23 25 30 25 33 22 30 32 34 26 37 25 28 38 27 33 36 27 29 19 35 38 33 37 27 28 31 34 22
21 29 35 32 27 31 22 28 21 25 36 37 21 33 20 36 19 30 36 22 32 24 19 35 26 23 35 35 19 28 25 37 34 33 29 21 19 29 25 18 22 33 38 24 31 20 37 32 20 26 25 18 34 32 37 32 19 18 18 24 19 26 22 26
34 28 27 23 20 18 30 25 31 34 29 26 26 21 19 25 29 36 24 28 30 22 18 23 18 25 18 27 20 20 31 28 24 18 32 23 20 30 25 28 30 34 28 27 30 37 20 24 38 27 38 32 20 37 31 28 34 19 32 26 37 19 24 25
37 34 30 37 23 28 22 36 36 22 34 26 19 29 25 38 19 24 26 29 29 24 24 19 23 20 33 35 38 32 31 35 31 23 24 19 37 22 32 19 19 27 18 28 22 38 20 38 30 19 38 24 24 24 27 38 29 26 23 23 20 20 22 20
36 20 32 29 33 26 18 24 34 29 26 35 29 22 35 35 21 38 37 32 32 23 28 35 33 37 35 22 26 24 24 26 22 22 31 33 38 21 19 27 36 23 18 24 35 30 26 35 35 18 27 20 24 38 30 30 28 24 33 36 29 33 30 35
31 29 25 34 37 25 23 32 31 23 35 26 37 38 32 24 28 37 31 25 37 34 37 37 18 34 21 20 23 19 29 32 28 35 36 25 30 20 30 28 25 21 26 24 30 30 35 32 30 24 24 20 38 33 31 23 23 23 31 36 27 31 23 19
28 20 26 19 27 31 38 26 38 37 36 28 20 18 31 31 38 38 31 28 19 26 18 23 37 22 23 19 23 36 20 23 24 28 37 18 32 38 34 27 34 36 37 37 34 29 31 38 30 18 35 27 33 34 35 31 38 19 24 27 23 35 35 20
30 30 37 24 31 21 29 19 20 38 38 31 26 19 32 20 21 18 33 38 21 37 38 37 19 21 26 21 29 37 30 23 29 33 36 29 37 26 32 25 29 36 34 24 34 26 21 32 37 24 18 23 22 28 18 37 20 35 24 35 22 35 30 27
23 25 22 28 29 28 25 24 29 38 35 26 25 32 28 27 22 25 34 20 32 22 34 38 35 29 33 21 35 34 23 37 19 37 25 20 24 24 30 18 27 19 22 33 35 20 18 25 29 22 38 27 35 20 27 32 31 22 18 22 25 34 19 32
21 36 22 22 35 37 34 28 23 26 28 29 32 31 29 19 25 22 31 26 24 25 25 34 23 28 18 31 24 29 31 18 23 34 33 35 24 21 36 25 25 37 30 18 38 26 30 22 27 32 27 18 19 38 31 30 26 38 26 29 25 21 29 27
20 22 36 21 20 26 29 19 22 29 20 35 31 33 20 36 29 37 32 29 21 38 29 18 24 32 27 36 36 20 38 19 32 19 33 18 38 35 38 18 22 26 27 18 37 27 28 29 18 18 26 23 29 38 28 33 25 35 21 28 26 35 30 26
33 19 26 38 27 27 25 21 19 35 28 20 18 20 26 22 18 28 35 29 28 21 21 36 37 19 22 38 32 38 30 31 32 32 27 27 30 29 26 25 30 36 31 22 36 36 26 25 24 29 23 37 22 29 25 29 31 28 32 32 35 38 25 26
24 27 38 30 28 37 32 34 34 28 36 35 19 21 27 24 31 37 20 32 35 33 22 25 30 21 38 33 22 34 30 28 18 28 23 32 38 25 24 19 37 36 32 33 36 24 23 35 36 25 22 38 18 21 34 38 26 31 31 21 37 23 34 24
32 34 34 38 30 18 34 36 38 25 21 24 23 29 27 33 31 22 34 30 28 25 32 26 27 36 30 37 24 20 38 33 38 20 25 22 29 23 28 27 31 18 27 35 25 25 19 22 26 26 21 29 20 32 37 38 26 31 34 30 19 37 25 31
34 38 32 27 36 35 26 28 34 19 37 19 38 30 29 35 38 39 41 33 38 31 36 27 37 38 21 19 19 24 34 27 26 18 38 23 20 34 19 39 37 29 41 37 30 34 34 33 31 30 37 34 23 26 38 30 25 27 33 20 31 24 23 27
23 36 34 33 31 36 24 21 29 21 28 23 27 22 24 33 32 25 27 29 44 40 36 38 29 25 39 28 30 38 27 34 27 20 36 21 31 38 33 28 41 33 38 31 37 32 39 39 24 21 23 20 35 29 22 20 31 22 19 32 25 29 22 23
37 27 36 22 35 25 30 36 21 28 34 29 20 37 27 27 33 28 41 42 45 42 47 39 42 44 32 43 27 37 22 24 19 32 37 20 37 25 43 30 40 38 32 30 47 40 34 32 45 44 36 34 26 22 22 28 25 29 36 38 33 30 37 19
31 20 37 28 30 37 22 27 35 20 29 36 38 27 41 33 35 47 41 37 40 52 52 36 40 30 34 43 36 29 39 37 20 25 39 36 41 30 44 31 35 35 48 46 51 33 39 45 36 40 38 42 26 19 20 33 28 25 26 26 22 32 35 29
23 18 20 29 25 27 26 32 18 37 21 39 31 34 31 46 36 42 40 49 54 48 46 37 43 52 33 36 40 32 39 34 24 27 32 44 42 45 48 41 50 36 38 46 42 39 46 35 41 37 33 47 42 35 24 26 23 28 26 33 24 32 21 21
22 32 20 30 21 22 35 36 25 21 30 24 33 48 48 51 52 53 57 54 60 44 42 58 40 57 54 36 38 39 35 32 37 21 24 38 50 35 40 45 53 52 49 57 42 60 53 52 50 46 42 45 47 29 34 21 22 36 38 36 18 21 26 31
26 36 22 28 32 38 33 31 18 31 43 44 36 45 42 39 54 45 59 49 45 56 64 63 58 42 38 51 43 41 34 24 32 32 37 33 36 53 48 49 58 51 62 54 65 45 55 57 54 45 37 50 44 28 30 20 30 23 36 36 20 19 34 28
20 31 37 21 36 21 33 32 33 34 40 42 42 43 52 46 61 55 58 66 63 60 53 54 57 54 57 49 54 51 40 37 27 31 46 47 44 58 55 58 51 64 55 50 65 63 56 65 58 58 55 44 52 38 30 30 37 37 21 26 24 29 19 27
37 35 22 25 22 27 24 19 36 35 42 51 43 52 55 63 54 60 62 66 68 58 69 54 49 52 51 50 41 52 46 38 46 43 35 37 53 45 52 58 64 69 69 58 67 53 66 60 49 45 61 37 34 47 28 35 21 20 34 21 22 30 22 18
30 22 28 26 36 22 23 18 38 32 31 44 41 53 53 50 55 66 65 67 70 76 71 70 65 62 60 62 51 39 38 44 47 34 35 37 54 53 49 57 61 74 65 72 76 64 59 60 63 51 50 59 39 51 32 35 27 33 38 26 23 18 27 20
35 26 30 24 29 29 19 20 30 27 36 51 43 50 62 55 63 69 75 73 67 68 63 77 54 51 63 47 61 45 44 42 44 52 35 37 56 44 62 71 65 64 62 69 77 62 68 59 57 49 56 60 44 51 48 43 23 28 19 18 29 38 34 32
38 22 23 27 37 18 26 36 35 27 33 40 43 56 66 57 69 76 80 75 69 74 71 69 70 71 58 61 43 46 40 38 52 52 50 39 53 64 52 71 63 63 66 74 64 70 80 57 65 61 64 57 56 47 49 44 33 21 38 23 38 23 20 31
23 26 19 36 24 21 29 38 31 34 36 52 49 59 47 70 72 74 82 86 74 79 68 79 65 63 60 64 48 49 48 41 36 48 57 55 49 48 67 54 69 63 74 79 82 75 62 66 71 56 53 50 53 40 48 41 30 30 36 24 25 30 34 34
38 22 22 19 32 38 27 40 41 48 38 50 45 62 48 70 73 60 80 73 88 74 77 81 71 72 68 55 61 52 54 39 48 37 38 50 51 54 63 64 74 79 81 74 86 74 79 70 74 57 53 45 39 48 42 39 38 28 24 36 21 34 24 32
20 19 37 33 23 25 20 22 38 46 51 53 48 63 52 70 59 65 67 74 76 86 79 80 66 54 68 47 50 47 53 43 54 50 37 50 61 65 65 70 64 79 81 80 75 69 71 67 72 60 60 55 56 55 38 38 25 32 24 31 29 18 34 37
21 36 38 31 26 25 38 35 34 27 51 38 42 54 55 60 69 66 78 81 66 65 78 65 59 63 55 57 54 49 38 53 36 50 39 42 44 49 65 63 57 71 66 75 66 71 80 62 62 67 46 43 55 44 33 34 40 24 35 25 35 18 18 37
30 20 21 32 28 35 32 34 31 35 47 53 52 58 53 56 57 65 74 69 61 81 70 72 72 69 56 57 52 48 47 48 52 51 46 57 53 56 60 52 58 65 67 62 61 71 75 73 68 48 65 47 43 53 46 38 32 39 18 23 36 32 21 27
25 23 37 28 29 38 18 18 31 43 33 51 53 47 50 60 62 69 69 62 62 62 66 58 55 66 51 43 53 44 44 37 52 34 38 38 57 52 54 50 67 55 62 68 72 68 71 63 51 56 50 49 41 38 41 38 22 22 31 35 36 37 27 36
30 20 28 20 30 28 25 28 21 39 45 35 53 51 45 59 54 50 68 57 54 71 60 58 52 61 56 53 37 48 40 46 39 36 41 34 55 52 62 59 61 68 70 73 54 55 57 66 48 45 61 40 37 36 28 42 30 33 19 30 19 22 27 18
28 36 29 30 24 28 25 37 18 23 28 34 38 43 49 43 52 52 48 49 68 67 58 53 63 53 53 58 55 42 29 32 28 38 34 50 38 57 52 52 54 52 49 50 49 66 49 55 55 41 52 39 36 33 39 30 35 29 31 36 31 18 34 26
30 37 31 39 30 41 33 25 39 29 45 45 44 49 43 43 64 64 49 59 52 64 59 56 56 59 51 41 47 37 37 43 31 38 34 48 54 48 54 52 63 51 50 60 54 53 52 65 63 64 58 40 37 35 45 39 27 24 38 37 27 33 42 27
41 35 39 31 25 36 25 38 35 45 48 38 48 54 60 45 61 65 59 54 53 59 56 55 60 54 48 61 45 53 39 39 44 51 52 56 50 50 64 67 49 61 56 52 58 52 56 56 56 66 44 54 41 50 52 44 32 46 31 44 50 47 37 34
42 35 30 48 38 42 44 40 44 47 50 46 49 38 53 54 53 47 49 59 60 70 67 60 50 57 49 57 42 45 43 46 49 39 53 42 60 51 64 55 52 53 72 57 61 58 71 70 60 60 50 58 53 40 42 39 47 45 39 55 39 51 40 48
38 34 25 28 32 42 44 31 28 29 39 31 40 48 49 46 56 44 43 48 44 57 50 57 54 59 44 40 53 50 29 39 37 31 32 34 48 38 57 60 41 44 46 58 44 53 51 59 51 49 49 48 45 46 35 46 50 45 41 30 45 45 50 35
32 41 41 25 30 35 38 37 26 36 23 35 41 24 44 39 35 44 36 49 33 33 42 48 33 35 33 30 44 40 31 26 31 32 24 26 26 29 34 50 43 45 43 34 38 44 48 37 36 35 45 43 38 24 35 26 44 35 28 26 26 25 29 42
38 37 31 29 29 28 19 27 33 36 37 21 31 20 19 23 24 39 31 44 35 34 30 33 37 38 25 36 33 22 22 27 37 21 24 37 36 32 22 23 31 41 35 36 40 35 44 42 34 29 33 23 19 32 27 32 24 38 37 36 34 27 22 37
19 33 31 37 30 32 24 25 21 32 29 24 20 32 23 27 20 25 34 33 26 27 29 40 35 34 26 22 30 31 25 34 28 37 25 28 24 38 31 20 32 27 40 30 31 37 28 31 31 20 37 26 18 29 29 35 28 31 30 30 35 27 25 29
38 36 31 32 38 28 34 19 26 32 30 32 30 23 18 37 21 21 29 19 32 31 32 22 23 18 20 32 35 37 38 20 36 23 21 27 20 22 35 27 31 31 38 35 35 20 28 23 36 29 25 36 28 24 29 36 22 28 18 27 18 27 20 24
36 25 37 37 20 29 24 20 32 37 27 19 35 33 23 25 26 29 24 33 30 33 26 33 22 32 35 25 30 25 32 25 36 18 37 22 31 32 29 25 38 26 31 26 37 27 31 20 21 29 38 22 27 31 31 29 26 38 24 28 36 29 29 33
22 38 29 20 21 30 27 35 33 34 31 26 29 32 38 38 35 28 25 18 25 24 25 25 23 18 23 22 33 32 33 27 23 33 19 30 25 28 18 19 21 32 18 18 22 31 20 36 24 27 33 27 21 36 28 33 21 20 26 23 34 35 33 19
26 27 20 36 22 24 27 18 19 27 26 32 21 23 28 19 26 37 36 27 32 28 27 18 23 26 33 37 34 32 37 23 29 31 18 23 26 31 22 32 25 26 19 24 25 30 21 21 31 21 26 37 28 30 23 18 32 25 33 25 27 33 20 35
18 24 31 35 32 23 18 37 18 30 20 21 30 18 22 19 37 22 24 20 23 33 30 31 28 20 27 34 18 31 18 19 25 23 24 20 19 25 21 19 25 37 34 29 22 37 23 34 19 37 21 30 35 35 20 19 37 18 29 27 22 29 37 27
31 35 37 32 22 32 20 29 37 22 27 19 38 24 35 18 25 21 26 22 37 21 32 27 35 37 35 32 30 37 36 32 30 34 19 33 36 28 37 27 30 30 21 23 29 28 19 36 23 21 18 26 22 37 20 38 36 35 19 26 18 28 30 25
19 37 28 37 27 38 28 22 29 36 27 23 19 24 38 29 36 31 32 36 20 23 34 29 31 29 20 29 24 28 20 31 34 26 28 23 19 19 28 29 33 21 33 34 25 25 25 21 26 19 31 28 26 24 34 18 29 27 23 20 20 31 32 33
18 23 29 30 29 38 30 33 32 26 29 26 37 34 30 28 28 23 28 27 30 21 32 25 24 36 26 29 26 21 26 34 20 32 32 23 37 20 20 28 20 26 24 32 22 26 20 37 37 22 22 31 35 25 19 19 20 25 22 35 32 26 31 24
18 32 37 31 28 35 22 29 27 32 31 37 33 23 23 31 36 37 22 20 19 30 29 33 29 24 36 22 25 19 21 34 34 23 28 36 38 20 18 36 36 18 36 25 31 30 37 25 18 32 25 21 29 21 37 34 23 26 26 20 19 31 26 36
26 34 19 36 30 30 22 38 35 23 24 38 30 27 31 23 20 35 30 22 35 21 30 31 19 18 26 23 36 32 34 24 21 27 24 29 22 19 26 18 36 21 23 20 38 36 23 22 26 29 29 19 26 32 19 38 29 25 21 35 29 26 33 20
23 21 24 18 38 38 19 34 33 38 23 34 23 22 26 32 18 37 34 23 31 33 18 28 18 21 22 27 24 19 18 20 30 20 23 21 21 24 25 36 37 27 18 25 28 31 23 21 26 21 34 35 25 31 31 22 32 36 29 37 21 27 29 37
35 18 36 32 36 25 37 28 30 20 31 18 36 27 30 31 36 33 37 38 19 23 23 25 26 28 21 32 31 32 22 18 33 27 34 29 21 21 31 37 31 28 21 19 27 37 20 28 36 25 19 21 37 31 27 34 32 36 32 38 29 37 28 20
38 23 36 21 25 24 21 34 24 25 36 28 31 28 23 18 37 30 35 29 19 35 23 27 31 26 26 33 25 29 33 22 20 26 30 35 31 38 20 27 21 37 19 29 19 30 18 22 36 18 22 33 33 24 31 37 34 33 24 32 22 37 19 24
23 30 28 21 34 19 33 32 37 37 30 33 25 22 23 33 31 30 26 27 31 34 21 36 28 23 19 36 19 21 31 27 34 28 19 32 26 23 26 24 24 18 38 30 34 20 23 37 18 38 31 30 22 36 26 18 18 23 32 20 22 38 35 18
20 28 31 31 21 29 25 35 33 27 30 20 33 20 22 26 23 24 34 30 19 30 22 21 35 31 24 38 19 33 24 29 38 28 23 20 38 23 21 37 21 18 31 24 33 34 19 24 26 19 19 22 28 38 38 24 22 24 19 31 38 34 32 28
37 36 37 24 18 24 31 30 21 24 31 29 33 31 31 22 27 23 21 33 28 34 26 18 22 36 27 32 23 27 28 22 23 31 37 26 20 22 22 33 24 36 25 33 23 18 33 31 31 34 27 22 18 30 27 24 20 21 32 20 33 24 24 32
27 37 23 18 21 33 19 19 33 28 35 29 21 35 32 25 26 38 37 21 30 19 30 21 23 32 27 31 20 23 35 19 38 25 22 38 37 21 25 20 25 33 19 26 18 32 37 33 19 22 28 27 33 27 32 35 22 21 20 22 38 34 35 27
33 25 26 35 34 38 19 27 26 21 19 29 27 36 29 22 22 37 22 21 38 24 38 31 27 28 34 28 33 37 28 26 35 33 36 29 35 35 31 29 32 20 22 27 37 38 21 26 32 29 23 32 36 30 32 31 21 23 25 22 27 32 19 27
