P2
64 64
255
31 31 34 24 32 32 24 32 23 33 32 30 33 35 28 36 29 35 31 34 18 20 19 27 36 35 34 34 32 24 23 19 20 36 21 31 36 37 28 35 27 33 31 21 34 21 24 26 21 19 31 21 21 36 24 27 26 26 27 23 18 28 32 36
31 38 21 20 22 23 29 36 36 25 18 33 30 26 20 27 36 31 22 35 21 33 34 37 27 26 32 21 23 19 28 35 35 18 27 32 22 29 19 37 25 36 38 23 29 38 19 23 24 32 38 31 31 31 33 35 38 38 31 18 28 27 23 34
38 18 34 23 36 21 33 27 24 31 31 34 37 30 34 30 30 30 37 24 20 28 32 37 26 20 29 35 28 27 37 28 29 18 37 20 31 33 27 23 31 27 22 25 37 38 28 18 25 21 26 20 29 18 34 28 32 38 30 22 35 27 20 37
34 22 20 37 19 27 34 20 38 28 23 32 35 24 23 26 31 37 28 18 38 26 18 25 30 24 23 30 25 36 36 34 27 24 20 28 37 33 21 23 30 30 33 38 25 36 37 18 18 19 28 21 18 18 35 31 18 21 34 28 20 20 21 28
31 26 23 20 30 37 31 27 23 25 38 36 32 25 33 32 23 33 27 38 20 34 35 22 36 18 36 30 36 27 29 27 36 25 24 25 25 23 26 24 29 37 29 18 21 30 23 19 37 20 35 35 37 27 31 38 35 18 36 24 30 35 34 37
31 19 25 30 31 28 24 32 34 36 33 25 29 18 19 38 21 19 25 26 38 25 33 32 26 31 26 27 21 21 33 26 38 28 26 21 36 25 24 18 38 22 22 30 31 18 26 21 38 27 33 36 35 34 21 34 24 33 23 27 36 30 19 36
25 24 25 26 27 33 32 31 21 29 23 18 24 22 21 31 32 20 29 31 19 27 31 31 32 24 31 18 18 38 32 37 24 36 37 37 31 28 25 25 25 33 18 26 27 37 38 35 33 28 34 22 38 27 21 21 25 25 19 25 38 38 19 21
30 19 21 30 29 36 33 24 19 30 19 32 28 23 35 25 26 28 26 22 20 31 28 34 32 25 20 27 34 33 25 24 30 38 19 20 20 27 31 27 37 34 19 23 28 20 21 19 19 36 30 28 20 23 25 33 31 20 29 31 37 28 37 34
28 18 35 33 28 28 35 25 20 36 34 28 34 29 38 19 25 35 20 23 27 38 22 21 24 25 18 29 34 22 22 31 24 32 18 36 24 22 24 21 38 27 19 20 26 27 24 30 29 19 28 30 25 30 29 28 31 33 26 26 28 27 25 18
19 29 19 21 30 19 18 33 36 18 34 19 28 33 28 25 18 18 26 21 25 19 23 20 22 34 18 30 24 34 34 22 25 30 27 23 31 20 32 30 35 34 25 27 29 30 22 21 33 23 38 24 20 24 35 21 25 21 37 27 36 30 33 24
37 19 32 38 24 38 33 28 30 24 24 26 32 30 27 35 28 36 32 20 32 28 37 29 23 26 22 29 36 33 20 32 34 31 27 38 33 28 31 28 22 31 34 25 31 37 20 18 34 24 29 30 32 25 25 38 20 24 18 21 31 33 32 29
32 31 32 33 36 29 20 22 22 19 34 34 21 18 31 25 36 32 32 31 36 32 33 21 31 22 33 22 35 30 31 30 37 37 26 34 29 22 22 29 29 27 19 22 32 33 23 35 27 37 20 34 23 20 23 35 26 19 35 21 28 29 25 38
33 22 30 28 30 27 37 28 27 18 23 19 20 35 38 32 27 38 38 36 26 36 19 35 18 22 27 22 21 24 21 27 25 37 20 38 30 36 35 32 22 30 35 31 19 32 34 36 24 32 19 20 34 18 27 23 25 19 36 25 26 23 31 23
35 34 22 28 24 25 36 18 30 28 32 37 26 31 23 32 23 18 23 33 24 23 25 31 38 27 26 31 35 30 35 28 23 30 34 26 19 18 34 24 37 36 26 34 23 32 38 32 19 34 18 35 30 29 36 25 28 18 19 33 20 28 34 20
37 32 30 35 22 26 33 23 19 34 23 28 27 33 32 34 31 26 28 20 20 24 35 21 22 38 25 25 32 20 36 38 38 29 37 23 35 24 25 26 24 27 18 30 20 36 37 35 19 38 28 25 21 25 21 31 21 28 18 29 31 23 21 22
25 37 22 20 28 18 22 34 31 35 30 29 21 21 28 21 30 33 33 20 20 20 32 23 27 33 38 19 29 31 28 36 20 24 25 21 35 24 31 36 25 20 21 31 38 29 31 22 20 33 21 35 19 21 20 23 27 35 29 36 30 18 29 30
36 25 20 26 23 32 26 37 22 31 29 28 29 24 21 34 34 21 27 21 31 35 20 36 28 29 37 29 30 34 25 32 18 25 33 30 22 22 20 34 21 35 19 18 38 34 22 34 32 23 18 35 22 29 32 21 30 38 35 38 30 30 20 19
26 19 38 29 32 28 20 28 22 24 21 28 32 30 24 26 26 37 24 22 34 24 38 19 34 27 37 30 22 36 21 30 24 28 30 35 36 29 27 29 23 19 33 38 30 19 24 23 37 28 38 19 36 30 30 35 23 38 25 33 21 25 21 37
20 32 38 33 31 38 19 20 27 29 35 38 25 19 34 35 26 26 36 28 18 21 22 28 22 27 18 29 32 26 32 18 22 37 36 36 28 19 37 31 37 22 29 24 32 20 33 30 26 28 23 26 29 27 29 26 28 26 25 29 24 20 33 35
27 26 36 35 33 23 19 29 28 33 25 22 18 23 25 27 23 35 23 32 34 27 40 29 40 32 26 29 33 21 22 18 30 18 25 32 25 19 23 26 23 30 31 24 34 36 25 21 28 20 26 19 38 35 30 21 32 27 30 35 31 33 29 24
25 36 37 34 33 22 37 20 23 36 31 23 29 31 25 36 34 25 32 35 32 32 30 31 44 35 37 32 33 29 29 26 35 32 38 36 32 36 27 32 44 40 38 34 33 42 25 25 26 22 35 19 22 35 28 27 33 18 18 20 33 32 18 23
26 37 26 31 23 36 23 19 29 23 23 28 37 25 34 27 35 42 42 41 47 30 43 44 34 41 44 42 39 23 30 25 37 35 27 24 21 31 43 28 31 42 45 35 39 46 41 27 44 37 25 22 31 22 22 27 38 37 30 20 36 32 32 18
36 33 34 27 22 23 36 32 18 19 36 19 40 37 42 43 31 41 42 46 47 40 44 47 47 50 28 37 29 27 35 19 18 33 25 24 43 44 38 37 34 42 36 34 33 42 43 36 47 36 34 26 23 20 30 18 23 24 38 27 37 23 21 19
27 27 21 27 24 23 25 30 18 27 19 28 30 39 35 38 36 43 46 57 44 48 53 36 48 39 43 35 42 31 40 38 37 29 21 36 39 49 43 46 38 46 49 38 40 56 45 46 50 36 44 32 39 38 33 28 36 22 22 23 28 30 19 24
33 21 31 21 35 37 29 29 28 25 31 44 42 40 44 48 45 56 42 61 59 60 53 57 58 41 50 49 38 32 36 34 36 27 38 47 32 42 50 45 38 51 50 61 55 56 58 42 54 39 50 40 47 34 28 23 30 21 30 28 20 21 28 25
37 20 35 35 34 30 24 20 26 26 34 36 39 41 52 53 49 62 61 61 64 60 63 56 60 49 52 37 36 38 26 28 29 37 46 46 50 47 56 60 62 62 63 65 52 49 60 53 54 46 52 45 32 27 28 35 29 30 29 20 25 18 30 36
29 28 36 36 35 29 29 22 38 23 37 40 36 53 52 50 53 48 53 57 51 69 57 52 55 50 57 53 45 49 35 28 41 36 36 41 40 53 48 52 58 65 56 58 49 50 54 53 45 41 53 51 39 36 42 22 32 29 24 20 30 22 30 37
32 18 38 23 27 36 30 33 23 40 46 34 38 49 42 57 66 56 68 54 68 73 52 70 65 50 58 41 56 34 43 39 36 42 50 44 44 45 48 51 51 63 64 63 68 68 58 60 49 49 45 48 53 50 29 34 21 35 35 26 37 38 19 20
27 24 29 19 33 37 25 23 29 26 41 38 36 59 60 58 54 69 61 72 73 71 68 68 60 58 58 60 54 50 52 47 35 34 34 49 46 45 55 62 52 74 64 74 59 67 59 70 52 46 52 57 39 51 48 39 37 25 25 31 32 28 20 28
37 28 29 36 36 37 26 20 34 31 40 50 54 56 48 50 66 67 73 72 65 66 62 62 71 54 55 53 42 42 51 34 35 35 51 49 46 56 55 54 57 70 77 70 77 61 68 61 64 49 55 54 43 41 37 26 39 37 32 35 26 35 26 19
18 30 20 22 27 26 21 27 32 47 45 55 46 57 62 67 54 60 73 81 70 71 81 78 57 60 63 63 48 43 40 43 36 55 38 55 55 56 55 64 66 76 80 72 67 78 74 58 54 61 51 59 53 45 32 27 43 24 28 27 21 20 36 20
27 37 29 38 30 30 18 34 24 28 41 43 41 57 63 70 66 63 82 83 83 72 67 78 59 71 60 61 44 44 54 49 38 41 53 50 48 65 58 70 68 72 78 68 76 86 62 77 67 52 66 55 57 51 51 31 32 26 29 32 19 22 34 29
25 22 32 31 27 38 26 27 31 42 38 39 40 58 52 64 57 64 63 87 91 72 82 63 64 72 69 60 57 48 55 44 40 51 44 51 47 60 68 75 73 72 81 90 88 87 69 74 74 55 63 58 54 46 44 47 26 26 25 27 22 22 35 35
20 18 34 21 37 20 22 25 39 38 38 41 50 54 57 58 71 72 79 70 70 82 73 78 77 68 68 62 57 48 55 39 54 40 56 49 62 53 65 64 68 75 69 85 87 69 74 77 62 69 52 54 39 44 44 40 27 24 23 21 25 35 33 24
19 18 38 20 30 21 32 23 43 42 33 46 47 62 58 55 68 61 79 76 65 76 77 69 62 60 63 62 48 53 42 43 50 42 38 41 51 66 59 60 64 69 75 64 76 70 75 57 55 61 61 51 46 45 36 35 33 37 29 34 33 22 24 26
36 18 33 28 31 36 35 37 25 35 43 39 50 51 54 65 53 59 67 71 80 72 77 60 66 67 66 44 46 41 49 48 40 53 48 57 43 54 59 52 68 64 61 66 73 63 75 72 70 51 54 46 47 51 44 35 28 25 26 18 19 35 24 30
32 35 19 20 20 28 25 33 32 35 48 47 43 43 63 53 49 66 60 66 69 59 75 67 69 64 50 55 44 38 47 48 46 46 45 49 48 44 61 49 56 74 58 58 58 75 73 66 54 65 56 39 37 49 34 44 33 22 19 38 19 32 28 31
34 37 19 26 38 37 18 20 23 31 43 33 37 55 48 63 53 49 59 62 66 60 71 63 58 52 58 59 40 36 39 36 31 30 36 44 57 42 51 64 68 51 60 60 53 68 65 68 65 49 57 50 44 46 32 39 34 23 36 29 28 19 34 24
35 21 29 27 21 37 24 23 19 30 30 43 36 40 40 49 43 50 66 53 58 49 59 49 50 57 49 39 36 48 35 41 36 28 38 40 36 52 50 63 45 54 48 60 56 67 53 48 61 48 39 43 33 29 31 35 22 35 23 27 30 19 36 36
35 27 25 26 24 23 21 25 26 27 46 37 46 51 49 48 51 52 54 62 69 51 53 54 49 62 50 50 54 39 38 41 35 37 37 46 57 53 53 59 60 56 69 60 51 57 49 49 60 44 58 38 47 46 49 46 44 30 26 38 44 43 38 44
44 44 36 45 30 43 26 26 25 37 33 39 53 40 46 55 52 63 64 62 64 55 57 55 56 62 64 51 39 37 37 39 31 47 51 57 51 44 53 53 54 52 72 59 69 62 69 49 65 58 50 47 47 50 41 37 37 49 46 43 44 49 46 50
40 33 43 47 28 48 44 35 47 47 46 49 52 47 58 58 49 64 50 53 54 61 66 51 53 59 48 58 57 53 40 50 32 43 47 57 59 53 48 64 63 71 68 60 56 68 59 70 57 61 66 49 59 55 55 43 37 53 43 54 57 37 55 39
28 24 39 44 34 37 26 43 29 31 36 38 48 45 36 52 53 52 60 54 48 58 61 54 56 55 39 40 47 50 32 43 45 45 38 49 48 47 39 59 50 45 58 48 50 64 59 48 46 45 38 44 46 34 48 35 43 32 40 50 30 46 32 46
29 32 32 38 34 33 33 41 22 34 25 40 26 29 32 39 38 45 32 51 37 51 51 48 40 31 43 28 32 27 41 37 32 37 38 34 25 42 41 34 44 49 40 45 44 49 40 34 51 32 29 40 32 31 32 38 38 26 42 24 32 26 24 34
35 31 33 31 30 37 20 27 25 23 35 25 20 28 20 40 38 35 40 33 31 31 40 42 30 29 28 23 36 29 37 27 28 24 35 21 30 39 31 39 30 27 39 35 46 29 28 28 23 23 24 28 24 35 37 34 19 22 22 37 21 38 22 20
25 32 28 21 25 18 33 32 27 31 38 23 22 25 24 27 19 35 35 39 28 29 25 28 27 32 25 20 34 23 35 20 26 38 33 19 19 19 28 28 35 31 23 42 24 27 26 29 38 23 22 34 26 23 30 29 22 18 25 34 34 29 25 34
28 24 21 32 38 25 22 22 18 28 37 26 29 37 19 34 28 26 32 25 34 25 38 19 30 19 20 18 24 37 18 25 34 19 35 24 32 33 27 28 24 25 22 37 33 34 31 37 37 36 26 24 22 34 20 22 38 35 20 30 27 26 30 35
32 30 22 33 35 28 27 37 24 25 36 22 35 26 22 20 28 35 22 21 20 23 20 20 29 34 33 25 29 28 32 34 23 31 29 31 38 31 21 20 24 24 22 19 26 25 29 36 33 25 36 31 37 26 24 37 36 25 27 23 20 28 24 23
24 20 24 33 32 35 32 29 26 25 37 29 28 31 28 20 30 31 34 26 35 29 23 24 27 26 36 32 20 18 22 35 18 18 31 32 26 27 18 28 27 24 35 32 38 23 28 33 37 31 27 32 31 32 27 34 30 27 18 21 19 29 36 25
31 31 18 22 21 24 31 32 38 38 30 28 25 31 30 36 32 29 25 25 28 20 20 19 21 27 29 34 31 32 33 20 33 20 31 30 24 35 33 25 34 21 23 27 25 34 36 32 30 19 21 22 38 26 29 37 22 23 38 38 32 38 28 32
36 33 18 38 29 38 35 30 26 36 31 32 18 32 18 19 36 31 38 27 26 23 18 18 30 32 26 37 31 38 28 24 18 34 33 24 18 37 38 18 31 29 23 38 23 20 27 38 26 18 35 32 37 27 26 37 22 37 21 30 30 24 21 35
29 38 38 22 29 22 31 28 22 18 33 38 32 20 36 21 20 20 28 36 33 35 27 38 38 34 32 32 20 33 18 33 37 30 23 22 22 34 35 29 28 27 32 34 37 24 28 24 20 22 25 27 29 22 34 28 23 19 37 37 37 22 21 27
23 37 24 27 26 31 22 23 31 29 25 31 32 20 32 35 35 31 35 26 19 32 32 31 27 27 29 31 26 29 34 19 36 22 31 19 29 28 26 26 35 21 28 27 30 30 34 31 38 23 20 22 30 36 31 26 33 31 28 24 24 34 32 21
37 36 36 36 29 24 23 33 31 29 36 33 28 37 23 18 36 27 35 23 19 35 23 36 31 32 24 21 33 18 29 34 34 21 22 20 38 32 35 34 28 30 35 20 30 22 34 24 19 33 34 38 23 21 27 20 24 28 25 37 28 37 31 24
24 31 28 37 26 29 21 18 19 24 34 19 20 38 22 25 20 29 25 36 30 24 34 29 19 18 28 24 19 38 36 28 34 22 29 22 25 33 28 36 18 19 32 32 27 29 26 34 25 30 22 37 20 28 31 29 30 35 34 31 38 24 35 37
19 27 18 18 30 26 32 29 26 26 21 32 32 27 25 33 22 19 29 35 26 26 33 36 24 20 19 28 20 36 26 32 34 18 30 18 32 33 34 25 30 26 21 37 18 32 24 35 26 33 24 24 21 33 20 25 36 27 33 38 34 27 28 29
33 24 37 32 24 29 35 38 34 20 35 28 22 23 21 18 24 35 29 21 18 34 31 37 38 30 23 38 28 35 33 18 26 22 21 26 18 20 33 19 29 28 19 36 22 38 35 31 20 25 31 29 35 32 32 24 23 38 30 35 30 28 37 19
30 23 18 27 24 37 19 22 31 28 35 25 35 37 18 34 27 24 29 20 18 38 18 37 25 28 38 19 32 36 38 30 33 38 34 26 26 24 25 20 18 27 34 25 26 21 27 27 29 37 29 22 30 35 19 33 21 31 31 38 32 38 34 36
30 27 30 21 22 24 19 21 24 33 28 33 27 19 18 27 23 28 35 23 27 19 18 19 18 29 35 31 23 38 35 29 29 23 38 27 35 24 38 22 27 27 34 29 20 18 23 21 37 33 24 20 25 26 28 38 19 22 32 30 36 37 28 27
21 30 20 20 21 31 34 30 24 36 34 27 26 25 25 19 27 32 35 28 35 18 36 35 19 31 26 23 21 23 26 37 30 26 26 32 38 33 37 36 33 19 29 34 30 29 37 21 32 20 18 20 29 26 37 32 22 24 19 24 28 28 35 36
23 36 25 26 27 18 28 18 33 35 35 21 20 18 34 38 34 19 23 18 31 22 35 24 36 25 38 26 26 20 30 32 23 35 33 21 19 32 29 30 28 22 37 21 30 30 36 19 37 24 38 20 29 25 34 31 23 20 25 30 36 38 28 31
25 30 32 35 34 29 34 28 21 32 23 38 33 28 38 37 25 36 30 20 22 23 31 35 33 31 28 18 27 33 35 21 26 36 29 35 38 31 31 23 29 21 22 29 28 23 23 38 24 29 38 37 34 19 33 24 33 23 29 34 25 18 28 35
21 24 27 18 22 27 31 23 32 19 32 36 29 26 28 27 34 38 30 35 33 31 18 27 38 24 29 36 32 35 32 38 25 36 31 33 26 25 22 36 26 29 18 22 33 29 31 37 31 35 27 18 35 38 30 18 31 25 35 18 18 31 35 38
29 36 37 32 33 33 23 31 28 21 19 29 26 21 19 36 20 34 35 30 27 18 20 36 37 31 25 33 37 22 33 33 24 21 18 18 25 18 26 34 25 21 23 21 20 25 25 18 25 35 23 31 27 18 31 33 31 38 22 18 28 38 26 26
