P2
64 64
255
19 25 15 20 14 19 17 16 20 23 17 25 20 24 17 22 16 22 15 25 20 23 25 21 25 15 17 18 21 15 23 23 18 22 14 21 22 24 24 24 17 17 25 26 23 26 15 22 21 18 19 15 17 26 23 20 17 25 14 24 15 21 20 25
26 16 15 22 17 20 22 14 24 26 17 15 22 19 18 15 19 26 21 18 26 21 22 17 19 14 21 18 25 17 20 23 20 21 14 26 14 20 19 15 16 26 17 21 17 20 18 18 18 26 15 26 26 17 21 20 15 26 18 23 24 22 17 17
20 21 24 21 17 21 19 15 16 15 19 23 19 15 23 22 15 22 21 19 22 18 20 14 23 16 18 24 21 14 20 21 22 16 23 14 26 18 24 14 26 19 23 18 20 20 15 15 22 24 21 25 14 18 16 16 20 17 15 20 22 20 20 17
16 23 22 26 26 19 18 16 24 22 16 20 22 25 22 21 22 15 17 24 19 24 14 19 22 18 16 22 21 19 25 18 25 16 20 18 18 26 15 24 26 14 14 26 22 15 15 17 22 17 16 18 17 16 21 19 20 24 21 17 20 18 14 26
19 15 22 23 23 20 18 25 21 18 15 22 24 20 21 17 25 14 18 18 17 25 19 23 18 26 23 20 26 20 22 22 17 25 18 25 18 23 23 17 25 20 26 22 23 22 14 16 15 24 21 20 21 25 21 20 18 24 19 19 17 17 18 25
25 26 21 14 23 17 22 14 17 21 26 26 25 17 15 23 17 25 14 16 14 22 24 23 18 24 18 24 26 22 26 22 18 18 24 14 21 22 22 23 18 17 21 18 26 21 20 17 17 25 15 22 25 22 20 21 26 23 15 26 22 14 17 23
18 25 19 14 24 17 24 18 19 24 17 20 20 14 21 25 23 18 18 20 17 17 23 14 18 15 22 26 25 17 23 20 22 16 14 25 21 19 22 22 22 22 22 18 26 25 15 15 15 17 21 18 25 15 19 24 24 23 25 16 26 26 18 20
19 21 14 26 18 18 16 25 17 19 21 18 16 23 25 14 17 19 22 25 25 26 21 17 19 25 17 24 23 19 23 14 18 19 25 16 16 20 22 24 17 17 26 17 26 25 25 18 20 25 16 15 17 20 15 14 18 25 24 18 21 16 15 22
16 21 26 23 21 24 25 17 25 26 16 21 22 24 25 24 15 25 23 25 26 21 25 19 17 18 15 16 16 19 26 20 20 15 24 14 20 15 25 23 18 18 16 19 15 25 18 22 18 18 20 25 17 24 21 25 19 25 21 16 26 23 18 26
23 17 19 18 16 18 22 18 23 16 19 22 19 14 14 23 18 24 16 24 17 14 22 21 18 25 14 22 24 15 21 14 15 16 21 17 15 26 19 23 16 20 15 20 24 17 16 14 14 25 22 16 26 24 16 19 16 24 23 19 22 14 26 22
26 22 19 25 17 16 18 14 15 18 20 17 20 19 16 22 15 23 25 20 14 25 23 14 16 20 23 19 19 16 16 26 25 25 20 23 23 20 14 18 26 18 15 14 22 14 20 17 14 24 18 14 16 18 22 15 20 22 19 15 15 21 22 21
23 26 24 16 15 25 17 20 26 25 15 14 17 24 16 20 24 17 26 18 25 22 14 24 23 14 21 17 15 15 16 21 16 26 25 24 16 24 16 20 16 20 26 19 16 26 19 22 20 26 19 14 15 22 19 20 15 21 14 23 25 17 18 25
22 19 23 17 22 22 23 25 17 24 20 22 21 16 26 25 24 25 18 26 14 20 14 17 17 18 14 18 25 18 17 19 15 17 18 16 16 24 16 16 26 24 21 20 18 14 22 15 26 25 16 26 24 19 18 20 20 26 19 23 19 16 26 21
17 21 16 17 20 19 24 23 17 16 26 20 22 22 16 26 21 15 15 20 21 26 15 22 19 17 18 23 22 22 23 18 26 18 14 18 24 16 14 15 22 15 22 18 25 14 18 26 15 22 24 15 14 23 17 17 24 22 15 15 24 18 22 24
25 19 24 26 18 18 24 17 24 25 24 26 24 15 16 18 26 20 16 18 14 25 25 14 20 22 20 24 23 21 17 19 23 16 15 15 16 15 20 25 23 25 18 16 18 16 17 20 16 23 15 16 23 15 19 19 25 15 14 24 21 19 24 19
15 18 20 19 21 16 22 15 26 21 14 24 22 22 25 16 23 23 23 26 18 24 20 23 22 18 23 16 25 20 14 23 26 15 24 21 15 15 24 23 18 17 16 20 22 20 24 15 24 21 22 26 17 14 15 20 20 16 19 26 20 19 22 19
22 15 21 18 25 15 24 17 23 20 21 24 23 20 22 24 21 20 25 18 26 18 15 15 24 15 16 17 21 14 25 24 19 24 21 23 18 23 26 25 26 24 26 26 25 21 17 20 16 20 22 25 18 19 17 19 18 25 21 24 26 16 26 20
15 15 19 25 21 21 22 21 15 25 22 14 24 17 20 26 21 21 26 24 15 23 20 23 16 16 25 25 14 22 20 21 21 20 15 19 21 23 24 20 24 14 18 22 22 23 20 18 22 21 15 19 22 22 23 14 16 14 19 24 25 19 21 23
20 19 20 17 17 21 19 23 17 24 17 19 16 20 25 18 21 21 18 16 15 19 21 21 21 21 23 26 22 19 17 25 24 22 19 18 22 21 20 20 21 17 16 18 24 26 14 20 19 22 15 26 14 16 25 26 16 23 20 17 14 18 21 15
17 19 23 22 17 17 20 22 22 21 26 20 20 15 26 22 25 20 17 27 26 19 29 28 27 21 19 17 21 19 15 25 14 25 15 15 17 20 19 25 25 20 18 19 18 25 20 19 18 17 26 22 22 26 19 20 16 17 24 20 20 18 15 25
24 17 19 22 20 17 25 14 17 19 26 21 15 14 25 27 28 26 31 28 32 34 32 25 23 24 25 25 17 15 19 22 21 24 18 17 20 21 23 22 22 22 28 23 29 26 21 30 18 22 21 18 21 26 23 19 21 18 15 16 16 19 19 23
19 16 15 19 24 15 25 16 15 23 22 20 14 25 31 24 30 32 31 25 32 30 30 27 34 28 32 29 19 21 28 25 20 20 28 20 24 19 23 33 33 25 34 28 32 25 34 33 25 28 21 28 21 20 19 24 14 19 16 17 14 15 17 22
18 16 19 20 15 21 21 24 19 23 21 21 23 29 34 24 34 29 37 39 30 41 34 39 39 29 33 35 25 28 27 23 29 27 30 33 27 31 29 35 37 33 40 29 30 33 29 29 30 35 34 29 29 27 24 21 17 14 25 26 24 23 23 17
20 23 16 22 21 21 23 25 15 21 18 27 20 35 31 31 37 40 42 42 42 40 35 34 44 34 42 34 46 35 38 30 39 38 39 44 34 44 44 34 44 38 35 42 42 38 43 36 29 29 26 31 23 22 18 18 21 24 25 23 23 26 21 22
22 24 19 15 19 25 22 21 24 18 23 22 24 36 31 38 38 41 39 42 43 43 45 46 40 54 44 52 43 52 40 46 39 42 49 52 53 47 52 43 41 44 38 37 44 40 38 46 41 38 37 33 35 27 24 14 14 21 14 15 15 22 20 23
20 14 21 25 18 18 22 23 14 21 29 31 33 34 37 38 37 46 48 48 51 53 45 47 54 58 61 59 53 57 52 55 50 57 49 54 56 57 57 54 56 50 49 41 53 45 40 47 42 35 31 36 27 34 28 17 26 22 21 26 26 20 15 21
21 19 23 20 17 23 18 14 25 27 27 29 39 33 39 46 47 48 52 50 54 57 56 65 68 66 72 69 68 65 64 62 59 54 67 61 70 60 60 67 60 65 59 50 46 56 47 49 49 48 38 35 29 27 32 19 23 21 25 24 24 16 18 19
22 18 26 20 17 17 20 21 19 26 24 30 33 37 43 51 47 55 47 51 53 57 66 69 71 74 75 74 78 76 72 71 70 75 75 69 77 73 67 78 72 71 68 67 60 48 51 46 43 51 39 36 33 35 26 28 26 22 21 24 25 26 18 22
22 21 20 17 24 26 18 14 25 32 34 33 39 47 43 54 49 55 51 61 68 75 69 73 78 82 79 80 79 75 80 80 74 86 78 75 84 77 75 86 83 75 71 72 62 63 52 58 47 49 45 40 43 30 37 30 28 18 22 17 16 14 20 18
20 18 16 18 19 20 18 25 22 22 29 40 44 46 43 47 53 55 60 62 71 71 78 80 90 92 93 83 91 85 89 83 86 94 89 90 88 92 93 91 80 87 82 82 74 62 56 63 53 55 46 48 43 30 33 26 18 24 26 17 19 17 14 22
19 16 18 25 18 22 23 20 28 35 33 33 46 40 47 54 56 60 64 70 81 85 84 88 97 99 101 97 98 98 97 101 95 98 100 95 98 91 101 98 93 85 94 77 84 67 68 58 58 46 47 46 42 33 39 31 28 23 25 19 24 14 19 19
14 23 20 20 18 14 19 26 31 31 34 38 38 47 46 57 61 63 68 78 83 90 88 96 96 95 98 99 102 98 107 102 105 100 95 101 101 103 98 95 98 90 92 92 88 71 69 62 59 52 44 49 40 32 31 25 31 24 26 21 25 15 20 18
21 16 25 16 17 21 24 27 29 31 32 43 47 47 51 51 59 66 69 76 87 98 95 101 98 101 97 104 100 105 111 110 109 112 101 100 102 106 109 104 100 94 102 95 92 74 76 63 62 50 45 49 40 37 39 26 29 19 24 17 22 19 24 25
15 20 23 25 26 15 23 17 24 28 34 43 46 43 52 47 60 54 68 78 92 97 98 104 99 99 106 110 114 113 118 115 115 118 114 104 106 112 102 101 103 94 93 97 89 83 76 64 52 54 47 46 37 32 33 33 22 23 22 23 20 19 17 26
22 26 26 17 21 16 18 26 28 30 33 41 43 44 48 46 56 58 63 79 86 98 93 99 106 108 113 110 107 108 114 126 116 124 114 116 111 114 104 104 107 97 92 92 85 80 66 63 51 54 54 41 38 38 31 33 19 18 24 22 24 14 23 25
23 25 24 25 23 20 24 21 19 26 36 39 43 45 48 49 57 57 66 69 85 95 92 94 105 103 106 106 113 120 121 118 127 124 114 110 115 113 104 100 105 101 88 88 88 70 71 55 58 48 43 46 35 39 32 25 24 17 14 21 23 20 21 21
23 18 21 24 15 18 15 21 29 22 28 40 38 46 49 52 46 54 66 73 76 80 93 91 95 102 101 111 107 118 122 123 130 124 117 110 110 109 103 106 100 97 87 88 74 69 68 57 48 54 44 44 35 36 32 26 19 26 25 24 18 18 21 17
21 14 17 17 21 19 16 18 22 31 33 33 39 37 47 45 47 57 55 74 77 85 91 96 101 94 99 102 103 117 114 120 119 122 108 110 102 103 105 105 102 94 88 76 70 74 58 49 51 47 45 39 34 30 25 22 23 23 24 21 14 21 17 17
24 26 20 20 22 26 19 20 22 26 29 35 34 41 45 48 46 42 62 67 72 70 79 91 90 98 95 97 105 109 110 110 113 106 104 103 104 103 93 98 94 89 78 77 71 65 60 52 43 49 39 41 33 31 24 19 15 15 22 14 18 25 25 25
20 15 14 20 23 18 21 15 21 24 29 34 36 37 32 37 39 46 51 60 62 71 75 75 83 88 87 89 92 105 94 105 101 98 101 100 103 93 95 95 81 78 72 67 64 56 50 43 38 38 33 37 28 31 21 25 25 24 26 25 16 24 21 19
23 24 19 21 16 15 22 16 14 20 24 20 25 33 32 41 44 41 46 58 57 59 67 76 81 79 85 85 93 97 90 85 95 97 94 97 89 90 81 83 75 81 68 71 59 55 50 34 34 37 29 34 23 20 27 16 19 26 17 19 19 16 24 19
24 14 26 21 20 20 17 15 15 16 22 26 25 34 28 29 36 37 42 43 59 53 61 69 79 82 74 81 83 83 80 83 80 76 79 83 86 82 84 72 77 73 63 55 56 52 46 42 33 28 33 35 28 21 26 19 17 15 17 20 18 25 21 16
24 14 15 22 17 25 20 15 24 15 24 21 29 29 25 25 30 35 32 44 52 56 61 59 63 74 75 74 76 76 74 80 75 75 77 76 78 75 71 72 59 61 62 52 40 41 28 39 28 30 29 26 17 19 21 15 25 14 19 19 23 26 23 18
15 25 24 24 15 18 16 26 22 18 22 15 14 21 25 25 22 33 33 29 33 42 47 55 59 67 65 60 63 68 71 73 64 76 67 71 65 62 67 58 54 47 52 39 35 30 27 35 28 24 24 21 23 17 19 21 16 22 20 18 22 21 19 14
23 14 26 15 23 17 24 14 23 20 18 15 20 21 25 27 24 30 32 25 32 38 39 47 47 55 61 53 55 60 69 63 68 59 64 67 59 52 55 56 48 50 37 36 33 33 25 23 19 26 16 24 24 15 26 20 22 26 24 23 16 18 22 14
23 23 22 17 19 26 26 15 26 18 19 14 21 17 25 16 23 24 19 24 30 32 37 32 46 39 45 48 51 60 62 52 57 52 58 51 56 44 47 41 36 40 34 29 26 29 26 17 18 14 17 22 19 23 17 25 21 25 23 15 22 20 24 22
14 14 26 26 26 15 17 15 17 16 26 22 21 17 20 24 18 24 20 14 16 20 31 34 39 32 48 44 47 52 49 55 51 53 56 52 41 49 38 34 40 35 31 27 16 25 20 22 15 21 20 18 19 24 16 19 24 26 19 14 15 16 17 25
19 22 14 16 26 16 14 22 25 16 24 17 22 26 17 15 14 26 21 14 26 19 27 24 31 32 39 42 35 39 44 46 39 50 48 48 44 37 34 33 29 24 17 16 20 14 22 22 14 15 15 22 15 21 24 25 18 16 17 22 26 14 20 25
14 16 16 16 24 14 15 16 21 16 16 17 20 22 21 23 20 21 23 21 25 21 18 20 27 25 25 29 29 34 36 33 35 38 35 43 29 38 28 23 27 16 18 18 24 16 22 23 17 23 22 18 19 23 16 24 22 25 17 23 18 19 25 21
23 22 21 22 17 14 15 15 25 22 23 22 21 23 16 15 23 22 16 22 21 25 26 15 24 20 20 27 24 35 38 31 36 28 27 26 28 28 27 17 24 23 26 21 23 26 16 15 24 16 23 16 19 26 16 22 15 25 25 15 18 20 21 23
22 20 16 21 25 26 15 25 17 26 17 16 23 21 17 21 21 21 19 14 19 20 21 17 26 14 14 24 21 27 24 30 32 24 30 28 26 28 19 19 26 16 17 16 23 14 18 16 22 19 23 26 14 22 24 17 15 23 17 14 23 18 25 21
22 26 15 24 20 19 15 15 24 17 14 22 17 20 21 14 25 14 19 15 21 20 21 14 20 17 17 20 14 26 19 27 18 24 24 16 14 14 20 23 16 15 26 14 15 18 21 20 23 26 18 19 14 15 19 14 19 21 19 16 26 26 20 22
24 25 14 18 15 26 16 15 23 18 21 15 21 17 16 25 18 14 24 25 21 25 19 21 25 23 17 15 24 21 25 26 26 24 26 24 16 21 22 22 24 16 26 16 21 26 24 18 25 21 14 26 14 16 21 14 26 16 23 14 26 14 25 21
16 25 23 25 24 26 23 18 14 18 15 22 23 24 18 21 26 22 23 21 16 24 20 21 17 21 22 18 23 25 15 21 18 21 19 26 19 15 26 26 17 23 14 20 16 19 18 16 16 18 23 19 22 17 18 22 17 17 26 16 24 22 22 21
15 23 19 19 17 23 25 18 22 14 15 21 15 22 20 20 15 15 16 14 15 26 15 18 21 18 18 14 18 17 15 23 26 14 25 20 16 21 18 23 19 15 15 26 18 20 19 21 23 26 20 14 22 16 16 25 23 24 25 21 25 20 21 15
24 24 23 20 23 23 21 25 22 22 25 16 14 16 24 19 21 21 22 21 17 20 19 23 16 15 21 25 18 25 19 24 26 20 18 23 16 19 14 24 16 26 25 18 15 24 19 25 26 20 14 25 16 18 25 23 19 14 24 18 26 21 20 23
20 14 22 24 24 17 24 26 25 21 25 21 26 23 21 15 22 17 21 21 21 20 15 23 24 26 24 23 24 16 26 21 23 26 24 23 19 17 17 25 16 20 18 17 25 22 18 24 18 18 17 20 14 22 22 19 19 23 19 24 19 20 17 14
19 14 22 16 17 15 26 15 16 19 15 15 20 20 17 14 20 17 16 14 21 21 26 18 24 26 25 14 18 18 23 16 23 22 19 26 24 17 22 17 23 15 17 19 16 16 25 23 17 19 17 23 20 17 15 21 14 24 16 16 20 22 17 22
15 23 26 16 14 23 16 22 18 16 24 20 25 14 20 17 16 20 26 15 24 25 16 15 26 25 23 14 26 17 19 17 24 16 19 25 22 15 26 17 16 22 21 22 25 19 18 18 16 23 18 25 26 25 14 26 26 14 24 25 19 17 16 19
20 17 22 20 17 21 20 16 19 20 17 16 24 17 14 16 19 14 15 14 22 26 22 26 17 18 26 21 23 20 15 26 22 18 20 23 17 14 16 23 14 25 20 18 23 26 22 16 17 17 14 26 14 25 14 25 18 19 22 17 21 26 26 15
18 22 20 22 20 22 21 18 15 21 24 15 25 24 16 25 24 18 20 20 23 20 21 19 24 16 16 15 16 15 17 24 16 25 25 15 26 26 14 25 23 18 23 21 25 16 21 23 23 26 15 19 26 24 23 22 15 23 24 18 18 23 20 22
25 14 25 14 16 25 20 18 15 25 25 19 24 16 16 19 24 19 22 14 23 17 15 20 22 15 17 21 18 17 22 16 20 22 22 19 24 18 23 17 15 19 20 21 25 17 14 26 26 17 15 25 22 24 21 24 23 21 16 26 17 20 16 25
15 23 19 16 22 24 18 18 16 20 20 14 21 23 20 24 22 22 24 15 14 20 17 19 22 23 18 22 16 18 26 15 23 23 16 19 15 18 25 21 14 15 14 23 16 22 22 25 25 18 19 20 22 23 17 19 22 20 23 21 16 17 15 17
26 16 16 16 23 23 25 17 24 18 20 17 18 22 22 20 18 26 26 20 26 23 17 25 16 25 19 24 24 22 17 24 15 23 20 22 24 18 21 26 19 16 17 24 16 25 20 26 18 22 14 21 21 15 17 26 19 19 21 23 23 17 25 15
