P2
64 64
255
20 18 24 18 19 16 18 14 21 22 26 15 20 14 15 26 17 16 21 17 24 17 16 24 17 24 22 24 25 14 18 17 23 21 15 19 14 25 25 23 18 18 24 17 18 18 24 18 18 23 25 23 22 26 18 19 18 26 15 18 18 21 14 15
25 24 21 21 18 20 22 23 16 23 17 14 23 15 24 25 22 16 16 21 16 16 20 25 15 16 16 21 20 18 14 15 14 14 22 22 15 23 17 23 16 23 24 24 19 26 23 20 14 26 15 15 21 21 24 15 24 19 23 26 23 23 17 14
25 23 25 26 21 16 21 20 20 23 25 14 25 21 21 16 23 15 16 21 23 15 17 22 22 14 20 20 19 21 20 16 14 22 20 20 16 18 16 25 22 18 25 23 21 21 21 18 16 19 16 16 18 17 17 24 24 24 15 26 26 18 14 18
14 15 17 14 26 19 16 18 19 19 25 24 25 25 22 20 14 23 17 14 23 25 25 26 21 25 19 26 23 23 26 17 23 21 18 17 19 18 18 17 15 20 16 20 25 25 23 24 23 18 19 26 24 19 15 21 21 15 25 19 21 16 23 21
14 15 22 19 17 18 15 26 15 23 15 20 20 21 17 25 18 25 20 18 25 15 26 23 19 25 20 18 23 23 25 24 15 25 17 21 19 25 14 17 17 24 18 21 22 16 22 23 18 16 22 14 15 15 23 17 14 19 17 18 24 25 18 21
23 22 16 20 18 14 20 20 24 26 20 26 19 16 19 22 18 26 17 22 25 21 15 16 20 25 19 26 19 18 19 16 21 22 19 18 16 18 14 15 20 23 24 20 20 17 24 25 18 25 15 22 21 20 26 24 24 24 20 19 18 14 22 23
25 15 18 20 20 17 17 19 24 16 23 21 24 18 14 15 23 23 22 16 23 23 20 23 17 25 14 22 24 24 17 25 22 25 26 18 25 15 22 18 18 24 23 26 17 21 18 15 15 21 22 22 18 18 17 21 23 23 16 15 22 14 18 25
17 18 22 14 24 14 23 16 21 14 23 18 20 25 25 21 21 15 17 15 14 16 26 18 19 21 21 16 17 20 19 20 26 23 16 25 20 26 18 24 20 15 21 16 17 17 24 22 18 20 20 23 20 16 14 21 18 22 17 25 17 19 26 14
14 19 15 25 14 14 23 16 20 14 14 22 19 24 25 24 17 25 16 22 15 23 19 15 24 20 15 20 21 20 17 16 26 15 14 19 15 21 16 18 22 25 14 23 17 16 24 21 15 25 25 25 21 20 23 21 22 17 17 14 18 19 26 21
16 26 22 20 14 23 14 15 24 24 18 22 15 20 24 23 20 23 18 19 14 26 17 22 19 16 24 24 21 26 21 25 25 16 18 23 17 26 15 26 26 14 25 19 25 21 16 18 24 16 22 20 17 15 20 15 26 17 21 15 19 18 15 14
17 14 23 16 25 20 23 18 26 16 14 14 16 25 15 24 25 22 23 25 25 26 20 14 16 25 26 21 23 19 25 23 18 21 15 18 21 21 19 15 24 20 18 25 22 22 23 19 20 25 21 24 14 26 21 21 24 20 16 17 20 18 25 20
17 21 14 15 21 17 14 20 22 20 16 18 23 22 23 23 14 21 22 20 23 15 17 23 24 22 18 19 25 22 24 15 22 24 20 21 22 23 18 26 25 18 26 26 22 17 22 20 23 18 15 24 16 26 16 19 22 16 24 24 15 24 16 15
25 20 19 14 19 14 23 18 26 21 17 24 24 17 22 17 24 26 26 15 22 21 22 25 24 18 16 20 20 25 26 20 21 20 16 14 18 16 22 26 21 19 18 18 23 25 20 16 22 19 25 14 24 19 16 16 16 22 20 18 20 17 22 21
24 15 17 19 23 17 17 16 14 14 23 18 20 25 15 25 15 16 17 19 23 16 26 15 14 20 14 21 22 18 21 23 18 25 26 15 15 20 22 18 14 22 20 22 17 26 19 23 20 20 15 21 21 24 18 18 16 26 23 20 18 24 16 16
23 21 24 18 25 14 14 26 19 26 16 22 19 22 26 25 24 21 20 22 15 19 19 14 17 20 15 17 24 14 26 19 21 21 18 26 16 25 16 16 23 21 26 20 17 24 21 25 19 23 16 20 20 26 26 14 22 19 17 21 21 14 16 21
25 17 17 19 26 22 16 15 20 19 21 24 24 24 18 19 19 14 14 23 22 25 18 25 21 26 15 15 20 19 14 22 21 23 14 20 14 17 17 15 14 20 23 15 23 19 15 21 17 16 19 16 25 26 20 18 26 20 18 14 25 25 18 19
25 19 26 19 26 23 26 18 15 18 14 20 20 16 19 14 23 26 24 15 14 17 26 23 18 23 21 16 19 20 20 16 22 25 24 20 16 18 20 18 24 15 22 25 21 24 21 22 17 16 20 16 17 16 21 26 17 18 23 19 20 24 14 16
19 15 23 17 23 23 20 18 18 22 15 20 25 23 26 17 19 22 22 25 19 18 16 14 17 17 22 21 26 22 23 21 15 20 24 22 21 24 21 21 23 23 16 14 14 15 20 19 17 15 21 22 26 23 18 22 25 23 17 22 19 20 17 14
21 14 16 26 23 17 24 21 25 18 22 16 26 14 22 20 16 24 21 18 24 24 21 25 22 19 14 14 26 24 26 25 21 15 19 22 17 14 25 21 17 18 15 26 25 19 23 20 25 23 19 16 24 16 26 18 25 26 25 15 21 15 19 25
18 20 15 26 16 23 19 17 22 21 25 18 26 14 16 24 26 22 24 17 18 21 21 24 21 22 26 20 15 21 21 18 21 23 23 18 21 23 23 26 27 21 29 21 29 20 24 24 21 22 20 14 16 19 22 24 20 20 25 16 26 24 20 21
23 15 21 16 26 26 16 15 14 25 26 14 19 26 24 19 29 28 28 28 27 32 29 33 21 29 28 16 23 23 26 25 17 18 26 21 24 25 19 28 27 21 25 33 30 32 22 26 26 24 20 24 23 18 24 25 17 18 25 20 17 24 19 15
18 19 21 24 22 16 17 14 17 17 19 23 20 20 27 29 34 29 33 32 26 30 31 30 24 24 29 20 17 21 20 23 21 14 18 15 17 25 21 26 35 31 32 35 34 25 29 32 32 26 30 18 14 24 17 25 17 26 23 24 23 18 26 25
26 14 18 24 15 21 22 22 26 22 23 20 23 29 30 31 29 39 30 35 37 30 36 32 27 35 31 32 32 20 24 22 21 24 22 20 20 26 25 27 28 33 35 37 39 41 33 28 28 36 27 25 25 16 21 22 14 15 18 18 15 22 25 23
22 25 15 16 22 23 18 21 22 21 26 18 25 35 28 30 37 41 42 35 37 45 36 44 38 41 36 36 27 32 23 22 21 25 21 22 25 29 29 38 42 33 34 33 44 42 38 34 40 34 27 26 27 20 17 15 23 16 26 22 18 21 22 18
25 14 15 18 17 25 23 14 24 19 27 20 23 37 37 32 34 45 39 46 47 37 47 48 45 35 36 35 35 26 28 26 16 21 22 29 28 37 38 34 41 37 46 40 46 48 45 42 45 34 33 28 28 25 26 17 17 25 22 14 14 23 26 21
20 25 17 16 19 19 21 24 24 23 21 30 33 39 38 35 42 41 40 43 52 42 46 41 44 45 38 31 32 26 28 24 26 20 25 34 31 34 45 47 47 45 43 47 48 43 51 48 48 41 34 39 37 34 25 22 15 20 15 20 24 16 25 23
22 19 23 19 26 26 15 14 21 20 32 33 34 39 39 48 44 48 52 48 48 55 50 49 53 46 38 40 32 34 25 22 22 28 28 29 35 39 37 39 48 44 49 46 55 45 53 41 41 37 41 40 38 30 21 20 16 25 24 24 14 24 26 14
26 16 15 17 19 16 26 14 28 26 29 37 36 41 42 52 44 52 52 56 58 52 56 52 55 51 39 40 44 36 37 32 36 30 37 38 35 43 40 47 55 52 49 49 57 50 57 51 52 44 37 36 41 32 33 32 26 15 21 19 24 22 17 17
21 18 21 20 20 19 26 22 22 28 37 35 36 46 45 45 57 48 52 55 65 55 59 62 52 48 52 43 46 38 33 37 30 28 29 34 35 43 52 51 48 53 60 58 53 57 54 59 54 42 43 43 35 39 29 24 27 17 18 26 20 16 15 24
14 15 20 18 15 21 16 25 30 28 26 39 39 39 47 49 49 52 56 55 59 61 60 63 59 55 52 48 48 36 39 30 34 33 40 40 46 50 47 55 55 63 58 60 69 58 61 59 49 49 50 46 41 31 36 32 25 17 16 25 14 21 23 20
22 14 23 19 15 20 24 15 29 27 36 32 46 45 52 49 55 58 61 69 64 61 68 67 60 52 51 53 45 41 34 35 37 37 38 35 48 48 56 57 59 67 71 60 72 68 60 58 54 53 52 46 44 41 27 33 24 26 26 15 22 24 22 21
17 20 23 15 25 19 21 20 32 28 30 42 44 43 52 48 53 63 70 64 76 71 61 62 59 51 57 51 43 39 38 36 40 37 39 45 43 46 47 57 58 70 70 74 66 62 59 54 61 55 46 44 47 32 38 29 29 17 26 19 22 25 16 14
15 17 20 18 18 23 23 16 25 25 40 39 35 40 49 51 59 65 70 64 77 74 71 69 60 53 51 54 41 35 45 45 44 44 37 42 46 49 56 53 59 68 75 72 69 68 71 63 63 52 43 48 42 40 37 36 25 17 20 15 16 21 22 17
23 17 21 14 20 17 16 18 30 32 31 40 47 41 52 53 59 55 59 67 66 72 69 62 57 50 56 50 39 41 35 34 38 43 36 37 42 51 49 57 66 63 65 65 76 62 70 63 63 48 55 50 44 35 39 35 27 23 20 21 23 25 14 21
14 22 14 20 23 18 18 20 23 31 34 43 37 41 47 48 53 64 57 67 72 62 71 64 61 51 55 50 45 45 35 34 41 43 33 44 46 44 58 60 57 68 59 72 61 66 65 56 52 52 47 41 46 34 35 29 24 17 22 24 26 24 24 14
26 23 25 20 18 25 26 17 27 34 26 39 36 45 51 47 52 62 53 56 66 67 55 55 59 56 53 50 38 36 40 33 33 39 32 42 42 46 55 53 57 61 61 57 69 61 55 53 59 47 44 46 40 41 30 22 23 20 19 25 15 16 18 15
25 18 21 17 15 17 21 20 27 32 30 33 38 41 43 44 51 58 50 54 62 55 58 50 55 51 47 47 38 42 38 37 35 39 39 34 41 50 48 52 58 50 62 62 55 58 52 50 48 51 46 38 36 38 27 22 22 25 21 25 22 21 24 16
21 24 14 23 19 23 22 20 17 28 33 31 34 38 48 42 42 54 58 52 58 53 50 54 45 48 50 42 41 33 33 37 25 35 36 37 43 46 48 46 47 50 54 51 51 54 58 49 54 51 41 40 33 39 32 29 20 26 24 19 16 22 18 18
18 19 14 16 20 19 25 15 19 22 26 33 29 37 38 40 50 53 51 44 45 50 51 55 46 50 45 44 32 29 26 21 23 30 31 35 40 34 40 39 42 49 52 45 53 56 54 42 49 45 40 37 40 36 33 30 26 19 22 23 18 22 19 21
29 19 24 19 27 18 26 25 29 19 25 28 41 41 44 50 42 42 43 52 47 45 45 50 54 51 45 35 36 30 29 24 26 35 30 36 43 43 48 47 54 56 52 57 53 52 48 45 51 48 41 35 43 35 36 28 21 23 31 29 25 27 32 26
24 32 23 29 23 22 25 26 23 26 26 29 34 40 46 45 43 52 56 48 50 53 54 45 48 53 41 40 38 33 30 28 29 37 32 37 44 41 43 52 51 49 48 60 59 60 48 52 56 49 41 46 41 32 33 34 31 28 31 31 35 37 29 34
27 25 32 24 27 24 30 33 35 26 27 31 37 42 40 49 46 52 50 55 50 54 54 56 47 49 42 48 41 45 34 30 28 30 40 39 45 41 53 54 47 53 51 56 50 51 58 49 52 50 44 47 39 46 33 33 35 37 33 38 39 33 37 35
20 26 30 26 24 30 24 21 24 32 31 34 36 36 31 38 42 42 46 47 40 43 45 38 47 37 42 31 30 27 24 28 27 35 32 33 37 37 46 48 45 46 51 46 45 40 49 40 38 45 44 35 35 29 38 38 32 27 28 32 31 28 37 29
23 20 24 18 28 21 23 20 18 26 23 25 27 26 26 33 38 29 33 35 39 41 31 28 35 38 26 31 21 20 28 21 23 27 23 18 24 26 33 28 29 40 37 40 33 39 30 28 27 29 31 22 24 25 19 24 27 23 32 21 20 25 25 32
20 14 20 22 21 18 19 24 26 23 22 17 25 18 23 27 25 29 22 31 26 28 25 27 28 22 19 20 18 20 20 16 25 14 22 24 18 21 28 23 26 21 31 30 31 26 22 24 25 28 17 16 19 15 17 19 15 22 15 19 19 25 15 17
19 22 25 22 15 22 17 22 22 15 21 19 18 21 25 22 22 28 23 19 24 19 25 22 22 22 22 22 17 24 21 19 24 25 19 26 23 21 16 16 25 22 26 29 29 26 25 27 17 22 16 22 21 21 23 16 16 16 21 26 19 15 15 23
23 14 14 23 23 23 18 22 25 18 14 16 15 20 26 20 21 20 25 26 21 25 20 19 23 22 19 22 17 16 21 22 21 16 21 20 21 17 24 25 16 16 22 22 17 20 25 25 25 19 15 20 14 18 16 17 15 24 18 19 22 25 24 18
19 22 17 20 21 24 26 22 19 19 21 26 24 15 23 24 15 23 25 18 16 23 26 15 21 22 17 25 22 20 14 24 23 22 24 25 22 20 14 23 24 21 26 16 14 17 24 25 23 23 15 15 25 21 23 17 16 19 14 17 18 15 21 24
26 14 15 22 16 25 18 24 22 14 14 15 25 22 18 20 24 26 19 18 24 21 26 19 24 23 24 24 21 24 25 16 21 19 20 15 23 18 16 20 15 21 26 21 24 14 24 22 18 19 18 23 15 19 14 16 19 22 26 21 19 24 21 20
17 19 23 19 21 14 14 17 26 15 17 17 15 20 17 25 16 19 14 26 21 18 23 14 17 20 17 24 24 17 23 26 26 18 19 17 24 17 21 20 18 17 23 21 17 25 15 20 15 24 20 18 16 24 19 18 24 25 23 16 22 24 23 20
26 21 15 15 14 24 18 17 19 24 20 16 25 21 17 18 18 21 26 16 14 22 24 21 23 21 25 14 24 16 26 18 25 26 17 19 15 26 16 26 16 15 21 14 19 17 21 23 15 16 16 18 22 16 14 25 23 14 21 20 20 18 21 22
15 19 24 16 14 22 14 22 19 15 24 14 17 17 15 24 15 14 16 25 16 25 16 18 24 16 18 23 15 15 26 25 22 18 15 25 25 20 26 19 14 24 25 16 25 19 21 25 25 18 16 21 26 15 22 25 26 15 16 25 20 25 21 25
25 16 18 26 14 26 21 14 18 24 16 26 15 17 16 19 19 14 20 20 14 20 25 20 17 15 20 14 14 20 15 15 23 19 17 19 21 19 16 18 15 16 24 22 25 15 21 18 22 16 15 21 20 16 16 18 20 20 15 14 24 25 19 21
18 16 25 15 15 19 18 14 19 25 26 25 26 22 14 26 18 21 16 20 18 17 25 20 20 20 18 25 16 16 19 26 22 23 24 26 18 21 26 24 14 15 15 22 21 18 26 24 23 16 22 14 20 21 24 17 26 16 14 14 14 18 19 24
17 18 25 18 26 22 15 19 25 19 16 19 19 15 26 25 15 22 18 23 22 23 14 26 21 19 23 16 16 21 21 22 20 24 19 20 21 22 17 22 22 20 26 25 26 23 21 22 25 17 16 26 23 24 24 17 20 24 19 16 22 14 17 17
14 14 14 23 24 23 25 23 23 18 19 24 25 21 18 18 24 17 21 26 21 15 16 14 21 19 23 19 26 15 22 25 24 21 15 21 14 23 25 15 18 20 16 26 20 16 21 14 19 20 17 17 23 21 15 14 18 24 14 18 25 16 19 14
20 25 21 22 15 18 16 17 14 14 26 20 23 15 19 17 26 23 24 19 22 23 24 26 22 15 25 26 18 26 14 17 19 21 21 16 21 22 23 16 24 14 17 24 26 14 16 23 17 25 20 24 17 26 22 22 25 16 22 23 15 18 25 20
24 21 22 26 16 14 18 17 19 19 24 23 19 16 24 20 25 25 26 14 19 17 19 21 26 23 14 20 23 21 25 21 20 26 22 22 14 19 19 17 17 19 15 17 14 16 16 25 14 15 21 17 25 17 15 20 14 15 26 21 20 24 16 20
20 16 17 14 15 18 23 23 17 19 21 20 15 22 18 21 20 25 20 20 16 16 18 26 20 15 19 26 22 23 15 15 15 14 25 17 26 19 18 23 23 19 23 21 26 18 14 22 15 19 24 20 22 23 16 25 24 25 21 20 23 25 23 16
21 17 26 24 23 20 24 14 14 23 21 17 14 22 23 25 14 16 18 17 21 18 19 17 25 25 19 14 14 15 25 16 22 17 14 15 15 22 16 25 25 14 24 14 22 21 21 23 23 23 21 16 20 23 16 19 20 17 17 22 17 26 17 21
21 18 24 16 20 25 22 21 24 25 15 25 14 20 24 26 14 23 26 17 17 24 21 19 17 14 22 21 19 25 24 19 16 17 25 24 20 19 25 19 16 26 16 15 24 22 19 20 17 17 22 24 17 15 22 26 23 20 15 23 14 16 25 26
16 21 23 14 15 22 19 25 18 24 21 16 22 15 14 18 17 15 25 21 14 21 22 24 25 18 15 21 17 15 19 17 16 19 24 17 18 24 19 22 20 14 20 26 21 18 25 14 26 23 25 24 16 16 20 25 18 14 19 17 15 20 18 25
26 18 15 24 15 14 22 20 22 24 20 15 18 16 26 16 22 19 15 26 19 23 21 19 15 22 22 22 23 16 17 16 19 19 24 25 20 18 24 24 15 24 24 20 25 17 20 14 22 16 20 26 19 16 19 22 21 18 19 23 16 21 23 17
16 17 17 14 18 23 18 22 20 20 17 26 20 16 15 26 21 24 14 16 16 26 17 18 25 20 19 21 23 14 24 24 17 19 21 19 21 15 14 22 23 16 22 14 17 14 18 14 19 21 17 23 24 23 24 22 17 25 23 25 18 25 25 19
