P2
64 64
255
21 26 21 15 18 25 15 25 17 17 24 20 18 16 15 20 16 22 14 26 18 17 15 18 24 20 14 18 16 15 15 22 16 16 22 18 22 17 15 16 21 18 22 18 19 14 24 14 25 22 16 19 23 23 15 23 16 15 16 19 14 14 20 18
16 25 16 22 14 26 17 23 18 22 15 22 14 19 24 21 20 18 21 19 18 14 19 26 25 18 23 23 14 14 25 16 18 20 15 20 22 17 26 25 14 16 17 15 21 16 24 20 24 14 18 24 19 25 15 19 23 15 15 22 17 22 25 19
16 22 25 16 25 24 14 22 20 18 21 15 19 17 25 16 15 19 19 14 18 20 22 25 14 21 23 16 17 19 24 14 20 17 23 19 18 21 19 17 14 19 25 19 26 17 26 19 19 14 20 16 26 15 16 21 19 22 14 24 24 18 15 23
19 20 26 15 25 22 19 25 17 20 17 16 20 21 21 15 24 18 18 24 18 19 18 24 21 26 15 25 24 16 25 26 15 14 24 23 14 18 23 21 16 20 18 15 26 21 19 19 18 25 25 20 17 23 26 14 17 23 18 25 21 20 26 16
14 20 14 21 15 20 15 24 18 24 26 14 21 24 25 26 20 14 22 15 19 21 15 14 17 17 14 21 21 22 25 18 21 17 22 20 17 14 18 26 14 14 20 26 24 20 18 25 22 14 26 20 17 18 15 15 23 25 25 26 23 26 15 16
19 16 26 21 16 25 17 22 15 20 21 22 21 22 20 26 20 20 17 16 22 19 25 14 25 22 21 26 21 15 15 23 20 20 26 23 26 22 22 22 25 23 23 16 20 17 16 25 14 18 20 14 18 16 22 17 25 18 15 22 23 22 25 20
24 21 17 25 17 16 18 26 25 15 22 19 22 15 23 18 26 23 18 14 19 15 23 19 25 18 21 24 16 16 14 18 18 20 16 21 18 15 14 17 21 16 22 26 15 18 26 16 22 20 19 19 17 22 21 20 26 17 18 18 24 23 17 26
26 25 17 24 17 16 25 23 23 18 22 15 20 25 24 23 22 26 14 15 15 23 16 16 18 15 17 23 20 21 16 18 14 23 20 19 17 14 16 26 21 16 23 20 17 14 19 18 22 25 17 22 15 23 16 20 26 15 18 17 19 25 23 16
15 23 24 18 16 24 26 18 16 14 19 26 15 25 19 22 21 22 19 24 24 19 25 20 17 17 17 23 15 18 17 24 23 16 17 17 21 16 25 17 21 19 17 20 17 16 25 19 20 26 26 21 14 14 24 25 19 16 26 23 15 25 14 15
18 15 23 22 15 23 20 17 21 16 24 24 18 18 17 14 16 22 26 21 22 21 15 18 24 19 25 22 23 19 19 22 19 23 23 22 16 14 24 21 26 21 19 22 21 17 24 20 16 18 22 21 22 18 21 18 20 21 16 18 15 14 22 23
25 23 23 19 19 21 25 26 19 25 25 20 17 15 23 23 19 16 22 15 23 23 18 24 23 22 17 26 16 21 21 14 19 24 23 18 17 16 15 24 24 16 15 16 26 16 26 24 20 24 21 22 21 15 24 20 26 17 19 17 24 19 25 25
17 16 20 14 23 18 17 22 22 24 23 18 21 14 22 20 15 16 20 23 24 17 21 18 26 21 18 20 20 19 24 19 14 20 20 22 18 17 15 22 22 14 26 26 14 23 26 19 16 21 15 24 23 20 23 18 14 26 21 16 26 26 21 20
16 25 17 21 18 23 16 15 14 18 22 18 18 21 23 25 24 22 17 24 23 17 21 20 26 20 17 18 17 25 21 26 15 22 25 20 24 16 19 26 15 17 15 26 24 18 24 26 21 16 22 25 15 14 15 20 18 22 17 26 23 15 14 15
22 15 23 16 21 21 19 23 23 20 22 16 22 19 26 19 25 22 22 21 24 17 18 24 14 23 21 15 17 24 19 16 15 19 17 23 26 22 14 22 25 15 22 18 21 14 20 14 26 24 16 22 20 25 15 16 26 15 22 26 20 23 18 26
16 16 21 19 17 15 17 16 25 15 25 19 20 19 26 16 15 18 21 19 24 24 20 15 17 21 16 24 21 19 14 22 23 20 22 19 20 26 22 19 20 24 16 15 15 26 18 24 19 18 26 23 17 19 21 23 14 16 18 24 17 23 15 16
15 26 15 14 23 15 23 15 21 20 17 25 20 21 22 24 15 23 14 23 25 26 18 21 18 25 16 18 26 22 24 15 19 26 20 20 24 26 21 23 23 15 17 15 16 14 25 22 19 21 24 19 20 26 25 17 15 26 14 15 23 21 18 22
16 14 23 19 19 19 23 26 14 17 24 14 25 24 20 15 25 18 17 19 26 20 24 25 19 25 25 18 20 14 17 16 14 22 15 15 25 18 26 21 20 17 20 17 21 18 14 23 20 15 19 14 22 14 15 17 23 14 19 19 25 17 17 25
18 20 18 20 17 26 21 15 15 23 18 23 14 20 19 25 20 21 21 21 15 23 16 16 20 19 22 15 16 19 20 26 20 20 23 19 18 25 17 23 17 21 26 19 23 25 25 23 22 24 25 24 16 19 20 15 26 18 23 15 23 21 19 19
20 25 21 14 19 21 26 17 21 22 24 22 15 23 14 25 18 17 19 14 16 21 17 15 14 15 26 22 22 24 20 20 24 23 21 18 17 18 21 15 25 17 21 22 16 24 25 14 25 24 24 26 26 25 21 23 22 20 23 18 16 22 15 25
15 23 26 26 15 23 15 23 18 20 23 19 19 16 14 14 15 28 25 20 24 19 25 26 17 26 22 23 17 25 15 20 17 21 20 26 25 19 20 20 25 24 17 18 18 26 28 23 25 14 26 17 25 18 16 23 16 23 17 18 20 18 19 26
17 26 19 21 25 19 26 15 16 22 14 24 14 14 27 28 29 28 27 26 30 24 29 22 24 19 17 23 21 21 17 24 14 26 23 14 24 17 25 23 30 33 28 30 32 22 28 22 30 24 20 14 19 22 16 16 19 23 20 26 23 14 19 22
19 15 18 15 22 19 25 17 19 18 22 20 24 29 28 25 30 31 28 29 33 28 34 27 34 29 26 21 28 17 22 22 22 23 23 21 23 29 29 32 35 31 31 33 34 30 30 34 25 29 24 19 23 15 26 26 16 15 15 17 23 18 14 14
15 20 21 21 16 22 14 15 26 16 24 17 20 26 27 24 33 28 32 29 32 34 41 40 29 38 26 30 29 30 33 27 30 31 33 33 26 32 36 37 33 29 33 35 30 41 38 29 32 25 32 27 17 21 16 15 18 18 24 22 18 25 19 23
19 17 25 25 16 24 18 16 23 22 23 28 32 30 31 35 33 34 41 41 44 44 34 44 33 35 38 35 43 39 36 39 30 29 38 40 39 46 46 35 32 33 35 40 37 36 43 37 29 33 25 28 24 26 17 26 21 23 20 20 22 23 16 25
18 19 26 20 17 18 20 22 17 19 19 31 31 31 30 34 40 43 39 42 44 49 43 41 50 48 51 43 47 52 45 45 46 45 41 51 45 48 51 51 45 49 44 40 48 49 40 41 39 42 29 28 28 20 23 17 22 14 14 19 24 15 15 21
15 22 19 20 24 26 25 17 23 17 26 22 32 36 33 43 38 50 42 48 47 52 50 49 53 60 57 60 54 60 54 53 48 54 49 58 62 52 53 53 56 47 52 48 42 41 47 43 37 39 31 35 28 23 23 25 23 24 21 18 25 21 17 16
22 19 21 19 25 24 16 14 24 18 22 28 29 36 43 49 43 50 48 44 56 54 56 64 68 63 65 68 67 61 58 64 58 63 64 65 67 71 65 69 61 61 58 57 46 48 49 53 50 41 44 32 39 37 26 19 14 26 23 21 26 21 18 26
14 16 18 15 24 26 26 18 19 21 34 38 37 39 49 47 47 56 50 54 55 68 68 65 76 74 70 75 76 68 70 75 67 70 64 74 68 80 79 79 74 74 68 57 54 54 58 51 47 44 42 45 30 29 33 21 21 25 14 17 18 17 21 20
21 23 21 19 20 21 17 20 18 25 30 38 42 43 51 53 54 55 52 55 63 76 69 77 84 74 79 88 84 78 79 81 84 84 79 75 84 84 85 76 76 81 71 65 61 55 61 53 52 52 50 45 40 35 31 25 25 15 14 17 19 22 15 17
18 23 16 21 16 26 15 21 22 26 34 37 36 40 52 44 47 56 56 70 72 83 75 82 81 91 89 85 87 86 82 92 94 89 92 89 94 82 86 88 86 83 87 80 71 63 63 58 58 53 51 42 41 34 26 31 18 15 25 24 25 26 18 25
22 17 24 22 26 25 14 19 31 30 28 43 40 39 44 47 55 55 67 74 83 82 91 88 90 89 98 96 101 96 95 98 97 91 89 98 90 90 99 93 98 90 85 82 77 68 57 60 53 46 52 44 39 39 31 32 24 22 20 19 26 18 21 26
15 26 16 17 20 14 18 18 29 28 27 39 45 43 53 51 62 59 61 83 88 91 99 92 103 95 95 101 105 104 106 97 109 96 99 104 96 104 102 92 99 93 87 96 80 82 65 55 56 47 46 43 43 36 33 32 21 16 15 19 24 20 20 15
20 26 18 25 18 26 23 25 26 28 34 40 36 49 51 52 55 61 70 85 90 88 98 101 104 100 107 100 101 104 104 103 106 109 105 106 102 105 103 106 95 98 93 98 84 77 70 55 60 52 49 48 36 39 33 30 20 18 20 19 18 15 21 17
17 16 17 23 18 17 16 25 31 33 38 34 37 49 52 51 61 54 65 85 84 93 99 103 102 110 107 102 105 110 113 119 115 110 112 111 115 113 106 110 98 99 94 91 88 86 72 58 52 53 43 47 39 40 38 28 22 26 21 22 14 22 15 24
22 19 17 21 21 18 21 27 24 29 36 43 38 45 54 47 51 57 74 82 89 98 102 99 100 102 107 114 112 110 110 116 115 120 110 113 109 106 113 100 105 106 101 86 87 75 67 54 57 46 54 42 40 34 27 31 24 15 26 15 23 21 23 21
18 23 23 17 17 17 20 22 30 31 35 38 37 46 43 53 55 53 66 80 83 95 91 92 106 109 105 105 108 118 116 123 125 126 112 115 108 113 105 99 101 95 87 92 85 81 61 62 48 53 53 41 41 35 29 28 24 20 21 22 23 19 22 25
18 24 17 21 17 21 17 23 17 32 26 35 44 39 39 49 49 51 70 73 81 80 86 100 105 102 101 105 116 110 122 121 132 124 122 119 112 106 109 99 99 93 95 88 81 68 61 59 52 43 45 47 42 40 25 27 25 24 20 16 17 22 20 18
24 25 14 18 20 25 16 17 26 30 27 31 39 43 37 40 50 48 61 70 70 83 84 86 100 97 96 111 108 117 111 110 121 121 112 108 108 109 103 97 97 89 80 85 71 69 58 58 42 52 45 40 36 34 30 23 16 22 18 20 16 24 22 15
21 18 21 14 25 24 15 20 22 21 21 32 30 34 39 46 39 45 51 67 75 70 80 88 90 96 100 99 101 106 108 108 106 107 101 112 104 97 102 95 87 84 77 82 64 61 59 54 40 38 40 36 30 30 26 30 16 25 18 26 20 14 14 22
15 22 24 15 22 16 14 24 26 28 25 33 31 36 39 38 36 49 52 55 70 72 83 83 82 93 91 93 99 100 102 94 104 100 101 105 95 100 99 93 79 81 79 67 71 55 55 41 37 46 32 37 32 25 20 24 22 25 25 24 16 24 16 16
16 26 15 18 24 25 26 23 22 16 23 28 24 26 29 36 41 36 43 53 58 65 67 77 73 86 83 86 95 91 88 88 84 97 94 98 95 86 88 88 81 76 68 68 56 55 51 35 45 39 34 35 35 27 17 26 18 26 25 18 19 19 25 21
16 17 15 18 15 18 18 22 19 23 23 24 25 34 36 33 40 39 44 48 58 60 66 67 70 70 82 83 80 80 84 82 88 76 79 83 77 78 82 73 78 68 61 57 59 52 34 34 40 38 35 32 30 27 25 25 20 18 23 19 24 22 16 17
23 24 14 14 15 19 21 20 26 19 19 18 26 21 27 27 29 28 33 41 42 57 56 56 62 69 71 73 78 72 75 72 78 82 81 77 72 73 69 73 63 60 60 53 45 40 40 32 35 26 34 30 26 22 26 21 15 26 20 23 23 25 22 21
21 16 14 25 15 17 14 22 18 26 16 23 25 22 28 21 30 32 34 30 33 50 54 55 51 61 65 69 69 70 72 65 74 73 75 68 66 59 59 61 62 49 55 47 34 34 35 34 34 20 27 27 21 25 18 18 15 19 16 21 19 15 24 19
20 21 19 16 25 23 16 14 19 14 16 26 19 20 22 28 20 21 28 24 34 36 39 47 47 48 58 60 61 62 66 58 62 69 62 62 55 57 57 48 49 51 44 38 33 24 22 32 22 18 27 18 16 17 23 21 24 24 17 24 17 16 15 24
21 23 23 16 25 22 20 14 16 20 25 15 18 14 16 14 17 28 22 27 23 25 37 37 40 41 44 55 52 51 54 64 59 60 62 53 50 49 49 48 46 40 36 29 19 26 21 27 17 15 19 26 17 17 24 16 24 18 19 23 14 15 24 16
23 19 22 21 16 16 19 24 24 24 14 20 18 25 14 26 25 15 24 25 26 26 29 37 38 43 39 40 41 49 56 55 51 56 51 49 45 41 41 39 38 33 20 20 20 23 26 24 19 19 19 19 20 21 21 24 18 23 16 14 21 16 14 22
24 18 14 22 24 20 15 21 23 16 22 19 20 17 24 23 22 22 19 24 16 14 26 24 32 29 37 43 41 47 44 50 44 49 40 43 37 39 36 37 29 28 17 26 20 22 16 14 15 22 24 17 21 20 23 23 25 24 21 15 24 16 25 23
17 21 14 25 15 25 17 26 20 19 19 14 25 25 23 21 18 19 16 14 18 19 24 17 29 28 27 27 32 32 37 34 33 33 38 39 34 35 35 28 24 19 18 24 22 19 14 23 15 15 25 19 17 16 25 17 22 25 22 22 16 23 20 18
18 19 25 25 15 15 21 22 18 22 16 21 17 15 26 19 23 21 15 20 15 21 15 26 23 22 28 27 30 37 28 31 36 28 28 32 33 31 27 24 24 21 16 24 24 21 18 15 19 21 15 22 24 24 20 18 16 18 21 14 16 17 26 26
21 18 14 21 23 19 19 26 20 16 24 20 17 22 16 22 20 15 18 15 22 24 16 22 15 21 20 27 18 19 23 23 24 24 22 25 26 19 18 15 25 23 14 16 15 25 22 16 23 26 22 26 26 19 17 15 20 16 24 24 14 19 14 19
20 23 20 20 14 14 24 19 18 15 21 24 15 14 25 17 14 22 15 17 26 18 25 26 17 14 20 25 26 19 15 18 16 27 19 21 22 20 22 17 20 22 25 26 19 23 18 21 22 18 14 20 15 18 21 18 26 22 14 14 25 25 23 21
19 17 14 24 25 22 15 21 25 22 23 26 16 20 17 15 21 23 15 21 19 25 21 26 17 26 14 25 23 22 16 16 18 17 14 14 25 18 16 21 23 16 14 17 19 22 23 14 19 24 20 15 15 16 20 24 14 16 16 16 26 21 14 18
14 17 25 14 25 19 17 21 18 15 26 24 16 16 20 17 15 19 14 21 19 21 24 21 16 26 16 21 14 25 15 18 17 26 26 15 16 24 15 20 14 19 16 19 25 26 15 14 15 25 14 18 25 14 17 17 24 15 26 25 23 15 21 17
24 19 24 19 22 17 22 26 20 21 18 23 26 15 14 15 15 14 25 23 19 16 26 19 20 21 24 15 24 23 14 22 14 19 14 19 18 15 19 21 23 26 21 23 22 14 16 20 16 18 21 23 21 19 23 23 23 19 17 22 16 24 24 25
19 20 18 24 15 21 21 17 17 25 26 17 22 20 24 22 20 14 20 16 17 18 23 20 23 20 18 14 25 17 16 15 17 19 21 23 25 24 21 25 25 17 19 16 25 19 20 20 26 24 20 16 15 26 15 17 14 26 22 24 23 21 16 22
19 19 16 20 21 18 15 21 25 19 23 20 20 22 24 19 26 23 23 18 15 16 24 15 16 23 20 21 25 19 20 26 20 23 22 17 20 24 18 25 21 25 21 18 15 20 15 16 25 17 22 22 14 16 14 17 18 21 25 19 18 19 17 17
24 23 23 21 17 14 25 23 24 19 21 20 19 24 17 14 17 17 15 18 20 20 24 22 15 14 21 22 19 15 17 14 26 25 16 14 22 26 19 22 19 22 20 26 16 26 20 21 15 19 21 16 21 24 16 20 21 26 24 24 24 15 22 17
24 21 21 26 25 19 26 17 16 25 26 25 22 14 26 20 24 25 18 20 14 18 17 19 15 16 15 21 20 15 16 21 18 20 22 17 15 18 24 22 19 23 24 14 24 15 21 25 14 15 18 26 24 23 25 22 15 25 23 24 20 18 20 18
23 16 23 14 15 19 15 18 16 19 24 21 20 17 26 17 26 25 23 21 20 25 20 17 25 17 21 24 21 15 14 17 18 23 15 18 17 18 20 23 20 20 24 25 24 24 21 17 23 25 16 22 25 26 14 22 19 15 20 22 26 16 15 14
19 25 22 15 16 21 20 26 16 25 26 25 20 17 17 20 18 21 17 19 25 18 17 17 26 19 23 20 19 14 16 15 24 18 19 15 20 23 17 17 24 24 20 14 23 25 22 20 23 20 14 21 19 15 21 17 26 20 22 25 17 20 18 17
22 21 17 19 21 15 22 16 16 23 26 20 18 26 23 18 15 20 17 20 25 20 18 22 15 25 23 22 24 20 19 23 24 22 17 15 24 15 14 25 14 17 23 20 21 17 20 26 18 26 14 21 26 26 24 15 17 15 17 23 15 22 20 18
17 16 14 23 20 26 19 15 25 26 18 23 18 18 20 19 20 15 23 14 23 24 26 26 26 19 23 15 24 15 24 21 18 16 23 22 20 23 18 23 26 18 14 17 24 26 26 26 26 17 15 22 25 24 18 26 14 26 16 20 26 17 17 14
17 23 14 24 25 26 21 21 15 20 26 19 20 16 14 25 22 26 24 26 14 20 25 24 21 22 19 23 24 21 21 15 19 25 21 14 26 24 21 16 16 19 16 21 18 18 18 21 14 24 26 25 15 23 21 23 21 22 17 18 14 25 15 23
