P2
64 64
255
19 34 25 28 24 27 37 19 33 30 25 21 33 31 28 22 25 26 29 35 27 31 37 36 21 30 23 23 27 29 23 20 22 25 28 35 38 36 22 23 28 25 31 38 22 36 31 36 23 27 24 25 18 32 24 21 37 23 19 19 22 26 33 24
21 21 19 29 37 26 34 20 22 24 23 31 28 37 30 36 32 38 22 21 38 22 23 36 33 33 25 19 20 22 20 29 26 27 22 35 24 35 30 20 19 31 28 20 29 32 33 23 30 18 27 23 19 18 31 26 20 35 32 33 25 35 26 27
38 22 35 25 31 35 32 35 25 26 35 25 31 26 36 36 21 22 32 36 20 32 28 32 31 21 19 30 18 38 37 30 29 32 37 32 37 33 27 32 30 28 20 29 21 30 35 22 20 34 33 26 25 30 26 31 24 31 24 34 24 37 26 34
19 27 18 25 24 27 20 21 33 32 23 33 22 26 21 31 31 27 29 34 18 30 25 30 24 25 37 19 38 23 31 25 24 29 34 20 27 19 28 28 23 35 32 23 22 36 36 30 31 32 26 32 36 20 26 24 38 36 24 33 33 36 34 30
30 33 27 23 26 35 37 20 32 19 21 30 35 30 23 29 27 28 30 21 33 26 21 35 38 29 34 22 25 18 35 36 35 32 32 37 36 24 33 29 20 26 24 19 20 31 38 32 24 31 33 37 24 23 33 38 28 21 30 31 30 34 27 25
25 34 20 37 31 28 20 23 31 27 24 36 35 30 30 28 23 24 30 20 30 18 24 25 33 34 31 23 19 37 22 30 29 20 24 34 38 29 21 21 26 24 19 23 33 28 38 37 23 22 22 23 18 22 21 32 22 18 18 29 19 31 34 37
27 28 27 20 18 33 35 29 21 19 21 18 30 32 34 18 36 24 38 18 21 36 36 34 26 38 20 19 30 27 37 34 26 30 34 29 27 36 35 26 33 27 23 18 28 28 29 19 28 33 28 19 19 35 34 21 23 18 38 18 33 26 37 38
32 19 21 30 31 35 19 31 18 30 36 29 35 33 34 36 27 28 21 26 24 19 29 29 21 22 30 28 30 20 25 31 29 37 30 26 31 25 20 27 22 36 19 30 30 21 23 30 36 18 27 38 18 32 38 23 30 19 28 18 33 24 19 25
25 18 22 24 24 33 32 33 19 23 36 18 28 30 26 20 25 22 24 31 36 18 35 29 22 33 18 29 37 20 32 25 18 29 36 21 36 18 20 18 22 26 35 25 37 24 28 21 26 24 26 32 21 29 30 24 36 25 18 19 38 20 35 22
31 26 21 23 20 25 35 26 31 36 27 22 24 18 27 22 24 33 21 18 36 38 22 25 33 31 37 24 33 25 18 25 33 28 32 20 34 26 32 31 28 25 33 25 23 29 26 38 18 29 29 31 18 21 20 30 38 19 20 29 23 22 23 31
22 32 38 32 18 34 38 28 25 36 32 37 34 35 38 26 21 26 29 30 18 26 18 19 19 30 37 25 18 25 19 26 36 38 27 19 26 38 23 23 26 20 19 26 37 38 20 22 36 30 22 22 22 29 38 24 30 27 25 31 38 34 34 22
22 37 29 36 27 37 31 18 31 30 20 33 24 19 26 26 27 35 25 26 37 34 18 20 22 25 29 22 18 21 19 36 30 20 22 28 24 37 26 25 24 19 35 33 32 25 23 25 29 18 32 23 38 22 31 31 19 23 31 37 25 30 19 23
38 38 25 28 32 37 27 18 30 23 25 34 26 37 37 23 18 18 29 29 19 19 29 23 34 36 31 28 25 35 27 23 36 32 34 21 32 18 23 33 33 25 27 22 30 23 38 29 32 19 35 25 18 27 23 35 24 34 24 18 25 38 27 31
34 27 27 26 22 27 24 29 28 36 36 19 20 25 22 24 25 18 24 19 33 35 21 28 36 25 26 26 37 32 32 25 20 18 27 37 24 37 31 27 32 20 32 30 33 35 31 37 21 26 20 38 22 22 37 36 25 29 23 31 21 25 23 37
27 37 29 37 36 32 34 20 30 26 30 28 29 24 18 19 36 23 30 33 25 26 36 21 35 32 18 33 23 38 20 18 29 20 19 26 23 23 22 30 30 21 31 26 18 36 34 29 25 37 35 26 36 30 23 22 29 34 36 20 34 38 26 37
33 36 32 27 18 26 19 26 28 37 28 36 24 37 27 22 30 33 36 37 29 24 22 25 27 37 18 25 37 24 38 31 27 21 28 26 26 33 18 35 18 25 35 31 21 27 29 22 30 18 30 21 28 23 18 30 26 18 32 32 33 29 38 36
25 36 25 32 22 29 36 33 20 18 21 32 31 24 24 36 24 22 33 34 27 26 19 21 29 35 25 31 32 19 34 26 36 31 36 18 33 35 32 18 24 30 30 33 26 38 19 28 25 33 33 27 20 29 23 29 27 23 37 21 33 31 36 26
20 24 33 38 36 22 32 37 26 26 30 25 32 20 31 29 20 24 37 33 27 38 33 22 26 26 31 22 36 20 22 21 35 24 21 34 31 31 28 29 18 30 25 35 20 20 19 30 38 38 29 28 38 31 28 33 19 32 21 38 25 32 20 22
36 33 28 26 29 28 19 22 29 21 22 19 28 27 33 30 25 23 30 36 22 21 29 23 19 30 28 22 31 19 33 33 33 34 20 36 26 22 24 25 22 38 26 30 22 27 25 31 36 20 37 29 20 30 30 33 38 19 34 23 24 33 29 25
20 21 26 31 18 24 19 36 36 38 19 22 29 32 19 24 34 28 38 38 30 33 41 27 27 38 36 29 36 30 38 26 37 32 29 30 29 35 30 32 28 25 23 33 33 24 24 33 26 20 37 32 23 28 22 23 37 23 23 26 23 34 19 37
18 37 33 37 18 24 21 20 18 30 20 33 27 36 38 33 22 36 27 41 34 37 44 45 28 25 39 29 25 31 36 37 23 23 31 23 38 37 33 30 42 26 43 35 26 38 43 42 28 30 21 21 33 35 18 27 28 20 18 38 34 36 21 26
38 36 33 20 27 24 28 19 28 26 32 23 23 37 33 27 38 32 33 39 47 31 37 41 44 40 33 27 35 23 111 28 19 27 27 37 24 41 44 40 36 38 47 49 29 31 35 35 26 39 39 32 29 19 32 18 20 29 37 20 34 38 22 37
34 37 29 26 36 26 19 37 29 23 22 25 23 27 26 38 33 34 36 42 41 50 49 41 47 33 39 38 41 35 39 117 21 21 20 41 38 32 44 40 39 36 34 34 52 44 48 36 36 30 35 43 37 39 24 33 30 21 28 35 36 23 37 32
35 24 29 29 34 26 25 36 21 37 35 27 33 40 36 37 53 53 54 44 55 49 55 52 41 45 37 49 31 43 125 38 35 109 31 24 39 36 39 43 49 54 49 51 49 47 38 50 48 31 30 44 38 26 27 25 18 35 27 31 38 23 23 24
32 28 38 19 21 26 21 28 20 18 30 31 38 35 33 38 41 56 46 55 46 55 59 54 44 50 37 32 43 46 110 26 20 23 117 27 47 44 42 49 52 48 59 57 51 59 40 54 50 37 49 47 27 28 31 28 36 31 28 38 20 19 20 34
31 21 20 24 37 22 37 22 19 38 32 31 31 48 42 55 43 52 47 58 47 54 56 53 57 53 55 46 36 49 127 38 28 127 45 132 37 48 39 49 48 55 50 59 62 63 62 57 59 50 43 35 41 44 25 28 25 30 23 34 38 38 23 24
26 29 27 29 26 26 23 36 19 30 27 31 35 55 47 56 53 57 54 56 65 66 63 66 54 43 57 39 39 43 131 38 46 125 35 47 136 49 41 53 49 50 48 56 49 59 65 59 61 61 41 44 40 49 38 37 35 18 29 27 32 26 24 32
32 18 22 19 20 27 20 30 20 37 46 47 52 46 43 50 49 68 64 65 63 71 53 57 68 54 46 41 55 38 31 216 33 38 131 54 125 48 46 59 50 53 72 54 55 63 53 63 62 45 57 42 34 49 39 35 31 37 35 37 38 23 26 28
22 27 31 29 28 20 32 25 27 36 33 49 39 49 55 60 62 65 73 65 57 59 68 70 72 50 49 45 42 40 126 136 32 38 130 41 58 141 65 49 53 56 56 67 66 73 68 52 52 64 57 56 40 44 43 39 30 32 38 38 23 19 18 33
29 30 24 19 28 24 30 27 23 33 30 42 54 61 52 67 70 60 74 67 62 76 71 64 61 60 58 55 45 54 122 123 122 46 132 57 61 137 65 71 58 60 78 79 64 67 71 72 56 50 55 44 53 42 34 35 32 29 37 19 25 25 19 22
28 30 25 31 31 27 31 22 34 39 51 47 52 55 62 55 71 75 67 82 78 83 73 61 70 55 53 63 55 143 42 206 45 45 128 53 60 56 147 65 63 68 78 76 81 79 66 73 53 62 57 62 40 49 39 28 24 36 33 29 24 19 24 20
35 20 30 36 26 22 21 31 40 45 43 42 46 48 57 64 63 71 72 70 86 73 84 68 74 56 51 48 43 124 211 39 38 52 57 142 62 64 53 142 71 81 75 83 87 72 74 64 69 53 54 59 43 54 37 33 41 32 20 21 25 29 23 25
21 32 24 32 26 18 38 34 30 31 42 50 40 60 56 60 64 60 68 77 74 73 81 72 61 73 62 47 43 250 52 39 42 57 137 43 55 52 70 155 59 69 73 70 86 75 77 71 59 55 60 56 58 44 41 44 24 23 18 18 34 21 30 38
35 19 30 37 18 37 30 37 30 44 50 35 57 59 50 69 63 72 69 72 79 69 83 80 72 60 61 47 139 59 212 51 53 37 138 57 63 61 55 154 78 63 81 84 86 76 81 75 70 52 51 52 40 38 41 42 29 38 35 26 22 20 35 29
35 25 30 39 42 32 36 33 44 52 49 43 58 54 56 58 79 68 83 79 85 74 84 81 65 75 61 64 63 230 138 56 59 47 146 63 69 67 77 76 166 81 74 78 80 75 80 72 65 73 59 53 49 56 50 50 45 36 39 41 30 28 40 45
39 45 33 31 32 48 31 34 47 38 59 56 59 61 57 76 81 74 72 75 75 79 88 83 85 85 71 69 150 137 144 55 56 67 136 73 70 62 67 80 158 80 87 80 92 83 89 81 81 72 70 70 66 54 56 62 58 53 54 53 47 39 39 49
34 45 36 35 35 55 37 55 43 54 64 68 67 71 77 73 69 92 81 94 82 94 84 79 74 91 85 70 162 159 70 144 69 75 147 80 77 85 77 81 91 170 89 91 100 96 96 83 94 94 89 81 71 70 69 60 70 66 50 57 55 61 62 65
39 41 60 40 47 44 54 44 62 50 69 61 78 71 72 83 90 85 80 89 100 84 92 99 92 90 82 78 156 163 156 75 77 63 164 71 77 74 82 95 87 106 192 95 98 103 103 104 87 85 90 80 79 73 78 80 74 69 69 60 65 67 70 78
36 39 40 47 47 56 55 48 40 57 54 53 70 67 70 78 69 80 74 71 87 78 89 85 77 71 78 152 165 153 68 66 53 60 158 59 68 72 86 74 89 84 179 86 79 84 97 93 87 83 79 84 80 78 70 55 58 56 63 65 60 56 58 62
43 39 38 43 44 47 33 51 49 39 50 45 45 63 66 70 62 69 67 62 72 70 66 78 78 75 55 141 147 131 46 51 41 47 58 147 54 68 64 64 76 148 69 68 70 69 67 78 65 61 58 53 68 49 60 62 55 41 50 45 60 43 51 50
36 34 44 37 25 41 26 25 37 34 29 44 36 47 54 43 63 50 60 49 49 62 64 57 54 61 45 138 44 139 137 45 41 40 131 50 50 61 52 56 68 61 155 52 65 61 59 56 57 58 61 52 43 39 36 32 35 44 46 44 38 31 44 33
32 23 20 33 18 28 35 34 20 38 28 32 28 33 30 39 37 40 38 47 53 37 50 46 50 42 36 133 34 124 123 39 19 30 29 113 39 34 45 43 38 139 42 55 39 40 50 46 54 33 50 42 36 30 20 20 39 36 27 29 33 27 24 35
29 36 23 33 25 25 27 23 31 35 27 38 40 41 39 43 33 41 33 39 36 34 45 36 35 30 113 28 27 204 33 21 33 23 114 21 39 40 43 43 130 33 52 39 36 44 51 48 49 39 45 42 21 28 31 23 33 18 32 35 38 20 22 27
33 26 25 35 34 30 32 34 35 23 27 35 37 32 35 29 36 45 28 38 32 47 42 38 32 44 123 29 30 27 204 35 22 20 111 32 24 42 37 39 36 117 31 43 49 32 32 31 46 35 28 38 38 23 30 29 34 27 33 33 19 31 26 35
37 20 31 36 23 23 20 36 22 27 20 38 24 26 28 22 34 25 25 45 30 34 31 28 31 119 38 39 32 107 21 103 32 38 123 33 34 24 22 22 42 119 43 41 36 29 43 24 34 36 30 35 28 34 24 36 33 18 22 35 37 32 29 26
20 38 28 21 22 35 33 18 28 35 27 19 36 23 34 21 32 21 26 38 27 39 31 24 117 20 18 20 20 116 22 115 32 26 107 30 31 23 37 22 37 117 25 33 38 24 39 22 29 35 25 37 20 20 20 18 33 33 30 20 23 32 19 31
25 27 24 20 26 27 26 31 34 33 37 21 21 22 27 34 30 26 28 34 32 20 20 27 20 111 37 19 106 19 18 117 21 32 118 29 31 25 20 30 33 109 28 32 28 21 19 30 22 32 18 31 36 38 27 19 24 20 32 31 30 19 31 18
21 23 30 28 24 24 37 37 30 20 37 32 27 26 35 18 27 30 31 20 30 37 20 20 38 106 20 36 38 104 29 32 123 19 32 121 28 24 29 28 107 32 20 20 25 24 31 23 30 24 24 18 21 26 35 37 26 33 24 23 37 34 28 22
19 33 24 33 33 22 20 28 37 35 31 20 23 19 38 28 23 38 34 25 33 22 18 26 22 119 20 32 21 21 111 28 36 115 28 32 113 18 28 107 27 21 35 35 31 31 29 28 28 30 30 25 35 28 33 33 34 21 34 18 21 33 22 36
20 22 18 26 19 35 20 36 26 23 21 24 20 27 38 19 35 24 18 18 36 28 22 29 18 28 106 36 22 34 24 117 35 113 22 36 116 27 109 23 32 34 38 27 27 27 21 20 33 21 38 30 28 28 32 31 19 21 23 22 26 18 24 35
21 31 18 28 29 35 26 35 32 20 36 26 27 34 23 38 38 22 33 33 25 19 22 37 33 38 115 18 20 27 35 29 188 27 22 30 30 121 35 109 31 31 18 33 19 35 22 22 35 32 19 38 38 30 23 21 28 36 20 32 18 36 31 33
33 30 30 24 35 35 35 35 26 31 26 36 20 29 29 21 38 35 29 31 24 22 18 18 18 22 19 116 28 31 37 193 21 29 33 31 33 109 28 122 38 25 21 28 23 23 22 32 19 26 23 38 29 34 20 28 37 28 33 35 26 20 22 38
29 36 24 36 34 26 38 35 18 25 24 21 18 24 37 18 22 21 23 38 31 36 31 22 25 27 36 34 104 32 30 203 33 33 37 38 25 22 107 18 109 37 31 35 35 34 26 21 24 24 36 27 32 32 21 32 35 35 25 23 27 20 23 18
19 23 19 20 37 35 22 33 22 26 30 35 23 21 25 20 31 34 33 34 34 24 26 32 25 30 28 34 120 24 35 120 36 20 31 20 35 32 116 106 30 26 26 34 18 21 34 24 24 18 22 29 24 18 20 37 27 30 18 33 36 25 20 34
20 27 26 27 37 27 24 24 32 21 20 18 37 30 25 22 36 22 20 23 20 29 35 29 28 33 27 104 21 31 29 114 24 24 30 34 29 28 29 122 104 30 24 26 21 33 22 26 28 29 30 31 28 34 23 21 26 23 23 29 38 34 18 31
23 24 25 26 25 36 20 32 23 22 18 35 24 34 22 20 18 27 29 32 38 25 25 29 23 22 23 121 23 20 36 112 37 28 20 29 29 20 31 38 114 22 27 31 20 25 27 32 25 31 28 33 27 35 32 20 21 33 21 20 25 21 34 27
20 23 27 30 33 24 38 29 35 25 19 36 36 18 30 29 20 35 23 32 22 37 38 26 19 36 122 34 38 20 26 19 120 19 27 27 29 30 21 37 121 20 19 35 32 29 22 27 30 35 29 26 21 21 20 32 31 37 31 35 22 18 28 36
26 19 22 21 32 31 33 28 32 27 23 37 18 18 31 26 19 18 30 22 22 28 23 38 23 29 120 38 38 29 36 28 32 118 37 31 30 32 22 23 27 26 26 33 25 21 24 26 26 20 26 36 23 33 31 20 29 26 19 36 35 37 27 18
35 19 24 18 35 18 38 28 36 24 19 32 37 31 18 32 33 25 23 22 30 28 27 29 24 108 29 31 33 32 34 22 119 29 21 30 38 38 32 20 30 23 32 29 26 38 31 34 36 19 21 26 25 32 26 32 34 31 35 37 21 32 26 26
27 31 32 38 37 25 25 25 33 33 31 19 28 36 29 26 30 37 32 20 30 37 21 25 26 118 24 24 33 18 18 21 23 21 26 20 18 20 35 34 30 32 25 29 23 37 22 21 20 36 31 27 26 25 30 33 36 29 33 27 35 32 26 38
25 25 24 32 34 26 18 32 29 19 27 35 25 29 30 36 18 29 28 37 32 25 29 32 119 35 24 34 26 37 27 37 33 22 34 38 29 36 19 37 27 33 33 35 33 24 34 31 31 22 29 30 20 33 32 24 36 22 38 30 36 36 22 34
21 36 35 35 32 27 20 30 25 18 35 19 32 35 20 18 18 21 23 26 30 32 22 36 21 36 33 30 26 33 30 33 33 35 19 28 19 19 27 32 33 33 19 37 27 28 24 24 30 19 25 19 37 31 37 33 35 27 29 38 27 29 20 21
38 26 31 38 37 18 30 35 27 29 25 29 32 21 31 32 23 19 35 25 22 30 35 36 28 20 33 18 31 23 30 33 21 23 18 30 26 18 38 36 22 38 33 19 36 23 30 28 28 27 35 37 26 31 32 38 19 31 19 38 38 22 34 20
29 25 24 25 37 24 27 22 28 30 29 27 28 22 28 26 35 23 25 29 28 30 36 28 34 25 33 30 34 32 28 38 18 24 35 21 36 37 26 23 24 37 23 22 34 22 38 28 37 31 27 34 22 18 35 36 31 23 37 34 29 25 30 34
