P2
64 64
255
25 29 22 24 27 31 25 34 24 23 37 33 30 29 19 19 22 30 30 35 20 36 22 20 25 29 21 23 25 28 28 21 22 31 27 32 20 25 27 18 38 24 31 28 34 34 22 25 26 21 18 33 21 34 27 20 18 35 22 28 36 34 35 20
22 35 30 21 29 20 33 25 26 23 32 25 18 18 22 34 34 21 38 19 37 26 35 36 36 18 29 35 19 24 31 25 23 37 38 31 26 22 33 23 30 35 23 21 30 19 23 32 22 21 22 28 28 33 24 37 29 27 33 28 30 34 37 19
20 30 29 30 27 37 36 25 37 23 30 28 18 22 21 36 34 31 33 36 19 30 34 21 38 18 38 37 28 30 22 36 34 29 22 26 35 23 31 28 27 20 37 25 25 25 36 25 30 36 35 25 31 32 18 27 30 37 38 37 18 18 35 36
36 21 22 29 26 20 37 35 36 24 18 34 32 23 24 28 24 32 26 30 34 25 21 33 33 24 35 24 22 27 36 35 32 20 38 25 20 23 34 21 25 28 27 22 30 37 37 33 34 26 20 35 24 24 18 20 19 23 21 28 35 24 27 23
37 23 36 36 31 23 31 20 27 35 32 23 32 18 37 32 24 28 23 35 25 31 21 25 28 34 19 32 33 18 30 23 31 20 19 27 21 29 36 21 38 18 22 23 23 22 33 29 36 21 19 19 23 20 34 37 34 30 23 21 20 29 26 28
35 25 37 35 35 36 38 34 36 32 29 33 20 20 33 22 28 31 31 35 31 32 37 32 25 22 33 22 26 28 32 32 20 38 21 37 26 26 20 32 21 37 38 30 36 25 27 18 38 22 34 31 26 33 20 30 25 26 25 29 20 23 36 24
30 21 34 32 36 37 20 22 38 22 23 37 33 20 25 36 31 31 30 37 24 23 26 20 37 33 35 37 22 25 38 20 28 35 20 33 21 35 37 20 26 32 31 37 28 20 35 23 30 19 31 26 26 36 32 38 28 38 37 18 23 25 20 31
27 36 26 28 38 25 37 22 27 20 27 33 32 37 19 35 34 23 32 27 20 23 26 21 34 38 32 38 28 20 18 32 30 27 29 25 27 25 33 31 23 28 35 20 21 19 20 23 23 18 20 28 22 22 29 27 20 27 22 21 36 24 18 21
37 22 33 31 26 31 32 35 37 33 21 21 27 20 36 33 27 21 22 26 28 19 38 23 25 22 35 37 29 37 19 22 18 23 22 19 37 29 20 19 25 33 30 36 38 26 23 27 29 27 29 36 26 20 33 26 28 30 36 31 19 24 35 22
18 18 25 29 28 25 27 23 18 20 24 37 33 36 35 26 24 25 19 23 26 28 29 27 32 26 27 35 26 31 21 25 20 34 24 23 25 24 27 22 27 32 38 27 24 34 24 29 28 18 18 34 18 36 29 33 19 29 36 30 18 28 21 36
30 18 37 37 26 29 22 22 31 27 24 18 18 30 24 20 23 18 36 24 25 31 37 26 29 22 31 29 25 34 22 24 25 27 34 32 35 33 38 22 26 32 36 33 21 35 19 32 24 29 36 29 21 25 38 33 20 20 20 24 33 38 26 23
29 19 32 27 30 28 38 21 22 37 21 24 21 29 20 37 31 22 22 35 31 18 38 22 22 28 28 19 26 38 18 23 28 27 29 26 35 38 18 35 20 26 33 25 27 35 30 21 18 22 26 25 27 35 22 21 37 18 21 37 23 37 20 37
21 30 26 30 38 38 36 20 27 38 38 29 19 32 30 30 36 38 20 38 29 19 25 38 19 18 31 38 33 36 26 28 34 29 21 23 35 26 26 34 29 29 22 21 33 36 36 30 36 29 28 21 26 32 21 33 35 33 26 32 27 25 26 32
20 19 18 33 19 19 27 26 34 22 27 27 21 26 21 31 29 18 25 37 24 25 21 29 23 25 37 34 30 25 27 21 22 36 24 19 22 21 18 26 31 21 37 26 30 28 38 37 29 31 18 37 29 27 33 25 37 25 35 29 26 34 29 31
27 37 26 35 29 19 19 34 23 38 26 23 32 29 33 28 30 19 35 24 29 24 36 22 37 31 32 30 26 36 26 36 22 30 21 38 30 36 21 21 24 34 33 23 19 22 22 28 25 22 26 37 33 36 27 28 30 23 32 32 37 25 22 31
31 26 22 30 27 33 21 20 29 27 18 37 35 25 25 18 38 34 18 33 37 34 18 19 28 21 22 27 20 25 38 29 21 38 37 36 35 30 19 21 28 26 23 26 38 27 35 36 32 36 28 29 26 19 18 29 25 19 35 32 20 19 38 19
28 19 28 21 36 24 28 27 38 35 34 32 32 27 33 25 32 35 20 28 20 19 32 36 38 30 31 29 35 21 18 30 27 29 24 32 26 20 21 33 31 37 37 24 29 33 35 25 33 25 18 30 24 32 22 33 18 31 21 36 22 30 28 33
31 18 35 24 19 27 25 29 24 37 20 36 34 33 37 29 34 23 27 34 32 26 31 33 32 35 19 35 34 35 33 33 38 18 27 30 29 26 27 35 25 26 31 33 34 21 28 26 21 27 30 32 22 33 19 30 27 27 32 30 32 31 28 21
30 31 19 18 20 18 23 33 33 33 23 37 38 25 19 26 26 20 26 38 26 34 26 24 36 23 21 36 35 27 27 24 23 34 35 19 21 22 31 31 30 21 19 29 29 30 20 19 32 27 18 20 20 30 35 23 34 22 26 33 35 38 27 29
21 34 26 38 26 36 32 23 28 19 26 37 31 32 23 21 29 40 30 38 37 26 37 37 33 27 30 21 29 35 33 35 33 23 23 31 35 36 32 27 20 27 38 23 41 28 37 23 31 20 32 24 23 27 21 32 33 38 23 24 38 22 29 33
20 23 20 30 28 22 37 34 36 18 25 21 31 27 30 39 22 30 27 37 27 26 32 26 38 31 39 39 26 21 37 22 34 22 25 18 31 19 23 23 33 36 32 30 30 31 32 31 41 41 37 32 31 33 29 29 19 36 26 25 36 29 31 32
20 38 29 33 33 37 27 25 29 37 38 33 30 28 27 36 29 28 42 36 34 35 36 45 37 39 42 36 23 38 26 25 24 19 37 22 37 41 36 26 36 29 47 44 38 45 31 45 30 43 37 40 38 38 22 35 37 26 19 23 29 22 27 25
28 19 34 29 19 34 29 22 25 19 18 20 26 43 34 44 33 44 47 34 53 42 33 40 35 42 48 41 41 37 36 32 35 19 32 33 28 32 43 37 41 50 46 45 47 43 39 33 39 41 26 25 26 22 22 29 33 24 19 30 21 25 20 34
33 18 37 27 27 38 24 27 27 25 27 39 29 34 37 40 40 47 42 53 37 47 51 49 45 36 39 37 33 30 40 38 19 26 29 40 38 36 49 39 45 49 56 43 38 40 45 47 42 46 33 39 24 38 30 35 33 33 24 23 25 25 33 37
20 32 23 33 29 38 32 30 23 21 39 27 27 43 49 49 49 57 59 46 44 50 55 60 40 45 55 49 49 37 44 33 27 31 44 37 42 33 48 40 52 55 56 52 61 58 58 57 53 43 43 30 45 42 23 21 19 35 38 26 36 23 36 25
27 38 33 23 20 36 26 33 27 29 35 30 37 37 35 54 60 44 45 50 65 58 55 51 57 44 56 55 42 42 33 42 31 38 32 47 42 39 38 48 47 49 62 62 63 58 45 42 40 58 43 49 45 31 26 31 19 32 30 23 37 24 32 29
36 23 25 33 27 26 18 34 32 40 33 43 46 40 38 43 51 45 53 60 51 64 67 52 51 44 53 42 35 50 34 25 44 38 48 47 45 41 55 51 47 48 62 64 56 54 66 55 53 49 38 36 34 37 29 38 25 23 35 32 21 21 36 27
27 22 25 19 22 34 36 27 22 36 45 44 48 45 61 54 56 68 53 70 53 57 68 66 69 61 45 56 41 35 44 35 30 45 49 51 57 44 53 61 69 66 60 73 53 63 57 54 46 50 41 47 51 36 46 25 31 24 31 32 37 35 34 35
22 31 18 19 30 30 26 23 37 30 42 35 47 44 55 47 54 65 64 58 66 70 66 56 57 59 49 63 53 45 35 33 40 51 38 44 42 48 54 58 54 67 73 62 63 62 63 52 69 58 63 49 50 37 39 25 22 20 24 20 21 28 18 34
34 37 18 35 29 22 30 19 31 29 46 53 50 58 49 54 65 72 57 61 78 61 75 62 67 70 64 48 60 44 51 53 50 53 44 57 60 50 66 65 67 63 71 75 63 62 67 57 63 52 51 56 48 44 45 38 28 36 25 36 23 36 34 35
29 18 33 27 29 23 26 30 28 38 42 35 58 53 57 53 73 66 68 79 70 65 82 71 71 66 67 64 55 38 43 37 46 51 55 40 43 54 61 57 76 74 70 76 67 70 60 73 65 52 61 43 46 49 34 32 25 26 36 28 20 22 26 28
26 23 26 24 27 22 22 20 31 40 39 48 45 51 66 60 73 73 80 72 74 75 83 70 73 65 55 47 46 54 54 38 52 36 52 41 43 54 56 74 62 67 83 76 71 79 80 67 67 53 62 47 42 38 40 31 42 33 25 23 37 26 38 35
27 38 22 25 29 27 38 22 30 34 46 39 39 59 52 60 64 62 73 75 82 81 69 74 62 59 57 56 46 40 38 53 42 44 44 40 62 47 54 70 70 63 75 72 73 70 65 68 57 52 62 54 55 46 42 34 44 40 30 24 23 36 24 32
30 30 21 18 24 33 36 31 32 47 46 36 49 51 47 65 56 70 65 85 84 68 74 71 71 70 54 49 48 44 51 47 37 52 57 54 55 60 61 57 78 65 78 73 69 68 75 71 64 60 60 62 42 55 37 47 29 25 21 28 34 18 24 34
29 29 18 22 24 27 27 31 43 43 41 42 43 61 63 56 66 57 78 67 69 76 65 75 66 68 70 52 47 45 42 48 38 36 45 39 62 53 60 56 59 76 64 81 69 76 68 63 65 54 49 52 40 46 36 47 23 39 35 37 35 33 28 18
28 19 29 27 18 24 36 38 37 45 45 44 37 42 53 64 67 63 61 77 66 61 63 68 72 60 54 49 44 48 41 41 48 46 49 42 58 48 53 60 73 66 74 61 61 77 74 56 61 52 53 45 44 47 36 28 36 20 35 20 33 32 32 24
36 22 24 35 23 21 33 29 28 41 47 42 48 59 59 62 60 56 63 65 62 72 66 71 72 65 50 61 49 53 35 41 48 37 51 44 43 55 61 58 55 66 72 75 73 71 74 65 53 53 43 49 41 36 31 42 28 31 34 24 35 25 20 30
26 21 22 36 35 27 30 32 20 40 40 50 52 46 42 59 66 66 69 66 69 70 67 64 55 59 50 40 57 40 42 31 48 35 40 39 49 55 51 57 66 70 64 56 53 56 62 67 65 53 55 55 39 49 36 39 30 29 31 34 20 38 32 38
30 20 29 34 31 21 27 19 30 24 36 44 34 43 54 61 61 48 56 57 69 60 59 58 62 53 58 49 44 32 40 32 38 43 40 35 41 54 55 63 50 52 60 61 54 66 47 47 59 46 44 50 37 41 31 38 24 21 36 29 23 34 32 31
28 38 37 21 21 39 34 40 22 34 46 47 38 54 52 49 63 59 50 67 61 53 50 62 54 52 43 49 41 47 51 41 34 28 49 42 47 46 60 65 62 54 67 62 50 56 58 64 61 46 58 44 47 46 37 45 37 28 37 30 33 26 36 44
40 43 27 27 38 40 30 33 37 28 28 41 46 46 52 57 48 54 52 67 66 59 51 65 60 56 51 49 47 52 49 39 28 36 54 45 45 54 63 60 61 59 56 63 57 65 60 52 64 66 54 61 56 38 41 43 49 35 49 44 51 43 31 35
31 34 29 34 30 37 48 32 29 49 33 39 40 44 46 51 49 61 50 66 59 52 57 49 63 60 52 47 57 43 38 38 49 40 50 40 53 51 61 65 51 61 55 66 70 73 61 52 62 55 54 52 46 53 51 39 39 55 36 48 55 49 50 44
27 32 28 40 25 36 30 33 34 42 31 34 41 40 43 40 38 43 41 46 45 48 42 52 47 41 47 43 41 35 31 44 32 43 41 51 38 53 53 49 45 42 60 50 54 62 59 62 43 50 47 48 33 32 44 40 32 47 37 40 39 34 36 42
31 37 25 34 29 22 36 36 25 29 29 40 28 35 35 29 48 40 44 36 39 50 49 50 50 35 38 29 38 40 40 35 38 34 40 37 33 33 46 42 37 53 35 39 35 42 48 45 34 38 44 43 29 24 26 30 31 38 25 39 33 36 38 26
33 28 33 26 33 30 23 28 28 25 22 27 31 29 23 24 30 34 26 40 45 42 27 42 24 36 30 39 28 36 27 26 32 23 22 26 18 27 34 26 36 45 25 39 40 27 33 27 40 40 22 30 32 30 38 20 33 37 28 26 20 27 29 23
33 33 25 29 25 19 29 24 19 33 22 28 26 23 21 18 36 40 34 25 40 33 25 21 31 27 19 25 23 34 36 25 26 37 38 23 24 28 32 29 22 24 39 35 29 34 38 23 24 34 25 33 29 19 21 18 23 21 27 38 19 30 32 19
25 22 30 34 21 22 33 21 28 19 35 25 36 32 31 37 25 30 22 24 36 26 20 29 19 35 30 22 32 19 37 28 19 22 27 22 28 33 36 19 27 30 32 19 31 25 24 23 30 35 30 31 34 27 19 38 24 33 33 36 27 19 21 30
31 20 23 22 18 24 31 38 32 21 32 18 38 31 32 21 20 26 31 24 22 28 26 18 24 19 29 31 21 37 35 20 38 26 36 32 24 38 30 33 34 32 21 22 18 26 23 29 24 18 23 36 18 24 26 35 26 18 31 24 34 28 36 20
28 18 36 18 19 20 26 22 27 24 22 21 20 28 30 34 26 23 33 22 29 38 24 25 33 24 31 25 34 19 34 24 38 24 19 23 36 20 33 26 32 20 19 36 27 21 27 20 30 19 18 25 20 24 26 33 25 28 33 35 25 24 38 18
30 24 24 28 25 23 25 34 23 38 28 22 33 23 34 26 26 37 31 33 30 25 20 34 31 37 34 33 37 23 22 30 20 21 22 29 27 24 33 27 34 18 29 38 34 21 20 19 36 30 21 27 21 27 24 20 22 37 32 38 22 25 32 27
23 34 21 28 24 24 27 29 31 35 29 35 33 33 25 22 23 31 38 28 22 30 18 34 23 24 19 27 29 36 38 35 36 18 31 31 34 26 36 29 22 38 34 37 32 27 26 26 22 36 36 24 35 21 33 35 30 28 18 21 27 31 24 22
24 18 25 33 29 35 32 26 23 33 25 22 25 33 38 38 35 26 26 22 27 33 31 21 31 29 30 31 35 26 35 35 24 26 37 18 38 25 25 25 38 33 35 26 23 27 24 34 20 26 32 38 34 26 18 29 37 27 33 21 36 20 18 21
24 34 36 22 34 36 35 35 20 30 37 27 22 21 35 37 28 37 25 29 37 20 30 22 24 35 34 27 36 33 23 38 19 29 31 34 19 31 37 29 30 18 24 31 24 33 24 36 31 26 37 31 37 33 29 34 19 24 28 26 29 28 28 29
30 20 20 32 24 18 21 33 18 19 34 21 31 35 25 33 28 30 19 37 29 27 29 38 31 23 34 29 20 32 38 33 22 24 29 35 22 30 30 32 33 21 37 32 22 32 23 26 19 38 19 26 26 34 27 19 24 32 22 33 18 25 20 24
24 27 21 29 19 27 35 23 24 22 22 34 24 33 23 30 32 28 19 38 34 19 22 30 28 23 21 27 32 23 25 33 20 30 18 22 33 30 21 26 29 22 29 20 30 22 36 29 34 22 25 23 35 28 30 37 32 32 22 25 31 28 23 25
35 34 27 31 28 29 18 28 38 30 29 32 26 34 26 34 21 38 18 37 25 26 35 26 31 35 25 38 35 32 30 21 30 29 23 27 32 36 25 25 33 34 24 34 34 24 22 34 28 20 18 20 38 28 21 33 33 27 28 21 34 25 32 23
21 23 34 28 38 29 29 31 24 34 24 19 34 38 28 18 31 31 33 36 29 30 36 35 36 29 20 28 31 35 20 19 30 24 37 23 21 27 21 29 31 34 33 30 28 30 34 25 19 32 36 20 38 34 25 35 20 19 23 21 31 32 21 24
36 19 32 29 25 18 34 22 34 29 36 29 21 30 31 33 21 37 29 25 36 28 25 25 29 18 19 34 24 20 27 29 27 29 22 27 27 28 29 37 36 33 27 26 30 23 35 38 18 29 27 28 27 28 28 21 31 21 31 33 37 36 18 20
19 20 19 26 37 34 23 22 32 22 29 18 28 22 21 30 23 23 30 23 32 37 34 30 25 31 26 33 21 28 33 28 22 24 28 30 27 30 33 34 29 25 29 27 36 25 27 20 18 29 25 26 38 22 26 32 18 20 38 38 29 24 30 19
37 23 26 27 28 23 37 20 34 22 26 28 36 24 22 30 25 38 22 27 29 28 33 31 34 33 37 31 23 33 32 34 24 25 30 31 32 27 37 18 25 19 38 18 34 20 26 38 33 32 31 19 30 29 37 26 25 29 20 26 31 30 30 22
36 28 32 18 33 30 21 28 33 22 19 27 24 38 26 31 30 24 36 31 30 26 29 26 19 25 38 28 26 21 19 35 37 38 32 28 18 18 18 19 24 35 30 22 35 30 34 35 35 29 18 32 38 31 19 37 36 29 38 18 22 25 33 29
36 25 34 33 23 32 22 28 30 31 25 37 33 37 33 19 23 25 19 28 19 37 19 35 24 19 35 26 20 20 19 21 25 24 18 35 21 38 25 36 26 26 31 21 32 33 24 26 24 25 24 36 38 35 26 22 36 33 27 18 24 21 35 25
37 29 18 23 29 27 38 21 32 38 32 34 29 22 34 22 35 38 28 31 23 27 27 38 38 31 30 31 38 20 23 31 34 23 26 18 20 24 25 24 23 35 33 24 26 29 25 19 21 28 29 35 34 36 33 28 29 28 31 34 33 36 26 31
23 36 22 34 36 24 35 26 19 20 25 33 36 22 35 20 21 33 27 21 25 30 37 35 23 35 37 23 30 32 19 28 32 21 32 37 26 21 34 32 35 22 18 38 36 18 36 19 20 21 26 28 26 29 26 28 21 24 28 25 21 35 21 28
