P2
64 64
255
25 14 23 14 20 21 21 18 19 20 25 19 20 15 16 16 22 19 14 25 26 18 26 25 15 19 19 18 19 20 26 19 23 16 24 23 19 21 14 22 24 26 15 26 15 18 25 24 24 25 24 14 19 16 25 25 25 19 17 24 21 17 16 15
19 19 24 22 26 23 21 15 15 23 25 25 19 17 17 24 23 21 16 23 21 15 20 22 16 17 21 22 19 16 23 20 25 25 19 18 16 22 21 14 25 19 18 21 24 24 20 20 16 26 16 23 18 16 22 25 19 16 23 20 24 14 25 23
15 26 15 20 18 15 21 20 14 21 14 14 18 25 25 17 14 16 14 17 25 15 20 26 25 26 21 25 18 25 25 16 17 23 25 19 17 24 23 26 22 14 18 25 18 16 23 18 24 16 17 17 25 18 16 21 22 15 20 26 14 19 17 20
21 26 22 14 23 15 21 19 16 26 17 20 14 22 20 15 16 24 24 22 24 22 14 19 20 25 23 17 19 22 17 17 20 19 21 20 15 25 19 23 22 23 21 26 22 20 26 16 25 16 15 23 25 18 16 17 18 19 26 26 14 19 20 23
19 22 23 20 25 25 21 23 24 18 16 23 20 16 18 22 14 26 23 24 22 14 20 16 26 23 16 20 16 16 14 17 22 19 21 15 16 19 17 19 26 14 26 23 19 20 18 21 24 21 25 22 15 26 16 18 14 17 23 15 20 21 14 18
26 18 20 20 20 20 26 22 23 20 19 17 20 20 25 18 22 17 20 15 18 22 25 15 26 17 24 26 24 17 26 23 17 16 21 26 22 21 15 22 20 21 23 24 26 21 23 20 18 19 24 18 20 26 19 23 18 20 23 14 17 17 25 25
26 18 17 23 26 15 16 25 16 19 14 23 24 25 15 21 19 19 16 15 17 14 26 15 19 15 20 16 15 14 14 20 22 22 22 20 15 15 25 22 22 22 25 24 21 17 22 17 22 25 14 18 26 14 26 14 22 25 22 23 17 17 18 23
16 15 17 14 19 17 22 24 16 23 19 14 20 21 15 19 14 16 20 14 19 21 14 24 16 25 25 26 15 18 19 19 26 14 16 24 15 15 21 26 23 15 26 23 14 19 18 16 24 16 23 21 15 22 22 19 19 21 18 17 23 22 17 14
26 23 20 19 16 24 25 23 21 20 22 15 25 22 23 14 19 25 22 24 21 26 14 26 22 22 26 16 23 19 17 25 23 20 16 20 24 18 22 18 15 20 16 26 23 23 21 23 15 21 18 20 22 24 22 23 14 21 15 23 26 18 16 24
18 22 16 22 20 23 26 26 22 24 17 18 24 25 18 15 18 24 23 21 19 25 19 16 19 15 24 17 22 22 18 25 20 19 14 23 17 17 22 14 17 25 18 22 25 18 22 24 16 20 15 19 26 16 16 22 15 24 26 24 18 15 20 24
16 21 22 20 14 24 24 18 15 21 22 20 21 23 16 26 26 16 23 23 23 25 24 16 17 18 15 21 25 21 17 23 17 22 17 16 20 17 14 18 18 16 14 26 17 16 19 22 17 17 15 18 18 17 22 25 23 14 14 26 15 23 17 20
16 24 25 14 16 15 15 16 14 14 17 22 23 26 15 24 24 20 25 26 18 16 17 18 25 15 17 24 21 16 25 20 25 18 24 24 25 14 20 24 15 16 16 22 20 19 15 15 17 22 18 22 14 23 18 24 14 21 14 25 24 20 21 15
15 26 19 23 17 22 25 25 26 18 26 26 25 24 19 19 25 17 18 15 24 19 23 23 25 16 17 18 26 15 14 23 24 16 19 22 26 23 23 18 23 18 21 24 17 19 25 17 26 23 18 19 21 24 15 22 25 23 20 19 26 16 21 25
16 18 24 25 15 25 26 14 25 16 21 21 14 19 14 22 19 22 19 24 18 22 22 24 22 19 17 26 21 20 14 18 16 26 17 18 15 21 16 25 18 14 25 14 19 21 23 22 24 24 22 23 26 16 26 17 25 25 19 15 17 25 22 21
25 21 14 19 20 18 23 26 15 19 14 22 21 15 25 17 15 24 24 15 22 17 22 22 17 19 17 23 16 16 23 24 22 21 22 16 21 15 22 16 15 14 26 22 21 17 17 15 24 20 17 16 26 21 19 22 22 17 21 14 23 17 23 18
23 21 17 24 26 25 15 26 23 19 16 23 26 26 18 23 21 14 14 26 21 18 15 25 14 19 19 20 16 26 19 24 22 17 19 20 23 25 26 20 18 23 23 24 14 14 20 14 15 20 15 20 22 15 20 19 20 17 20 16 18 14 19 17
21 14 24 22 17 16 15 19 23 17 16 21 18 21 19 16 17 21 23 19 24 20 14 25 21 19 22 17 15 17 25 17 20 26 16 16 26 19 15 20 26 15 19 16 20 21 15 19 20 16 20 26 18 21 21 25 24 24 24 19 16 17 21 23
16 20 15 16 15 19 18 24 19 20 26 24 19 19 19 18 14 18 21 16 17 23 14 21 26 25 17 21 20 20 26 20 15 16 23 21 26 19 20 26 25 23 16 26 23 20 16 26 25 20 24 20 20 19 23 21 24 26 15 16 14 22 14 19
21 16 16 17 14 20 25 18 17 15 14 21 19 14 17 19 20 18 22 15 23 20 24 26 16 16 24 23 20 24 21 26 26 20 16 16 26 14 16 14 16 23 22 19 14 22 14 16 24 19 24 19 15 14 18 20 19 26 20 24 23 14 23 18
22 21 21 18 14 18 17 25 15 24 21 15 14 25 20 23 21 24 29 26 19 29 17 25 24 24 14 15 24 20 15 17 19 20 23 26 22 17 26 17 27 29 18 19 26 22 25 27 17 15 23 23 26 20 22 25 26 21 17 16 23 23 23 26
24 16 14 24 26 25 18 25 20 24 26 19 19 20 23 26 28 27 25 28 28 34 26 33 32 26 28 15 19 21 21 18 24 24 25 23 16 25 27 20 22 32 33 32 33 23 28 21 22 22 17 26 21 20 18 22 19 24 21 14 18 19 23 18
15 22 15 20 16 14 23 26 16 21 21 21 14 26 31 23 33 28 26 37 26 26 29 30 27 27 23 20 25 25 26 17 14 20 20 16 22 29 32 33 32 29 30 29 26 37 26 34 22 21 23 25 18 26 17 22 25 14 21 23 20 23 20 24
25 16 17 21 22 19 19 22 17 20 22 18 26 31 24 31 27 32 40 29 30 31 33 39 34 32 34 30 32 29 17 18 20 26 22 26 21 22 24 28 33 29 41 34 39 33 33 31 33 29 29 25 25 15 18 21 19 21 17 21 25 26 18 18
18 22 22 17 17 26 23 14 16 18 18 25 23 30 34 37 41 41 36 38 36 33 44 38 39 32 32 29 30 31 29 16 26 21 18 22 33 36 27 33 31 39 37 33 39 38 39 36 40 30 27 31 30 22 24 20 23 16 19 20 21 23 23 21
25 14 25 14 19 18 21 22 19 18 25 25 30 27 36 38 42 40 37 40 41 42 49 36 39 42 34 33 36 35 22 21 26 27 24 26 35 40 41 38 37 44 40 42 46 40 39 46 45 43 28 27 30 21 26 21 16 15 14 15 20 16 22 20
14 26 20 16 19 24 22 15 19 23 31 24 35 38 38 44 38 45 47 45 53 49 41 47 41 43 45 33 29 31 28 24 18 24 30 35 40 31 36 38 43 48 44 45 53 49 51 40 40 36 40 36 28 22 28 21 18 18 16 18 14 18 19 26
21 25 19 24 22 22 21 20 25 24 22 37 29 41 36 38 48 51 50 44 45 49 51 54 47 45 39 38 42 32 30 25 27 30 34 29 34 35 46 43 45 51 51 54 57 45 48 47 39 38 46 41 31 35 33 20 24 24 15 26 23 14 22 16
16 23 25 23 14 21 16 26 24 28 29 37 41 45 45 41 47 47 55 55 57 55 49 52 52 48 44 36 34 32 35 26 29 27 31 42 43 46 49 45 48 48 53 54 50 51 57 46 49 40 41 45 31 30 31 27 24 15 24 16 16 21 24 17
22 26 26 24 22 15 21 24 18 26 36 29 42 47 46 44 53 59 62 56 55 56 57 52 58 54 45 44 46 39 39 32 35 31 28 43 43 46 42 56 60 52 63 59 58 55 53 51 53 42 48 36 41 35 31 25 25 26 20 21 16 14 23 14
20 24 23 23 16 24 14 18 29 31 32 30 40 38 44 56 56 52 60 56 64 59 58 61 52 47 52 43 48 39 39 35 40 35 35 41 40 41 47 53 52 61 57 66 57 60 55 60 54 44 50 45 35 30 35 30 28 26 24 24 15 20 26 14
20 16 19 15 23 16 20 22 19 29 35 33 45 41 50 54 55 60 65 61 60 66 67 61 62 53 53 44 45 45 33 42 42 44 37 39 40 47 49 61 63 67 59 63 65 61 58 55 61 51 54 49 43 39 39 28 30 26 24 26 18 25 25 23
25 23 25 24 24 20 26 16 32 26 33 39 37 46 54 53 58 54 68 62 76 66 68 62 62 52 51 55 45 46 40 37 43 40 35 47 48 54 55 55 54 59 66 68 75 74 70 62 51 48 47 50 46 39 36 25 20 17 23 17 19 14 26 26
18 21 22 17 26 26 26 21 28 28 32 31 42 43 54 59 61 59 60 72 73 75 65 67 60 56 58 48 41 47 41 36 40 38 41 46 43 49 59 63 66 64 75 77 77 66 70 57 62 47 53 47 36 43 28 28 23 21 15 25 22 20 16 26
25 22 16 19 21 15 18 16 30 31 34 40 40 41 49 59 54 56 60 71 71 70 61 65 63 52 48 46 40 41 38 37 40 39 40 37 41 46 53 60 54 67 72 74 71 62 67 64 56 56 45 43 43 35 30 28 31 18 21 16 17 22 26 14
19 22 26 24 25 15 23 26 31 26 32 34 45 38 43 51 60 58 59 61 66 72 66 62 61 54 49 44 49 41 39 36 37 43 39 38 42 45 58 59 60 64 64 60 62 62 60 60 58 56 54 49 42 36 33 31 19 19 23 16 19 20 26 16
18 15 25 26 25 16 14 24 19 22 38 41 34 38 47 55 50 59 61 58 57 62 65 61 54 50 56 50 46 34 35 39 41 30 38 38 38 48 46 56 56 55 58 60 61 66 57 56 59 52 52 42 41 42 29 30 21 19 14 25 22 15 15 25
22 19 19 17 18 22 22 19 27 30 25 33 41 42 44 43 53 50 54 55 61 58 55 54 54 47 42 39 44 38 35 32 40 29 29 39 43 44 45 46 60 56 61 64 61 52 62 54 56 52 41 39 41 32 32 23 28 16 24 25 22 24 23 24
19 14 16 18 23 19 18 24 26 30 31 39 33 43 45 46 46 57 51 48 58 57 54 58 47 45 41 42 35 37 36 26 35 33 38 32 40 42 43 52 55 49 59 49 56 60 57 56 51 45 48 37 37 33 34 27 19 19 21 20 23 26 20 16
18 17 24 26 25 16 14 19 22 18 21 25 37 38 34 40 41 48 55 45 53 51 52 51 49 39 47 34 42 28 32 26 34 22 37 37 41 41 44 44 49 43 54 48 48 53 44 43 43 41 41 40 35 28 28 20 24 18 15 18 22 18 23 21
24 17 21 28 29 28 21 21 26 23 28 27 31 37 44 45 45 48 48 56 51 56 56 43 50 49 50 44 38 41 29 29 23 34 36 40 44 46 42 51 50 44 55 53 51 55 54 47 53 47 46 40 38 34 25 32 24 28 29 32 30 20 23 25
28 31 28 25 23 21 24 31 31 31 29 28 38 41 39 46 41 46 51 55 53 53 54 51 49 42 48 47 39 43 30 27 28 34 41 42 45 45 47 46 53 54 59 49 57 56 55 47 56 46 40 39 37 40 37 26 38 32 34 30 33 35 34 37
29 27 33 27 26 32 27 28 36 25 28 31 42 44 43 48 50 49 45 47 50 55 55 56 46 48 42 48 41 37 34 35 37 29 44 35 50 51 49 46 56 55 57 59 53 59 56 55 55 49 49 43 38 46 42 42 38 37 42 40 41 34 38 37
24 25 32 29 32 24 33 24 33 24 26 23 30 32 39 43 39 36 45 47 37 48 42 39 35 38 44 36 35 26 30 33 25 26 25 29 41 42 36 42 49 46 42 51 44 40 39 40 42 39 39 33 29 28 31 36 36 31 28 31 32 29 33 29
22 24 19 29 19 28 27 24 19 21 24 17 19 26 24 28 33 38 35 41 39 30 38 30 28 35 30 31 29 23 20 19 19 24 29 22 27 31 36 35 38 34 41 36 38 37 36 36 33 29 36 32 31 23 21 29 26 32 30 31 31 32 21 29
26 21 19 19 23 18 25 20 22 16 25 24 24 23 17 19 20 22 29 31 25 24 32 33 30 26 25 18 16 23 17 22 25 22 16 25 17 21 18 18 30 21 27 24 23 31 27 25 26 17 20 22 14 17 23 15 15 23 23 17 25 16 17 22
15 22 20 24 19 15 22 20 15 21 25 21 16 21 24 19 17 17 17 20 25 21 24 25 21 23 26 15 17 21 20 15 25 26 14 20 17 21 18 18 18 19 25 22 20 23 27 22 25 14 21 26 20 20 15 26 19 22 25 20 14 23 22 25
22 18 24 22 18 18 21 25 25 18 22 15 26 26 19 24 15 18 15 14 26 19 21 26 16 18 16 23 22 14 26 22 17 17 17 19 26 26 16 25 26 20 24 26 20 21 23 18 23 21 24 24 25 19 15 19 16 16 19 20 15 18 19 17
18 25 22 21 16 23 17 22 26 20 14 14 23 15 26 14 14 23 17 14 23 21 26 22 23 15 17 15 21 23 20 16 18 14 17 20 23 25 20 14 22 16 24 26 19 26 25 15 22 20 23 23 17 22 23 18 23 21 19 19 16 24 19 24
25 24 15 16 16 15 23 19 19 14 22 23 25 15 15 16 19 21 15 17 14 19 23 19 23 18 14 15 17 22 17 20 17 17 20 23 14 25 23 24 23 18 21 16 21 15 18 23 15 17 25 18 18 15 21 26 23 25 19 16 15 18 15 15
17 24 24 14 14 25 15 23 21 14 21 26 23 20 16 17 17 24 24 24 22 22 14 14 21 14 22 19 20 19 25 18 15 15 25 23 15 20 19 22 26 15 15 16 18 17 17 23 22 22 15 25 23 19 16 14 26 23 26 18 21 25 21 23
17 18 25 14 21 26 22 24 16 14 17 21 25 25 25 18 26 14 22 18 19 25 24 25 24 18 26 15 14 21 23 21 20 19 14 22 15 18 25 15 26 20 24 20 14 14 23 24 16 23 15 17 21 23 26 26 21 23 18 23 18 22 25 25
20 24 18 21 26 26 26 16 26 17 20 20 26 20 18 22 14 24 20 24 25 25 16 18 24 21 26 22 18 14 17 25 15 22 24 17 24 14 20 21 18 23 20 20 18 20 16 20 26 18 26 24 26 24 19 14 24 25 22 26 26 23 24 16
21 19 23 22 23 16 15 22 14 18 26 24 15 18 25 20 26 19 23 17 18 24 14 16 17 25 25 24 18 14 22 20 14 25 20 17 15 15 24 17 18 17 19 23 15 14 14 23 16 24 19 15 24 16 17 20 14 26 21 16 26 15 25 24
26 23 17 16 22 21 20 18 22 24 26 17 20 15 20 23 14 15 21 19 14 21 25 19 16 16 26 26 25 16 22 15 18 19 23 23 25 24 17 18 22 17 23 24 21 14 21 25 16 25 15 16 25 25 20 17 24 25 14 21 17 26 26 15
23 20 24 22 14 23 15 21 22 26 15 19 23 17 23 26 24 23 15 20 23 19 15 26 16 17 20 19 19 15 26 14 16 22 14 17 21 14 20 17 23 19 17 23 14 17 15 14 23 14 22 26 17 21 16 22 21 22 23 23 16 15 19 23
20 14 17 18 26 19 22 22 17 15 24 18 20 15 15 26 25 25 22 26 24 16 26 20 22 22 18 22 14 17 19 15 22 17 22 21 26 19 14 16 21 15 22 19 16 26 25 20 18 17 15 16 18 21 19 22 16 22 22 14 25 21 16 25
24 22 17 22 15 24 24 23 17 18 17 26 25 18 17 23 26 20 18 26 20 25 26 15 15 25 14 17 26 15 24 17 21 14 19 19 20 25 21 25 14 24 23 21 17 25 24 14 16 22 15 19 25 24 15 16 24 22 24 24 18 15 22 21
14 24 20 24 22 20 19 16 15 25 19 26 21 17 26 20 24 15 25 16 19 15 23 15 25 18 21 21 14 16 22 20 16 16 14 18 21 21 19 15 14 26 25 23 22 18 23 14 17 19 20 24 22 15 19 23 18 19 18 20 20 15 14 26
25 21 18 24 22 20 16 15 20 19 19 19 24 23 18 14 20 21 25 25 18 17 21 21 19 20 26 21 14 14 25 25 16 20 17 14 16 21 16 18 18 25 18 15 26 23 14 19 15 18 14 18 23 22 24 26 17 17 18 22 16 23 24 26
17 21 26 17 14 16 18 26 19 21 25 14 20 21 24 20 20 19 15 15 25 26 25 23 23 23 24 17 20 18 20 20 14 19 24 26 14 19 14 18 14 19 21 14 21 14 23 24 20 20 15 25 21 22 21 18 26 16 18 26 26 14 22 14
16 24 15 19 22 25 22 26 23 24 17 20 14 24 24 20 22 21 26 26 16 18 25 21 25 24 14 20 18 22 22 25 24 15 19 17 22 20 14 25 18 22 24 16 26 23 15 24 24 17 19 19 25 17 17 20 23 18 18 18 23 24 20 20
18 26 26 20 19 21 16 24 17 15 25 21 21 21 25 20 14 23 19 14 26 16 18 20 25 16 20 25 15 15 16 19 21 15 14 21 20 21 24 15 21 22 26 15 17 16 23 23 23 20 19 21 14 18 25 15 15 24 24 25 23 17 21 18
19 20 19 16 16 20 24 23 14 18 19 21 19 23 21 17 21 26 16 16 25 20 15 19 24 21 20 15 25 22 20 16 26 22 15 19 26 14 17 15 17 24 21 15 25 26 20 24 14 19 20 16 20 17 16 26 21 24 16 25 26 22 14 23
19 19 22 15 25 14 25 20 23 24 20 18 25 22 23 15 23 22 22 15 26 17 24 22 21 19 21 15 18 16 16 18 24 16 23 22 17 14 14 18 22 26 15 24 21 19 21 21 22 25 17 26 14 20 23 14 15 26 22 21 25 21 25 16
