P2
64 64
255
37 31 33 28 24 28 24 34 34 33 32 33 20 23 24 22 33 37 25 36 19 19 28 21 19 26 24 18 37 28 37 19 36 26 26 26 27 36 26 35 27 30 22 27 19 24 18 38 24 30 24 22 36 27 33 36 32 30 36 38 35 19 29 22
24 20 33 18 32 32 19 33 23 21 23 18 19 37 31 36 32 38 37 31 31 31 31 18 22 36 22 29 28 35 24 33 28 38 26 37 31 37 20 38 26 34 25 34 34 30 23 21 33 24 21 19 31 36 28 35 25 29 34 28 34 34 33 30
19 38 35 29 35 20 29 38 35 18 22 32 32 38 34 36 23 29 21 33 18 33 35 38 24 25 26 20 26 30 24 38 33 23 34 23 32 31 36 35 38 25 31 21 19 32 33 24 19 36 29 33 27 20 22 30 24 25 37 22 18 22 20 21
22 26 19 37 31 26 23 33 32 35 32 34 28 31 34 36 26 22 36 33 29 31 26 31 28 23 23 18 21 24 35 18 20 24 18 38 18 24 37 18 27 24 38 36 31 19 31 29 33 28 23 38 23 21 21 24 21 24 35 21 20 28 18 28
37 24 33 31 28 24 32 31 37 22 18 24 30 26 25 27 18 35 25 37 34 37 32 19 21 38 34 34 19 25 37 33 36 37 18 37 25 38 19 38 23 33 36 27 26 33 29 28 35 38 27 18 29 23 20 36 28 24 25 21 37 34 30 30
21 26 21 38 21 21 29 32 31 33 35 29 32 33 30 32 19 20 24 35 28 20 26 30 18 20 30 25 37 33 33 33 26 32 38 27 28 28 36 21 33 30 32 25 19 19 18 18 35 30 35 19 30 19 26 35 31 28 24 20 28 32 33 33
34 32 33 31 30 37 26 23 33 24 33 28 38 37 38 23 18 23 38 37 24 34 29 28 26 34 22 28 26 21 29 22 26 25 34 36 35 27 29 34 24 25 30 20 27 23 20 32 31 19 18 34 21 33 31 23 20 27 19 38 36 30 18 30
35 27 34 27 28 32 26 32 34 20 33 20 36 26 36 24 18 26 30 31 25 22 18 37 25 21 38 27 30 26 32 26 19 34 33 22 28 34 33 25 18 28 26 35 28 26 28 20 18 27 30 23 22 30 26 37 30 24 33 19 34 30 21 26
30 32 21 27 31 22 19 19 36 29 24 29 21 22 20 26 19 20 32 29 31 22 22 27 22 22 19 27 20 26 33 27 28 35 27 30 20 33 24 22 35 24 32 38 25 34 31 18 37 20 26 33 37 27 34 38 23 22 29 26 20 34 22 32
21 38 22 24 36 35 21 28 38 22 20 18 30 23 24 29 20 31 31 18 29 25 33 33 38 36 35 20 31 20 26 23 20 27 34 34 21 36 33 32 27 20 18 29 18 38 26 33 21 21 23 36 38 28 31 22 19 28 30 19 24 30 18 18
24 28 36 37 28 25 21 21 32 26 36 33 20 26 26 33 20 38 35 36 20 34 38 28 38 23 21 34 19 35 37 36 32 24 25 20 22 34 35 25 23 32 28 37 19 18 23 21 29 26 38 38 18 22 32 37 19 33 19 28 35 22 33 19
24 38 32 18 25 36 18 38 19 33 32 34 22 32 22 36 36 32 37 24 36 23 21 19 38 22 30 19 34 20 32 27 27 31 32 27 23 29 35 28 31 20 37 28 36 32 26 33 19 20 30 32 33 38 32 32 35 35 23 32 34 19 26 33
37 30 34 34 32 18 23 23 36 33 37 22 26 38 25 28 23 21 18 34 35 21 22 22 38 26 27 19 28 26 36 32 37 26 18 20 38 28 38 33 23 29 18 33 38 37 33 35 20 22 28 20 24 29 28 23 20 30 35 23 20 37 24 31
23 23 22 31 36 31 18 26 27 18 28 25 37 28 38 20 18 37 20 36 35 19 26 36 24 24 23 35 34 38 33 32 23 29 24 19 35 22 34 30 35 33 18 34 18 28 34 22 23 33 30 18 20 18 18 21 20 23 29 23 21 37 37 31
26 33 21 25 24 25 30 29 35 38 33 31 22 37 34 20 18 37 30 19 24 29 29 25 22 28 28 37 27 21 29 19 38 34 29 27 34 38 19 23 28 34 18 21 33 26 31 20 29 18 32 18 24 38 24 31 35 20 21 35 33 20 20 29
32 29 21 34 22 32 23 35 31 27 32 29 31 36 22 31 31 20 34 22 18 28 26 21 22 26 31 23 35 29 25 26 33 25 35 36 21 28 21 28 31 29 19 20 21 18 26 23 31 23 37 35 26 23 32 30 19 24 27 19 24 36 18 28
20 37 26 20 29 37 34 30 36 34 22 35 36 22 29 34 32 21 20 32 21 34 38 32 30 34 20 26 31 28 24 30 20 38 23 25 23 19 32 28 23 25 34 22 29 34 25 37 23 19 20 30 23 25 29 32 20 21 31 28 38 29 36 28
26 20 26 21 29 26 32 36 18 20 33 29 36 32 38 20 22 38 35 36 31 38 31 23 33 29 24 34 19 27 36 26 25 37 36 18 35 37 36 22 36 20 37 34 30 37 35 26 21 20 24 23 24 24 35 20 25 31 29 28 25 23 31 36
35 32 22 30 29 37 31 27 34 32 19 23 20 34 38 19 31 25 33 36 35 38 28 29 25 32 21 28 26 35 18 33 36 35 33 20 37 28 32 29 22 31 26 33 37 29 27 25 20 38 31 31 18 31 19 36 29 27 18 23 37 21 35 28
30 20 26 28 23 27 26 34 20 38 18 25 33 21 34 25 39 24 39 41 41 36 24 41 34 23 20 32 24 27 32 27 22 38 36 18 31 32 36 20 34 30 21 40 27 39 27 24 31 36 26 19 19 25 30 28 23 26 20 20 34 22 19 25
37 20 24 26 18 23 28 26 28 21 35 32 18 34 33 38 33 27 27 26 40 46 37 30 24 23 26 34 21 38 36 20 32 29 28 26 19 26 29 37 32 37 28 31 33 34 27 39 27 27 38 21 26 27 27 30 20 27 32 30 20 23 22 24
28 34 33 20 34 38 22 18 23 37 20 31 36 34 38 32 43 29 37 34 38 41 43 43 39 34 42 40 27 35 19 37 21 28 18 32 26 37 31 30 35 43 35 40 42 30 34 31 30 44 23 39 31 34 34 21 33 37 30 32 27 34 26 23
29 20 23 18 24 24 27 19 22 38 36 22 23 26 41 36 35 31 32 49 36 48 47 47 47 49 45 33 41 35 39 38 29 35 32 22 34 29 41 33 50 46 37 39 42 48 38 49 36 33 36 43 21 37 36 28 34 34 27 25 20 22 19 27
23 36 28 35 35 29 33 30 18 27 30 25 31 43 46 35 47 50 47 38 45 46 55 44 52 51 39 49 30 26 34 31 22 23 23 27 37 40 50 49 49 54 43 44 38 45 45 35 47 37 32 33 44 38 29 32 32 24 37 25 35 31 19 31
37 24 22 32 25 36 27 28 23 23 37 31 46 33 38 40 42 50 43 49 51 47 51 43 44 44 36 34 39 40 41 35 19 26 26 38 36 36 47 57 44 42 52 42 57 41 53 58 38 53 45 38 32 30 33 23 25 19 20 23 38 19 23 27
34 30 27 33 27 33 33 23 31 34 35 46 42 51 46 47 42 43 50 50 49 59 59 54 45 53 42 40 34 49 27 43 36 34 28 47 32 50 39 54 59 57 65 55 53 57 47 58 60 47 46 32 43 27 42 35 22 18 25 19 21 18 29 24
27 35 34 29 24 38 29 35 33 37 38 44 32 41 46 48 58 57 58 54 51 63 56 59 45 46 42 42 50 39 48 41 34 45 31 34 39 57 56 58 47 54 50 53 62 50 61 62 49 44 45 39 34 35 32 33 25 19 29 28 29 27 36 18
25 30 31 24 32 25 28 31 40 34 40 32 41 41 60 49 54 62 54 64 68 64 60 54 65 56 55 47 50 41 31 45 33 37 34 49 56 40 45 57 51 56 58 60 61 59 67 51 52 51 49 49 53 48 27 44 31 19 21 21 26 26 22 33
35 28 36 31 31 18 20 35 39 33 37 40 52 56 63 52 69 55 62 57 68 74 58 63 53 58 46 51 52 39 50 46 42 45 37 53 47 54 58 67 63 56 57 74 63 62 56 53 61 60 47 41 55 33 32 28 27 33 22 33 27 25 33 35
18 28 27 33 33 37 35 23 22 46 37 39 39 41 64 66 61 62 66 67 76 76 68 65 72 53 61 47 43 41 49 36 39 53 44 40 59 55 56 51 57 58 59 69 68 79 68 70 71 64 45 50 50 44 49 38 41 39 30 19 18 30 29 28
37 20 20 32 31 34 28 31 40 32 43 38 54 44 55 70 65 63 73 67 78 79 76 72 60 68 62 52 51 42 39 46 39 56 49 54 57 59 69 55 71 71 67 79 64 71 76 58 65 53 65 52 45 51 40 43 35 26 31 38 29 29 35 18
38 30 33 37 27 20 18 33 28 34 32 41 43 58 47 58 61 65 82 75 77 84 82 77 74 65 70 52 58 52 55 49 56 56 47 59 43 57 58 57 64 76 68 84 86 71 81 70 66 64 60 52 53 45 51 35 33 32 34 36 31 38 32 26
30 18 19 37 33 27 29 24 39 42 38 45 39 60 55 61 55 63 81 73 82 82 69 73 74 68 66 49 58 40 46 42 38 55 56 40 62 55 62 56 61 81 81 81 91 72 75 59 60 51 54 58 44 44 41 41 30 38 19 37 19 34 31 25
19 29 20 35 33 25 28 30 31 29 51 37 39 50 66 56 56 59 71 71 69 70 65 71 70 70 62 52 55 48 49 39 39 48 45 46 57 49 69 57 76 66 73 77 80 69 69 65 62 70 51 57 47 40 44 44 41 36 32 31 31 34 25 31
28 32 21 31 29 25 18 30 29 29 33 51 41 51 49 66 70 64 72 80 69 81 69 76 65 53 59 66 55 53 39 46 42 43 48 48 50 56 69 69 63 71 80 78 83 67 78 74 67 60 48 51 45 35 40 27 25 19 23 21 28 30 35 36
32 38 27 20 23 26 27 37 33 41 49 47 43 46 60 63 66 61 64 79 68 74 61 63 65 55 67 49 49 52 47 35 39 36 34 42 58 50 66 54 69 75 61 77 78 59 70 65 65 48 59 49 46 42 47 35 40 30 27 30 35 29 29 21
29 32 27 34 26 30 24 30 28 34 46 38 40 51 60 56 53 71 56 65 64 76 72 59 68 60 55 54 48 50 42 51 34 49 52 36 49 55 65 57 70 66 75 68 70 67 63 68 69 58 47 40 36 34 35 35 35 38 38 30 21 24 32 34
18 20 22 23 27 30 33 32 30 28 44 37 38 44 42 60 61 69 57 56 62 68 57 55 55 64 57 40 45 43 40 38 30 46 45 39 55 50 48 58 65 62 72 61 73 57 67 54 53 54 44 40 43 49 46 25 28 30 28 18 18 18 21 30
31 30 19 22 29 31 30 37 23 36 41 43 42 39 47 52 44 47 49 56 68 59 54 55 57 48 53 58 49 46 33 33 32 33 34 52 49 48 47 54 47 52 65 53 56 65 64 48 60 47 51 51 45 40 42 42 22 20 18 38 21 36 23 19
35 25 27 33 40 31 25 39 41 33 30 46 39 51 50 44 56 46 48 59 68 62 54 60 54 44 52 54 52 48 48 38 37 40 40 34 38 49 60 61 67 62 64 55 69 66 52 57 52 49 57 54 49 49 41 28 33 29 38 33 25 39 32 34
40 35 42 45 36 25 43 36 38 25 42 38 50 51 41 47 60 65 54 66 49 53 61 52 61 58 55 48 50 55 34 51 38 31 36 48 50 49 47 52 58 51 53 72 52 66 64 62 66 51 55 45 39 56 40 41 34 32 47 39 41 32 35 44
35 30 47 40 38 36 41 39 41 34 37 47 49 56 48 52 47 59 67 62 57 65 66 57 57 53 50 49 44 50 44 40 47 46 51 59 57 46 54 58 68 72 63 59 72 72 65 58 64 48 47 48 58 41 47 44 40 54 44 41 50 53 40 37
30 43 35 41 31 26 38 29 45 28 25 27 28 50 39 41 44 39 40 45 53 60 42 55 47 46 43 42 35 35 40 47 31 31 30 38 51 56 42 55 45 53 54 49 46 53 47 59 55 45 56 44 41 33 40 30 40 43 34 46 49 49 44 45
25 25 31 37 26 38 40 40 41 21 40 28 29 27 37 47 35 45 34 45 37 53 47 52 37 37 40 40 25 23 41 39 35 29 38 31 45 39 29 40 37 46 36 43 49 46 49 41 39 48 43 30 29 25 29 35 35 38 43 38 36 41 35 26
33 35 38 25 37 21 29 20 34 33 26 18 36 29 31 31 36 39 26 34 27 39 34 26 24 37 32 20 20 18 33 38 35 35 18 21 25 27 35 26 31 41 45 46 34 41 45 43 29 23 24 33 35 36 20 30 31 35 29 23 35 24 37 29
19 20 21 18 33 26 30 32 24 34 23 33 25 31 20 25 24 21 24 39 24 42 31 41 33 36 31 21 25 26 20 29 31 24 19 37 37 24 31 34 24 33 32 33 28 21 22 31 30 36 22 28 20 27 18 20 35 24 33 20 30 24 36 25
34 26 37 20 23 30 27 23 36 38 37 26 37 20 38 21 22 21 38 22 24 32 20 38 28 36 36 35 20 38 25 35 30 28 28 19 24 34 27 30 38 31 22 24 38 33 22 31 23 28 31 35 21 34 19 35 22 21 34 29 35 20 32 22
32 38 36 27 38 26 22 37 23 36 25 38 36 30 27 36 19 22 19 29 27 25 23 29 32 31 34 21 19 30 27 26 21 18 18 28 29 35 29 28 21 36 19 33 18 23 35 29 37 36 20 23 18 20 27 34 33 36 22 31 29 28 25 33
37 20 38 23 22 18 32 38 31 19 24 19 35 30 19 27 28 18 34 25 30 28 19 22 34 24 26 23 18 32 33 24 37 26 38 28 19 21 27 38 19 29 30 18 38 33 36 22 24 18 38 21 22 32 37 27 33 38 37 32 32 22 19 20
36 25 35 29 18 26 32 19 36 25 22 31 33 33 28 18 27 36 18 37 35 32 25 32 19 28 37 19 37 27 34 26 28 18 19 19 26 23 33 35 25 28 22 24 38 25 37 25 22 21 25 33 23 28 36 25 27 30 36 32 18 26 28 27
24 34 21 18 27 35 21 21 25 18 34 19 33 22 31 37 27 20 30 20 35 38 38 23 29 21 19 27 35 30 27 38 24 37 28 34 38 34 26 19 26 20 22 38 21 37 30 37 30 34 20 33 19 31 25 25 33 19 27 22 27 23 38 31
31 21 18 21 24 37 25 23 34 38 22 37 24 26 29 24 35 21 36 35 37 34 35 26 34 28 27 25 20 24 27 24 18 33 18 27 37 35 33 19 26 30 19 38 33 24 37 31 22 36 20 26 28 21 22 34 31 34 25 22 28 25 27 34
23 31 32 36 25 30 38 31 36 21 27 24 21 30 20 27 27 20 30 30 23 28 31 32 22 24 37 27 29 22 33 33 29 20 35 24 27 20 23 21 32 27 23 32 24 21 28 38 32 37 33 25 27 28 34 24 21 26 38 34 26 37 24 19
24 21 30 37 24 23 30 28 23 37 26 38 34 19 21 29 19 35 34 20 35 28 32 29 35 31 34 28 36 25 21 32 32 34 35 30 35 22 27 20 27 23 18 19 24 31 26 33 28 26 35 25 32 24 26 38 20 21 34 22 22 26 26 26
33 25 26 24 25 27 21 21 35 19 33 25 30 18 31 27 32 33 21 24 26 22 29 32 29 29 27 26 23 19 20 24 26 34 38 33 21 18 24 22 22 36 33 29 36 21 31 19 29 31 19 23 26 28 31 21 27 27 32 23 23 22 30 20
26 30 33 26 29 26 34 38 32 30 25 30 24 24 37 28 30 29 28 21 31 20 33 29 34 22 24 33 37 25 37 20 25 25 27 28 33 33 32 34 36 34 30 34 32 31 31 24 37 22 33 30 34 33 26 36 24 21 27 36 22 38 38 32
21 27 19 21 35 19 34 25 33 26 18 35 27 23 28 25 32 28 25 30 27 38 20 21 34 33 37 22 24 26 23 21 18 30 37 32 25 34 31 27 19 28 37 31 29 37 38 22 38 25 23 18 26 35 32 20 31 20 22 38 20 35 37 36
26 20 19 29 37 19 18 27 23 30 21 19 23 24 38 24 18 30 29 38 26 37 38 20 37 30 34 34 24 32 31 29 19 32 38 27 20 25 28 22 19 30 34 27 18 30 36 38 21 29 24 28 29 33 36 36 38 23 38 28 38 26 25 18
24 20 30 34 32 25 19 27 28 28 24 33 22 38 32 35 21 36 26 30 28 35 26 33 30 33 27 34 20 22 24 33 31 32 20 27 30 25 33 36 27 33 30 37 36 18 25 36 23 27 20 30 24 37 31 33 28 27 32 18 18 23 37 38
31 19 33 36 31 28 33 23 30 24 36 22 19 20 38 27 33 18 25 21 36 29 35 30 20 28 27 32 30 20 19 25 26 24 38 25 34 25 32 26 36 33 23 38 21 19 23 31 20 29 27 25 31 31 22 37 25 37 24 19 35 38 23 20
33 27 27 20 30 20 33 35 33 28 28 23 27 26 26 19 25 35 26 34 32 36 36 18 22 21 22 28 31 35 30 38 30 33 19 21 26 27 35 24 32 20 20 32 22 29 38 34 24 36 18 37 32 20 27 31 27 20 21 19 30 36 20 22
25 23 30 38 36 37 30 36 26 21 18 31 33 22 20 24 36 38 36 28 28 22 34 34 37 35 27 22 24 36 37 23 33 23 36 21 25 21 29 27 31 26 26 36 37 36 28 26 27 32 33 25 26 31 27 22 24 37 36 25 29 32 28 23
24 23 26 37 34 23 18 19 37 36 20 30 19 38 24 21 20 20 20 37 20 29 36 30 31 33 20 18 23 38 31 28 24 19 23 20 28 32 19 27 18 29 24 19 31 33 25 23 27 19 38 22 25 30 19 22 36 24 24 30 36 35 27 32
20 37 33 23 24 29 36 32 33 31 29 29 26 27 27 23 26 27 31 31 32 22 24 21 18 21 28 20 38 37 33 34 33 19 24 18 36 23 38 22 29 25 32 36 25 26 36 25 32 19 22 38 36 18 23 27 28 18 36 20 18 29 32 18
