P2
64 64
255
36 38 37 25 29 34 18 22 31 24 20 20 38 31 19 24 24 36 37 18 25 21 18 23 32 20 28 35 30 27 35 22 18 31 24 20 25 28 35 29 30 24 32 20 21 21 27 25 32 21 26 37 36 32 38 36 22 18 30 28 22 24 31 35
34 30 26 32 18 18 20 33 34 25 32 32 27 32 22 38 23 34 24 30 36 32 24 33 38 18 32 22 31 30 26 36 37 31 26 22 34 28 19 35 31 22 20 22 18 35 37 37 29 24 37 27 34 33 30 34 28 19 23 23 38 23 27 27
31 30 33 22 38 21 36 38 35 32 36 26 24 23 23 26 30 19 38 28 23 24 35 27 25 28 32 19 35 31 34 30 20 24 24 33 28 24 22 25 34 29 23 38 24 36 20 25 28 36 32 30 26 19 20 20 33 23 28 32 22 34 33 22
19 21 34 21 25 21 28 25 38 32 32 23 24 22 34 24 34 20 37 31 30 34 19 37 23 18 34 37 37 34 20 30 19 22 34 36 30 27 20 27 21 22 37 25 20 19 20 32 29 26 19 30 30 28 27 24 32 25 28 31 33 34 31 27
18 19 35 24 35 18 26 21 29 23 30 23 23 20 31 35 20 30 19 26 33 33 36 32 30 29 27 38 21 22 22 23 21 25 36 26 36 22 20 19 34 36 21 37 32 30 38 36 38 30 19 31 36 25 28 20 21 29 25 28 27 20 22 26
27 36 33 27 23 23 25 22 26 23 34 25 25 24 21 38 18 19 23 18 27 25 35 18 29 29 34 35 38 25 21 20 29 35 38 20 32 25 22 30 20 30 24 35 31 27 25 24 28 19 30 28 20 38 33 23 31 31 18 25 38 26 24 23
29 32 35 37 20 27 32 21 18 24 21 18 26 36 27 36 25 37 24 18 18 23 20 29 18 23 18 37 21 30 31 38 25 24 38 29 32 28 21 27 24 33 21 33 29 25 23 18 20 38 21 34 28 28 31 34 33 26 21 36 33 21 30 24
27 25 32 30 33 23 36 36 22 29 31 25 29 26 20 21 24 33 30 37 31 36 36 21 29 36 19 19 23 26 18 31 20 25 36 34 24 18 34 28 33 29 32 34 31 36 26 18 35 25 21 25 23 24 36 21 38 24 27 24 25 32 30 36
32 26 30 23 35 26 38 20 21 22 31 35 23 33 37 38 34 19 27 24 38 37 31 31 33 34 23 28 34 21 22 32 18 34 23 36 37 34 18 38 36 25 38 19 34 30 29 36 33 23 20 21 24 26 24 34 24 21 22 36 31 31 18 19
24 18 24 30 35 28 24 28 25 18 22 23 28 38 18 29 37 30 20 25 31 24 30 33 23 27 32 36 34 18 27 24 30 36 33 30 27 18 26 23 28 26 37 30 20 34 34 24 18 35 25 25 36 18 38 26 34 20 36 37 26 35 30 38
37 25 30 34 19 18 33 32 32 24 33 32 31 38 19 38 30 37 25 21 23 37 19 18 23 25 22 38 38 37 23 26 37 32 38 37 33 19 26 20 20 36 24 29 33 35 34 30 26 22 24 26 19 28 35 22 31 22 35 27 25 32 21 36
32 18 25 21 37 20 18 38 25 28 36 31 37 37 29 21 28 30 23 28 26 23 18 24 18 27 24 38 24 30 33 27 32 38 32 29 30 23 23 21 36 32 22 18 22 27 34 24 32 29 33 24 37 19 19 38 22 28 37 18 32 21 25 29
26 37 29 19 38 36 24 20 34 30 36 38 28 38 18 24 28 36 32 30 35 21 34 29 33 34 21 33 21 30 30 18 20 33 36 26 34 21 26 28 21 25 36 29 28 28 20 37 24 35 23 21 31 38 37 25 24 33 31 28 31 31 23 19
18 37 27 33 20 32 28 23 29 20 24 25 22 22 35 20 36 31 38 26 26 26 29 34 27 21 30 30 29 25 30 23 20 38 33 31 38 27 19 38 20 25 33 18 18 20 20 28 38 23 34 20 28 31 30 29 26 33 26 22 27 30 29 20
26 32 31 29 21 30 37 20 18 36 21 36 27 28 18 30 21 23 34 32 25 33 35 36 26 31 22 32 36 36 25 29 31 35 30 37 21 33 29 23 28 26 20 20 24 32 21 30 36 35 37 18 28 33 19 28 18 38 24 25 36 32 35 21
27 38 32 18 21 24 37 34 33 27 23 27 27 18 18 19 32 24 26 20 18 25 22 38 31 23 32 37 18 37 18 27 26 19 31 34 23 18 37 37 23 26 21 27 18 20 33 36 23 20 30 36 21 28 19 29 22 26 28 27 28 30 27 20
26 33 29 28 35 36 32 24 30 22 34 36 28 37 36 33 21 36 32 22 30 23 24 18 25 38 30 38 32 31 33 30 18 28 37 35 38 24 24 30 29 35 28 26 35 35 21 37 23 37 33 33 19 33 20 29 33 21 35 21 20 27 36 23
22 28 29 19 23 26 21 27 20 32 26 19 24 22 26 25 31 32 24 21 28 26 37 20 35 23 24 32 31 36 33 38 22 28 26 36 31 35 29 24 33 32 21 21 20 34 37 31 35 22 32 36 31 35 34 27 25 21 25 29 29 24 34 26
19 21 34 38 34 29 26 21 31 36 38 29 24 25 33 34 35 32 29 36 33 34 19 32 21 22 36 24 18 36 35 26 36 19 18 34 29 31 18 33 28 37 27 36 34 26 28 36 37 27 32 26 36 34 33 21 27 25 22 36 19 25 30 25
25 36 31 34 35 30 19 29 19 20 32 28 25 24 26 30 24 40 32 28 29 34 23 34 34 21 21 29 28 25 37 21 35 25 37 30 29 24 20 37 38 24 22 26 23 30 23 40 26 19 37 29 30 19 28 31 29 21 19 19 32 24 18 28
37 37 36 21 24 24 33 20 29 25 30 22 28 20 30 36 40 37 40 36 41 34 26 42 30 41 36 34 23 31 28 26 23 27 34 26 34 37 34 37 34 30 36 43 44 29 43 30 29 33 35 18 25 37 30 28 25 20 36 26 30 33 23 26
29 38 18 30 18 37 26 28 29 32 35 34 33 23 24 34 43 40 41 32 48 30 45 33 36 36 32 29 35 30 24 24 38 35 34 21 22 36 34 40 46 31 46 42 31 33 34 40 33 33 26 22 20 22 21 22 37 19 37 28 25 28 33 24
24 38 37 22 28 22 33 28 30 20 34 22 39 30 34 32 39 31 34 34 45 46 47 40 34 31 31 34 39 23 19 32 27 26 27 39 40 44 35 31 47 32 45 39 39 36 36 39 50 39 28 34 36 31 20 36 28 26 22 27 37 25 30 34
29 27 24 30 28 35 38 25 24 27 38 41 29 40 43 39 50 51 37 39 46 52 42 48 37 36 49 47 47 35 40 31 26 20 27 38 30 37 46 35 43 43 53 51 47 49 44 39 36 42 47 29 25 28 21 29 21 32 37 31 38 24 35 33
29 24 26 31 34 22 21 18 21 34 36 35 42 35 34 51 46 55 54 57 45 54 44 53 42 47 49 35 37 39 42 34 19 39 28 30 39 34 40 42 50 45 55 44 55 41 45 47 42 39 39 44 34 26 33 36 20 23 19 28 33 30 38 33
22 18 21 28 27 33 37 28 29 23 30 43 33 44 53 56 46 60 56 51 65 47 52 46 57 58 56 49 51 31 44 24 39 35 42 44 52 39 46 56 54 51 59 56 53 61 48 46 57 42 35 50 33 37 24 27 32 32 30 27 37 34 32 35
27 33 20 37 19 19 33 38 25 22 25 47 47 48 46 41 53 63 57 49 55 60 52 48 57 60 55 58 35 37 30 36 31 45 41 50 37 47 41 49 63 55 58 52 54 68 47 62 63 51 48 46 38 41 28 24 22 35 24 27 35 22 30 37
23 24 36 29 22 32 18 27 32 44 47 50 40 37 46 53 56 62 61 59 54 55 67 54 61 61 52 44 51 36 44 36 29 32 50 39 52 55 50 48 60 56 62 62 60 60 59 53 50 56 60 56 40 45 44 33 29 25 30 29 23 18 35 38
36 23 33 28 27 38 38 21 36 29 31 37 36 57 43 50 61 69 62 64 63 71 61 61 71 63 64 59 39 46 48 35 40 50 36 46 44 49 55 65 58 65 75 75 75 66 64 55 65 61 51 57 44 34 47 34 25 25 29 29 21 28 33 34
20 26 19 33 18 24 24 19 32 43 50 40 37 54 48 57 63 58 63 73 72 73 60 60 64 52 65 47 49 57 46 39 34 35 37 43 54 52 66 54 55 66 60 67 62 62 57 69 51 51 64 49 54 45 30 39 29 36 19 20 28 26 29 18
33 28 30 22 19 32 32 22 39 31 51 53 57 50 55 60 66 59 73 69 72 74 83 63 66 66 59 57 43 47 50 56 53 37 54 46 60 60 62 53 63 62 83 64 71 83 76 75 60 56 54 55 56 46 41 42 23 22 27 37 29 36 28 31
38 23 31 20 21 34 32 21 42 38 39 35 45 47 61 58 71 61 63 79 85 78 81 79 69 54 70 48 44 54 47 47 37 40 49 45 48 54 55 64 62 64 80 79 88 67 73 71 57 68 54 52 42 37 31 38 43 36 30 26 24 34 29 26
33 26 31 35 22 33 18 37 39 42 41 45 57 54 65 63 56 73 75 81 78 76 76 71 70 68 60 61 58 40 46 41 58 50 48 46 48 67 61 66 75 66 67 71 72 74 68 59 64 64 57 44 56 37 51 45 37 35 31 18 19 29 19 26
38 18 30 35 35 30 38 30 29 33 39 47 55 53 54 52 60 70 68 75 77 78 84 82 78 61 51 59 49 46 45 41 47 46 39 40 60 51 53 67 70 78 80 80 76 68 68 71 62 61 56 56 48 44 49 31 30 24 36 20 26 20 20 28
18 30 29 19 29 18 28 35 42 44 37 40 57 43 64 62 57 60 65 72 82 81 80 80 66 57 65 51 59 39 52 50 38 38 52 44 60 48 66 60 64 68 64 79 83 71 78 60 56 59 61 55 55 35 35 44 43 19 30 32 38 36 26 23
34 18 25 32 26 31 27 29 33 44 37 43 55 45 59 56 64 72 70 74 72 68 59 57 63 53 49 55 45 53 36 39 37 51 34 40 42 51 68 57 66 70 71 78 76 78 67 75 53 57 50 49 55 45 50 35 22 38 36 34 35 31 20 25
25 33 33 21 23 29 30 21 34 26 29 32 50 46 56 48 61 70 66 67 66 57 61 56 68 56 61 59 44 52 34 52 38 44 42 49 46 49 56 62 52 61 70 61 77 63 56 52 64 49 49 46 55 50 35 26 23 27 29 24 26 20 21 24
30 23 38 33 34 25 21 35 25 34 30 42 50 49 57 63 54 61 70 66 61 67 66 67 56 48 50 46 41 44 50 31 43 47 37 39 44 52 59 61 61 67 65 69 63 57 61 50 62 57 57 43 50 43 34 28 25 32 27 35 23 28 23 26
32 33 32 26 25 27 21 36 29 29 45 44 47 43 58 53 56 52 53 65 54 50 55 54 48 58 47 45 51 46 33 43 31 36 30 50 43 43 45 63 54 47 65 54 59 50 58 63 54 49 41 36 39 46 44 37 38 30 23 20 27 19 23 19
39 39 24 26 32 32 32 23 33 36 43 40 40 52 58 46 44 48 67 68 51 51 54 47 48 51 55 52 41 51 43 43 27 44 32 43 57 43 62 58 52 64 70 58 51 52 60 64 55 56 44 57 52 43 39 43 41 37 24 34 25 24 41 31
40 26 30 39 27 39 36 25 35 39 31 33 50 39 40 51 51 65 52 56 68 61 65 62 65 59 54 48 58 50 50 40 32 32 42 57 43 50 47 50 57 55 55 67 62 66 67 59 50 65 52 62 42 48 44 33 43 44 34 45 35 36 35 42
40 28 37 36 30 28 43 28 47 44 47 45 54 48 59 59 49 59 57 69 63 53 63 54 66 54 51 58 41 46 54 33 43 41 55 56 45 55 61 55 64 53 64 71 64 70 69 66 70 52 49 46 46 54 37 51 42 51 38 37 44 54 37 47
26 42 28 24 42 41 45 34 38 32 31 45 34 35 48 40 57 54 56 45 56 55 61 40 49 53 41 53 46 38 44 41 31 40 45 46 34 54 43 45 54 48 55 62 52 45 62 54 46 51 57 45 47 43 43 39 36 33 47 41 44 50 38 43
38 33 27 33 25 34 34 21 28 33 24 29 25 24 45 43 47 48 40 37 44 35 48 35 36 30 43 43 32 34 42 25 34 42 35 39 34 43 49 42 33 48 47 48 41 49 52 45 47 47 47 29 38 37 41 29 26 44 25 30 38 32 35 26
35 38 20 28 21 29 20 33 18 34 35 28 18 30 32 32 23 33 41 31 26 40 28 26 42 34 25 29 27 18 34 21 27 38 24 19 32 36 33 26 31 29 40 36 28 37 37 40 34 28 21 32 18 30 30 28 34 21 18 32 37 23 18 18
28 28 27 19 36 25 26 24 26 21 31 33 36 36 31 20 33 27 38 41 23 24 21 41 27 20 29 29 34 36 31 29 29 30 25 24 19 32 24 35 33 21 33 36 27 36 35 25 34 30 26 36 34 23 35 30 26 33 38 23 22 38 31 27
32 28 23 22 18 22 30 28 35 35 38 28 22 21 28 38 35 31 33 33 38 19 31 23 38 19 32 21 37 38 19 18 24 37 21 34 24 21 34 33 18 22 27 36 37 35 24 26 32 19 23 38 20 29 31 27 25 18 28 36 37 32 21 36
29 20 35 27 30 24 38 29 18 20 30 29 37 33 35 23 36 28 36 26 31 36 27 25 21 18 37 18 33 32 26 30 36 27 28 19 18 26 38 34 18 26 31 34 24 34 20 21 25 38 34 19 30 28 30 21 26 19 32 30 35 22 38 21
38 20 21 19 29 24 21 20 20 23 22 30 33 25 19 20 18 37 23 18 28 23 22 32 37 29 37 38 35 28 38 35 25 18 35 31 31 38 19 28 25 21 22 24 28 31 19 18 25 33 18 33 33 31 19 36 28 25 32 21 31 18 37 38
36 23 19 34 29 26 21 32 30 20 24 18 27 34 20 19 35 31 32 20 29 30 21 31 20 37 32 31 20 20 18 36 25 26 21 28 24 25 20 23 37 35 20 25 28 22 30 25 27 29 28 23 25 33 22 36 24 18 26 26 34 34 20 29
28 18 25 21 26 19 25 26 25 34 29 29 26 32 30 26 18 18 26 18 19 29 28 38 18 20 25 26 19 26 21 18 29 29 37 22 28 31 19 18 34 18 26 38 29 33 32 21 32 31 24 24 35 29 35 21 27 36 32 23 25 28 19 28
19 36 19 37 29 19 38 35 19 20 22 24 18 30 35 24 37 34 25 21 26 35 38 36 29 30 27 35 27 35 18 27 33 36 30 18 34 29 36 18 27 37 21 38 25 24 36 32 21 20 20 19 36 22 26 26 23 27 29 28 25 37 19 32
38 20 30 20 25 21 32 25 34 38 21 19 29 31 29 26 18 21 32 31 28 30 37 31 20 18 28 33 26 21 36 36 27 37 21 36 22 19 38 34 30 36 32 34 34 27 24 24 38 20 24 36 30 28 25 37 35 23 31 36 20 37 26 18
38 35 19 25 26 28 37 18 26 37 24 33 31 36 25 38 35 19 29 19 19 37 32 32 19 35 23 28 22 38 19 29 26 31 30 25 24 18 30 28 28 33 25 34 31 25 36 32 37 19 29 21 18 35 31 25 20 18 38 33 31 29 30 24
29 22 33 34 23 21 29 19 34 31 33 32 34 37 30 21 34 37 22 37 30 22 37 24 38 28 36 30 26 38 32 31 33 18 23 22 21 37 22 31 21 29 26 38 31 33 25 24 30 28 32 19 29 33 21 32 33 18 36 27 30 24 24 26
19 29 36 36 35 36 24 18 31 21 34 36 26 26 19 19 30 38 34 21 33 36 32 22 32 21 21 26 18 25 27 21 27 38 38 20 34 38 31 25 18 30 28 31 22 33 19 25 34 27 28 33 22 18 32 23 35 20 32 32 30 24 24 31
19 25 38 22 29 22 37 20 25 34 26 27 21 22 28 31 27 24 38 20 35 18 38 18 37 18 30 37 18 18 26 28 19 33 37 37 23 25 31 27 25 36 26 19 27 18 33 18 35 22 24 29 24 22 30 36 27 22 30 18 35 22 19 26
30 31 37 19 20 23 27 30 20 35 22 37 33 21 26 31 21 19 18 36 34 26 27 29 32 21 25 24 19 32 21 37 33 27 30 18 38 20 30 18 20 32 18 29 36 18 22 32 21 21 28 34 28 36 23 22 28 28 31 29 26 23 23 23
22 36 37 24 38 22 29 24 21 37 29 26 27 25 34 32 38 18 29 31 32 34 32 32 25 32 22 34 21 36 19 32 21 37 25 29 31 31 24 27 28 27 29 27 24 22 27 21 34 25 36 26 33 34 24 37 34 33 31 38 24 18 31 38
35 18 25 26 29 26 36 25 32 28 32 29 36 23 35 31 22 20 27 23 34 34 29 20 35 28 20 18 36 31 21 25 28 22 30 33 32 20 30 19 25 22 23 34 28 28 38 20 29 20 19 29 23 34 19 32 34 27 25 22 28 26 21 22
32 29 36 19 23 31 35 29 31 21 25 34 22 28 18 38 21 32 28 19 22 26 22 30 28 26 34 36 32 19 19 25 29 19 20 38 20 37 34 28 22 33 30 34 24 34 21 20 25 37 23 31 26 26 38 36 21 33 37 38 34 19 19 24
28 33 32 32 19 30 31 37 26 25 28 36 30 37 36 20 23 27 21 30 24 30 34 27 26 22 38 18 20 24 30 21 30 32 21 36 35 27 25 31 36 30 19 25 27 24 25 36 38 24 36 28 33 20 20 35 37 25 27 28 30 27 27 29
22 20 21 37 36 18 36 38 25 31 32 23 32 34 31 34 35 26 28 36 33 38 19 27 31 24 29 20 19 27 35 20 25 35 19 25 18 34 27 28 19 33 38 25 18 23 23 38 36 28 35 19 32 34 20 35 37 32 36 24 33 25 37 34
26 29 37 37 19 32 34 18 23 19 29 18 30 37 29 24 18 22 30 29 25 35 35 37 19 25 32 31 34 25 18 30 36 23 25 31 21 31 19 33 24 20 30 34 38 27 38 32 24 21 18 21 37 23 36 20 21 29 29 33 27 32 28 34
