P2
64 64
255
17 23 25 26 19 21 20 24 22 21 23 18 16 18 14 15 22 23 20 23 15 26 19 24 16 23 25 19 18 25 17 20 15 15 14 17 23 26 26 26 14 14 26 20 16 16 24 23 17 17 17 24 26 25 24 24 25 16 15 19 16 16 17 21
25 14 15 26 19 14 26 22 14 20 17 17 24 25 16 19 19 14 17 22 26 24 23 24 22 26 24 20 22 25 16 18 14 25 15 17 16 22 22 24 19 15 19 19 26 15 23 24 23 17 14 25 21 14 24 22 26 16 18 14 18 25 17 22
15 26 21 16 21 16 18 14 19 16 20 21 19 24 14 22 15 26 21 24 24 23 16 21 22 26 26 14 21 15 25 16 22 26 20 19 23 18 25 25 20 18 19 20 26 20 16 20 14 15 18 20 26 22 23 14 23 16 21 26 20 24 14 20
25 14 14 18 25 21 20 17 26 20 25 23 22 18 26 17 17 24 25 15 26 24 19 16 25 21 23 25 17 14 14 22 18 17 18 25 14 19 18 18 25 25 23 23 21 24 14 23 26 14 15 24 14 17 23 18 15 26 23 19 20 24 25 18
23 18 22 20 25 17 26 20 16 14 25 17 24 25 19 20 16 18 20 16 19 25 20 22 22 21 23 15 14 16 23 21 18 26 18 25 15 26 20 15 16 20 14 19 24 26 23 25 17 26 18 25 20 26 23 18 14 23 21 21 25 21 16 21
14 17 19 20 17 18 20 22 26 20 24 16 19 18 17 15 17 22 22 23 20 15 24 18 21 21 25 21 16 18 20 26 15 16 17 24 24 15 25 19 17 14 19 24 17 17 15 17 20 26 22 19 14 17 19 20 25 20 19 20 20 24 22 25
17 26 22 14 18 26 19 26 16 22 17 25 19 14 15 24 25 23 24 17 20 17 21 21 26 20 25 25 15 20 17 24 23 17 18 26 15 17 25 14 22 22 23 14 18 15 18 23 23 17 24 19 23 24 25 25 26 23 15 20 21 18 15 16
26 26 26 17 20 22 26 15 24 20 25 16 15 25 17 22 19 23 23 19 19 16 19 16 25 19 18 17 16 21 15 17 14 18 22 14 18 17 18 23 26 25 20 16 23 14 21 23 26 17 24 16 24 19 16 17 25 26 19 21 14 19 19 21
23 14 23 20 19 16 25 14 18 17 16 23 18 17 18 21 16 17 21 21 22 24 25 14 16 19 24 25 17 14 21 21 26 14 25 21 16 22 19 14 26 19 25 26 22 18 17 20 19 22 23 14 20 17 19 23 25 25 25 24 19 15 25 19
16 14 26 25 18 15 25 25 23 24 17 22 20 14 16 24 20 24 26 23 16 22 21 17 25 15 19 20 15 23 19 18 16 14 23 19 18 19 24 21 25 17 19 22 24 25 19 20 16 20 17 23 19 24 21 24 25 25 21 17 20 23 25 24
18 16 14 18 24 21 22 25 23 24 25 17 15 19 16 17 26 21 22 25 14 23 21 16 25 18 16 24 14 22 26 19 21 24 16 17 21 15 25 26 26 19 22 22 20 16 19 22 25 21 17 25 15 25 19 17 14 16 25 16 15 22 23 21
21 22 22 16 22 20 15 25 15 23 15 20 25 18 22 26 21 18 23 22 16 19 26 17 26 22 21 26 18 25 17 15 25 23 14 16 21 24 15 16 18 17 16 25 21 17 22 14 14 15 23 21 21 26 18 21 18 19 18 14 14 16 26 22
17 26 18 20 16 24 18 16 21 18 18 18 25 18 26 16 15 14 14 15 26 21 23 19 19 22 24 23 25 26 26 14 19 14 18 19 20 24 16 25 22 25 23 17 25 24 18 17 24 21 26 25 17 22 16 15 15 25 24 20 21 21 23 15
20 23 25 17 23 22 24 19 24 22 15 22 18 14 16 18 15 18 22 25 16 15 17 22 17 17 18 17 24 26 15 19 17 20 23 26 16 23 19 21 21 21 23 23 21 15 26 17 26 18 24 21 22 23 16 17 20 22 19 24 17 22 24 26
20 23 16 23 15 25 14 17 24 22 23 23 16 20 19 24 15 19 17 25 18 24 14 24 22 24 17 18 26 19 24 25 20 17 23 17 14 23 14 23 21 15 19 17 14 20 23 20 19 14 26 22 19 20 17 17 14 26 20 17 20 15 23 22
17 16 26 14 19 21 20 18 24 17 15 15 18 16 18 20 19 24 22 17 14 20 15 18 22 17 14 26 24 18 14 18 21 25 21 16 18 26 21 21 24 19 19 17 26 24 19 24 20 15 22 21 19 22 23 23 26 17 26 22 21 14 16 23
14 26 16 26 25 15 19 18 16 19 20 20 18 23 21 23 20 21 22 15 24 26 26 16 14 24 25 26 15 23 17 20 23 25 24 17 26 17 16 23 17 14 23 26 25 20 20 17 23 15 22 17 26 18 19 26 14 17 24 17 25 26 25 15
20 15 16 16 15 21 21 15 23 19 15 20 15 23 26 15 23 17 23 18 17 26 16 18 23 18 14 25 21 18 23 18 19 17 17 19 15 26 23 24 16 22 22 17 22 23 24 22 19 22 26 24 17 18 20 24 25 17 24 26 14 21 19 14
17 23 25 19 14 20 20 26 15 18 21 17 17 17 26 24 14 24 24 22 22 19 16 23 16 14 26 19 15 20 23 14 17 23 23 22 19 18 25 21 22 17 22 17 14 20 25 24 19 25 23 21 25 24 23 20 14 20 15 18 23 21 16 26
15 23 24 20 26 18 16 18 24 23 19 17 17 17 22 20 25 17 21 28 30 27 18 20 16 18 15 20 22 15 16 20 14 17 17 26 14 20 24 27 18 26 26 22 29 26 19 17 26 19 15 23 26 15 24 26 18 26 21 16 24 19 25 22
24 24 23 20 21 19 24 18 17 23 23 15 24 23 21 22 24 23 33 29 24 23 26 23 25 18 24 17 20 25 17 19 16 16 20 15 18 20 27 30 32 27 30 32 22 24 21 21 20 23 27 20 24 23 26 18 17 15 25 22 15 21 20 15
22 16 15 22 21 16 22 26 20 16 22 21 15 20 29 30 24 34 24 32 32 36 36 25 26 22 23 20 16 20 21 16 17 17 17 24 28 29 28 34 25 25 25 36 29 30 28 34 26 27 23 22 23 16 16 25 23 19 25 24 19 14 24 17
19 24 25 15 22 23 23 25 15 16 24 16 19 23 32 26 36 39 37 34 32 40 40 34 36 35 26 23 22 22 25 14 19 22 24 18 20 27 32 27 29 31 34 36 40 36 30 35 26 27 27 22 29 19 25 26 15 19 18 17 17 19 22 17
15 17 24 19 20 25 22 14 26 26 20 20 23 27 30 33 37 32 38 37 42 38 43 42 34 39 27 35 34 20 18 21 24 26 23 31 33 26 35 33 42 40 35 45 42 34 32 40 31 35 25 34 27 29 20 14 16 15 26 25 23 17 23 25
22 25 20 25 21 20 24 18 17 18 25 30 31 26 29 31 39 44 38 38 45 49 48 43 39 36 43 28 31 26 23 25 22 27 26 25 31 28 32 33 38 44 39 37 43 38 41 41 34 31 37 33 24 20 23 24 24 21 16 15 25 22 14 21
23 20 21 14 25 14 16 19 26 21 31 24 35 35 36 45 47 41 44 41 43 42 53 48 38 42 45 34 32 30 33 27 25 29 31 28 38 41 37 45 48 41 51 41 53 41 50 50 36 45 33 37 31 26 25 23 23 20 18 25 20 21 21 15
14 23 20 22 23 16 24 15 20 23 28 34 36 39 37 37 43 53 45 50 56 53 44 50 41 46 47 41 40 28 28 33 30 27 26 29 37 43 42 43 47 45 54 57 45 45 52 50 51 46 46 39 38 26 28 20 21 16 24 18 19 21 23 18
23 14 14 20 18 14 24 26 22 25 28 32 30 42 49 43 43 48 52 55 49 50 59 55 53 45 46 36 40 38 36 35 29 35 38 33 36 42 48 43 51 53 48 55 55 54 53 46 42 47 43 44 31 28 23 28 25 19 20 20 26 14 20 26
26 23 26 19 16 14 23 22 23 24 25 28 37 43 43 51 47 53 61 59 59 60 60 58 51 45 47 50 38 39 29 31 39 32 40 39 35 51 49 54 57 59 52 56 57 64 60 60 45 48 40 41 35 33 36 28 24 16 18 23 18 18 16 24
20 14 22 20 22 24 25 16 20 23 31 42 36 41 48 53 55 60 58 59 67 59 61 57 50 52 49 50 37 33 35 30 38 38 34 37 38 42 47 58 54 54 57 68 66 61 60 57 51 56 51 49 45 35 27 33 26 23 25 16 24 19 18 23
19 25 22 26 15 17 26 22 27 26 28 41 42 49 51 57 51 55 56 69 61 61 61 68 56 54 54 42 39 46 38 42 36 40 44 43 40 42 50 53 59 60 62 71 68 67 67 62 53 52 52 42 34 31 38 33 26 24 22 18 19 25 26 23
20 17 15 14 26 21 15 22 31 24 29 31 40 39 53 56 63 63 68 64 71 67 65 63 61 53 56 54 39 46 39 39 34 38 36 38 48 51 56 60 62 61 63 70 70 65 59 66 56 50 49 39 39 36 39 23 27 21 25 15 21 21 16 16
21 23 20 20 20 26 22 22 27 25 39 34 40 45 47 55 53 62 66 71 76 77 70 63 63 51 47 48 51 39 37 38 37 36 40 42 47 53 54 61 63 66 66 68 77 64 70 64 63 55 46 50 40 38 38 26 28 18 26 26 18 26 25 16
26 23 14 25 23 15 15 27 21 30 27 35 41 46 43 47 62 63 59 73 71 68 64 60 60 62 54 55 49 40 40 42 42 36 45 42 42 46 55 54 60 61 62 65 69 67 66 63 54 57 55 45 40 35 30 25 22 20 25 26 21 25 18 20
14 14 21 15 16 20 15 26 22 24 31 31 43 41 47 47 51 60 58 64 62 60 71 58 64 49 57 52 40 41 41 36 42 40 32 43 49 53 58 61 54 57 60 69 67 59 66 55 57 51 46 39 43 43 37 33 29 15 24 22 26 21 16 18
17 22 20 22 21 20 18 20 19 24 38 39 39 39 41 49 58 59 56 55 57 68 67 55 54 58 51 49 41 44 31 36 30 32 36 35 41 43 49 57 57 55 67 60 67 55 56 56 56 54 48 43 43 41 37 34 27 25 24 20 14 24 17 22
15 14 26 26 20 14 14 16 27 32 25 28 42 37 50 42 52 58 54 57 63 60 59 62 59 53 45 44 47 41 32 40 39 37 30 38 41 50 45 55 58 57 63 65 62 58 54 55 48 49 39 39 32 31 35 24 18 22 23 15 18 18 15 23
23 14 22 25 26 16 15 23 22 32 30 34 30 40 39 48 50 47 52 50 60 59 60 52 50 48 51 40 42 39 27 31 28 36 29 36 34 37 39 43 51 52 52 56 55 53 47 53 52 49 46 37 42 30 24 22 25 22 21 24 14 24 15 21
18 14 14 26 26 14 16 22 18 28 25 30 37 33 38 43 46 43 47 47 52 51 52 50 45 51 49 40 35 37 28 24 24 23 28 29 39 42 46 50 42 55 50 46 55 54 46 47 46 45 44 38 29 31 22 30 24 19 14 16 17 15 17 24
24 19 26 24 24 25 18 21 17 21 35 29 35 42 41 47 45 51 46 46 50 46 53 54 50 40 43 39 33 42 37 28 30 32 28 30 38 36 44 42 50 45 51 54 51 46 45 51 43 43 44 36 42 40 33 24 22 21 26 26 20 28 28 31
32 26 22 27 24 25 24 31 22 33 31 39 39 42 47 48 43 54 54 49 47 53 58 47 55 45 52 48 47 34 40 28 33 38 34 45 37 40 43 53 53 50 52 56 52 52 51 57 44 50 46 45 42 41 36 29 36 27 35 37 34 36 31 32
35 32 27 27 35 29 29 24 36 34 26 34 32 38 45 48 46 55 54 47 51 50 46 46 56 54 44 40 45 45 37 31 39 29 37 38 40 49 42 47 47 51 61 50 61 49 49 53 55 50 46 43 41 35 39 41 41 43 32 36 33 42 44 34
20 28 31 28 27 27 24 27 31 29 32 30 33 27 33 32 35 39 46 39 39 40 40 40 39 44 43 38 31 37 26 31 27 29 30 35 39 43 46 42 43 50 47 46 49 43 45 40 37 37 41 32 40 33 32 28 38 28 34 27 27 37 29 33
18 26 19 28 28 21 26 22 24 23 27 22 21 24 25 28 38 38 34 37 38 31 29 39 38 33 35 28 22 25 28 23 30 21 20 22 31 30 27 35 32 35 36 37 35 40 33 31 32 26 24 31 22 25 26 30 20 21 22 23 25 26 24 23
21 21 17 21 23 17 21 24 21 17 14 22 19 20 20 19 28 23 30 23 27 24 24 23 31 23 18 17 17 20 19 22 15 16 21 23 20 25 26 26 28 22 32 22 23 24 26 22 23 26 23 23 20 19 19 22 15 14 14 22 24 18 20 24
14 22 23 16 20 19 23 24 19 20 15 14 16 23 16 26 21 19 19 22 25 27 21 25 23 26 26 21 16 22 22 21 16 25 15 23 18 22 16 19 17 26 20 20 29 26 22 16 20 24 23 14 15 25 24 20 16 18 16 21 23 25 16 26
25 17 22 25 24 18 17 25 24 22 19 15 22 16 19 17 26 15 22 26 19 14 22 24 21 14 17 22 24 21 26 24 14 19 14 25 17 18 18 19 18 21 17 26 23 15 24 25 21 24 18 17 22 18 20 23 22 14 15 20 20 25 23 19
26 19 26 16 23 20 14 23 14 17 18 21 24 20 25 23 19 14 22 23 19 24 20 16 15 14 26 18 22 14 17 19 16 21 18 16 16 26 21 23 19 24 22 17 19 22 21 25 14 21 23 16 16 17 19 17 24 23 24 23 26 26 22 19
23 24 17 23 15 26 19 16 14 23 25 24 19 14 17 16 23 21 17 26 16 25 19 18 19 14 22 26 19 18 22 23 15 17 22 14 26 20 19 17 26 26 18 21 21 20 19 14 14 24 23 20 15 21 23 21 19 16 22 26 24 21 18 16
16 25 19 17 14 18 22 20 15 24 14 19 15 18 23 20 20 14 23 23 16 15 15 19 26 22 25 20 25 16 14 24 16 23 26 14 19 23 24 25 14 14 24 25 24 15 14 23 26 16 21 17 14 15 19 23 22 17 19 21 16 25 25 22
26 25 18 16 23 22 21 24 23 17 14 20 19 21 14 24 19 15 24 21 21 19 24 23 15 21 26 25 14 24 17 22 25 24 25 21 15 20 23 20 20 21 24 21 15 15 15 15 22 20 23 21 17 26 16 24 23 17 16 14 22 16 16 14
24 24 22 19 23 15 20 18 22 24 24 19 26 24 20 17 21 19 20 19 15 18 15 15 17 16 26 15 26 21 25 19 20 16 22 24 26 23 24 23 16 23 20 26 20 18 14 24 14 15 19 18 26 22 15 26 24 17 22 17 24 22 15 19
16 18 16 16 22 21 18 15 14 22 21 16 16 22 21 21 18 20 15 16 26 16 24 24 16 24 14 15 19 22 25 26 14 21 23 18 26 25 16 22 25 26 24 15 20 15 22 18 17 17 17 14 20 16 14 17 17 15 26 16 23 18 22 18
15 26 22 20 25 25 18 14 22 21 18 18 16 22 23 26 25 18 15 14 23 20 21 24 19 15 26 22 24 24 23 21 26 16 24 18 24 20 22 23 17 26 16 17 21 26 14 18 16 24 16 24 17 14 18 21 25 14 21 15 18 22 18 24
17 20 18 14 14 14 16 18 26 17 24 21 14 17 19 21 21 20 18 20 17 18 17 20 20 23 20 18 25 26 14 18 16 21 25 21 16 17 20 23 14 17 24 23 24 18 16 23 14 21 21 19 21 20 18 17 23 20 15 16 19 21 26 19
22 16 20 24 24 22 19 20 15 22 19 19 23 16 17 21 16 17 16 26 25 21 14 16 24 15 16 22 18 16 26 21 26 16 14 23 21 23 17 22 19 19 25 23 19 15 22 26 20 23 25 16 24 15 26 20 16 26 20 14 25 19 16 20
26 17 15 25 15 23 21 17 22 18 15 17 20 22 22 26 25 20 26 22 20 15 26 23 21 22 15 20 14 15 26 18 17 19 14 23 16 22 15 22 24 20 19 25 19 26 18 23 16 14 24 23 24 17 18 25 14 24 24 14 26 20 25 21
16 20 18 22 21 23 17 19 21 22 19 23 20 25 19 16 21 16 18 21 18 14 19 23 22 24 26 21 21 19 15 19 14 19 14 26 21 17 14 24 22 20 24 22 21 21 16 14 16 24 16 20 22 17 19 16 16 20 15 14 16 25 25 21
24 24 25 23 19 25 19 20 16 14 25 26 21 25 15 23 23 17 25 15 18 21 15 19 19 21 23 26 16 19 14 20 26 14 23 23 24 20 18 15 25 25 20 24 22 15 22 19 25 15 25 19 20 20 26 19 14 17 20 17 18 19 24 20
26 20 18 16 20 16 20 23 16 18 22 20 24 17 19 15 15 14 14 26 18 25 23 16 18 15 26 22 26 15 23 24 15 15 26 14 24 21 26 15 23 20 22 14 19 14 26 17 24 26 19 16 23 26 25 20 24 23 23 24 19 19 15 15
25 25 15 21 20 16 16 24 18 21 14 16 21 19 22 24 18 22 19 18 23 14 23 20 20 20 23 24 26 14 18 24 14 26 19 22 26 25 26 14 16 19 17 23 20 15 22 25 17 24 20 26 24 22 25 19 17 19 19 16 17 24 17 17
23 22 25 25 21 14 26 26 21 15 14 17 26 17 16 19 23 20 15 15 23 20 24 25 23 14 16 26 22 18 23 15 26 26 17 26 14 21 24 23 21 23 18 17 14 18 24 21 23 18 26 15 23 24 26 25 14 21 16 14 26 25 22 20
20 25 26 15 25 16 24 22 22 18 19 25 23 18 15 23 14 15 14 14 24 23 15 24 21 14 15 21 17 18 19 24 23 19 22 24 22 15 20 21 21 15 25 18 19 21 26 19 14 21 22 26 19 14 16 23 20 18 19 25 21 16 21 16
23 14 16 19 23 21 22 14 25 23 25 24 19 17 16 26 25 17 25 18 18 24 26 25 22 20 18 18 15 15 25 17 20 21 17 15 17 26 22 20 24 20 23 18 21 14 20 26 26 20 15 16 17 21 15 14 26 24 14 15 26 20 25 18
