P2
64 64
255
36 32 38 32 20 32 20 24 26 35 29 30 28 20 19 35 28 37 32 26 18 18 20 27 37 38 35 21 31 33 26 19 26 36 26 18 30 22 25 21 20 26 18 26 30 33 18 31 37 30 34 27 20 38 19 25 18 30 23 28 27 25 34 22
34 31 31 35 29 35 27 32 20 23 19 20 34 18 24 26 20 24 31 20 36 30 30 31 23 21 26 29 34 35 22 19 38 36 22 20 22 31 25 20 37 30 21 27 32 32 19 33 35 32 34 28 24 30 23 37 21 35 37 25 38 18 18 37
25 19 19 31 22 26 24 24 20 35 32 21 19 32 29 37 28 18 29 29 29 18 38 33 18 23 34 38 25 26 33 36 19 37 35 24 26 34 36 19 18 23 18 20 28 21 18 23 33 34 23 34 27 22 28 25 34 28 33 36 28 25 29 21
30 21 35 37 20 24 35 21 22 28 30 19 28 24 38 28 20 36 33 26 35 33 18 27 34 35 28 31 33 31 18 22 34 29 25 18 24 30 34 29 34 36 27 35 21 25 19 37 26 21 25 32 19 19 20 24 30 33 35 31 32 18 24 36
26 35 28 19 26 21 18 36 31 36 25 25 27 25 38 23 33 20 27 33 37 31 36 31 32 25 23 37 36 29 34 38 36 31 21 35 35 25 31 30 35 35 31 26 27 32 26 34 20 33 34 21 26 24 23 28 32 20 23 22 26 30 24 30
24 37 21 20 32 24 32 38 28 23 19 31 18 31 18 34 24 37 26 24 37 30 25 19 28 24 29 35 30 32 32 32 26 30 37 19 23 36 31 21 30 36 38 35 23 35 30 28 22 24 35 35 34 37 37 31 25 23 36 26 38 29 33 24
30 26 38 29 29 29 24 33 25 20 38 26 21 21 31 32 33 36 37 28 36 26 36 30 27 29 32 38 29 23 35 23 30 27 31 32 38 37 23 35 33 31 29 34 34 31 31 29 25 38 29 21 38 35 19 26 27 24 28 32 30 25 24 32
38 26 25 26 28 18 37 28 31 23 32 24 29 25 29 37 33 34 27 28 34 32 21 37 22 37 36 20 37 36 38 27 34 27 33 21 35 37 19 31 26 34 32 24 34 31 37 23 21 29 18 34 18 31 23 19 35 23 34 38 19 28 22 37
29 25 32 21 26 22 30 28 38 20 22 36 26 34 23 22 25 18 19 18 36 30 36 35 22 22 18 34 29 27 21 24 36 33 28 38 36 26 30 37 29 21 37 21 36 18 34 36 28 33 34 38 26 37 30 26 38 24 34 23 38 22 37 21
25 32 29 32 35 25 23 36 32 20 18 32 30 25 35 37 18 35 19 29 31 23 24 26 19 26 26 32 31 37 27 36 37 34 27 20 35 38 32 22 24 30 37 18 19 33 31 32 18 22 26 24 38 26 35 26 19 18 29 28 34 19 35 22
32 18 28 24 24 31 26 30 25 26 18 26 33 19 18 26 30 32 37 29 29 36 19 35 34 28 23 34 27 24 35 37 22 23 26 19 27 28 30 36 28 30 28 20 27 23 23 20 18 18 22 18 29 24 28 29 32 38 27 30 23 20 20 35
23 25 33 28 19 28 38 38 29 37 28 32 30 29 29 27 18 35 19 30 36 24 35 33 37 25 34 19 35 18 30 24 29 38 36 21 36 33 34 31 24 37 34 25 25 23 18 35 36 26 25 32 34 20 27 28 26 30 25 31 30 27 36 28
38 23 32 33 25 30 26 36 23 35 22 38 21 30 24 23 33 36 35 32 22 33 33 34 35 18 26 20 36 25 18 22 19 34 26 33 31 21 32 31 28 31 36 36 19 38 18 19 26 30 38 21 30 36 31 29 28 20 36 30 28 28 25 35
32 22 20 21 25 31 32 25 30 23 26 26 36 27 35 30 26 38 29 21 27 24 29 29 38 31 37 20 29 18 37 19 23 32 18 21 28 28 28 37 25 34 26 25 23 20 22 23 18 23 19 29 33 25 33 25 37 31 26 21 28 28 22 32
35 22 37 36 30 23 27 33 19 38 35 30 24 23 34 25 26 37 20 21 27 24 21 27 31 28 18 29 31 25 21 34 26 30 32 23 29 33 34 27 25 29 33 37 25 26 19 31 26 28 18 35 18 30 29 29 18 20 31 22 33 30 25 32
20 35 24 33 20 20 32 26 37 19 29 24 23 26 29 19 33 31 28 27 28 30 18 23 25 34 23 24 38 38 27 27 25 34 25 20 33 34 28 35 19 37 19 37 37 28 28 33 18 32 23 37 24 25 31 25 26 26 25 19 30 32 38 29
28 22 35 26 34 31 31 29 23 36 29 30 24 30 29 20 37 37 23 24 20 37 30 25 19 36 20 29 21 32 25 23 21 31 34 23 18 26 20 19 23 22 35 27 25 19 24 32 36 33 26 36 22 38 18 31 29 38 27 34 24 18 22 28
25 37 30 35 33 36 19 38 22 27 30 26 37 23 37 30 22 21 19 27 33 22 23 33 35 34 38 22 20 19 32 22 37 26 31 37 26 24 25 30 34 31 38 30 36 36 32 21 33 32 18 30 23 33 29 26 29 22 34 30 23 27 31 25
33 31 31 27 36 19 29 20 35 19 23 27 28 36 33 21 27 38 28 22 33 21 38 28 26 28 32 19 27 38 18 18 34 34 30 22 28 27 38 28 34 26 25 22 33 30 33 38 31 29 35 35 18 31 23 37 30 33 20 21 23 31 20 33
21 21 25 30 35 27 27 22 35 18 35 18 24 22 37 21 35 25 39 39 23 30 30 29 32 34 23 26 18 27 22 32 29 35 27 24 33 35 30 38 29 31 21 29 38 38 24 35 23 34 35 27 19 34 29 37 18 26 28 31 26 31 29 35
31 35 27 37 34 21 32 31 28 31 32 29 19 19 38 35 28 25 30 42 33 36 41 31 44 22 31 27 31 37 33 21 22 31 33 36 29 31 37 30 26 37 26 30 29 40 44 41 32 41 32 35 20 25 24 37 31 37 18 31 33 20 37 25
22 30 29 21 34 29 36 27 23 18 18 18 31 23 31 29 36 37 34 39 33 33 29 42 38 33 36 28 28 27 28 25 30 24 37 21 20 30 44 46 36 47 49 47 46 39 34 46 31 25 35 29 25 19 20 33 37 24 32 32 37 24 33 25
30 34 37 18 33 25 36 19 25 23 28 26 33 24 30 35 45 49 35 36 36 42 43 36 35 43 35 35 47 45 43 34 32 43 43 32 43 32 33 45 39 51 51 50 52 42 35 38 38 37 46 42 27 28 28 38 34 33 23 23 31 35 26 29
21 37 18 18 34 38 36 18 20 24 30 25 38 37 48 51 44 46 49 46 47 43 46 49 41 40 58 57 56 45 48 40 37 49 52 54 45 52 55 40 56 56 53 54 48 40 36 37 42 48 29 34 31 32 32 21 31 33 18 34 35 22 18 28
27 21 18 18 32 24 21 38 33 37 30 38 46 50 39 40 41 50 46 41 52 54 41 60 56 49 62 47 54 47 55 54 54 47 60 66 48 60 64 48 51 51 42 43 47 58 59 48 57 55 39 50 43 40 37 21 33 35 23 25 36 29 21 37
19 23 19 37 30 25 33 30 32 38 36 34 48 34 41 48 58 45 55 45 65 49 51 65 54 62 60 61 70 55 56 62 60 66 62 57 56 70 59 69 55 69 54 48 57 61 50 60 46 48 42 51 41 46 42 20 32 20 25 27 30 20 25 20
37 28 23 38 38 20 32 32 23 42 31 36 33 46 53 55 50 63 60 51 68 52 56 77 68 81 67 70 64 67 73 71 70 74 71 64 71 74 77 69 67 64 74 57 57 64 48 48 45 54 54 43 50 46 40 36 32 32 23 35 25 29 29 35
26 34 38 26 31 34 25 38 33 28 37 49 41 48 53 54 65 59 70 57 71 72 76 73 81 72 91 85 82 73 86 87 83 80 88 83 71 90 75 73 71 72 80 76 74 69 54 66 61 51 47 54 47 34 47 35 22 23 23 27 32 35 20 19
28 25 34 19 20 38 21 20 32 33 36 39 39 39 46 54 49 65 71 76 69 83 78 92 86 87 80 80 86 91 84 97 92 81 86 83 85 81 82 87 94 75 89 79 67 66 62 69 54 56 45 40 52 50 30 32 36 22 33 34 20 26 32 21
24 38 21 31 31 23 35 27 23 34 34 43 56 50 53 54 62 75 59 63 89 86 81 88 101 87 97 92 95 89 89 88 98 87 85 100 99 105 96 98 95 85 99 75 74 81 65 63 59 66 60 55 41 40 44 32 23 25 18 36 30 24 31 26
34 27 31 19 18 27 26 37 40 37 49 35 50 61 56 68 64 59 61 85 85 101 94 95 110 110 94 112 103 93 95 99 114 111 108 111 111 97 100 99 110 92 99 93 82 69 69 64 68 59 51 43 42 54 46 46 34 21 36 30 37 28 27 24
35 19 37 25 23 19 19 28 32 33 34 48 54 55 64 69 67 72 69 88 93 91 95 96 104 113 111 109 101 101 103 117 108 117 108 111 118 109 103 110 98 113 105 104 99 90 71 60 62 57 58 43 59 47 33 42 39 37 26 22 35 20 30 34
34 38 30 19 26 23 36 40 44 37 48 40 49 63 49 65 62 78 87 78 99 96 104 99 112 105 101 106 113 118 116 115 118 119 110 111 119 112 112 104 107 106 103 110 89 98 75 74 56 70 63 59 44 53 52 45 44 36 24 20 25 22 22 20
22 38 30 34 21 29 28 31 30 40 50 36 47 58 58 62 65 73 81 89 91 106 109 108 110 122 119 112 112 119 128 120 131 129 120 120 123 121 120 105 105 108 108 93 102 84 70 69 68 59 53 62 43 48 50 42 31 39 37 26 32 25 36 38
33 29 18 30 28 25 25 24 36 29 50 52 57 47 47 57 59 78 86 96 102 96 104 100 117 121 116 128 112 122 131 120 128 130 127 117 128 116 120 117 112 106 112 108 97 82 71 67 73 70 57 55 50 53 43 45 27 31 24 21 28 32 26 35
28 33 21 29 30 22 37 37 22 40 50 36 52 58 59 55 69 74 79 74 85 104 93 109 110 112 105 120 127 124 132 129 131 134 127 125 130 113 116 110 106 108 105 94 85 74 79 76 71 57 61 56 43 48 44 44 26 25 36 35 23 18 18 34
29 25 23 23 19 29 37 29 38 29 48 45 48 40 48 64 66 67 72 74 81 93 102 113 97 119 108 111 123 125 123 135 140 131 116 130 110 110 110 116 112 104 99 103 82 74 73 67 59 48 50 39 50 51 42 29 25 18 38 18 24 32 30 23
23 31 28 19 37 18 18 29 23 39 38 48 47 37 54 60 66 61 65 68 85 91 98 100 110 99 119 118 124 123 120 124 133 131 113 127 121 107 104 102 98 98 89 90 87 78 76 56 55 46 49 37 43 48 36 25 33 25 24 24 34 20 22 22
23 22 19 21 33 26 28 29 24 31 42 47 52 50 52 45 52 50 65 66 82 83 97 87 97 92 110 105 103 108 119 123 107 115 113 107 114 115 101 106 90 92 91 93 73 81 74 62 57 53 48 44 49 36 25 38 32 29 27 33 28 29 37 25
28 25 35 30 25 26 28 23 19 33 42 43 46 45 42 45 53 42 49 64 82 86 75 84 103 97 97 102 103 108 107 100 113 106 109 103 103 113 94 96 92 84 93 74 74 72 60 55 60 43 45 35 50 27 24 24 37 38 37 30 24 30 32 19
36 19 29 19 26 38 22 33 34 29 36 39 39 38 49 41 46 38 56 69 74 67 89 76 77 83 92 97 104 92 96 99 107 100 101 105 98 88 96 97 86 74 76 79 68 66 53 38 41 54 44 42 29 35 29 28 23 22 37 24 37 21 21 20
20 36 35 23 33 18 31 29 21 28 34 31 26 28 42 42 48 53 43 56 64 73 63 86 88 76 81 97 90 101 83 80 92 87 85 99 91 99 80 77 75 83 80 65 56 54 44 37 34 41 35 43 34 21 30 35 27 26 30 19 19 38 24 38
26 35 34 23 33 38 30 20 24 23 25 26 29 28 28 48 48 42 33 47 57 67 57 69 80 86 80 71 90 92 86 82 94 79 89 86 86 88 75 75 63 78 61 58 64 41 36 41 42 29 34 43 40 19 22 28 36 20 20 25 34 18 34 24
28 22 37 26 23 37 21 20 24 26 30 29 24 28 30 40 27 37 30 52 43 62 57 69 55 69 73 83 81 72 77 74 86 86 69 76 79 83 81 79 72 55 53 48 52 47 34 36 32 27 35 25 36 26 34 35 24 37 36 36 27 24 28 27
22 27 25 29 24 38 21 25 26 32 32 33 29 26 34 24 31 26 34 42 51 47 43 64 61 61 62 64 67 59 70 67 70 76 72 59 57 57 60 69 55 44 58 50 39 38 43 35 28 37 31 24 27 35 19 18 35 19 26 19 33 33 37 33
38 37 34 30 20 23 32 34 27 32 25 27 35 38 19 22 36 37 33 41 43 35 32 46 56 48 62 64 61 67 63 65 57 62 57 71 70 65 61 55 48 41 49 32 27 36 23 25 31 19 38 25 25 26 27 23 22 31 31 19 30 36 25 21
22 31 20 27 29 29 33 30 21 20 19 33 28 35 18 30 18 34 18 35 34 35 24 36 53 49 42 62 47 53 51 51 66 55 52 65 62 43 49 51 35 38 34 30 37 31 25 29 24 33 35 36 38 32 21 24 26 33 33 32 28 32 26 28
29 20 26 22 22 24 31 37 36 19 35 20 36 34 25 20 18 26 27 30 32 20 22 25 41 40 54 41 44 43 45 50 59 62 62 53 41 56 50 41 40 28 23 20 30 19 31 19 23 35 20 27 27 37 26 34 30 19 19 30 25 35 35 33
36 23 37 37 33 28 34 28 36 35 18 38 31 27 36 24 34 25 26 30 34 24 23 21 27 26 47 37 42 37 52 44 47 52 46 43 49 36 29 42 27 33 35 37 28 38 34 19 29 38 28 34 38 22 18 19 33 29 32 33 27 25 31 29
29 38 20 34 27 35 30 24 38 30 25 34 19 20 38 22 30 37 25 33 18 22 19 37 27 34 31 34 40 45 49 50 50 41 37 41 33 43 36 20 30 38 33 35 19 19 30 26 22 21 29 37 27 21 26 34 24 30 26 23 31 38 29 27
25 35 30 30 22 36 35 23 25 20 19 31 26 29 34 22 26 19 22 24 26 30 35 38 26 26 33 25 33 29 32 41 45 36 32 38 25 33 28 38 25 32 29 24 37 25 26 19 36 29 20 32 35 35 18 25 26 20 33 37 32 30 38 35
24 31 29 27 33 30 35 23 23 22 23 18 20 22 31 23 20 25 35 27 34 19 20 35 33 38 31 20 36 22 19 22 26 35 21 31 21 35 18 20 34 35 23 25 25 30 18 20 33 21 25 35 35 21 23 24 19 22 21 35 28 30 36 21
38 20 18 22 20 22 38 24 33 22 34 23 29 25 30 25 27 24 21 27 36 28 28 38 37 19 34 22 30 29 22 38 38 32 21 28 33 29 21 23 19 28 38 35 32 34 33 30 30 19 20 24 31 35 21 19 33 27 31 21 33 36 26 22
23 28 27 38 24 30 27 38 33 23 31 32 27 19 34 36 21 29 38 35 18 21 35 25 37 21 37 19 20 28 35 38 30 24 35 30 35 27 36 37 37 18 38 37 37 38 26 21 26 32 26 29 20 30 18 38 38 27 38 37 29 32 20 27
23 34 28 26 30 33 20 19 27 20 24 21 33 29 19 25 34 18 26 32 28 27 30 24 27 32 34 23 19 38 27 19 25 28 28 34 33 18 32 27 18 28 21 18 32 18 29 25 35 30 20 31 21 37 19 30 37 36 30 38 30 30 21 34
32 34 36 31 38 38 34 29 23 37 31 28 19 38 38 29 19 34 27 21 34 31 18 20 25 27 26 23 27 29 34 30 24 38 35 20 26 26 30 29 32 18 23 30 33 35 25 24 32 30 31 18 31 27 19 38 19 27 18 23 31 31 34 28
33 22 29 30 31 37 35 33 31 37 24 29 30 32 27 29 27 34 19 31 20 18 26 26 26 23 36 28 18 28 30 33 34 30 29 38 37 31 18 20 22 22 23 38 27 24 21 20 23 24 37 31 37 38 20 24 21 18 38 22 35 30 22 24
34 32 24 38 31 21 21 24 30 20 19 35 29 19 32 27 28 24 27 23 21 37 31 32 32 28 27 38 21 27 28 34 25 28 24 38 27 25 18 35 35 32 28 27 20 23 31 30 32 29 24 27 25 22 31 28 33 24 32 21 34 19 18 25
21 35 27 38 26 28 20 26 30 37 28 35 20 38 37 25 29 21 35 30 38 33 23 35 22 35 30 20 26 30 27 27 29 34 32 34 38 38 32 33 19 25 33 22 36 19 18 22 32 31 30 38 19 20 20 34 27 38 34 19 30 20 30 34
19 20 35 28 30 20 29 30 31 18 18 35 32 20 24 20 24 20 25 28 30 33 32 24 23 28 38 23 19 25 25 22 25 29 24 18 20 26 36 24 32 29 28 28 36 22 32 35 36 19 23 36 26 38 18 29 38 35 33 20 21 19 36 36
29 21 32 24 31 25 34 21 37 21 34 32 28 25 24 32 26 32 33 23 32 34 27 23 37 30 19 27 35 31 36 20 19 22 38 27 18 25 23 37 27 26 21 25 23 36 24 32 28 29 19 26 20 21 24 34 25 30 33 29 38 27 19 34
25 24 21 20 30 18 25 31 38 21 35 18 37 38 19 21 31 38 35 22 18 30 35 28 37 18 30 37 30 34 26 24 24 38 24 21 27 22 38 26 20 19 36 32 32 26 33 18 21 24 33 32 35 28 18 27 30 37 27 19 34 23 23 38
22 33 26 37 22 34 34 28 21 33 27 20 36 27 29 21 35 19 36 19 24 18 34 18 21 31 28 20 30 25 35 34 25 18 20 28 23 20 26 30 33 36 28 37 18 34 35 38 32 19 18 19 25 23 31 18 33 27 21 29 26 38 21 36
22 33 36 25 23 24 24 25 28 20 38 24 21 18 35 27 35 33 28 30 36 35 37 37 35 23 18 34 28 22 23 21 19 21 25 29 31 24 28 34 32 20 32 31 28 27 20 38 28 36 23 36 38 34 36 30 30 28 37 26 31 32 34 30
