P2
64 64
255
18 38 21 34 22 24 27 27 21 32 18 32 25 25 35 25 37 27 33 26 25 26 38 23 31 21 26 35 24 26 30 18 38 24 21 28 21 38 18 18 35 26 19 19 25 37 20 37 27 37 23 20 32 24 27 28 32 26 24 20 23 22 25 23
29 37 23 29 20 29 22 27 18 22 26 29 20 32 23 24 37 31 26 18 29 34 24 36 20 24 28 24 28 25 26 24 28 22 31 28 31 29 36 37 37 20 38 25 27 36 21 36 29 27 25 25 34 36 30 30 26 38 30 24 32 23 23 20
36 26 34 30 24 30 30 25 38 30 35 24 37 26 20 18 18 38 24 37 19 27 36 37 32 21 29 24 21 34 24 20 19 37 37 19 30 23 33 29 36 26 23 30 28 26 27 24 26 31 37 18 21 24 26 19 34 30 37 35 24 33 34 19
27 36 27 31 36 38 28 29 22 18 27 25 26 29 22 38 21 38 27 38 38 38 18 37 18 21 24 31 18 30 25 32 19 37 21 34 26 22 22 29 24 33 22 19 26 31 21 20 25 38 35 34 20 35 18 37 27 32 22 33 18 29 34 36
37 22 38 22 28 30 23 33 18 20 27 38 21 33 27 25 22 36 33 31 32 37 33 27 23 20 34 34 28 38 37 28 31 20 35 22 25 27 19 38 35 31 28 38 22 29 35 25 18 31 21 22 29 22 23 18 25 29 34 29 27 30 32 25
26 18 36 34 18 38 21 33 28 29 21 25 32 35 25 35 26 23 19 22 32 33 29 38 18 36 34 19 25 29 22 37 32 33 22 30 19 29 32 18 32 20 31 19 20 23 20 36 24 30 22 27 31 37 37 36 28 27 27 20 33 31 25 34
28 19 34 32 33 38 26 30 24 37 21 24 32 18 29 35 30 23 38 24 21 33 32 33 35 35 32 34 23 18 28 26 19 25 32 30 31 34 38 38 20 19 36 32 35 26 25 34 35 30 18 31 18 26 26 23 36 19 24 34 38 36 25 29
35 31 29 35 30 35 29 35 23 20 30 22 20 18 28 24 23 30 22 34 28 19 19 23 23 31 23 36 29 38 19 34 26 29 22 36 18 29 33 36 22 35 31 26 34 32 31 38 26 25 19 37 28 31 34 37 36 34 24 24 22 24 37 27
21 32 23 21 35 28 37 22 21 33 18 33 35 20 23 31 22 28 30 38 20 20 19 33 30 25 36 26 36 20 30 30 26 30 21 22 26 30 32 20 30 28 33 30 37 33 24 18 19 31 31 34 35 36 37 29 25 34 22 19 27 33 32 25
18 37 32 19 24 31 37 33 30 34 28 35 36 37 26 28 32 30 28 38 28 35 32 22 33 36 19 18 32 34 23 28 18 37 32 31 18 27 24 20 24 24 30 25 32 24 29 18 25 23 24 33 25 36 23 24 19 22 18 38 30 32 35 30
24 35 38 27 32 27 29 38 25 32 38 26 26 33 26 38 21 37 35 37 33 28 29 25 28 31 38 36 27 35 38 26 25 37 25 18 33 33 32 35 37 28 32 29 30 27 28 21 36 27 34 30 23 22 26 18 38 32 22 23 28 30 37 27
21 23 37 18 32 24 34 26 26 26 24 37 36 28 26 23 18 21 31 25 35 23 26 23 36 19 29 38 22 21 22 19 21 35 35 37 38 32 31 26 28 30 20 25 19 20 30 26 25 25 30 38 20 30 31 36 25 23 26 20 24 33 31 29
35 26 25 23 19 20 35 26 28 28 37 21 25 33 38 34 31 22 35 19 31 21 36 19 35 35 35 27 30 23 29 36 38 32 33 33 35 35 28 35 29 30 20 38 21 21 36 26 23 25 37 28 37 35 19 32 21 37 35 29 34 22 23 20
25 23 19 29 25 22 20 29 22 25 37 33 21 19 23 20 28 20 23 19 18 19 18 27 22 32 32 24 28 35 32 19 33 21 38 28 21 21 23 28 18 28 33 22 25 37 28 32 27 35 34 38 38 21 20 34 36 32 18 22 33 18 20 34
20 36 19 31 20 26 22 37 26 29 28 24 32 22 36 34 32 20 33 35 35 30 28 30 29 27 35 19 27 26 22 38 30 38 24 22 18 18 30 20 33 24 31 23 18 21 20 18 23 26 32 38 20 23 28 27 33 24 28 27 32 32 36 34
32 37 32 32 29 36 26 24 34 19 35 29 27 35 28 37 20 19 29 28 34 38 37 29 36 25 28 22 31 20 25 18 36 35 19 20 21 20 21 22 26 30 21 23 36 32 30 19 34 35 22 18 19 20 28 18 25 22 21 27 33 20 30 21
32 32 36 24 36 32 26 28 19 24 20 26 31 27 19 19 29 25 23 33 21 21 27 26 32 36 32 20 32 20 29 21 24 38 23 30 24 38 21 19 18 19 36 38 30 23 19 25 20 30 18 19 30 23 28 30 27 35 34 24 33 25 26 22
32 38 36 35 26 31 30 29 23 31 22 20 24 37 23 37 37 26 21 37 35 27 20 26 36 26 28 24 32 18 29 24 36 37 26 38 24 27 33 29 18 36 22 29 27 23 34 35 35 27 32 25 30 33 26 21 35 18 37 25 20 32 37 37
27 32 20 38 22 18 35 35 35 34 33 37 21 32 33 28 33 35 19 32 30 24 25 37 31 31 23 25 23 22 20 38 26 30 20 26 31 28 32 36 22 27 38 23 22 36 21 19 27 30 34 30 26 21 21 19 33 24 38 36 24 32 27 24
27 29 24 22 32 36 24 19 38 30 19 33 25 30 18 26 39 40 24 31 37 32 37 36 24 20 36 29 25 30 24 24 36 23 37 27 38 18 31 31 21 28 23 39 24 37 30 22 33 19 29 18 20 38 34 19 38 33 34 23 35 36 32 37
38 22 21 33 28 24 27 18 37 35 35 26 34 29 31 37 37 41 31 43 37 32 38 26 36 33 27 36 37 32 30 23 24 18 21 24 38 25 35 27 43 40 43 46 40 25 30 43 22 39 29 30 26 36 32 27 38 34 38 26 27 18 24 28
34 20 38 20 35 33 21 26 20 34 38 36 29 35 27 27 46 42 47 47 35 44 33 30 46 32 25 24 32 19 19 26 33 36 29 115 36 25 42 40 42 28 37 49 45 40 39 30 42 43 26 34 22 36 35 33 18 34 35 35 38 27 25 20
20 36 31 36 33 26 34 33 37 34 38 30 38 39 36 31 31 38 43 42 47 51 34 43 44 35 28 36 35 28 21 36 24 20 25 23 110 46 40 30 41 52 51 48 49 44 38 45 32 45 42 36 27 21 22 31 18 27 28 21 33 29 24 19
34 27 18 28 34 22 32 24 34 34 31 40 31 28 48 47 37 43 38 49 49 42 52 44 35 52 40 35 30 29 31 121 33 22 34 39 128 40 35 51 38 53 52 46 51 57 42 42 40 49 29 37 31 36 38 33 33 18 30 23 28 38 28 38
19 22 27 30 27 30 28 28 28 38 21 34 39 47 42 52 57 52 53 47 48 41 41 57 40 50 42 36 49 34 37 21 106 29 43 131 48 41 49 42 52 40 46 59 57 49 47 39 48 46 46 31 47 37 25 23 36 30 21 32 27 18 26 20
29 24 20 29 26 29 32 37 38 28 25 29 33 39 35 58 60 48 63 64 65 45 65 46 54 41 58 43 34 35 111 40 113 34 37 36 136 38 39 41 48 58 61 49 63 65 51 56 57 46 39 45 48 44 38 37 20 22 28 33 36 31 26 22
21 28 33 36 21 22 28 37 34 34 25 45 47 40 45 57 61 61 66 55 65 57 60 56 45 46 60 46 44 50 33 206 30 27 32 124 37 55 47 51 45 65 53 51 66 68 62 53 51 49 52 49 52 30 45 28 18 33 18 19 37 19 33 31
22 19 21 30 18 22 26 19 35 25 31 38 39 40 55 46 57 52 61 71 61 73 57 52 58 62 44 50 53 53 119 41 121 45 126 126 45 42 54 58 69 69 56 54 61 56 59 58 57 55 44 49 44 41 41 29 33 29 33 28 19 18 21 25
37 23 36 35 23 21 29 18 32 45 29 35 47 42 56 46 58 65 55 72 70 60 66 71 52 53 53 62 42 48 123 44 34 209 40 48 133 48 58 66 60 61 71 59 73 65 68 56 68 53 52 48 36 52 29 31 23 20 26 30 31 22 20 27
32 34 37 22 34 38 18 37 39 32 45 47 57 44 58 57 60 57 72 60 80 74 61 66 62 58 65 64 52 38 124 53 130 136 135 50 128 45 59 56 54 75 71 62 70 66 74 66 65 59 53 42 52 41 33 30 39 31 27 30 34 26 27 33
32 27 38 32 38 29 27 26 42 35 48 41 38 46 53 54 60 59 73 70 67 73 76 68 75 55 56 55 55 134 52 56 135 131 132 46 57 131 57 71 68 75 77 65 72 72 70 76 57 66 55 57 55 54 49 30 39 25 31 24 24 24 35 32
36 23 29 27 36 21 33 21 44 39 35 45 39 55 54 60 61 67 79 68 68 81 76 64 64 59 57 53 133 52 38 42 136 52 224 50 50 137 63 70 59 68 74 78 74 68 66 72 69 54 54 46 40 52 37 32 25 27 24 38 37 27 27 31
24 33 28 23 23 32 35 34 26 45 34 52 54 63 58 71 62 66 64 68 85 78 86 69 68 61 55 55 43 131 42 127 41 44 40 220 138 67 67 63 78 78 86 76 72 82 77 72 60 62 49 60 57 45 51 30 27 35 38 20 31 34 21 31
22 34 22 32 26 38 19 21 28 45 50 38 54 59 55 62 68 65 65 84 80 87 70 66 60 73 60 57 52 131 54 46 121 39 122 136 137 57 66 68 61 62 82 87 82 74 67 78 66 52 49 50 46 36 38 47 30 24 23 30 31 36 33 38
32 27 29 28 43 37 37 25 43 39 51 44 50 65 72 59 69 63 77 84 84 71 76 73 74 70 62 55 55 144 62 54 131 60 148 223 56 69 62 61 76 81 90 80 84 83 70 81 73 65 68 61 57 50 40 56 33 30 35 27 44 39 31 30
47 32 32 38 41 48 46 46 33 38 42 55 63 70 67 80 66 77 86 90 91 79 73 72 80 81 75 72 142 60 60 144 57 152 148 72 148 69 77 71 75 75 80 79 86 88 84 92 81 83 81 80 65 71 68 47 48 41 46 53 56 52 56 46
35 34 35 35 48 43 39 44 44 44 50 51 56 66 81 69 79 74 87 89 87 95 83 93 85 83 76 151 68 79 153 67 157 143 59 151 71 85 81 81 78 87 88 97 86 89 85 84 95 75 82 85 78 78 64 59 59 68 52 52 68 51 53 62
40 47 55 50 51 47 55 62 48 54 59 71 59 81 73 82 80 81 93 86 95 98 99 98 81 89 89 79 164 68 150 66 62 160 159 72 163 81 77 95 90 94 93 96 99 109 107 105 93 84 83 81 78 82 73 80 70 60 69 75 60 63 65 68
39 44 37 53 36 38 42 43 42 62 51 50 72 75 64 70 80 73 77 79 85 79 72 78 75 68 79 153 60 65 140 60 155 139 71 62 73 161 73 88 79 76 79 85 90 93 96 95 87 87 72 79 78 66 76 62 68 55 67 58 67 65 59 64
29 40 50 48 43 45 33 51 48 36 44 59 50 64 69 52 59 61 61 77 80 64 69 65 65 69 56 52 145 48 48 228 134 44 58 58 136 59 63 72 70 70 67 75 80 74 71 64 62 76 59 54 56 56 59 56 43 45 54 50 58 47 52 46
44 29 27 35 44 26 24 32 30 28 30 51 51 37 54 56 51 61 55 57 56 57 62 51 46 58 59 51 55 135 134 45 207 44 40 54 130 43 48 59 68 53 68 56 66 57 60 54 55 62 61 48 49 52 50 33 47 47 38 44 39 47 33 34
18 21 28 23 34 22 26 19 26 24 38 27 33 28 45 33 43 38 54 40 53 38 45 40 47 48 39 46 27 122 124 109 111 20 25 43 125 34 36 41 37 55 51 58 56 55 57 43 34 50 43 28 27 33 34 29 28 23 37 35 21 31 38 25
21 31 36 29 18 32 35 33 18 35 28 31 28 36 40 42 49 34 32 41 51 42 49 44 42 34 36 45 25 198 112 34 119 30 27 31 44 111 40 38 33 44 35 46 42 45 43 49 33 41 26 33 31 24 38 23 31 25 35 37 28 21 22 22
24 29 27 20 25 24 25 26 19 26 24 20 21 40 30 34 44 46 35 45 47 43 41 46 30 33 37 35 31 23 255 18 119 28 24 34 120 43 33 40 32 48 36 40 48 49 32 35 40 35 43 34 26 25 31 23 22 38 34 31 25 38 35 36
34 34 23 26 26 20 29 36 37 33 38 27 37 32 35 21 42 29 36 33 39 31 34 44 41 34 26 29 31 31 196 199 20 38 32 27 21 118 39 39 44 29 38 27 38 29 42 36 22 38 25 29 38 28 38 36 35 32 18 24 38 20 18 34
33 36 23 28 36 31 23 35 21 27 29 30 20 24 19 19 24 34 36 27 24 26 21 22 31 23 20 35 30 199 32 29 202 32 31 34 24 22 105 30 20 26 37 26 39 24 25 34 22 32 20 20 37 24 38 32 35 25 23 26 19 23 19 29
31 37 25 32 30 30 20 26 19 34 35 19 29 18 29 35 35 30 27 19 35 21 18 23 18 34 23 18 20 207 23 24 18 199 19 27 25 33 104 38 23 24 19 33 36 31 26 28 34 20 27 27 33 29 33 24 36 32 31 34 20 20 24 33
38 27 32 35 22 21 26 20 18 35 34 25 23 25 30 35 29 27 33 35 29 38 29 23 37 20 19 22 22 35 203 36 23 103 107 35 23 35 104 25 25 20 27 23 25 24 29 35 19 33 35 38 24 27 34 33 27 21 37 29 25 21 37 36
18 38 38 26 31 31 27 30 20 32 31 19 28 25 24 38 21 25 20 31 34 18 37 37 31 25 32 29 28 33 21 195 28 208 23 24 27 111 25 21 20 26 26 23 23 24 33 30 19 18 24 26 34 21 33 38 20 25 19 24 26 32 26 38
33 33 35 28 28 21 25 19 28 25 33 18 26 19 20 24 34 23 19 38 20 20 22 18 34 20 24 32 18 21 110 115 20 198 34 22 116 35 24 31 24 30 19 28 18 35 21 27 26 23 25 26 32 27 19 26 21 29 20 35 33 35 29 36
18 32 37 20 31 29 19 32 27 29 29 34 22 33 25 33 28 21 19 22 22 36 31 36 36 26 31 31 32 123 105 30 28 107 119 123 38 35 29 34 31 25 21 30 36 26 22 32 31 32 21 37 25 20 19 25 26 38 35 24 31 31 36 38
27 21 29 31 32 20 23 26 24 27 22 36 26 35 38 27 36 32 27 27 24 22 38 34 25 21 29 18 37 120 31 118 34 114 112 104 19 28 24 21 34 36 38 22 27 28 28 33 23 33 37 29 34 35 28 36 29 27 37 38 34 33 18 26
24 32 36 38 32 35 30 34 35 36 28 28 24 37 21 38 19 24 29 20 27 36 36 34 18 24 37 36 120 32 22 37 121 118 114 25 120 20 25 33 33 18 19 32 19 30 37 25 25 30 35 29 28 23 29 19 31 31 22 22 38 21 20 28
29 29 32 35 20 36 33 34 23 38 22 28 32 36 36 28 19 25 33 32 23 29 23 33 19 32 37 31 110 24 37 18 112 20 123 116 34 31 27 20 35 38 37 30 20 30 37 32 22 26 36 29 28 28 21 28 32 28 21 32 18 37 30 32
28 29 21 26 29 22 26 18 35 21 19 37 37 32 34 18 33 30 33 35 18 29 26 35 25 27 25 22 35 116 21 103 19 19 109 114 36 36 37 21 35 31 37 38 28 34 19 21 22 34 28 20 26 28 18 22 19 34 34 23 32 22 26 24
19 37 34 38 24 25 18 29 24 30 28 33 18 26 37 19 18 19 31 34 35 38 22 37 22 25 27 30 34 20 120 26 34 21 119 110 36 30 26 27 25 34 27 35 18 25 33 24 38 24 30 18 22 22 18 37 28 36 32 18 34 37 29 26
38 27 26 36 36 23 28 20 34 23 19 28 28 37 19 28 21 24 18 33 38 38 25 19 28 36 32 23 32 113 28 38 37 23 37 188 30 32 36 37 29 25 37 21 25 23 33 35 34 25 31 31 19 38 37 33 30 23 37 37 23 27 18 29
23 37 33 34 29 20 26 32 38 28 34 36 19 20 27 36 25 26 30 36 27 32 19 26 26 33 21 29 36 31 103 24 38 33 32 119 22 26 24 19 19 21 22 26 21 31 19 30 19 20 19 18 30 27 25 27 32 20 31 36 25 25 19 32
27 18 35 36 21 25 36 20 24 24 36 32 30 37 24 23 33 23 25 18 21 27 21 35 36 27 37 25 30 26 22 119 26 31 34 26 112 33 37 20 24 21 38 19 31 27 27 25 37 32 18 28 31 21 31 24 18 18 36 23 28 31 37 35
21 19 27 35 19 24 27 33 31 18 38 20 36 35 27 21 37 34 38 19 36 25 38 21 21 27 37 35 19 29 20 33 35 25 20 29 34 114 22 25 28 18 19 25 20 19 19 33 32 21 36 38 20 37 35 18 27 33 24 34 18 28 35 22
24 23 26 22 21 31 33 35 24 22 37 24 38 32 33 33 33 38 28 35 25 28 28 30 21 32 21 23 20 31 33 19 36 22 33 32 36 35 104 28 20 18 30 34 19 27 22 28 27 27 25 29 19 22 36 25 26 19 21 33 31 21 22 33
19 24 22 18 36 35 33 31 38 19 19 38 38 23 29 19 29 24 19 37 19 37 24 26 36 22 28 24 20 36 20 23 19 20 32 22 26 30 29 34 24 29 22 18 19 31 28 18 27 37 33 29 32 23 34 38 35 23 27 25 22 32 18 36
35 27 27 33 36 37 35 32 25 33 37 27 32 19 30 36 32 23 30 38 32 19 35 18 27 20 23 27 38 31 31 31 21 33 33 29 18 19 20 24 22 33 31 21 26 38 38 27 32 18 24 29 28 19 35 21 36 37 34 19 29 19 18 36
26 19 27 32 30 18 27 21 33 31 27 30 36 31 27 20 18 20 36 35 18 34 18 21 32 33 21 27 32 22 18 23 24 21 21 38 18 36 35 32 36 31 29 29 28 20 32 37 31 34 24 22 25 34 24 32 35 22 27 26 30 24 30 27
