P2
64 64
255
21 21 23 14 25 22 26 22 19 22 26 24 18 18 18 23 14 20 15 18 26 22 14 17 19 26 16 18 17 20 21 15 15 17 22 18 15 18 26 19 26 25 21 18 17 19 20 15 17 16 20 25 24 14 26 14 23 26 26 20 17 16 16 22
21 17 17 26 23 20 14 24 19 20 19 17 18 19 14 25 15 15 14 24 20 23 20 17 15 22 14 26 14 26 26 21 18 21 15 14 25 14 16 25 16 14 26 20 15 23 24 21 14 17 21 18 16 25 15 19 22 18 21 14 23 21 19 19
16 20 26 18 18 21 23 23 17 22 25 16 20 23 14 22 18 18 26 14 18 20 19 17 26 14 26 21 26 15 20 20 24 26 17 17 21 24 19 18 25 22 18 15 25 16 24 15 18 19 25 22 17 22 16 21 21 24 14 22 20 18 20 26
21 16 26 15 16 20 22 20 26 16 25 24 20 26 18 26 15 23 21 21 24 22 17 19 19 15 24 16 20 15 26 24 14 19 15 24 21 18 21 21 17 23 24 21 26 18 20 20 20 20 17 22 18 19 16 19 23 20 18 16 22 17 16 24
21 15 20 24 17 19 26 23 20 17 24 17 20 16 19 22 23 16 25 20 22 15 19 14 19 22 17 19 23 23 17 24 22 26 15 23 26 14 20 22 20 16 23 25 19 14 14 19 17 16 15 19 24 22 22 24 22 25 21 24 16 20 16 21
17 24 23 15 14 18 14 22 24 19 15 26 23 14 18 18 17 21 18 14 14 23 23 21 20 15 26 17 20 14 22 14 16 17 17 20 17 17 18 16 26 17 24 25 26 14 25 22 15 19 23 25 21 26 17 14 18 15 23 24 21 24 24 15
23 23 24 14 17 22 25 17 16 15 22 25 25 23 14 15 23 25 25 19 19 21 23 25 21 22 23 22 24 19 23 18 19 21 17 23 24 16 14 25 23 22 22 23 18 20 24 21 26 25 14 24 18 15 18 20 23 21 22 14 18 20 20 21
16 17 19 22 17 22 20 26 17 22 19 20 25 20 20 14 23 21 20 22 14 20 23 19 16 26 16 17 23 21 20 19 20 14 18 21 18 23 21 25 18 24 16 16 20 17 25 26 14 16 25 25 15 25 26 26 18 15 16 19 19 25 17 21
19 18 15 14 24 20 16 16 25 14 14 20 19 20 21 26 17 14 16 15 23 14 20 22 25 22 26 22 16 23 16 15 26 20 23 20 22 23 26 22 15 22 14 18 24 18 21 21 20 24 14 19 16 17 18 23 25 23 20 20 18 14 24 22
24 18 21 20 17 22 25 16 15 14 23 20 17 16 26 19 21 14 23 14 18 21 21 20 25 19 18 23 14 21 15 22 26 14 23 16 26 14 23 21 24 21 26 22 23 19 21 16 19 20 22 16 19 18 22 22 18 24 23 15 22 26 25 17
26 22 18 14 15 16 17 14 20 19 16 23 18 23 24 14 23 18 16 18 24 20 19 26 18 23 24 17 26 16 16 25 21 14 19 26 24 25 20 14 25 23 14 20 26 25 19 17 17 19 16 22 20 24 25 22 15 15 22 20 26 16 17 16
20 20 16 15 20 20 18 22 21 16 26 18 14 19 19 14 26 23 14 18 15 17 24 14 25 26 16 19 14 14 14 17 25 18 24 16 22 14 20 22 19 21 18 24 23 25 21 23 25 25 20 15 14 22 15 17 25 16 21 20 25 22 25 19
16 16 14 18 14 16 16 22 19 20 23 15 24 26 25 22 24 18 23 17 18 26 14 14 21 23 24 18 14 20 26 19 14 26 23 14 25 15 14 16 17 20 19 26 17 17 18 21 25 15 24 19 22 24 26 22 15 18 24 16 22 19 18 25
23 25 24 14 22 20 22 17 24 25 18 16 25 25 21 24 25 20 22 19 22 22 21 19 26 14 18 20 24 22 23 15 23 23 16 20 21 18 21 20 22 19 17 20 23 21 18 26 17 22 16 22 20 19 14 16 19 23 15 26 17 15 22 15
14 23 24 20 17 26 23 23 22 20 19 22 21 24 23 16 26 16 22 15 21 22 20 26 20 19 20 19 20 16 14 16 23 19 23 23 24 22 23 19 20 15 20 17 23 20 18 16 18 25 25 18 25 20 23 16 20 17 18 25 18 16 24 26
19 23 15 19 15 20 21 25 14 20 16 25 22 23 23 16 15 23 19 18 15 15 15 22 25 25 17 26 24 21 20 16 26 23 16 21 15 16 23 16 25 17 25 25 24 20 19 14 18 21 23 19 24 25 18 26 15 21 14 26 23 17 15 14
21 15 14 16 19 25 22 26 16 25 22 24 21 16 26 20 14 24 19 20 15 24 23 21 16 24 21 22 19 21 15 21 17 22 23 20 14 18 19 21 14 15 24 22 19 24 18 16 26 17 22 26 22 17 20 18 26 17 20 21 22 22 25 21
24 23 16 14 16 25 26 17 26 15 14 24 15 22 17 26 14 15 14 20 14 25 26 21 23 16 22 19 15 24 21 24 21 23 24 24 14 17 23 17 20 23 14 25 22 24 21 24 16 16 16 16 19 23 23 18 16 23 24 14 16 18 26 16
15 14 15 14 23 24 16 20 21 26 19 16 19 19 14 16 14 15 26 16 18 15 14 16 19 22 17 26 25 18 23 24 14 19 26 22 16 24 23 18 14 15 22 19 26 23 26 17 15 21 19 15 15 22 16 21 22 15 18 19 24 14 20 18
23 25 20 15 19 14 26 20 19 16 24 17 14 23 14 16 22 28 24 18 29 22 20 27 17 22 25 18 20 18 23 19 26 20 19 19 19 26 15 22 16 21 29 28 18 25 23 27 20 23 23 17 15 22 20 19 17 26 21 18 26 22 15 19
20 17 16 26 15 17 17 20 22 21 25 22 17 17 24 28 26 23 24 28 32 32 29 25 32 28 23 24 21 14 25 19 24 18 16 23 23 17 20 23 22 31 33 32 27 23 23 25 24 29 22 19 15 22 17 24 15 19 22 23 26 23 18 23
17 21 17 20 23 24 24 20 16 25 21 16 21 28 23 32 22 31 34 29 33 36 35 32 30 33 26 28 28 16 24 21 21 15 18 23 20 22 24 24 33 35 33 33 28 28 34 35 34 23 21 27 23 15 22 19 24 20 16 16 14 25 26 19
15 20 16 15 15 26 26 16 16 26 15 21 18 32 29 32 38 31 35 38 35 34 33 34 35 33 24 34 25 21 16 18 26 22 16 28 21 29 35 29 29 31 34 40 40 30 38 27 32 28 22 28 27 16 21 16 14 16 15 26 16 19 15 21
20 24 20 19 22 20 19 23 23 24 16 26 25 30 33 31 35 41 33 43 36 42 44 42 34 32 35 35 32 30 25 19 16 18 19 22 32 30 31 34 34 37 34 39 42 41 37 39 32 36 29 23 22 28 27 20 24 23 22 18 21 15 26 26
15 22 21 19 26 23 17 22 18 22 28 23 34 34 30 33 44 39 43 37 43 45 49 44 41 35 39 33 37 31 29 27 21 19 20 31 35 40 43 34 34 38 41 43 42 46 46 42 42 34 32 26 32 23 22 14 14 25 24 18 15 19 15 21
23 15 24 19 18 16 24 16 20 20 22 34 34 34 39 37 44 43 49 45 52 44 48 49 44 36 43 42 38 29 34 28 23 24 31 34 35 32 41 48 42 51 51 42 50 48 49 39 38 37 31 28 31 34 28 20 21 15 18 17 26 22 19 23
18 20 17 19 16 20 18 26 14 25 24 30 40 40 39 47 45 52 54 53 46 50 53 54 44 40 46 36 33 40 29 28 26 33 30 40 38 43 44 43 53 46 54 57 50 50 51 43 44 48 39 41 39 34 26 28 19 20 21 14 15 24 16 19
21 25 16 17 20 24 16 17 19 20 33 29 33 40 40 50 45 51 49 58 58 57 56 47 45 47 43 39 45 37 30 30 27 28 36 38 43 38 42 51 46 59 49 56 57 57 55 45 42 46 39 44 41 28 34 32 23 25 16 15 19 20 15 22
18 20 19 18 25 15 26 18 17 26 31 38 34 41 47 47 56 59 54 54 61 64 55 59 59 52 44 46 42 43 35 28 29 39 31 39 44 48 50 46 55 58 62 56 58 57 55 54 57 46 40 36 35 35 25 23 25 15 14 14 15 18 19 16
14 22 19 14 24 22 23 19 23 22 26 38 33 42 48 52 55 51 62 66 68 67 63 63 56 47 45 42 49 34 34 40 36 36 35 43 47 51 48 50 52 61 66 58 69 67 60 55 54 53 49 43 41 33 37 30 27 26 14 18 19 21 16 15
17 26 20 26 25 22 24 15 28 24 32 33 35 47 48 57 61 58 62 61 62 72 64 59 63 49 52 52 38 36 42 44 38 44 44 35 47 44 50 60 63 66 59 66 68 63 66 53 53 51 45 49 39 43 29 32 19 24 26 21 25 20 22 15
17 19 24 22 20 22 19 23 27 30 29 38 44 40 53 51 55 61 59 65 67 68 62 67 55 61 58 55 48 35 37 32 38 32 40 47 51 45 53 50 61 63 67 76 69 66 64 59 61 49 44 43 37 41 34 27 20 24 26 21 26 24 21 26
20 17 22 24 16 21 26 21 27 36 35 34 45 51 45 59 60 56 65 67 67 76 66 62 63 53 47 54 51 40 41 37 40 33 37 46 49 43 52 55 62 67 66 72 70 74 64 67 59 57 51 44 42 32 37 28 29 27 23 19 22 24 19 19
14 16 16 25 23 21 20 26 29 34 27 31 37 49 43 47 56 64 64 67 67 65 63 60 58 62 59 51 50 36 40 38 34 38 43 46 51 50 57 52 57 59 61 64 64 68 63 56 57 57 50 51 39 42 27 25 25 18 26 24 18 25 20 26
21 19 20 25 16 16 18 25 29 23 36 34 43 49 45 55 49 57 62 68 64 71 64 65 56 51 55 42 45 41 44 44 32 44 35 44 46 52 55 59 60 62 70 62 62 68 67 63 59 49 43 40 38 32 29 35 24 21 15 14 19 15 14 18
20 17 24 26 22 17 14 15 19 22 35 40 37 42 41 54 50 56 53 57 61 66 63 57 54 54 54 43 44 42 38 30 35 32 32 43 48 50 46 54 55 56 65 64 63 59 60 59 54 47 50 43 45 37 37 34 22 25 25 16 20 21 14 26
17 20 26 14 19 21 22 15 21 29 29 30 36 35 39 44 47 51 53 60 54 53 53 58 55 53 44 43 37 39 39 30 28 28 40 32 37 44 48 49 51 57 58 55 62 61 59 55 54 52 40 38 36 33 30 32 28 26 23 22 26 17 16 22
21 20 15 19 16 14 16 26 17 25 35 37 40 42 48 40 46 55 47 56 56 57 59 54 55 51 39 43 33 31 37 32 30 26 37 42 37 47 40 50 56 56 57 53 60 55 54 50 48 52 42 44 35 28 35 26 20 24 15 24 19 16 15 17
21 18 16 18 24 16 21 15 25 18 26 31 39 33 46 41 40 45 47 50 51 52 51 50 51 42 40 38 39 30 33 28 22 28 28 35 32 35 41 40 44 48 54 57 51 44 51 50 44 49 34 37 40 31 26 26 15 15 22 15 19 18 26 24
26 29 17 18 22 18 20 28 28 24 23 26 34 36 47 48 44 42 49 53 56 47 52 46 43 48 40 45 32 34 37 30 29 24 36 36 40 37 49 44 47 49 50 57 53 52 54 51 47 50 48 37 41 31 37 26 27 26 28 24 32 32 28 30
23 26 32 27 30 26 29 22 22 29 35 33 41 34 41 45 42 49 45 45 49 54 46 51 45 45 46 46 40 38 37 27 27 38 37 41 36 42 50 55 53 55 48 54 57 60 52 52 47 46 51 43 40 44 34 33 34 36 27 33 37 34 38 29
35 25 30 32 30 32 36 25 37 30 29 34 39 37 43 46 50 48 51 47 48 51 46 54 49 45 49 50 44 34 38 31 35 28 41 39 46 49 43 53 51 58 58 50 49 54 50 53 55 54 46 41 40 44 35 42 34 32 39 35 44 34 41 34
29 20 26 25 26 23 33 21 29 31 28 33 25 29 37 36 38 37 45 47 44 39 45 39 39 36 33 33 34 36 29 24 29 27 29 37 32 35 44 43 38 42 40 46 43 43 40 49 45 43 45 41 33 36 34 28 28 35 32 34 36 32 29 28
24 25 27 21 28 23 22 23 24 28 26 29 21 21 26 34 32 30 39 41 32 39 41 31 31 26 27 25 30 27 18 21 18 24 30 24 31 33 37 31 28 41 32 33 35 35 34 34 28 35 25 34 28 22 27 23 32 20 22 23 20 26 22 29
19 24 17 20 25 20 14 19 22 22 22 20 22 22 17 18 23 32 21 30 30 28 28 24 26 20 18 26 14 26 23 23 15 24 25 17 19 24 28 20 22 21 32 29 24 28 21 22 29 25 22 21 16 14 19 20 25 26 25 18 22 23 20 19
16 23 21 19 15 26 18 17 15 24 19 25 14 18 21 25 25 22 27 26 18 25 24 26 18 19 22 23 21 20 24 25 22 25 15 26 21 19 14 17 23 29 27 22 23 22 24 16 15 25 22 15 15 26 21 22 18 18 24 18 17 23 18 24
16 22 14 16 20 16 23 21 17 16 18 18 16 22 20 16 17 14 26 15 18 25 14 26 17 23 25 25 24 17 17 17 14 26 18 18 24 24 25 14 21 21 25 14 22 16 25 20 26 21 25 25 24 18 15 16 19 16 20 24 18 23 22 26
19 14 20 26 23 22 22 19 24 25 20 22 18 14 19 16 17 16 16 25 18 25 25 17 24 25 17 19 21 25 20 16 16 18 18 20 16 26 17 26 16 19 20 23 15 14 22 25 25 26 14 22 25 14 25 15 17 16 18 24 18 19 22 19
23 16 26 24 16 19 24 23 23 25 17 25 21 14 14 19 24 15 19 26 24 21 14 22 22 22 21 23 18 19 23 17 15 21 16 19 24 14 24 18 20 22 20 22 23 22 15 15 26 16 25 15 17 21 19 25 17 14 14 16 17 15 26 14
19 23 25 21 25 21 24 20 25 20 23 18 24 18 18 15 15 26 22 22 23 26 19 15 14 24 15 23 23 21 24 24 21 20 14 20 26 18 18 14 24 15 25 23 26 16 16 26 20 22 24 21 17 17 23 20 26 26 24 22 14 19 18 18
23 15 20 26 19 21 15 18 21 17 25 20 18 18 16 22 19 14 17 19 14 23 20 24 25 17 20 24 19 22 18 26 20 26 21 20 17 23 18 23 21 21 23 14 25 23 19 20 14 25 25 21 25 15 24 17 18 15 18 19 17 20 20 24
23 21 20 25 23 17 19 22 21 24 23 23 20 16 23 17 23 23 22 26 14 20 18 23 22 18 23 15 24 26 24 19 20 15 19 26 25 16 17 21 26 24 26 14 23 18 22 21 18 14 14 23 19 21 15 15 24 18 25 15 25 19 14 23
23 15 15 25 24 23 26 21 26 20 22 26 14 18 24 22 15 15 17 24 21 16 15 18 26 25 24 21 22 19 20 21 14 15 23 25 15 23 23 19 25 15 15 22 21 17 17 19 15 17 26 21 26 20 25 22 15 24 21 20 17 23 19 17
24 15 24 19 24 25 19 25 22 22 26 24 21 16 20 17 19 17 23 16 20 21 26 26 25 19 16 16 15 16 15 16 14 17 22 24 19 22 16 24 21 21 26 25 18 15 19 16 15 19 21 23 14 24 15 23 17 25 20 17 23 18 24 23
23 26 20 25 22 16 15 15 20 26 21 18 20 26 20 22 25 17 17 18 21 25 17 19 22 19 19 18 20 19 17 16 15 20 18 14 25 26 20 19 20 14 24 15 15 16 15 17 21 17 16 14 22 18 22 17 15 18 17 25 17 15 16 23
26 22 15 26 24 22 19 25 21 18 18 21 18 25 18 19 14 21 23 18 24 21 23 26 19 16 14 24 23 19 24 23 18 21 15 23 21 26 15 24 14 20 22 24 18 21 22 18 26 23 18 26 20 20 26 18 19 20 14 14 20 17 18 22
15 15 19 15 14 18 16 23 21 25 14 22 24 22 22 15 14 26 14 19 23 26 18 14 25 18 26 16 18 18 18 18 14 16 26 16 20 17 14 26 26 19 15 15 23 21 14 16 14 23 22 14 24 24 21 26 19 19 18 17 16 21 15 15
21 20 25 23 22 24 16 16 18 23 26 15 17 14 17 22 21 17 24 14 25 17 24 14 15 16 20 26 24 14 23 20 26 18 23 26 20 20 17 19 22 26 15 16 23 17 15 22 23 22 14 19 24 24 15 16 21 21 17 16 16 18 22 24
17 16 25 19 16 16 20 20 25 23 25 17 14 22 25 20 25 22 19 25 23 23 16 20 15 18 15 23 16 24 23 26 19 15 15 25 19 17 24 25 22 20 25 22 24 15 14 22 26 19 21 17 19 26 24 21 19 19 23 17 26 15 14 14
15 22 14 25 22 20 26 24 21 14 17 22 24 19 24 14 23 25 26 15 17 21 18 14 25 14 17 20 15 15 14 26 15 16 15 19 21 17 26 24 22 17 15 16 24 20 25 23 23 25 15 23 21 17 18 20 20 14 16 16 23 18 15 23
19 24 26 21 16 26 19 19 21 14 26 18 24 21 26 16 16 22 25 17 25 20 22 17 15 15 15 18 14 19 23 22 22 16 16 23 17 23 18 24 14 23 18 15 18 15 18 22 21 23 15 17 17 14 20 20 14 26 15 25 22 19 21 16
14 26 17 17 14 24 15 14 23 20 23 16 23 17 24 26 16 14 26 18 23 21 20 15 26 15 16 22 14 22 23 19 14 26 24 20 16 25 18 16 26 25 20 14 16 15 15 23 25 19 14 21 19 20 14 21 23 17 26 22 21 26 17 25
15 15 24 22 24 19 25 25 21 16 25 18 25 21 17 22 23 19 19 15 15 17 19 20 24 16 19 22 16 22 14 24 17 19 19 25 16 16 23 17 17 20 22 17 18 15 26 21 23 24 25 24 17 26 15 15 25 20 14 14 21 19 19 23
21 14 21 15 20 19 14 17 14 18 23 19 14 23 18 18 18 16 25 16 15 15 14 20 26 23 17 17 16 20 21 20 26 26 26 18 22 22 24 22 19 14 15 16 26 14 15 17 26 20 21 14 18 26 21 17 16 18 16 17 19 15 15 17
