P2
64 64
255
24 14 14 18 24 22 16 26 23 24 23 22 25 21 17 26 14 20 26 19 17 24 26 23 18 21 26 23 15 16 20 23 23 20 18 18 23 16 23 17 21 24 22 19 18 17 21 26 23 18 14 19 24 24 15 21 20 23 23 18 21 24 26 25
21 16 16 23 15 14 25 24 25 19 23 23 25 18 20 23 26 20 25 20 18 26 16 14 24 26 24 20 21 17 16 20 25 26 24 24 19 16 20 24 23 15 21 18 14 18 16 26 17 14 17 15 22 25 24 25 25 22 15 17 26 15 25 19
15 16 15 21 26 22 19 16 22 19 22 19 21 25 24 23 26 20 16 26 18 15 20 19 15 19 16 23 17 14 21 16 24 22 21 22 26 18 18 17 21 16 21 23 14 25 21 16 23 21 20 18 20 19 18 16 22 22 24 18 23 14 18 15
15 14 22 25 19 22 18 18 20 25 14 17 26 18 20 20 23 14 20 21 23 17 19 19 24 18 14 17 26 23 18 15 23 19 25 23 17 14 22 22 22 16 16 16 21 22 18 25 20 24 23 26 19 19 19 18 21 16 18 16 20 26 16 23
22 19 23 17 26 14 16 23 16 22 17 14 26 25 19 23 25 22 15 26 22 18 23 16 22 18 16 25 16 15 14 21 16 22 14 15 14 24 26 16 16 21 17 25 26 20 15 25 17 25 16 19 17 17 15 20 19 24 26 19 22 17 24 15
26 23 20 25 22 14 23 23 16 26 26 21 25 17 25 20 24 22 15 25 15 17 21 23 18 23 23 19 23 20 23 26 25 21 15 19 24 23 25 19 23 20 23 16 20 24 26 15 20 16 21 16 14 17 19 17 21 16 21 20 20 16 20 19
25 20 23 24 19 25 26 26 14 23 22 23 19 16 18 25 24 19 23 18 21 22 25 17 21 19 15 24 23 20 24 25 22 15 17 14 16 26 16 24 16 14 20 20 26 20 25 21 24 16 23 19 26 22 17 26 21 23 16 18 17 17 14 14
23 16 21 15 24 17 19 21 21 24 15 20 21 21 18 23 26 14 16 23 26 18 14 14 20 19 20 23 26 16 18 14 22 17 25 19 19 22 23 15 22 24 14 17 17 18 20 20 25 18 23 18 20 22 16 16 14 21 20 21 18 19 23 24
20 16 21 22 14 26 14 23 18 20 21 17 26 15 22 18 20 17 23 26 26 24 20 24 23 22 25 25 20 26 17 18 14 16 18 15 17 17 24 19 23 17 18 14 20 15 18 18 19 20 15 15 15 23 17 25 21 16 22 21 23 14 24 22
21 25 23 25 15 19 15 26 17 26 20 25 15 25 21 23 19 24 21 20 23 23 24 26 19 14 20 17 15 23 17 18 17 14 25 14 19 26 15 20 23 15 22 23 19 26 14 23 23 22 20 21 21 23 17 15 21 15 14 23 15 24 21 26
14 14 19 17 24 15 21 22 19 26 15 15 21 26 15 19 22 18 22 21 14 15 15 15 17 22 21 14 24 26 25 23 19 19 20 16 17 15 15 16 14 18 21 23 25 24 15 22 21 14 15 21 26 19 25 18 14 23 22 20 25 19 25 23
14 19 16 21 15 23 16 21 17 15 24 17 16 22 19 20 22 16 16 15 15 20 17 14 15 26 26 26 19 25 14 25 16 19 22 23 23 22 17 23 20 19 21 24 26 21 25 16 18 25 16 17 14 17 21 26 17 19 21 25 15 20 24 24
16 15 18 19 20 19 21 22 26 14 17 14 26 16 19 18 16 25 14 17 17 22 21 16 21 24 26 23 23 19 19 26 26 22 21 14 20 15 18 23 16 20 18 17 18 18 18 15 20 16 18 22 20 17 24 17 24 20 16 26 15 20 21 15
25 24 25 23 26 25 16 17 23 21 22 19 26 19 24 17 20 22 23 18 16 26 15 16 25 16 16 24 19 20 23 20 16 21 19 19 26 23 14 16 22 17 23 18 22 26 23 15 24 17 21 26 14 14 21 23 16 20 15 26 19 14 16 20
21 19 14 21 17 15 14 26 22 21 23 24 22 23 19 24 19 17 16 24 23 15 14 24 25 19 16 19 20 25 19 16 25 16 26 20 15 14 20 24 22 23 24 15 23 14 26 24 18 19 20 14 26 18 19 17 24 21 22 21 18 19 15 16
26 26 25 18 21 22 16 17 23 15 19 18 22 14 15 19 25 25 23 23 20 16 26 24 22 17 17 21 23 14 21 25 19 17 17 21 20 20 19 17 18 25 25 17 22 17 23 21 25 16 16 17 18 15 23 21 23 25 25 16 15 15 26 19
25 24 21 22 23 19 16 14 21 22 21 17 26 23 20 16 20 15 20 23 25 21 14 17 22 16 18 24 17 21 25 18 15 20 23 22 19 16 25 18 19 21 19 25 23 21 21 25 26 16 20 14 23 17 26 19 17 15 26 18 14 22 18 26
15 19 14 26 25 14 17 24 22 26 14 16 21 17 26 20 23 20 16 19 18 24 18 26 25 21 22 17 20 24 26 16 19 26 18 24 22 15 16 17 14 21 16 21 17 17 17 24 21 19 14 23 26 23 16 25 21 17 21 17 17 22 24 18
23 17 21 21 25 18 14 26 21 26 19 23 23 25 26 19 16 24 20 19 16 22 16 25 21 21 19 21 22 21 20 26 14 16 26 14 21 20 15 20 26 25 21 14 15 18 14 16 23 21 25 23 14 14 24 21 14 20 15 19 22 22 25 26
14 14 24 21 20 22 20 22 26 18 16 23 19 18 25 14 17 17 17 24 30 21 29 20 22 22 18 20 15 18 21 14 22 15 25 14 14 22 14 17 26 27 22 21 23 23 29 22 16 21 18 22 24 19 21 26 17 14 19 17 16 22 21 23
14 18 18 26 16 22 25 26 15 17 14 23 19 22 18 28 22 23 21 29 23 32 25 21 25 26 18 26 19 18 23 15 20 19 19 25 26 16 26 24 25 29 31 31 33 24 25 27 30 17 21 17 26 16 24 16 16 20 19 19 19 15 14 15
23 16 16 24 21 15 16 20 15 23 15 24 14 26 19 23 30 26 32 30 33 25 37 32 33 29 29 28 21 17 17 21 15 17 15 25 26 23 25 29 28 33 27 37 31 32 24 28 34 28 28 27 24 17 20 23 16 23 23 24 24 18 23 17
17 24 16 16 24 25 23 23 19 24 22 18 29 29 29 35 31 34 40 30 38 40 32 28 38 38 36 28 22 20 27 21 16 22 17 29 27 26 25 30 32 35 36 41 31 33 40 33 37 27 31 20 19 19 19 22 15 21 24 26 25 24 15 26
24 22 21 16 16 24 16 14 22 24 19 22 24 29 28 33 34 32 43 42 41 36 40 38 43 40 31 26 24 31 23 16 23 24 17 28 35 27 34 34 37 39 44 35 43 42 36 34 33 27 36 23 23 19 22 25 18 22 17 16 25 26 24 26
22 18 17 16 26 17 15 20 19 17 21 27 30 29 28 34 38 44 39 45 45 42 37 41 35 44 42 40 30 31 26 25 23 27 27 35 34 34 43 40 42 39 42 43 42 38 45 45 35 39 37 35 32 32 24 26 15 24 15 24 22 21 16 17
25 18 21 22 21 14 24 19 18 28 23 24 32 31 34 34 45 48 43 46 51 42 42 45 46 46 36 35 37 30 29 24 29 27 25 36 35 36 35 44 46 40 42 44 43 52 51 49 45 40 38 34 29 25 25 26 15 26 16 24 15 17 26 25
23 20 22 22 25 22 20 24 15 28 25 25 33 35 46 48 46 43 47 53 50 51 52 55 48 48 40 45 33 29 28 26 32 22 31 38 32 40 39 50 47 55 48 52 57 49 50 51 49 43 46 37 36 28 30 28 26 19 23 26 23 15 20 16
21 18 26 26 15 24 23 25 27 30 32 37 36 33 40 52 42 53 48 48 53 54 51 53 46 43 41 45 33 34 35 35 26 37 29 40 45 41 51 53 49 59 57 61 60 52 55 52 44 44 43 36 38 34 33 30 16 15 26 26 25 17 19 17
15 17 16 24 16 17 16 25 23 24 30 31 37 41 40 42 48 48 56 58 65 59 62 60 50 50 44 43 46 44 39 37 30 38 29 39 46 42 51 55 48 58 61 54 63 55 53 58 46 47 51 45 43 29 30 31 22 14 18 24 18 20 20 14
20 22 23 26 22 17 22 20 19 29 36 30 41 38 45 49 48 60 55 58 60 69 58 63 53 55 56 45 49 36 40 41 38 38 41 43 38 46 56 51 51 65 55 66 57 61 60 58 54 44 50 47 38 38 33 30 18 22 15 15 22 24 18 21
15 23 17 14 15 22 15 16 25 24 29 33 44 43 43 56 59 63 68 62 66 60 60 58 62 49 58 44 43 34 34 35 39 39 37 44 49 46 46 59 63 63 71 68 70 59 67 65 60 54 49 47 41 38 30 31 21 16 15 14 17 23 16 14
17 25 23 14 22 25 18 24 24 29 38 38 35 50 53 55 63 56 67 70 76 67 70 58 54 58 52 49 47 42 37 32 44 36 37 44 41 47 54 54 60 59 69 64 71 66 62 65 55 51 53 42 43 33 31 31 25 24 23 24 25 20 24 24
21 19 24 14 25 14 23 24 27 35 30 32 36 50 53 57 52 60 62 72 79 75 64 66 59 58 47 44 48 38 33 37 44 34 37 39 48 49 48 51 58 59 65 74 78 65 66 60 62 49 48 50 40 41 31 25 30 26 18 23 14 26 17 15
26 26 17 14 25 15 16 23 29 29 38 36 40 46 49 48 54 59 62 72 71 74 66 65 59 52 48 53 44 39 33 39 34 34 42 42 48 52 47 58 56 60 64 75 69 73 69 58 59 50 54 48 45 41 34 34 28 26 17 20 26 21 16 23
25 20 16 23 25 16 22 17 20 33 27 33 36 39 49 48 51 53 65 59 70 63 61 67 64 57 52 52 49 35 39 36 35 36 32 38 43 53 55 57 64 57 59 68 68 70 66 63 54 52 52 44 36 31 37 28 25 18 18 18 20 17 15 17
17 21 14 15 22 17 22 23 25 30 35 42 39 37 53 44 55 54 60 62 62 58 66 64 60 55 54 52 40 41 42 37 32 30 42 45 37 43 48 47 52 62 63 59 63 63 62 62 51 54 45 45 40 32 26 25 20 25 18 19 20 21 24 20
24 25 20 21 14 15 17 21 18 25 29 32 44 38 42 53 45 50 59 57 64 54 59 56 50 55 45 50 41 37 34 28 32 28 40 37 35 47 47 48 53 62 58 54 64 61 50 57 48 51 39 45 37 34 31 29 25 25 25 14 15 16 16 17
21 26 21 15 23 26 25 24 21 30 31 29 31 45 42 43 49 49 47 52 51 52 58 58 45 50 43 40 36 33 37 37 30 30 30 38 34 41 51 53 53 52 52 60 50 56 58 50 46 52 40 38 40 28 32 30 27 21 21 25 23 19 15 26
25 25 14 15 15 20 25 25 22 19 32 37 34 37 44 48 40 42 44 47 56 53 56 48 52 42 49 34 42 37 34 29 25 25 35 32 37 40 39 42 51 43 55 56 50 49 52 41 45 39 37 34 29 37 23 21 17 16 18 14 15 15 16 22
20 28 22 22 22 23 28 19 22 22 27 27 30 38 39 44 47 45 52 53 49 47 49 53 52 41 39 41 43 37 28 25 23 30 37 41 39 47 42 53 43 56 53 49 57 58 51 46 53 49 42 37 36 38 36 32 20 29 26 24 29 31 27 30
32 30 21 22 32 32 21 32 33 27 29 28 43 43 46 42 47 42 50 51 56 53 56 52 49 52 41 37 42 34 39 38 30 31 32 34 37 38 42 52 55 47 57 59 48 53 50 52 53 43 44 43 38 42 38 31 35 29 37 34 35 30 35 29
31 29 36 28 36 29 33 26 34 33 33 37 37 42 37 49 48 48 55 56 51 51 50 47 45 48 41 45 44 38 39 30 33 28 43 46 49 43 43 54 48 57 59 52 58 50 54 58 54 50 44 43 44 43 45 37 41 40 41 35 41 43 39 39
23 32 22 32 20 21 22 33 31 24 22 25 36 28 31 38 40 39 41 37 49 45 49 38 43 47 39 37 30 36 29 24 24 24 33 33 40 44 39 40 39 43 49 47 51 42 40 47 48 42 39 37 30 33 27 37 34 30 28 29 28 29 35 33
29 18 28 29 22 20 26 20 26 26 18 25 26 32 22 26 28 27 38 32 32 41 34 39 35 27 30 31 20 29 30 28 18 24 29 18 21 32 32 28 31 29 32 38 30 32 35 33 31 34 26 28 19 27 20 25 32 24 31 25 26 23 22 23
15 25 19 18 14 18 24 14 24 21 22 14 14 25 21 17 20 24 31 29 27 26 26 29 24 18 21 16 19 25 14 22 16 16 19 21 22 20 20 30 23 26 27 28 31 26 33 32 23 23 20 14 20 18 26 23 19 25 17 20 26 21 21 24
26 16 26 18 24 21 19 16 20 26 18 18 16 16 21 21 24 28 23 28 27 21 18 18 28 20 24 18 20 15 25 14 25 24 17 20 18 23 25 25 16 23 23 25 27 22 28 20 23 21 25 26 15 14 23 14 20 15 23 24 17 24 15 15
16 25 14 25 23 26 16 23 19 24 19 16 22 20 25 23 19 20 21 14 17 17 17 18 14 16 24 17 14 17 20 23 16 21 24 16 18 15 20 24 20 26 23 14 17 21 25 23 18 23 19 16 23 18 16 19 17 25 16 20 20 14 22 23
26 18 19 17 14 24 17 21 23 21 18 26 16 23 14 26 24 15 15 15 20 17 23 24 22 20 18 16 23 18 26 19 17 21 17 24 26 20 26 24 25 18 20 24 20 14 17 18 24 24 20 16 15 14 17 20 20 24 20 25 20 15 21 24
21 26 18 25 26 16 26 23 25 26 18 20 17 21 19 22 18 14 14 16 26 14 14 15 22 20 26 20 23 22 26 18 16 18 20 26 20 16 14 17 15 25 17 23 18 16 15 22 15 18 25 21 18 26 25 21 14 15 14 26 15 26 20 24
20 19 15 21 22 19 26 23 21 25 25 17 26 20 14 25 23 24 17 26 23 17 22 14 22 24 19 19 19 22 24 23 15 20 26 24 14 21 23 24 26 20 14 24 20 21 25 21 18 25 20 23 15 25 16 20 24 21 19 23 14 22 24 21
22 19 21 26 23 19 22 22 18 14 16 17 23 17 23 19 16 14 22 26 23 23 15 15 24 18 17 18 17 16 21 20 21 14 16 26 20 16 16 14 18 23 17 19 16 25 21 17 23 19 21 17 26 16 18 24 21 15 20 26 17 16 25 22
19 14 25 17 21 18 22 16 26 22 25 22 26 15 24 14 16 19 24 20 24 23 14 16 22 14 16 22 18 22 22 25 24 25 15 22 15 14 21 14 15 23 22 22 20 20 20 14 20 14 20 23 26 23 22 22 14 25 25 24 26 18 17 25
20 21 16 23 15 18 22 15 19 17 16 22 15 16 24 21 23 14 19 19 25 21 23 22 21 24 17 18 24 14 15 19 18 20 18 19 23 17 17 25 21 14 19 16 20 19 21 22 20 24 21 22 15 17 17 25 14 17 16 21 24 18 21 26
17 15 14 22 23 19 24 20 23 18 20 18 22 26 20 16 14 16 18 17 16 24 24 21 14 17 19 17 20 15 18 14 22 14 24 22 18 17 24 20 16 26 24 16 25 20 17 15 18 18 17 17 16 18 19 26 23 15 15 17 22 25 20 25
20 17 21 21 20 20 25 17 17 18 26 24 21 15 18 18 15 20 22 19 14 24 15 24 15 22 14 20 26 21 18 22 26 17 17 25 24 25 17 20 18 23 21 25 16 16 16 18 15 15 20 18 22 20 22 18 16 18 17 14 19 17 17 26
15 22 19 18 18 15 18 18 17 17 16 25 16 21 25 15 21 22 26 23 18 21 20 22 23 15 25 26 25 23 17 15 26 21 17 18 21 23 20 24 20 24 26 20 24 25 16 26 17 15 18 14 16 18 19 14 23 17 23 26 22 14 14 21
25 17 21 18 25 24 20 18 24 14 21 23 23 18 17 25 14 16 19 23 25 21 21 14 16 20 25 15 26 20 14 18 23 24 25 21 25 22 20 17 22 21 20 26 22 15 21 19 20 19 14 24 25 16 14 18 23 24 18 25 17 15 15 21
25 26 14 19 22 21 18 26 20 22 17 16 23 17 20 25 26 23 20 20 21 26 19 16 20 25 22 26 23 17 23 19 20 14 15 25 20 15 15 16 21 23 25 14 19 19 24 18 20 16 23 14 14 19 19 17 17 24 15 23 15 14 23 16
20 25 25 23 25 21 22 19 22 15 22 18 24 22 18 22 18 24 24 26 17 16 18 21 16 14 18 14 24 17 26 25 15 26 16 25 19 23 18 25 20 21 21 26 26 15 22 15 24 17 24 15 23 14 15 22 14 14 20 24 25 15 24 21
14 23 18 20 24 16 22 16 17 21 16 23 25 25 24 21 23 19 20 15 19 15 15 25 20 17 17 16 15 24 14 20 25 16 26 24 24 23 17 17 22 24 18 26 15 25 21 19 24 26 23 26 17 17 14 20 25 24 22 14 15 15 14 26
26 22 22 23 15 18 19 24 25 23 15 23 18 25 24 21 19 24 17 14 21 24 20 18 23 14 24 19 17 16 18 22 23 26 22 17 18 18 17 20 25 25 25 18 24 21 16 22 17 26 16 23 17 19 14 26 23 15 22 19 23 22 19 15
20 16 24 24 14 20 22 21 21 25 16 21 15 26 14 15 22 19 17 17 25 15 16 23 15 23 24 24 14 18 24 14 22 18 19 15 20 23 26 24 17 14 17 25 17 21 26 26 19 19 22 24 22 14 24 24 14 26 14 21 16 23 26 14
22 15 19 19 20 17 20 24 18 19 26 21 14 14 18 17 22 21 26 14 26 18 19 17 18 26 18 16 19 22 24 18 22 15 25 25 25 25 25 17 26 26 20 22 20 15 26 22 19 26 21 14 25 24 19 21 25 18 21 20 21 23 21 23
21 26 19 23 26 25 24 17 18 19 24 23 23 15 16 25 16 14 17 21 16 26 21 14 25 15 15 16 15 26 20 23 24 16 24 14 25 14 21 23 14 17 20 21 18 15 20 24 18 14 20 14 21 21 20 19 26 26 18 21 14 23 14 21
