P2
64 64
255
16 14 26 18 22 20 18 22 24 23 18 26 17 17 22 24 25 18 26 23 15 26 24 19 26 15 25 19 17 14 20 26 19 17 17 19 20 24 24 20 23 19 21 14 23 17 22 25 18 20 21 21 20 19 22 15 14 18 24 24 25 26 24 24
15 21 22 26 26 18 14 18 26 14 21 26 22 21 18 20 19 21 18 17 23 19 15 24 20 14 15 21 20 22 20 16 17 17 18 22 22 18 21 22 24 23 15 21 25 26 19 20 21 26 16 18 15 17 21 17 21 25 15 16 17 22 21 24
19 22 26 16 21 20 17 15 19 16 24 17 22 16 14 15 20 22 26 26 18 20 24 21 23 14 20 23 16 25 16 16 22 14 14 23 16 21 16 14 26 22 17 15 20 19 18 17 21 15 20 16 18 23 25 18 17 19 14 16 19 15 18 16
23 21 23 25 22 24 17 18 23 26 26 24 15 21 21 16 20 25 20 26 16 15 23 21 23 23 16 20 16 21 20 23 21 25 16 22 26 21 18 23 26 14 14 23 23 19 19 25 19 16 21 19 26 16 14 21 15 21 23 23 16 16 23 14
25 18 23 26 22 19 19 18 21 25 14 21 26 19 25 26 14 19 18 15 21 19 18 19 18 20 19 22 24 24 18 26 22 22 19 15 25 21 18 22 16 17 22 21 16 19 17 24 14 16 18 17 16 18 16 23 17 20 25 20 16 24 15 19
14 14 24 14 25 15 26 21 26 14 17 26 20 15 22 18 16 19 21 24 15 21 15 21 17 18 14 21 19 23 17 17 26 19 26 23 14 25 26 24 14 17 26 16 22 21 18 24 20 14 16 19 17 22 24 19 17 16 20 22 23 24 21 24
25 19 18 21 16 15 15 14 22 20 20 26 15 19 23 18 25 16 14 20 17 16 17 23 23 26 26 25 22 20 14 15 25 23 14 18 21 26 24 21 23 16 23 23 20 23 18 24 22 25 22 20 24 18 16 19 24 22 25 22 23 16 17 26
20 17 18 21 15 18 23 17 17 16 25 16 21 24 15 15 19 26 21 22 24 15 26 23 14 23 23 22 19 16 21 26 21 18 22 25 16 19 21 16 23 17 20 21 23 19 20 26 19 22 25 23 21 25 15 26 15 24 20 15 17 15 16 18
24 18 25 20 26 14 26 23 20 21 22 22 21 26 15 20 25 20 23 19 18 23 16 20 22 15 26 18 16 26 19 25 18 16 23 18 19 24 16 23 19 16 17 15 14 16 17 23 25 23 19 22 26 17 23 23 23 16 16 26 26 20 19 26
14 22 14 14 14 19 25 25 24 15 18 25 23 14 23 17 25 14 21 18 18 26 17 19 15 18 19 19 14 15 18 23 15 22 19 24 18 17 25 24 20 17 20 24 17 22 26 20 26 16 17 23 20 26 26 14 23 17 26 17 22 26 17 14
25 19 25 14 21 22 19 21 19 15 19 14 18 21 19 25 18 18 20 23 22 19 23 19 16 22 23 18 21 19 19 22 19 19 17 24 18 22 20 26 18 22 20 22 18 23 24 21 19 22 21 22 16 24 21 25 21 18 22 24 15 26 15 21
26 26 17 22 17 23 26 17 21 14 18 17 25 14 22 20 16 17 18 16 21 20 24 26 22 25 16 19 17 19 21 17 25 23 24 17 19 17 18 20 18 19 25 16 18 21 23 22 20 14 24 17 22 17 25 24 24 25 26 26 19 20 19 20
16 18 23 14 17 23 15 20 19 22 17 22 20 20 15 16 22 21 22 14 18 26 14 19 23 26 17 24 24 24 19 14 18 19 24 22 26 18 25 24 21 14 24 24 25 17 19 22 23 19 15 22 26 23 24 14 20 20 16 17 19 22 16 16
24 24 21 22 15 18 26 20 17 20 18 14 21 18 14 21 18 22 24 22 14 19 14 18 25 25 20 23 24 20 21 25 23 23 22 14 20 15 14 24 25 25 26 24 20 14 18 18 26 19 14 17 25 14 20 20 22 19 24 19 14 23 19 18
19 16 26 20 26 17 20 25 25 14 25 25 25 22 21 17 25 19 20 17 16 23 19 22 21 18 26 25 23 26 15 14 23 16 22 26 19 15 25 16 20 16 17 18 23 20 21 15 18 21 21 21 18 19 26 22 18 26 19 16 20 18 19 21
26 18 23 14 24 22 25 16 15 15 19 20 18 19 21 25 21 18 17 17 20 24 18 23 15 18 23 22 15 20 25 24 25 19 23 17 24 21 14 20 24 24 18 24 22 16 18 22 18 18 25 23 26 26 15 21 22 17 21 24 26 22 25 23
16 21 19 18 19 17 17 26 23 23 20 26 21 23 16 25 16 25 26 19 23 21 26 24 20 23 23 20 19 19 20 26 25 14 26 19 20 17 18 15 25 26 16 19 15 24 21 17 20 16 15 24 18 22 24 18 19 18 22 26 23 17 17 24
18 17 18 24 26 21 22 16 16 16 18 22 14 25 16 15 23 24 25 24 20 15 24 23 18 20 14 21 20 16 18 22 24 23 21 24 19 18 18 16 17 22 21 21 24 23 20 19 20 17 25 22 16 20 14 23 17 24 16 18 22 15 23 15
14 22 15 26 24 16 19 25 23 23 22 19 24 26 25 26 26 22 18 18 26 14 25 23 19 21 23 17 25 20 25 18 24 23 14 22 14 24 24 19 15 19 22 26 18 25 18 21 26 26 14 22 14 19 25 25 24 19 25 22 18 20 16 26
15 20 15 21 14 26 14 22 22 15 23 18 18 20 16 16 21 18 19 22 28 25 21 17 18 21 14 17 15 23 15 17 24 15 24 20 15 14 23 18 25 24 19 23 30 25 26 17 20 25 18 25 21 14 18 15 26 18 15 24 17 19 15 26
16 20 23 23 17 25 14 22 26 22 18 16 17 16 27 22 27 32 33 26 34 30 22 33 22 21 18 18 22 14 24 18 20 22 25 18 22 27 18 22 29 29 30 28 30 31 22 24 29 25 19 22 25 24 20 14 23 18 14 19 17 15 15 24
23 24 23 25 16 15 17 25 20 19 24 14 24 24 31 28 33 35 29 27 27 32 25 30 32 26 30 30 22 23 28 17 23 27 19 22 20 22 31 26 29 31 26 26 33 33 28 24 27 24 28 18 18 24 23 22 15 23 26 19 24 22 17 16
19 18 23 19 21 24 23 16 23 18 15 22 28 23 22 36 37 36 38 40 31 34 41 39 27 37 35 33 25 34 25 24 28 30 33 31 33 34 29 26 34 30 34 36 36 37 33 36 27 33 26 27 22 21 26 25 23 25 16 20 21 17 15 25
21 18 24 25 23 24 17 17 23 25 26 17 20 26 29 33 38 35 38 41 44 38 44 37 38 36 37 37 37 41 38 35 34 37 36 40 46 46 44 42 35 32 34 40 39 44 42 34 37 32 35 26 27 17 20 18 23 18 22 16 24 15 24 16
14 25 16 25 20 23 22 26 20 16 29 31 23 27 40 42 36 44 39 49 47 45 49 47 41 54 53 49 48 54 44 42 37 47 50 53 52 49 47 45 51 44 40 46 47 39 46 42 37 38 28 36 32 24 18 20 14 22 25 25 19 24 19 22
20 16 17 22 22 14 17 21 24 25 20 26 37 34 40 34 46 40 46 46 49 45 48 56 54 51 58 61 63 54 50 57 46 50 50 52 53 52 52 52 53 57 50 52 49 41 43 38 47 34 32 30 38 31 24 27 22 24 15 17 16 25 15 17
18 24 15 15 23 19 26 23 20 25 33 31 40 43 35 46 50 42 48 56 51 56 52 64 67 68 62 66 60 65 62 62 68 64 67 62 64 61 72 71 57 60 61 52 45 45 47 51 40 39 44 35 35 29 26 19 23 22 16 24 15 18 20 19
21 21 21 15 26 26 16 21 18 21 23 38 34 36 48 51 45 47 55 53 55 64 64 71 70 74 75 68 68 71 64 70 75 75 76 70 72 76 73 73 77 66 71 68 54 54 52 50 46 46 49 42 30 35 24 29 26 22 18 20 15 18 15 25
21 16 18 17 18 18 14 14 28 31 33 38 37 44 40 48 49 51 51 64 69 66 73 80 78 81 78 83 77 78 74 85 85 82 81 83 80 76 87 79 84 80 69 72 68 57 56 49 45 44 46 46 40 34 25 24 18 16 26 14 16 23 20 15
22 16 25 22 17 16 21 17 19 22 35 42 41 43 46 51 57 56 53 62 71 75 80 90 80 84 84 93 91 91 88 85 85 84 87 93 93 94 86 82 81 89 85 74 73 68 60 60 51 44 41 41 38 40 38 26 22 23 14 23 25 20 19 14
24 18 24 14 14 23 16 16 24 24 28 36 39 40 50 48 51 53 67 74 74 86 82 91 96 87 98 96 95 97 94 97 93 94 90 98 100 95 93 91 88 93 91 85 83 68 69 54 56 55 45 41 39 38 27 28 21 24 17 20 20 17 18 21
26 26 21 18 23 15 22 16 27 34 34 34 46 41 49 53 59 62 64 77 81 92 95 95 103 100 100 104 106 102 95 103 99 104 96 106 103 99 95 101 94 89 98 89 82 81 66 54 59 51 45 41 36 43 27 23 30 17 15 17 23 24 24 23
26 23 18 25 25 15 19 25 27 28 32 41 38 46 45 49 54 55 76 85 94 97 93 105 97 100 101 105 103 109 105 115 109 114 109 107 108 100 102 101 107 101 99 90 90 84 72 63 58 47 47 41 38 33 36 36 31 20 17 19 19 15 19 19
21 15 15 17 19 16 25 23 22 30 29 31 39 42 47 47 57 57 72 80 84 95 91 103 106 104 112 109 113 112 110 113 112 112 106 112 109 109 101 105 107 101 102 98 85 79 76 59 58 57 51 47 42 41 34 32 30 25 16 14 23 25 14 14
18 19 22 19 24 23 26 24 19 28 36 39 46 47 51 52 54 63 74 75 89 88 103 103 107 107 109 115 115 116 111 120 124 121 114 108 105 116 102 109 98 106 93 89 81 72 71 65 54 58 51 48 39 38 34 32 23 22 21 21 23 16 19 25
26 22 24 17 25 25 26 18 19 31 29 40 34 41 51 55 51 62 73 76 83 83 91 97 102 104 111 115 109 114 123 124 123 118 120 108 109 111 111 99 95 98 98 89 77 77 73 55 48 45 44 42 36 38 35 28 26 24 19 21 20 16 21 15
22 25 17 22 21 20 21 18 26 29 26 32 36 43 39 42 57 57 69 72 79 80 89 94 100 97 100 109 106 112 115 126 133 123 113 112 107 114 109 107 101 91 92 80 75 71 58 56 48 47 47 46 37 33 33 25 20 26 21 25 20 26 26 19
19 19 17 16 25 21 14 25 18 21 26 39 40 38 45 43 48 47 57 72 81 86 88 85 92 94 97 101 114 115 111 111 123 110 108 108 112 104 99 103 90 96 89 77 71 71 59 51 46 52 48 37 38 39 25 29 22 22 21 20 19 18 20 20
25 20 16 17 21 24 18 15 21 18 30 27 31 38 36 39 49 45 55 68 68 77 81 84 85 97 103 98 97 105 101 103 110 106 107 111 99 98 93 89 91 85 80 77 68 69 57 50 51 48 46 31 29 26 25 24 15 15 23 19 15 24 25 24
24 19 21 21 14 15 18 19 26 16 30 32 32 34 35 45 38 44 46 59 70 74 71 87 85 91 90 97 96 96 102 104 99 104 93 97 101 97 93 90 88 86 72 72 67 60 46 47 39 41 40 28 36 34 30 19 26 24 15 20 21 26 19 14
16 21 24 20 18 23 18 20 14 23 25 20 32 27 29 43 36 41 52 54 60 62 75 76 84 87 82 91 97 87 92 97 91 86 98 91 97 91 81 78 74 77 74 63 53 58 44 38 39 43 34 34 29 29 28 17 24 22 17 24 16 24 19 26
21 26 19 19 24 21 22 25 15 25 16 21 20 24 32 34 40 41 45 50 59 55 64 68 69 70 83 79 87 90 85 84 86 86 81 82 83 82 79 74 78 72 65 57 55 51 35 34 32 27 36 33 28 17 25 23 16 16 23 18 14 19 14 19
25 15 25 25 21 15 15 23 26 15 24 16 20 20 27 28 38 27 39 44 40 48 60 55 60 71 65 73 81 77 77 74 70 79 69 81 73 68 68 73 69 57 57 52 44 47 33 32 33 32 26 25 21 23 25 22 17 20 14 23 21 18 16 14
15 17 16 17 26 24 23 16 21 15 21 20 26 19 24 25 25 30 27 38 43 38 50 50 52 60 57 70 62 71 74 66 69 73 68 64 64 66 66 62 56 58 51 42 42 34 31 30 32 25 24 19 22 22 21 19 19 25 26 14 25 15 17 18
21 24 16 14 18 24 14 19 19 14 18 14 22 20 21 21 28 22 29 21 29 39 42 51 50 48 58 53 62 60 62 62 58 69 64 55 57 54 61 53 51 47 39 43 31 28 25 29 26 17 20 16 22 25 24 22 20 23 22 20 18 25 24 15
18 25 24 19 19 16 22 23 24 14 22 17 21 20 15 17 15 23 18 18 24 27 40 36 40 44 49 53 59 58 63 56 60 64 59 59 56 53 44 41 39 35 40 32 21 20 26 28 26 22 25 25 25 21 26 14 14 17 16 26 24 17 20 22
25 15 15 22 22 21 14 20 24 15 16 24 17 14 23 15 22 20 26 18 22 21 28 26 32 42 44 49 52 52 55 53 53 49 45 49 41 40 36 39 35 35 23 20 21 24 19 24 25 19 22 16 26 23 24 14 24 16 20 14 19 26 18 24
14 26 19 18 24 15 17 17 19 20 17 17 23 17 16 22 21 22 19 24 18 24 23 22 34 32 37 44 36 37 45 51 42 45 49 47 35 33 35 33 32 29 18 23 23 15 21 21 24 17 22 21 20 19 18 23 18 25 16 19 20 22 26 25
20 20 17 19 14 22 17 20 20 16 26 20 21 20 23 24 14 21 15 17 15 22 19 24 27 28 33 32 38 38 33 44 34 36 41 41 34 36 31 24 21 26 24 25 14 24 21 14 22 14 21 16 14 16 16 22 17 17 18 26 21 19 24 23
25 14 20 18 26 14 22 14 21 17 14 16 22 20 23 23 18 26 16 26 16 25 20 15 19 22 20 33 31 32 35 33 34 30 37 26 23 27 27 21 21 24 14 24 23 18 19 14 18 14 24 23 15 14 26 20 19 21 18 21 18 24 18 16
25 19 24 18 17 25 26 15 15 22 26 15 14 20 16 26 22 17 21 15 14 18 25 21 16 24 17 28 17 24 29 22 33 30 32 29 26 18 23 21 19 21 17 21 24 22 24 23 24 22 23 16 22 23 18 16 16 21 20 15 16 25 20 16
23 17 18 20 23 19 17 22 22 21 20 14 21 25 16 17 22 24 24 18 23 21 14 14 25 23 26 16 26 25 17 16 23 21 20 23 24 19 20 17 21 15 21 25 20 18 15 26 14 21 25 20 23 24 23 22 21 21 19 25 22 19 14 16
15 14 17 23 21 24 18 15 16 22 14 21 21 25 14 16 16 22 15 22 24 25 21 19 17 14 14 24 19 16 19 16 19 17 20 22 25 15 15 17 17 17 24 14 23 20 20 18 22 17 19 25 22 18 16 17 17 22 17 22 14 17 15 23
20 26 16 22 25 17 21 18 20 20 25 17 18 15 16 26 16 20 20 19 26 25 24 25 19 18 26 21 25 25 20 23 14 22 15 18 15 22 18 20 26 15 18 17 15 23 22 22 16 22 20 24 20 24 22 22 19 18 15 24 26 23 22 17
22 20 22 19 19 24 26 14 23 25 17 15 25 21 14 25 25 21 17 24 15 23 20 21 24 19 19 23 26 25 23 18 20 15 17 19 17 19 15 24 22 25 26 17 19 18 22 25 20 19 24 24 25 19 22 26 22 26 18 14 14 15 23 25
20 15 25 21 14 23 24 26 24 17 15 22 26 18 17 16 19 20 26 16 15 16 17 15 20 15 24 21 19 25 26 25 20 25 17 16 15 14 15 17 19 18 19 20 18 14 17 24 22 19 20 24 26 17 26 24 15 20 26 14 22 16 21 26
18 17 16 24 23 15 26 15 23 21 16 26 19 14 18 14 18 17 16 20 14 23 18 17 17 20 14 18 23 24 20 23 14 22 20 15 22 25 23 18 23 20 26 17 21 16 26 14 14 24 21 18 15 20 23 15 21 19 18 22 14 22 24 24
17 25 24 26 20 25 24 14 26 19 23 20 23 20 25 14 22 21 26 19 19 26 19 21 25 18 18 17 23 23 19 26 21 23 19 23 16 26 25 23 20 17 19 21 24 23 22 15 23 20 25 21 26 16 20 21 24 15 22 20 18 25 17 19
22 15 23 26 19 14 23 16 17 14 25 26 22 24 25 24 26 22 14 16 18 16 21 20 20 25 22 16 15 14 24 16 26 24 19 19 23 19 20 17 23 16 14 19 23 24 23 26 17 25 20 19 17 17 15 21 17 24 23 18 26 20 17 21
18 26 14 14 25 14 17 18 21 17 18 26 26 15 17 26 24 23 26 24 25 19 18 15 21 18 21 14 20 17 25 22 17 15 16 25 17 19 17 25 22 26 26 20 22 19 24 22 26 18 16 19 18 16 16 20 21 24 19 16 15 24 26 15
17 15 25 18 19 19 16 17 21 23 16 22 15 17 21 22 15 26 25 21 15 26 17 17 14 18 26 16 20 21 19 20 22 14 18 20 25 23 19 20 19 19 26 23 18 23 21 22 14 23 18 23 16 22 22 17 17 24 14 21 21 22 16 18
18 26 23 18 15 14 15 14 16 25 16 16 19 20 19 17 25 24 16 26 23 16 22 16 17 18 23 25 25 18 21 19 24 20 21 15 16 25 21 19 25 22 19 24 18 16 21 24 15 14 21 20 15 25 17 16 26 23 16 15 14 21 18 26
15 18 21 16 19 18 15 14 17 17 26 14 22 21 26 21 14 23 18 22 24 15 14 26 15 26 24 26 18 21 16 23 19 23 25 19 21 24 18 19 26 21 24 20 22 25 26 26 25 17 19 16 16 18 25 23 19 26 15 21 18 17 14 19
18 15 16 23 15 18 15 14 18 25 25 22 17 16 24 19 24 20 20 25 15 23 23 14 15 24 23 20 14 17 19 26 26 19 23 17 24 24 16 23 26 14 20 17 24 14 22 21 23 16 24 16 24 26 23 16 20 18 26 24 17 23 25 16
