P2
64 64
255
37 30 33 31 24 23 38 21 24 22 30 24 30 24 20 25 31 19 33 33 31 22 25 24 21 19 25 30 37 37 32 33 23 31 27 29 37 25 23 35 28 24 28 18 22 22 30 38 34 26 19 18 23 24 29 23 25 37 36 34 21 28 19 38
30 38 23 25 20 31 20 22 32 18 19 35 23 36 26 20 28 26 35 23 26 21 21 26 25 34 26 25 21 34 33 26 25 30 29 33 35 27 24 23 34 30 38 25 28 31 30 19 30 29 31 25 32 30 38 36 24 18 20 32 30 30 35 19
19 20 34 21 22 20 38 33 25 38 20 32 22 24 32 29 22 34 23 27 35 28 23 33 25 21 30 19 27 31 21 24 34 18 30 33 22 22 22 26 18 35 28 32 36 29 37 27 29 32 34 34 23 31 35 33 24 28 24 26 31 37 29 28
36 23 38 22 32 30 30 30 30 35 36 22 19 26 18 20 34 28 25 22 27 23 30 21 35 33 19 36 18 22 34 29 30 19 33 22 21 22 33 30 30 20 31 37 35 34 28 37 28 19 25 25 32 30 30 19 18 18 19 35 35 21 24 24
20 22 19 21 35 27 38 32 36 24 37 19 37 21 27 37 33 25 27 36 18 18 28 37 26 22 34 28 33 28 30 38 23 32 26 21 38 31 33 34 19 20 33 25 29 38 35 27 35 36 23 28 18 22 21 37 26 21 38 34 22 32 31 27
18 23 25 18 34 38 31 32 22 31 25 31 27 37 18 31 32 24 35 31 27 24 32 30 19 38 38 34 30 33 37 27 22 24 23 29 28 31 23 18 33 38 18 38 19 31 32 37 35 18 29 29 28 32 31 32 38 26 20 18 20 20 34 34
23 20 32 36 26 38 34 21 32 21 33 23 26 31 38 18 21 36 32 31 34 20 38 18 29 33 37 32 28 18 30 38 21 37 19 31 29 37 32 22 38 27 35 33 19 33 24 26 28 20 19 22 25 29 23 31 30 18 30 32 21 18 32 27
37 24 34 20 22 31 33 21 30 38 26 26 21 18 30 30 36 25 22 26 24 20 35 19 22 25 27 34 20 29 35 29 18 38 37 19 19 20 30 27 19 36 28 23 33 21 19 30 38 23 30 22 29 19 33 27 28 23 34 30 32 37 27 25
29 26 31 27 23 20 19 29 35 38 29 25 24 36 33 30 38 35 23 27 33 33 22 34 22 22 33 28 26 26 36 33 30 25 26 31 32 38 30 23 33 30 31 18 35 37 36 35 19 38 24 38 24 34 23 36 36 35 26 23 32 27 30 32
35 27 31 27 20 38 28 30 31 22 26 34 37 28 19 27 21 30 27 31 25 27 36 25 29 20 36 28 32 23 19 22 22 37 24 25 30 37 27 27 32 35 30 24 21 37 19 18 27 22 20 20 18 38 23 22 32 23 27 38 35 38 23 38
29 19 24 18 29 22 20 20 19 29 28 26 30 33 18 24 20 25 20 37 34 36 30 21 32 24 25 37 29 18 38 34 34 35 29 21 31 22 34 19 28 27 25 18 31 29 37 37 19 18 31 33 28 37 34 32 27 28 30 24 25 22 22 37
28 30 37 18 38 30 37 18 31 30 28 31 21 34 23 26 28 23 26 20 22 25 37 18 25 21 32 23 26 31 23 38 22 21 28 29 26 38 36 24 24 36 24 30 20 28 18 35 31 22 35 36 20 25 31 30 24 23 30 35 31 24 27 31
30 31 29 35 30 34 31 26 27 28 21 33 35 34 24 34 31 34 21 38 20 21 25 36 35 35 21 22 22 28 32 20 26 22 37 23 21 26 27 36 22 21 29 32 35 24 32 30 20 33 33 24 37 23 21 23 24 30 31 35 31 38 32 19
33 21 18 18 25 27 33 32 36 32 22 35 22 26 27 21 25 36 33 36 25 22 24 27 31 28 23 20 22 24 18 19 31 18 30 20 29 38 33 24 24 24 36 37 36 37 23 33 19 26 31 20 36 28 21 18 21 35 34 29 21 29 35 24
27 18 35 22 30 32 29 35 27 37 20 34 23 23 31 22 32 35 31 36 24 18 26 19 21 34 20 25 25 22 35 20 25 23 25 19 27 24 37 29 27 35 27 24 34 24 34 18 33 31 30 38 25 28 25 33 34 22 31 29 27 38 20 19
29 31 28 27 29 36 33 29 29 36 27 24 18 27 24 30 21 20 20 20 24 28 18 18 38 24 24 27 23 29 37 31 20 18 29 38 18 31 18 28 18 22 25 33 30 22 33 34 22 35 30 24 19 24 34 34 36 30 31 29 34 32 30 20
28 29 25 38 28 24 36 18 23 26 35 34 38 37 33 28 34 24 36 28 25 23 37 32 30 23 38 18 29 21 27 26 27 36 24 18 38 36 33 32 24 18 34 22 38 18 20 32 32 33 34 29 22 23 36 22 28 32 31 28 32 18 27 37
36 36 38 22 20 37 32 21 24 26 20 18 38 30 29 35 23 33 27 20 29 19 25 30 34 22 35 30 20 23 24 38 25 31 36 29 18 29 22 29 18 30 29 20 26 36 32 33 33 38 23 37 22 35 19 34 22 38 22 23 38 26 38 25
27 28 38 33 33 19 32 23 32 30 33 34 24 20 36 18 23 21 21 34 19 35 19 33 18 35 38 28 31 21 33 24 31 23 37 34 38 36 24 18 26 35 29 36 19 20 20 22 21 32 23 32 37 25 24 33 20 37 19 38 33 19 18 38
25 19 23 22 22 23 24 27 20 18 31 27 32 21 20 26 20 36 24 22 22 22 24 23 29 19 22 36 23 21 32 25 19 38 38 18 26 35 26 23 37 22 39 22 25 26 36 38 27 36 33 27 38 21 30 20 33 25 20 27 19 32 18 25
19 34 20 18 37 23 38 18 18 22 37 37 34 36 39 33 32 27 31 36 32 36 36 29 38 40 28 33 22 19 25 30 19 36 27 29 20 38 36 34 28 39 37 31 44 38 44 34 40 31 31 22 31 38 36 32 25 21 23 27 30 23 32 32
33 18 20 22 34 34 35 18 28 25 29 27 26 27 37 33 45 33 47 49 39 49 34 32 43 33 33 42 28 24 28 33 26 24 34 25 31 38 24 44 37 35 29 32 46 42 42 43 27 33 43 24 29 26 30 23 20 29 31 21 31 18 25 23
34 25 29 30 29 28 25 28 25 23 23 27 40 42 45 28 45 31 50 33 44 39 44 39 38 43 33 33 38 46 37 39 31 40 29 35 32 31 47 35 37 40 41 46 52 53 37 50 44 35 34 44 38 36 18 18 23 22 38 37 28 27 31 20
25 22 24 21 32 37 38 26 33 30 38 36 33 37 48 37 37 52 55 46 44 39 50 45 37 46 53 50 45 52 38 44 40 37 53 41 47 40 54 51 43 50 38 41 45 48 50 41 41 41 41 33 32 34 33 33 29 27 33 31 23 35 31 19
30 31 36 28 38 36 18 31 31 27 27 26 32 34 39 38 56 58 43 57 54 59 55 52 59 55 55 50 63 63 53 48 51 60 63 56 58 54 55 46 64 60 42 43 60 55 43 49 39 39 49 50 40 36 22 19 20 25 30 27 23 25 38 30
29 22 26 21 28 38 23 38 38 32 31 27 47 51 45 47 44 57 52 48 52 52 51 56 56 71 74 65 65 66 71 58 56 64 52 68 57 71 68 61 64 58 61 54 61 59 59 45 53 52 49 35 41 44 24 27 35 20 34 28 20 23 18 22
29 24 31 33 31 22 22 26 19 38 30 39 32 45 48 50 43 64 53 55 53 60 64 70 76 73 75 69 83 80 73 67 75 63 63 65 84 74 67 82 66 66 71 56 60 65 50 52 49 41 57 53 48 45 41 28 21 30 25 25 21 31 37 28
37 32 21 27 37 29 28 26 31 31 47 35 45 56 60 61 59 57 58 68 71 70 67 83 84 89 91 85 86 75 79 74 87 78 77 80 77 78 77 74 90 87 77 63 73 67 57 64 56 57 53 50 35 40 45 41 32 23 26 31 22 22 18 19
29 26 23 32 32 33 37 28 39 30 38 50 51 49 62 49 54 53 64 75 68 68 74 87 87 97 84 80 98 84 80 93 82 87 95 84 98 81 85 88 85 92 83 86 68 65 72 52 69 50 52 50 53 51 37 34 21 32 26 22 19 20 22 31
32 27 18 21 24 25 24 32 33 28 31 50 40 41 53 57 60 56 58 74 90 90 90 85 100 101 86 104 91 103 85 105 91 95 86 90 103 88 101 94 84 88 91 95 87 75 63 69 61 62 65 49 50 34 32 28 38 26 33 36 21 30 36 22
27 23 29 34 37 23 33 19 40 38 45 42 50 50 66 70 66 63 78 69 86 85 105 104 93 107 99 101 107 106 103 98 104 97 92 98 113 104 98 110 90 98 95 83 88 82 78 65 54 66 65 62 54 43 39 42 25 23 25 30 28 23 19 23
34 37 23 20 36 32 24 32 44 46 32 49 44 62 57 55 62 71 73 78 91 88 104 106 103 97 106 107 114 108 99 103 109 110 115 107 104 108 106 112 111 107 103 104 90 86 70 77 68 71 52 56 43 49 48 37 41 23 26 34 18 28 34 20
33 19 20 22 21 27 31 29 44 43 37 53 43 54 66 65 75 76 75 94 105 95 105 112 101 120 118 107 110 105 109 120 121 125 117 121 107 110 108 111 99 100 104 109 91 98 72 67 75 55 57 61 52 42 46 43 35 31 26 18 20 19 30 28
38 23 27 28 21 23 23 39 31 39 47 49 54 63 52 63 74 75 68 93 86 99 112 105 110 108 121 113 109 123 110 120 129 122 127 115 120 109 113 112 107 112 99 103 90 93 70 61 57 71 64 47 50 55 40 33 44 32 31 33 19 36 21 20
20 29 25 23 18 31 37 35 24 44 36 55 48 46 54 67 60 64 86 82 89 107 99 113 115 112 124 124 118 124 127 123 130 133 129 123 113 108 119 123 101 118 110 110 100 92 81 75 61 64 59 60 56 52 43 37 27 38 25 33 21 24 36 31
23 18 20 25 18 20 27 22 37 41 33 52 38 54 50 49 52 69 71 89 92 107 101 109 106 111 109 112 116 120 119 136 138 120 118 121 121 121 107 110 119 115 98 100 84 79 84 71 52 51 46 48 42 38 39 33 40 24 37 33 33 19 26 30
19 29 19 19 21 38 21 18 36 25 46 36 42 57 59 66 63 74 72 86 94 89 90 101 115 107 114 116 126 125 132 121 126 135 128 113 127 119 114 119 113 94 92 83 89 86 66 74 50 52 45 42 49 35 42 28 29 20 18 37 29 28 19 32
18 32 31 23 35 25 29 27 22 35 35 33 46 49 52 57 55 66 61 81 80 99 103 107 112 101 117 121 112 129 121 116 130 116 121 127 123 114 114 116 114 107 91 93 93 74 74 68 65 59 56 37 37 41 27 32 24 24 30 38 26 31 18 33
34 33 21 32 36 36 34 37 26 39 25 46 48 45 45 46 59 48 69 64 68 86 86 86 94 97 101 99 113 124 114 106 107 111 121 113 101 117 101 94 101 89 90 75 68 67 54 51 62 58 39 55 37 41 28 31 24 23 34 36 28 29 31 32
32 36 22 20 32 30 27 26 19 34 25 46 34 41 47 52 49 42 49 72 63 87 87 87 89 101 110 102 103 98 105 97 99 102 97 113 111 103 110 103 95 85 86 78 76 69 53 52 58 44 45 43 30 30 30 40 19 24 23 20 18 35 34 23
22 23 20 35 26 25 21 21 34 20 26 32 35 49 43 40 55 39 55 64 67 79 73 78 77 90 91 93 109 96 106 91 90 92 104 109 92 99 86 94 94 89 87 70 72 52 50 39 44 55 32 41 37 36 31 29 29 22 30 27 19 35 26 33
18 31 19 35 20 19 37 20 32 22 37 31 28 37 39 46 45 40 58 50 61 73 74 73 87 94 79 79 87 97 81 96 82 91 95 100 97 98 96 80 83 79 67 62 65 48 56 53 41 46 35 29 35 26 28 27 21 25 36 28 22 21 34 28
33 19 35 25 22 27 21 21 33 20 25 38 25 31 26 44 43 32 38 54 44 61 57 76 80 82 83 83 79 84 78 83 74 86 87 73 77 90 85 81 70 78 59 65 59 59 47 39 39 43 44 25 36 23 32 37 24 32 25 18 19 29 23 31
36 31 30 18 20 35 18 37 25 22 37 25 26 40 26 44 43 40 46 38 51 57 50 59 61 78 81 73 74 67 86 70 75 69 67 64 77 81 73 78 64 54 59 60 53 51 46 31 42 44 38 41 31 32 23 27 33 38 24 35 36 21 33 25
37 35 33 36 20 20 27 22 19 35 19 35 22 36 29 29 38 24 28 27 50 38 48 47 62 68 57 58 63 63 67 66 77 81 80 76 72 64 66 50 61 48 47 36 50 38 32 44 27 30 27 24 30 18 25 29 32 21 22 36 21 36 35 35
32 33 33 29 36 20 26 29 18 23 38 29 32 36 19 25 33 38 38 35 31 38 45 49 54 48 62 61 61 70 72 69 71 64 56 56 60 65 48 52 45 44 34 41 30 24 34 21 21 23 23 28 27 35 19 23 36 21 33 29 22 35 18 30
37 31 19 22 23 23 19 34 33 23 18 37 20 25 32 22 38 18 35 27 24 20 36 47 37 37 49 57 61 52 52 66 64 53 49 56 49 43 53 48 53 38 31 35 35 22 19 27 29 37 19 18 19 28 27 25 29 19 24 36 26 24 20 24
27 35 19 19 35 33 30 23 20 31 30 36 28 28 21 34 29 21 24 33 34 37 38 39 35 39 40 54 43 61 58 50 50 48 52 58 57 48 48 39 30 44 40 31 22 18 35 24 21 33 29 36 35 18 33 37 38 26 27 22 27 27 35 37
23 19 26 32 33 32 25 30 34 24 27 25 28 32 22 19 24 27 24 33 18 32 23 19 37 38 43 45 44 49 47 48 38 39 51 49 34 35 45 45 41 35 31 38 26 23 34 27 18 31 24 27 31 31 27 33 37 38 32 33 24 37 32 38
18 30 26 36 37 23 29 29 24 33 20 18 31 23 34 27 24 23 23 30 24 18 28 31 22 31 40 26 45 44 46 32 41 31 33 37 35 34 28 33 21 22 34 28 29 23 37 26 24 35 25 21 32 19 27 32 33 37 24 22 22 33 34 24
22 26 33 22 29 32 18 29 36 25 28 19 20 28 26 26 26 36 26 38 27 22 18 38 32 19 36 39 24 43 25 29 34 28 35 36 21 24 29 23 27 18 31 27 34 30 29 24 33 37 37 22 24 26 35 22 35 38 27 28 35 19 35 19
24 27 29 24 25 36 28 28 38 26 28 27 26 32 36 23 24 20 20 18 20 31 33 23 22 31 38 38 18 31 25 25 24 33 29 35 33 38 25 26 32 20 30 28 31 30 25 32 27 27 32 21 35 31 35 28 32 37 25 29 28 32 25 28
23 36 38 35 35 32 28 29 28 30 26 37 18 19 31 33 19 22 24 34 23 30 24 38 26 19 25 31 30 30 38 23 20 29 27 24 33 29 35 24 30 35 24 19 27 34 19 27 26 33 22 28 24 28 22 33 33 30 19 30 33 23 35 33
28 26 19 20 18 38 25 31 28 28 28 29 29 26 22 30 22 28 24 34 27 28 31 26 26 19 30 30 31 18 19 19 38 19 25 37 37 38 35 21 31 34 20 21 22 34 31 31 25 27 37 18 22 38 21 28 30 25 21 32 30 23 25 24
21 21 33 38 31 31 25 34 29 22 18 33 30 25 37 36 19 24 23 38 18 27 22 31 27 30 30 18 18 29 27 23 21 22 25 26 37 18 38 30 21 29 27 28 28 31 28 21 20 29 38 27 30 38 36 35 34 20 18 35 33 32 30 33
30 31 35 28 35 21 30 32 33 23 33 28 32 36 28 27 26 24 34 27 19 30 37 19 23 36 21 25 37 26 37 29 21 23 32 32 21 37 35 18 19 25 32 29 19 32 32 30 32 34 24 38 33 31 30 32 18 28 28 32 27 30 32 18
26 30 22 30 34 21 32 19 33 19 33 22 28 19 34 29 25 38 26 32 28 24 36 26 25 23 23 20 29 31 35 21 33 26 25 35 25 19 32 25 27 24 38 30 23 25 31 34 36 31 30 38 22 32 35 29 30 31 29 32 19 27 21 38
35 20 31 34 20 26 20 30 21 19 35 21 25 34 23 31 29 29 27 36 34 28 25 31 18 28 30 30 38 25 26 38 23 18 37 38 24 34 21 26 25 25 28 19 21 25 36 22 26 25 34 26 25 34 30 35 20 23 25 27 27 22 27 19
33 26 21 22 22 30 36 35 20 35 28 38 33 27 29 26 26 22 37 27 24 36 21 38 24 31 34 25 35 18 31 34 19 31 26 36 23 35 26 18 36 33 31 19 24 38 18 28 22 18 24 19 37 33 18 23 36 31 35 35 28 30 35 25
25 34 32 19 33 18 22 23 18 20 29 28 34 29 37 32 32 25 22 18 35 25 24 22 27 28 33 18 18 32 32 24 21 23 21 30 26 21 25 23 25 18 38 33 18 29 22 18 26 25 37 19 35 26 20 30 31 23 27 36 26 25 20 23
28 20 26 26 38 20 21 24 23 27 19 38 34 36 37 34 22 22 33 33 36 22 22 32 29 36 33 23 24 26 36 19 34 37 28 23 31 38 24 22 34 32 25 36 20 21 26 21 22 37 25 21 22 35 31 30 24 37 36 18 32 19 28 23
32 22 22 30 20 28 32 27 36 18 34 18 31 35 33 33 36 26 37 37 21 26 22 21 20 32 37 38 29 38 27 37 33 32 24 31 36 29 33 25 31 22 35 25 29 28 30 34 18 31 33 22 33 37 21 23 36 28 31 27 25 22 33 22
34 21 29 25 30 25 31 27 23 32 33 28 32 33 18 30 20 29 26 23 19 27 26 27 28 33 37 28 22 29 28 21 32 28 20 34 21 19 22 37 20 37 29 33 21 34 18 38 23 38 28 26 22 22 35 30 21 19 21 22 37 31 22 37
33 31 25 29 36 37 28 32 28 24 27 28 28 29 19 34 25 25 20 27 29 33 27 27 36 28 29 23 35 21 29 29 38 32 33 37 28 33 26 19 21 31 36 35 28 18 28 25 37 36 26 30 21 21 29 21 20 30 20 26 24 25 29 19
