P2
64 64
255
31 25 27 32 27 20 22 25 24 27 34 19 28 26 18 24 24 18 22 26 38 30 30 25 22 35 34 34 34 38 32 21 28 32 36 24 35 37 30 30 37 21 18 27 24 34 35 30 31 21 37 32 21 33 23 20 28 26 33 20 24 22 23 36
37 37 37 34 36 22 35 34 33 26 29 19 31 30 37 31 37 25 24 38 21 24 28 25 34 32 20 31 20 32 30 25 28 20 18 23 37 28 37 20 26 28 33 31 21 21 33 25 22 24 20 23 24 19 31 20 25 31 29 37 29 34 22 32
30 27 21 29 33 37 31 26 36 19 38 31 31 29 37 18 19 22 34 37 35 35 24 35 36 33 23 25 35 23 37 26 33 19 35 36 28 23 20 19 38 23 28 36 24 38 19 21 38 20 37 38 20 34 25 34 38 20 37 21 18 21 22 25
34 29 32 33 22 22 31 29 30 26 22 36 22 18 18 36 20 28 34 20 22 20 26 18 22 26 25 38 32 35 38 37 26 23 35 34 21 18 26 37 20 32 20 30 18 18 25 34 29 23 28 29 34 18 24 24 22 34 20 28 38 21 26 26
38 19 25 26 22 18 18 27 23 33 23 28 23 32 28 18 21 29 25 37 34 20 36 30 27 28 18 19 36 33 19 34 32 31 34 28 20 38 36 28 37 18 21 18 32 20 25 27 33 25 25 23 26 20 34 28 21 18 38 25 27 31 24 30
27 18 29 23 21 24 20 20 26 18 35 37 27 36 34 31 23 20 38 30 28 18 36 34 36 19 37 28 27 34 21 37 38 28 23 27 21 19 18 37 32 24 30 23 25 19 29 31 32 27 18 34 36 24 37 35 37 28 38 37 18 24 30 28
38 30 21 26 18 30 18 29 18 30 23 27 20 36 29 23 21 32 28 29 23 29 32 30 34 34 21 25 31 35 19 25 19 21 27 36 28 32 38 28 31 22 26 37 26 24 28 32 20 28 27 31 31 33 32 25 30 37 20 18 21 21 18 18
36 22 33 22 36 19 22 30 22 30 21 19 37 35 23 37 36 23 19 35 37 37 19 29 32 35 29 19 25 18 20 35 28 31 27 35 31 18 28 25 31 24 21 30 27 36 22 27 27 28 19 28 20 20 37 28 25 35 36 32 36 28 34 31
21 29 22 27 23 33 38 23 22 37 22 21 34 20 28 36 35 22 21 25 23 21 19 18 38 25 36 19 21 26 38 26 34 31 24 36 26 28 24 21 22 23 33 31 23 27 26 37 32 34 19 30 23 28 27 36 38 24 18 31 33 32 25 33
19 23 23 21 23 27 21 26 38 28 19 25 35 29 32 18 33 34 21 34 23 32 28 30 38 26 36 18 27 19 31 26 31 18 18 24 36 37 27 33 37 27 35 38 34 27 26 31 19 21 23 27 19 20 22 25 19 36 23 18 24 33 37 30
25 22 35 36 36 27 31 21 32 23 33 28 27 33 31 18 31 28 37 28 21 37 26 25 22 34 20 35 22 21 23 20 19 35 20 38 30 26 23 25 33 28 22 23 28 22 22 23 24 30 18 31 20 33 36 34 28 28 19 34 34 20 28 36
25 18 34 28 30 24 31 38 25 21 28 31 31 37 23 35 31 31 36 36 21 26 31 30 25 36 35 19 24 36 27 19 30 22 20 38 25 37 38 27 36 26 23 37 23 34 21 32 31 26 32 19 18 28 25 26 25 37 34 20 36 37 26 33
28 18 29 32 31 33 30 26 33 27 31 35 20 24 34 37 23 25 32 31 30 23 25 21 18 35 30 22 20 38 30 27 36 36 32 23 37 33 27 30 26 32 37 26 33 24 25 36 20 29 28 26 28 18 37 29 27 30 26 25 35 37 28 19
34 28 22 38 23 37 38 25 34 27 19 37 23 21 38 20 21 19 21 19 35 22 31 30 29 36 22 25 27 27 20 29 32 38 34 33 36 23 25 30 19 36 32 34 25 25 19 36 29 22 33 19 29 33 20 31 26 26 36 22 33 38 26 22
23 34 30 19 27 31 23 27 18 25 32 32 33 38 23 36 18 38 29 27 19 25 23 18 26 24 38 21 19 31 35 21 38 32 19 30 35 29 21 29 37 20 25 20 18 36 20 30 19 31 34 31 27 18 33 34 33 29 27 22 35 24 26 33
32 27 25 21 20 36 23 24 19 38 28 37 24 32 33 21 28 21 25 21 32 34 34 36 19 38 29 26 34 23 30 35 21 19 26 30 20 38 36 19 30 22 25 38 28 22 38 24 20 33 22 33 35 22 30 29 25 30 26 21 18 31 20 28
38 26 36 31 26 26 21 33 18 30 29 35 34 21 33 32 35 32 31 28 22 36 36 32 38 32 31 27 26 24 23 34 20 32 29 28 23 20 21 37 25 33 20 28 24 27 24 20 30 21 37 18 32 25 24 25 36 22 27 37 32 38 36 24
35 29 27 31 24 32 19 34 30 36 25 35 23 36 18 22 22 29 33 23 29 23 37 23 20 28 29 21 35 19 35 36 18 24 38 37 38 20 20 21 26 35 27 21 37 18 19 30 25 34 19 27 26 36 29 36 36 27 37 31 20 37 36 20
21 31 32 19 36 21 19 27 37 24 32 26 37 25 37 34 19 23 30 26 32 22 23 31 29 33 27 29 27 30 32 38 19 27 28 22 29 31 47 41 37 41 32 29 21 37 25 20 32 35 33 34 28 24 22 37 28 33 18 35 28 26 25 21
28 23 31 23 33 32 25 28 38 32 31 24 31 22 18 21 23 30 22 27 42 38 21 40 20 24 35 28 36 23 22 36 31 33 46 51 56 47 50 64 47 42 32 34 41 36 28 31 19 24 37 32 30 27 30 32 20 29 26 25 27 33 26 23
25 36 20 28 22 21 30 32 31 29 26 27 28 27 23 37 32 39 31 45 36 28 33 31 29 40 31 37 37 28 29 34 35 37 54 62 59 67 65 81 71 55 49 44 44 39 32 26 23 21 22 25 27 23 32 38 24 20 22 33 21 37 37 28
25 26 33 21 20 32 24 34 38 38 31 22 37 29 39 30 30 46 36 36 45 42 31 42 39 37 38 25 33 34 29 24 22 39 56 67 80 82 96 81 80 85 74 57 40 48 38 40 45 27 35 28 25 20 32 34 35 30 33 24 29 33 18 27
37 22 26 26 37 37 23 30 18 26 36 29 27 43 26 41 34 31 36 36 48 37 43 37 35 41 43 36 39 37 27 31 40 46 70 81 97 96 100 104 102 82 85 72 51 50 39 48 37 28 39 38 22 31 23 27 31 35 32 35 24 22 31 19
29 37 19 28 29 31 22 29 24 32 25 23 35 41 40 39 40 40 51 54 41 54 39 51 38 47 31 37 35 33 37 38 40 51 79 96 112 116 131 113 107 96 87 66 69 55 50 36 43 47 47 35 42 32 39 27 20 25 22 19 29 27 35 28
27 22 35 22 23 27 36 26 30 35 22 29 31 34 38 44 53 49 53 59 56 55 52 44 44 41 38 50 42 33 30 34 38 49 65 87 99 125 139 131 109 102 93 76 64 48 56 48 46 38 51 30 47 43 34 29 26 34 23 24 20 20 38 26
34 29 19 31 28 23 36 35 27 37 40 43 31 48 51 38 47 53 52 52 62 56 51 44 48 52 51 50 46 48 37 35 37 53 78 85 105 120 132 130 122 116 97 87 58 53 44 51 40 52 44 37 50 31 27 25 31 27 24 37 37 34 21 20
29 21 21 36 34 27 26 25 22 27 41 31 49 43 46 49 63 54 48 65 53 55 64 57 62 59 60 46 42 37 36 25 42 60 69 94 95 104 127 124 120 103 103 87 62 54 66 52 57 48 40 49 52 46 34 34 21 24 20 32 35 29 24 25
27 21 30 21 23 24 22 36 33 41 32 46 50 56 49 60 55 55 63 60 64 65 62 56 68 46 52 54 48 50 46 38 32 61 68 82 89 104 116 106 98 91 90 81 68 53 55 68 50 44 60 46 50 49 45 41 22 28 35 19 23 24 28 26
25 22 29 37 37 31 36 29 36 34 31 34 55 47 61 47 54 60 64 63 59 59 72 65 59 72 66 70 49 48 40 50 37 60 51 79 78 93 89 94 99 92 93 73 62 66 62 57 67 52 46 56 46 35 49 41 36 28 22 22 29 26 25 32
29 34 26 19 18 28 38 21 31 40 45 42 43 44 54 53 57 73 61 73 61 81 64 87 81 81 81 77 71 65 48 44 42 38 56 53 70 76 95 83 78 92 86 68 70 72 75 71 57 61 60 44 39 53 42 35 33 23 35 22 32 37 31 19
22 18 20 21 32 21 24 37 42 33 33 49 54 42 51 61 64 72 72 82 77 77 83 98 107 89 96 89 75 71 52 48 39 42 39 50 55 73 82 70 85 78 76 84 66 72 60 57 63 68 54 59 56 55 46 35 39 22 18 37 23 36 28 21
32 36 22 34 24 23 22 20 28 28 32 39 57 52 58 60 63 75 82 79 77 77 96 112 118 131 132 117 98 78 72 57 45 52 37 51 56 54 59 61 63 72 71 83 73 70 77 77 60 71 66 45 58 50 36 43 32 24 18 31 23 19 33 23
33 22 24 28 31 28 19 34 41 28 47 36 42 55 58 69 68 72 73 85 86 91 107 130 136 142 145 132 116 92 81 65 42 51 56 46 56 47 55 60 79 79 87 78 73 70 65 79 67 57 62 44 55 52 34 29 34 24 34 28 19 30 25 29
24 24 25 33 35 23 31 24 42 43 39 44 47 44 64 60 59 76 72 82 79 99 106 144 159 169 180 156 128 115 98 68 43 46 56 59 45 67 65 61 71 65 79 77 83 74 72 64 65 57 47 44 49 37 34 45 32 34 27 31 26 35 36 30
25 29 22 20 23 18 31 23 25 32 37 42 51 50 54 57 57 67 80 82 70 98 129 144 163 164 178 163 130 116 87 78 52 37 48 49 42 61 54 61 68 73 70 74 73 77 68 64 58 56 52 50 42 41 43 41 35 20 30 19 31 34 33 34
32 20 32 27 31 30 36 27 32 33 35 41 38 46 58 50 68 73 69 76 78 102 113 142 149 167 179 159 145 122 95 73 51 37 51 46 47 62 61 67 67 60 77 69 80 66 76 58 59 53 55 60 51 41 38 35 35 28 33 26 27 38 29 36
22 28 18 34 26 31 28 22 31 30 47 37 42 41 59 62 56 65 67 64 69 81 120 126 147 168 167 149 130 118 89 72 47 46 52 46 54 54 58 65 55 63 59 73 67 75 66 69 50 50 54 45 45 32 40 35 36 29 24 38 28 19 38 29
27 35 31 21 35 30 25 21 37 35 31 31 44 42 50 62 49 49 57 59 67 88 104 123 146 151 159 151 126 100 72 70 40 40 50 53 46 49 61 52 62 51 53 54 67 66 51 59 65 56 46 46 51 40 43 36 22 31 19 27 27 29 38 23
37 23 33 37 34 22 19 34 29 24 37 33 38 47 50 46 46 47 65 52 64 71 84 114 109 124 138 135 116 98 74 50 45 31 39 48 52 49 53 57 61 65 61 63 67 56 53 45 44 57 46 42 43 48 41 39 26 31 36 27 25 21 36 20
23 37 29 23 31 18 34 32 38 30 43 32 42 38 51 41 59 61 52 47 59 72 88 86 96 112 108 109 87 84 75 42 44 41 33 36 52 48 48 60 48 56 54 46 53 46 63 56 50 56 51 47 40 37 25 20 38 33 20 31 26 38 37 29
35 34 33 23 38 26 34 26 23 27 33 39 40 48 46 51 47 45 58 46 52 58 64 79 79 99 93 85 79 77 54 35 29 41 35 43 41 46 55 44 44 46 43 57 59 57 48 52 47 44 50 34 40 24 28 21 20 21 24 19 25 35 24 33
36 20 19 33 31 19 33 26 30 21 34 25 26 45 32 46 36 37 39 56 51 50 55 59 75 83 77 78 72 63 50 38 18 35 28 43 34 39 47 33 39 39 53 54 52 38 43 38 45 47 36 44 29 40 24 21 32 38 38 27 34 33 18 36
25 32 28 38 38 21 29 25 33 37 25 22 31 26 28 35 32 45 50 35 52 35 40 46 50 68 53 63 53 43 46 23 35 37 28 28 38 31 44 48 43 48 46 53 33 46 41 35 40 36 37 24 28 21 20 26 27 32 19 26 30 32 24 38
33 29 28 20 30 27 32 27 37 28 22 24 29 23 32 36 42 27 31 41 31 41 43 37 36 48 39 44 41 39 26 29 18 29 31 20 24 43 40 42 40 29 35 44 49 38 45 43 31 25 23 39 24 37 33 24 29 18 28 35 26 25 18 27
23 26 31 35 36 35 34 25 35 37 20 32 38 24 23 25 34 26 44 30 30 30 31 33 43 29 26 23 27 19 34 25 22 34 21 22 25 30 34 25 30 35 33 35 36 29 29 39 31 40 20 36 29 18 26 33 28 31 32 36 31 22 26 22
21 30 25 21 20 25 31 38 28 37 34 18 31 27 28 21 28 38 37 33 29 22 41 35 40 36 20 30 20 30 25 28 20 25 30 24 30 29 21 22 31 34 40 25 27 25 40 37 22 37 25 21 32 26 18 35 24 21 27 28 38 28 27 22
38 38 23 26 37 38 29 18 24 22 22 22 35 22 34 31 34 30 33 28 28 22 19 30 38 35 18 33 24 19 35 26 22 21 25 31 31 24 22 31 21 36 23 21 38 33 25 26 22 25 25 38 20 27 25 30 21 32 35 22 29 26 27 33
26 21 23 25 36 36 26 24 30 37 31 35 31 35 20 23 26 21 28 21 19 38 26 25 21 21 28 30 23 29 37 25 22 32 38 34 35 21 33 35 35 35 37 37 25 24 38 24 37 25 26 30 34 35 20 21 35 20 23 34 38 23 31 18
35 27 29 36 37 21 25 37 19 23 26 26 29 21 34 29 21 33 38 30 18 25 18 37 30 26 24 36 20 23 30 23 22 35 18 29 33 36 18 18 31 37 22 30 23 29 22 29 24 35 35 35 19 35 28 33 35 32 37 28 21 23 23 36
19 30 38 25 21 24 34 33 33 26 36 18 31 27 37 24 31 22 21 30 32 27 27 31 24 38 19 23 23 31 24 36 19 21 30 34 21 24 26 18 26 37 32 32 20 26 34 19 23 18 27 25 33 35 31 24 21 33 24 30 20 20 34 21
21 19 23 25 24 19 38 31 34 34 27 30 38 23 21 24 30 18 37 34 24 22 27 23 31 21 21 37 36 33 27 28 29 31 23 37 28 27 22 29 38 27 34 38 25 23 32 19 25 23 37 29 21 27 30 25 32 35 27 31 19 34 35 23
33 18 21 18 26 24 20 30 35 18 20 30 26 21 24 26 33 26 20 24 18 21 34 18 35 33 34 23 30 33 33 19 23 31 31 22 25 36 38 21 20 23 36 32 29 30 38 22 33 23 19 23 26 27 31 37 35 38 20 23 34 28 28 31
24 20 24 31 20 28 34 26 25 31 20 35 24 30 31 23 26 21 19 18 31 30 25 26 28 34 35 25 38 21 22 36 35 28 20 27 27 36 21 31 24 27 23 27 24 23 27 36 37 20 38 24 26 30 19 18 34 22 36 32 29 19 36 20
24 35 30 19 32 21 26 35 21 25 26 31 35 24 30 38 31 38 22 37 22 36 38 32 35 33 37 22 19 23 37 18 22 18 18 24 24 37 32 18 20 33 24 27 22 19 22 29 27 26 25 27 20 33 26 25 30 25 27 27 22 27 20 36
30 38 20 27 30 38 34 35 34 19 29 38 33 29 22 33 28 36 19 25 38 27 22 35 25 20 27 37 24 28 34 24 31 29 19 24 36 33 29 33 26 29 23 35 19 27 21 19 28 24 27 33 22 30 24 37 22 26 36 33 29 27 22 23
33 37 31 36 25 31 30 25 32 20 22 27 21 19 25 34 18 20 22 26 35 30 33 37 24 34 23 30 38 37 25 35 21 32 18 24 23 26 36 37 20 20 26 23 20 28 37 28 19 22 32 25 36 37 35 19 20 22 29 31 37 23 31 21
32 32 36 20 36 20 30 33 23 21 24 35 31 18 36 33 38 27 21 22 18 26 21 30 34 19 28 25 23 36 28 26 32 36 27 26 29 30 33 36 23 24 31 36 20 37 26 35 18 36 29 32 26 25 18 21 33 38 31 18 24 32 33 28
18 18 37 31 38 26 38 32 18 19 32 34 30 36 29 19 32 19 34 32 26 38 28 20 25 21 20 31 24 18 32 30 23 19 21 21 31 20 22 26 30 21 27 32 23 28 23 30 21 33 27 32 18 25 37 26 33 33 31 31 29 27 22 34
37 34 19 33 29 21 32 23 22 27 30 20 30 36 21 32 22 34 25 33 23 30 21 24 29 34 31 38 22 30 28 30 26 32 32 38 32 26 26 31 37 33 33 28 32 35 27 27 26 38 38 37 27 26 30 28 32 34 34 37 24 19 26 19
31 21 22 20 18 19 22 25 23 18 22 23 22 26 29 32 19 28 22 19 28 23 21 33 29 24 20 18 31 28 32 33 31 26 28 27 22 21 30 20 27 25 32 37 19 24 37 33 25 22 36 21 31 38 26 36 28 22 19 24 22 25 25 32
35 38 38 30 28 29 38 21 26 27 35 18 34 34 31 35 29 33 38 24 20 34 27 33 23 38 23 33 37 19 28 30 25 34 27 36 32 37 33 36 18 23 38 23 28 35 32 20 23 31 31 20 19 35 32 32 20 22 38 37 37 31 35 36
36 37 32 32 23 29 22 29 33 30 35 20 24 37 20 18 22 21 27 24 30 19 29 26 30 25 18 38 33 24 25 21 27 27 34 33 32 28 34 29 33 26 21 32 21 35 18 23 34 19 34 30 22 38 35 18 36 32 31 26 22 24 21 25
29 20 27 24 28 26 36 30 26 21 21 34 18 22 19 31 18 19 25 20 26 20 23 28 28 21 38 26 23 28 20 33 38 35 38 21 19 29 19 37 21 29 19 28 24 31 20 21 19 32 37 33 37 19 31 18 25 34 26 19 22 23 27 22
35 28 35 29 34 35 22 18 33 36 29 38 21 34 29 38 32 23 38 25 25 25 23 23 36 30 38 19 37 37 18 22 21 18 36 34 36 21 24 26 22 34 35 23 22 31 30 24 18 28 28 18 27 26 29 32 38 36 34 38 34 23 38 30
