P2
64 64
255
23 19 16 26 23 24 25 22 21 26 23 19 15 16 21 14 20 14 21 18 19 20 23 26 19 18 14 20 25 17 21 26 16 26 17 19 17 25 18 25 18 24 25 26 18 23 16 20 18 23 18 22 22 20 22 14 17 23 26 17 22 24 17 26
22 25 18 15 18 20 16 25 26 23 20 23 23 23 16 25 20 15 15 19 21 24 25 22 16 18 22 26 17 15 17 24 16 21 15 19 19 22 23 22 25 15 18 16 25 23 14 19 22 19 17 25 18 17 26 15 15 23 16 16 23 16 19 20
17 16 23 21 14 26 18 17 20 22 25 25 19 20 25 25 23 18 21 17 14 21 16 24 15 16 25 16 24 14 18 20 25 23 19 19 25 16 23 20 19 16 21 25 25 23 17 18 16 24 19 22 21 26 21 18 23 18 18 16 23 20 26 24
15 18 21 25 15 24 23 25 18 23 21 14 24 17 25 25 18 20 21 26 15 24 26 20 25 15 16 19 26 17 16 25 21 25 24 23 25 16 20 23 15 20 24 25 26 25 25 16 14 21 23 16 17 19 17 24 17 15 14 23 16 17 24 17
20 20 22 24 19 26 23 26 16 22 18 21 20 17 18 20 24 15 17 16 19 20 24 25 20 26 17 21 15 26 15 22 17 21 26 18 21 14 16 15 22 17 23 18 25 17 15 15 20 24 21 16 15 22 14 18 23 20 18 15 21 14 17 24
14 16 20 21 15 21 24 17 15 20 15 17 21 16 17 18 23 17 23 16 24 24 19 15 17 24 16 14 14 16 19 16 17 19 23 19 18 15 22 16 24 24 21 18 20 22 24 26 26 22 14 21 22 18 20 21 18 20 18 19 24 23 15 16
17 16 26 22 18 14 14 16 19 18 25 14 15 22 25 19 24 26 16 16 23 16 26 23 21 21 16 20 21 19 22 26 24 24 23 24 20 19 22 20 22 17 21 17 20 26 26 15 22 24 21 21 25 14 16 18 26 22 17 25 23 25 26 22
26 23 14 23 19 20 23 18 19 20 26 25 17 18 26 26 25 19 22 18 23 19 21 24 16 20 26 16 26 18 14 18 18 18 26 18 20 26 20 19 17 25 15 25 17 25 22 18 23 25 22 15 24 23 15 25 19 26 19 25 17 23 26 25
23 18 21 18 21 20 15 21 17 22 18 19 26 20 26 17 15 17 22 21 20 16 26 22 22 15 15 17 15 24 20 17 15 16 17 25 14 25 21 19 18 20 22 20 24 18 26 19 25 23 25 25 16 16 26 25 21 20 14 19 18 21 15 24
14 22 18 24 25 19 21 19 18 21 23 21 17 17 19 17 25 20 25 22 23 21 15 21 26 23 26 26 22 22 18 16 21 25 18 26 19 17 22 15 25 16 20 19 19 25 22 19 23 24 19 15 26 25 14 18 22 24 14 24 14 23 22 21
15 14 23 17 20 22 19 20 15 19 19 23 22 22 17 18 24 24 22 23 16 16 15 14 17 24 14 25 18 23 15 20 14 17 20 18 16 21 24 22 25 20 24 22 22 19 22 19 25 22 22 16 22 18 17 19 19 19 23 23 19 23 19 19
16 25 20 26 14 17 17 17 26 20 19 20 21 23 25 16 24 23 26 18 15 18 17 24 18 17 15 22 23 19 18 15 18 26 17 17 22 18 20 24 26 23 21 19 15 14 18 14 21 15 14 16 15 25 26 14 26 20 20 20 15 15 23 19
18 22 25 18 15 15 16 22 23 19 18 22 17 24 23 25 22 25 15 21 19 19 22 22 20 26 24 20 16 15 23 17 25 17 24 14 26 25 23 24 24 20 26 26 21 20 23 23 16 17 18 22 16 18 14 20 20 23 17 15 20 26 15 22
14 16 24 17 26 24 20 20 26 18 20 23 23 18 17 21 24 15 14 17 17 19 25 25 19 23 15 24 21 26 17 17 23 20 18 17 26 21 17 17 21 26 22 18 15 19 16 26 14 23 14 24 22 14 16 18 17 17 24 20 24 17 19 16
14 25 24 25 26 24 24 14 20 24 17 18 15 22 24 24 15 14 22 26 17 23 18 23 15 23 22 21 19 18 22 14 15 25 20 18 18 26 21 14 20 19 21 15 17 15 16 21 15 19 18 19 15 20 16 14 14 17 21 16 19 20 17 15
15 15 15 20 21 25 18 18 21 26 17 19 21 26 22 16 22 22 16 23 23 26 15 23 18 20 22 16 21 25 18 14 16 19 24 18 17 20 15 21 20 26 23 19 26 25 14 26 20 20 17 21 15 15 17 22 25 19 23 24 22 25 24 24
22 17 25 24 16 23 26 22 22 22 22 18 25 20 15 26 20 15 18 24 24 25 15 22 20 16 26 26 22 26 25 16 24 22 20 24 26 26 14 25 24 23 23 22 20 25 21 26 25 24 17 16 15 20 23 16 16 26 18 17 20 23 18 23
14 24 24 22 16 18 17 23 20 21 21 18 24 16 16 15 16 24 14 15 22 24 22 26 24 16 15 18 18 23 18 23 25 26 14 20 15 16 16 19 18 17 19 19 25 23 23 17 20 23 22 23 26 20 22 14 16 19 18 21 23 17 19 15
26 22 23 21 22 20 21 20 22 15 14 20 25 19 26 17 21 22 16 25 17 17 21 26 20 22 25 15 23 23 19 17 23 22 21 23 14 26 15 24 15 15 20 19 22 16 21 15 20 21 17 21 22 25 24 26 16 17 16 23 22 14 15 26
19 22 17 18 21 24 22 17 18 23 20 26 19 23 24 21 19 24 29 23 30 22 23 18 27 18 17 22 26 25 25 26 23 18 17 15 14 24 19 15 27 27 29 27 24 29 20 18 23 23 17 25 24 16 16 15 16 23 26 18 24 24 25 17
25 25 26 21 16 15 25 26 14 22 15 18 26 17 16 21 22 26 28 24 27 31 28 31 32 23 24 19 19 16 22 16 23 25 14 18 26 21 18 18 27 32 31 31 28 22 24 21 20 24 24 20 25 22 22 22 22 14 14 18 26 22 23 15
21 22 26 15 17 26 16 19 25 16 19 17 26 19 29 32 27 26 28 28 35 30 30 28 26 22 25 30 16 22 23 18 25 26 23 17 21 22 20 32 33 36 31 27 31 29 27 33 26 25 26 27 23 16 25 16 17 26 23 26 26 20 19 20
22 20 26 23 20 19 17 25 24 20 23 27 23 26 23 25 26 29 40 36 37 39 32 34 28 37 32 23 29 28 23 21 20 24 23 19 25 22 25 26 39 34 37 35 34 34 32 34 30 24 27 27 21 17 16 21 24 15 23 15 23 22 20 23
17 19 20 14 19 23 23 25 21 26 27 24 30 27 26 36 33 33 43 45 35 36 41 34 33 30 31 32 26 21 19 14 23 17 17 26 30 26 27 37 35 32 40 39 40 35 43 39 34 30 37 30 29 23 23 23 26 24 25 20 17 21 16 18
26 25 26 22 21 22 19 14 20 22 26 29 23 35 36 31 44 44 46 43 42 48 44 42 38 40 42 32 28 26 31 28 25 18 25 30 32 30 31 35 44 37 49 49 43 46 41 36 45 39 28 33 24 24 29 25 14 24 18 20 16 23 16 14
21 17 23 15 26 14 20 24 16 23 27 25 32 35 33 40 48 47 48 51 42 46 51 47 40 47 39 34 38 29 22 19 21 22 24 29 29 41 42 38 48 48 44 42 41 46 44 46 48 44 35 30 31 28 22 22 21 21 17 22 20 26 17 19
23 16 23 15 14 24 23 18 21 30 29 35 29 36 45 49 41 48 44 53 51 53 56 54 43 51 45 39 37 35 31 24 26 32 29 34 37 44 44 44 42 51 48 52 56 46 46 45 43 40 43 43 31 35 33 24 20 19 14 17 19 22 24 14
18 26 20 16 26 19 23 25 24 29 30 37 33 45 46 49 50 52 51 48 49 55 48 52 55 53 51 41 45 33 29 36 34 28 32 38 39 40 50 52 47 53 53 49 49 48 50 57 46 48 47 44 31 37 23 28 23 24 19 15 20 19 15 16
18 18 14 18 20 14 18 24 24 27 28 38 32 45 40 45 46 59 56 62 61 60 61 61 51 45 49 48 38 44 40 38 38 33 35 36 47 49 43 45 60 55 59 64 53 57 54 54 48 48 45 39 32 28 31 25 29 21 19 26 14 25 21 22
24 26 25 17 18 22 15 23 28 23 30 30 38 41 47 53 52 62 59 61 68 69 61 53 57 58 44 43 39 43 40 37 35 34 41 41 47 47 45 53 56 56 55 67 60 60 54 51 52 52 46 46 45 36 28 28 18 22 20 22 14 22 26 22
20 17 18 23 20 23 20 25 30 27 35 42 41 41 45 57 52 55 66 59 65 66 62 64 61 60 49 54 47 40 35 37 43 42 35 39 49 48 55 56 61 57 61 72 72 62 68 63 57 57 50 46 34 34 35 26 30 19 14 23 14 20 15 24
18 26 20 14 24 25 21 23 30 26 33 34 42 39 53 53 60 57 66 70 73 69 68 70 56 56 51 45 45 46 40 42 34 32 35 41 48 44 51 56 62 60 64 73 74 65 58 55 60 50 46 44 45 36 35 35 21 25 14 15 23 21 14 15
15 23 15 18 14 20 15 23 22 25 38 42 40 49 44 52 61 62 66 73 79 78 66 63 66 59 56 55 47 38 36 45 37 40 36 39 39 51 53 55 55 63 66 69 69 64 64 67 59 55 53 45 44 38 35 35 20 20 18 15 20 21 24 14
19 23 17 15 16 24 22 20 29 28 29 32 35 39 54 52 56 65 58 73 67 74 69 69 57 52 49 46 42 45 38 32 42 41 42 43 45 45 50 56 59 58 72 74 68 62 60 55 62 57 54 46 38 43 35 31 32 27 22 19 22 21 16 17
18 14 25 16 18 15 19 19 26 23 32 39 39 47 43 48 52 55 58 61 61 67 68 60 58 51 51 50 45 41 39 32 43 34 43 35 40 43 58 56 53 61 59 66 66 61 62 61 50 56 49 48 37 35 37 28 27 26 19 19 24 23 26 18
15 15 21 15 18 20 23 25 22 22 35 31 41 47 41 44 55 54 65 62 69 59 62 58 57 51 55 43 43 39 35 41 38 36 33 34 45 40 56 58 58 64 67 61 58 58 58 61 52 44 43 37 43 33 33 30 30 22 21 21 22 14 24 21
23 26 23 16 24 24 25 15 18 32 37 34 37 41 50 43 45 57 56 53 62 56 61 56 50 48 47 40 37 33 39 30 35 35 40 37 44 50 46 46 51 62 54 63 62 54 52 52 55 44 45 41 35 28 25 29 24 14 26 21 26 20 25 18
16 24 21 21 18 19 18 24 18 20 26 27 30 40 44 52 49 51 56 49 49 54 53 47 47 54 45 43 39 40 26 35 31 32 36 31 39 41 41 51 56 49 60 57 54 58 56 52 52 45 46 35 31 28 30 32 20 18 26 22 25 22 17 21
16 14 25 25 21 15 24 23 19 22 32 29 29 43 46 38 49 41 54 46 51 56 50 46 49 48 44 42 38 36 37 22 34 30 30 30 31 37 46 46 45 55 55 46 47 53 49 50 50 45 44 32 38 27 24 26 20 23 14 24 20 19 23 18
18 18 22 17 27 26 21 28 27 22 34 36 36 44 45 45 47 51 52 53 52 53 46 50 53 45 42 45 42 37 38 24 24 34 29 39 40 39 45 50 43 50 52 48 58 48 47 51 49 48 38 39 34 31 34 23 31 31 22 31 25 21 25 27
21 30 29 31 31 32 23 28 30 28 28 33 43 46 37 42 44 48 47 57 49 50 50 45 45 46 43 45 44 40 29 32 33 32 39 42 41 43 42 43 47 49 60 52 48 48 50 54 47 50 52 44 44 44 37 32 33 26 31 35 34 31 32 28
23 29 35 27 32 26 36 25 25 37 29 32 43 46 44 44 51 48 51 47 45 55 48 47 48 51 40 42 39 41 38 29 31 39 33 43 47 48 46 45 58 56 59 54 51 50 50 52 51 51 52 51 49 46 36 43 36 44 34 39 37 40 36 36
32 29 30 31 27 32 22 32 31 27 22 24 25 33 35 34 45 42 36 38 44 45 45 38 46 45 35 31 40 36 24 27 28 27 31 37 32 33 37 38 44 39 42 50 41 44 47 38 44 40 45 33 36 27 38 35 38 34 30 35 28 30 32 26
24 26 19 21 21 22 22 22 27 28 28 23 22 29 22 30 37 29 39 39 38 40 41 34 28 32 27 27 32 30 19 26 21 30 21 27 23 31 33 38 31 35 30 37 35 37 31 33 28 33 33 27 31 26 24 31 21 22 30 26 29 32 21 31
16 15 24 25 16 19 22 23 22 15 23 17 19 26 18 24 18 32 26 21 34 24 30 29 22 22 27 22 14 21 14 14 19 26 23 14 25 16 25 19 21 32 32 33 24 25 31 28 19 20 17 18 17 17 21 20 26 22 14 25 19 21 20 16
25 25 14 24 15 17 22 18 19 26 18 19 18 18 17 20 17 26 27 28 29 28 19 18 16 21 14 18 20 26 25 14 24 25 15 25 22 22 21 27 23 19 17 20 27 21 22 21 26 23 21 15 21 21 19 24 23 26 17 20 21 16 24 26
17 15 24 15 21 25 16 16 20 14 15 18 18 14 14 21 14 14 19 17 15 25 24 22 26 18 16 20 20 15 17 23 24 15 17 20 17 26 17 23 22 21 23 25 17 23 21 18 19 18 19 19 25 22 18 18 16 15 19 23 17 23 15 19
21 14 16 26 14 18 22 16 20 20 19 18 18 22 19 25 14 22 18 25 15 26 17 24 23 21 14 19 24 23 22 18 26 16 26 14 26 21 26 15 18 18 26 26 15 14 20 23 26 24 24 25 19 25 24 19 22 18 16 15 23 17 14 14
22 14 26 16 16 19 21 24 18 16 24 23 16 14 15 23 18 25 22 25 22 25 15 21 16 25 15 17 23 19 24 26 14 14 24 15 26 22 19 25 24 22 16 20 25 22 18 19 23 15 17 19 14 24 15 20 24 26 25 14 23 14 20 18
22 14 14 15 26 19 19 20 18 18 19 21 25 26 17 19 26 25 24 15 17 18 22 14 20 21 16 18 23 26 18 26 23 26 16 15 20 16 17 17 23 25 16 22 18 20 16 22 23 25 19 25 23 25 19 21 25 25 24 18 25 25 24 19
24 23 19 15 24 14 17 22 17 25 24 22 19 14 19 16 21 25 19 25 15 23 22 26 22 14 17 15 17 16 19 22 17 24 19 20 22 21 16 19 25 22 20 18 17 18 14 20 18 24 24 19 26 25 24 17 25 23 14 21 17 23 18 15
15 25 18 20 21 23 19 24 14 20 26 14 18 16 15 19 24 23 15 15 26 17 15 21 16 16 19 20 22 19 15 21 25 16 18 18 22 20 25 25 19 17 18 18 26 18 20 19 21 20 20 25 16 23 22 21 25 15 26 17 26 19 17 15
23 17 23 20 24 18 25 14 26 17 24 17 16 15 18 21 20 20 24 16 25 18 16 24 23 22 26 26 24 19 16 19 23 23 23 20 18 23 23 15 19 23 17 23 21 22 25 14 21 26 23 21 26 18 21 19 24 18 16 18 19 21 26 26
25 18 22 15 25 21 25 23 25 18 21 24 24 24 16 21 16 17 23 21 21 22 20 26 22 16 22 23 23 25 21 26 21 24 17 25 22 20 24 24 25 14 15 15 15 23 18 26 23 22 24 14 19 16 25 22 19 19 23 15 25 22 25 25
24 24 22 21 15 16 24 20 17 21 15 26 22 26 25 26 18 26 14 20 25 25 17 17 15 17 16 23 22 20 14 26 20 17 18 14 18 16 21 14 16 14 14 21 21 23 23 15 17 16 19 18 17 23 16 14 22 14 26 16 25 14 14 20
20 21 17 24 23 22 15 15 17 26 22 22 20 25 21 16 17 17 15 21 20 17 23 19 16 22 18 21 22 18 25 19 17 14 26 24 21 22 14 15 16 18 26 14 21 15 23 17 25 18 22 15 14 24 22 18 15 26 17 26 20 19 26 15
17 17 26 15 17 17 15 15 20 22 14 22 23 21 16 16 17 14 25 19 18 24 21 19 25 23 25 25 14 16 20 21 18 23 26 22 25 24 19 24 25 14 25 16 24 16 15 15 15 22 18 20 22 15 18 19 20 24 22 22 25 20 26 22
21 14 17 22 23 24 25 18 15 18 24 25 24 18 16 26 25 20 22 25 18 14 21 24 14 23 15 23 17 26 25 20 26 15 22 20 17 24 20 22 25 20 19 25 22 14 14 14 26 22 15 16 24 21 18 17 21 15 17 17 17 14 21 26
21 20 19 22 21 19 19 14 16 16 23 21 21 16 25 23 25 18 26 18 26 14 23 26 20 26 14 26 21 18 25 19 25 23 21 16 21 23 18 25 25 22 18 17 18 17 18 20 14 21 24 16 14 26 26 21 18 18 22 15 22 18 23 21
14 17 14 23 22 16 14 19 16 19 15 26 20 21 23 18 25 25 20 22 14 26 22 23 20 19 24 17 20 23 24 20 26 20 21 18 15 19 16 25 18 16 26 22 19 21 15 15 17 24 14 17 22 25 21 20 21 26 24 16 21 14 16 15
26 24 17 25 25 23 20 23 18 14 14 24 23 21 15 21 25 15 19 14 18 24 25 16 25 23 21 22 15 23 24 19 14 15 22 25 25 15 19 16 25 19 15 20 14 17 15 22 26 25 20 26 21 14 20 24 14 18 24 23 21 22 22 23
19 19 15 20 19 19 25 18 14 15 24 21 23 22 22 14 18 19 21 15 23 22 17 24 14 17 16 21 14 15 16 25 17 23 22 18 21 18 20 26 17 19 14 15 23 14 15 25 23 23 18 21 15 18 21 16 18 14 14 26 22 25 16 16
22 14 14 14 17 19 14 20 20 16 14 14 23 19 25 16 15 18 25 21 18 16 19 19 24 19 16 21 19 14 25 23 18 26 23 21 25 15 25 16 25 14 20 25 19 19 24 24 26 16 23 21 18 23 20 21 21 15 14 18 24 16 20 21
16 18 18 19 22 22 15 14 24 18 15 15 24 19 20 14 23 21 19 14 25 20 14 17 18 19 22 18 16 26 24 14 15 26 22 15 22 21 16 18 17 21 24 26 24 23 15 15 22 22 24 22 18 21 22 16 15 24 19 23 22 14 26 18
