P2
64 64
255
20 21 21 25 17 21 17 26 26 22 15 22 23 23 19 14 25 21 17 16 24 21 21 14 24 21 15 15 15 25 18 24 18 16 15 18 16 23 18 15 15 23 18 14 22 23 20 24 22 23 20 16 16 19 16 22 26 25 22 26 24 22 14 24
19 25 17 15 20 26 19 14 24 15 26 22 18 26 22 22 16 22 25 19 17 14 16 16 24 26 24 23 25 26 19 26 18 21 24 23 16 20 20 22 18 22 24 25 19 21 23 17 14 14 16 19 18 22 14 25 21 19 14 25 19 26 26 25
18 25 16 23 24 25 25 24 23 20 16 21 21 26 18 24 24 24 23 18 15 25 24 20 25 15 18 17 25 24 24 16 22 15 22 26 23 16 26 18 17 22 22 25 20 22 18 18 24 17 14 21 26 25 18 26 25 14 15 15 26 20 14 26
16 14 19 17 24 23 14 25 21 18 23 19 23 23 22 26 23 18 14 24 20 14 17 26 23 18 18 26 24 19 18 14 15 25 16 23 26 18 16 17 22 20 15 24 20 26 17 14 17 18 20 25 15 17 22 23 23 14 22 24 24 21 26 22
16 17 26 24 17 20 23 20 24 15 25 26 18 16 25 16 23 19 20 14 25 23 17 20 26 19 17 25 24 25 14 24 20 14 25 26 24 19 21 23 19 20 20 20 25 26 21 14 14 18 18 23 23 23 21 16 16 18 16 26 24 19 14 21
22 24 22 19 16 26 21 21 20 22 15 25 22 22 20 18 19 18 19 18 17 16 20 22 15 21 18 22 18 15 25 21 17 22 22 20 20 17 18 21 17 17 14 23 22 19 15 22 23 21 22 22 14 24 16 14 23 21 21 14 22 18 17 26
17 23 19 14 14 16 24 15 16 19 16 19 20 15 25 24 18 23 18 26 21 18 16 16 22 24 17 19 25 16 19 24 25 19 16 15 24 17 17 15 22 18 21 15 18 25 15 17 22 26 19 20 25 22 17 20 15 22 22 21 21 15 22 22
22 16 21 21 22 21 25 23 25 22 26 19 25 19 21 22 15 23 26 19 20 25 20 16 14 14 24 23 15 26 22 24 16 15 20 24 24 14 14 21 20 20 16 21 23 14 21 14 17 22 19 18 21 21 14 25 20 24 18 20 16 20 16 17
20 20 21 22 20 16 22 24 20 14 19 19 23 23 21 26 22 24 15 21 24 26 21 22 14 18 15 22 23 15 23 26 21 18 15 20 25 24 25 19 22 16 21 20 14 18 23 14 23 24 26 23 20 23 26 23 22 21 23 16 19 23 23 21
17 20 14 25 17 17 24 18 16 15 23 15 22 15 25 25 24 21 19 16 22 26 14 20 26 19 26 25 22 25 26 14 18 15 25 21 22 19 25 15 21 24 24 23 20 16 15 24 24 19 22 15 16 14 17 18 18 16 23 24 20 21 17 16
15 16 22 16 25 20 23 16 16 16 23 26 20 26 23 19 26 21 18 17 14 20 21 22 24 23 19 17 18 18 17 14 23 20 15 19 25 14 14 21 20 25 17 26 19 26 24 22 23 25 14 19 23 26 18 19 21 22 23 22 17 26 25 24
14 23 26 16 19 18 14 16 14 14 25 24 16 17 22 17 19 14 24 19 21 19 15 22 18 26 20 23 18 17 24 18 25 20 20 16 16 15 23 21 25 14 15 25 17 21 18 25 17 17 15 20 16 26 19 19 18 17 25 21 20 20 19 16
15 18 18 16 24 23 15 14 15 25 25 15 17 17 22 22 21 14 26 22 15 15 14 21 26 15 20 21 25 22 16 17 24 15 24 21 17 17 23 15 20 18 21 25 19 18 15 23 15 24 22 24 22 16 19 26 24 22 17 26 18 19 19 14
17 19 24 17 25 26 16 22 14 20 23 15 25 20 25 25 16 18 23 16 21 24 22 22 19 18 18 24 14 15 25 14 18 26 15 26 20 14 24 19 20 18 26 16 20 15 23 18 16 23 19 17 22 15 16 21 14 25 15 14 17 18 14 19
26 22 21 22 15 17 19 19 18 15 22 14 15 20 26 20 26 23 23 20 24 24 17 21 19 18 16 19 14 18 16 25 21 18 21 15 18 26 25 14 24 19 23 20 16 25 19 15 16 20 24 23 21 23 23 18 14 18 17 18 22 17 17 19
25 18 14 17 21 14 16 14 23 25 23 26 22 14 16 19 23 18 18 16 21 26 20 25 19 14 23 15 26 23 14 21 22 26 23 25 16 20 19 14 22 17 24 15 14 25 14 14 14 26 15 14 24 25 23 16 25 26 14 16 23 19 18 20
17 20 17 23 14 23 25 15 18 25 15 16 20 20 15 24 23 15 18 18 22 21 16 25 19 23 18 14 20 25 24 23 17 22 19 14 21 16 18 24 16 19 23 16 17 20 20 26 21 25 19 20 18 23 19 20 24 23 16 16 14 17 14 21
24 23 24 22 26 14 22 21 15 24 25 19 19 14 15 21 21 17 17 17 22 26 19 21 23 16 16 22 21 19 17 18 22 19 19 15 17 15 18 24 14 24 16 26 26 20 16 26 26 26 21 14 19 23 18 19 22 15 15 15 16 19 20 23
26 18 18 14 20 26 21 14 16 19 18 14 14 16 26 19 23 17 19 19 18 24 23 23 18 23 23 15 23 14 17 16 21 19 18 15 21 24 16 26 19 14 20 20 18 14 20 15 18 23 19 22 25 20 20 15 26 19 25 24 15 25 24 23
18 21 18 14 21 23 21 24 16 15 15 23 20 24 16 21 23 21 19 23 29 23 18 26 24 15 25 22 15 22 20 17 23 17 14 23 19 24 18 25 27 23 22 20 25 18 26 16 21 17 20 21 25 17 23 16 22 16 22 14 16 26 25 23
23 19 14 25 26 18 22 18 23 24 17 26 25 21 23 22 19 30 33 32 31 32 24 32 28 18 28 22 14 23 24 24 22 23 23 14 25 23 24 27 29 29 28 26 22 26 24 21 24 17 26 14 22 16 24 25 14 19 20 20 24 24 16 20
23 23 17 18 19 20 25 23 18 22 14 18 19 19 23 29 23 31 28 25 32 27 29 25 25 30 27 30 26 26 20 21 24 26 21 19 21 25 31 26 35 26 33 32 37 32 36 23 29 31 25 29 25 15 20 17 26 20 24 25 24 18 25 24
15 16 23 21 17 15 24 23 25 15 18 18 29 20 25 34 26 38 36 32 31 40 29 39 39 26 27 29 27 29 24 29 29 26 23 36 36 36 26 26 29 36 33 37 37 29 37 27 34 30 32 30 29 25 14 15 20 14 23 25 24 15 21 22
17 16 25 16 15 19 18 15 24 23 27 20 32 33 26 34 36 41 32 38 36 34 44 42 33 41 42 46 37 45 37 34 31 38 41 43 42 35 43 34 39 44 42 38 44 41 39 41 30 36 32 33 29 29 26 20 14 23 21 18 23 14 21 15
19 20 16 25 24 24 21 15 25 23 22 21 29 32 31 40 39 36 37 47 42 38 40 42 46 49 48 43 55 53 41 40 47 41 49 44 46 43 43 48 46 51 38 39 39 42 43 44 38 32 28 29 33 26 20 15 25 20 19 25 14 25 23 25
22 26 19 20 26 21 24 19 15 22 31 27 36 33 32 39 46 39 39 49 47 49 45 57 50 60 63 63 59 62 57 48 57 48 49 57 61 52 61 51 52 47 54 47 51 43 46 46 45 34 39 32 33 27 22 28 24 22 19 15 20 15 16 25
23 22 26 19 24 21 19 18 21 26 29 25 39 36 44 40 50 43 49 49 52 56 62 67 62 63 69 69 71 59 64 65 62 60 60 59 71 62 60 64 65 64 53 55 52 49 52 44 41 42 35 36 34 34 21 27 20 23 16 20 18 15 25 26
14 15 16 21 26 15 16 14 23 29 26 34 39 34 44 43 54 46 52 50 61 64 60 66 67 75 67 74 74 76 76 68 76 69 70 72 79 75 78 79 69 74 65 64 52 56 49 52 52 50 49 39 36 28 32 27 25 26 15 24 16 18 19 24
24 26 26 17 20 16 18 26 23 33 37 30 41 45 39 49 55 57 57 62 69 76 75 83 75 83 83 77 87 77 76 80 75 84 74 77 75 77 80 78 84 82 77 65 61 54 52 50 54 52 45 35 32 36 29 27 24 18 14 21 21 21 17 20
18 22 26 16 21 21 23 24 22 33 32 32 33 47 49 51 52 57 65 61 74 78 80 89 82 89 82 94 94 84 90 84 83 85 90 93 82 90 83 84 79 79 78 77 69 70 55 53 50 45 42 47 35 42 35 23 30 18 20 23 19 25 21 22
23 22 14 22 15 25 21 20 28 31 33 33 35 39 42 58 55 60 62 73 82 82 86 94 91 88 95 98 95 97 99 90 101 92 95 96 95 98 92 89 98 86 84 81 80 73 58 56 54 49 54 38 35 42 36 34 29 25 24 15 23 15 21 20
25 16 25 19 24 23 25 20 24 25 31 35 44 48 44 52 56 64 69 80 80 91 99 101 97 96 105 105 97 103 99 107 98 102 101 94 99 96 105 92 102 94 93 94 88 76 63 63 54 50 50 47 42 42 27 34 29 27 17 15 24 19 23 23
18 17 14 14 14 20 22 26 23 30 31 35 36 41 49 55 57 63 67 74 91 98 91 102 99 96 98 108 104 107 104 109 105 103 101 99 99 107 97 101 105 96 96 89 90 82 67 62 60 59 44 40 47 36 34 27 26 16 15 19 26 25 15 23
14 26 15 20 22 18 18 21 20 34 28 40 43 43 47 48 51 63 64 86 86 89 103 101 96 103 107 105 110 110 116 113 111 112 113 113 113 102 106 108 98 98 99 99 88 74 67 66 63 48 52 48 35 39 30 32 26 25 17 14 18 22 23 24
21 26 25 26 23 25 22 23 23 27 28 40 43 48 53 48 56 57 67 73 91 95 95 102 105 110 114 106 113 114 116 124 127 126 111 117 107 111 107 102 105 96 101 86 84 83 66 64 51 47 49 39 38 42 36 30 20 16 23 15 18 18 17 19
20 21 15 20 18 21 24 18 19 30 28 39 44 46 49 55 50 64 67 73 85 86 96 101 97 108 103 108 110 111 118 128 121 123 123 117 111 114 110 107 106 94 97 93 77 78 67 64 53 45 45 47 33 34 36 32 21 20 24 23 17 15 26 17
26 26 20 21 22 26 19 22 27 33 25 31 34 45 45 43 47 54 60 71 77 84 91 96 105 108 105 108 110 108 111 125 128 125 110 108 112 112 107 96 93 98 93 81 73 69 58 52 47 51 41 39 34 40 26 30 19 17 21 26 19 25 25 14
20 19 20 16 26 24 24 18 19 31 31 28 42 37 39 45 47 51 57 63 70 76 86 95 91 96 104 110 111 113 116 118 122 119 109 108 108 103 98 104 102 97 81 76 74 64 67 47 44 41 48 45 41 33 24 32 21 21 22 25 23 21 25 17
18 18 18 15 15 19 18 24 23 26 21 36 34 42 46 40 49 52 57 67 75 77 83 90 88 93 100 95 103 101 102 113 113 109 111 112 108 102 93 89 92 81 78 73 70 66 54 43 40 48 44 37 28 27 30 19 17 26 17 22 19 23 18 23
20 17 21 18 15 26 26 20 16 24 30 32 34 33 43 38 38 41 51 60 67 70 76 87 82 86 93 91 94 105 96 94 96 93 93 95 96 93 99 87 86 86 78 74 70 62 53 38 45 38 37 32 36 29 20 23 15 19 17 26 20 25 17 15
16 24 23 24 16 15 17 22 15 23 24 31 25 27 36 31 38 38 52 56 62 70 74 69 78 88 92 89 90 95 95 91 93 93 88 91 91 91 84 83 83 77 65 64 55 47 45 40 37 38 38 36 29 31 29 24 18 26 23 15 21 18 19 15
19 16 20 18 26 23 24 14 24 23 27 25 28 24 36 33 30 43 46 52 54 63 68 63 78 74 74 80 82 79 81 86 84 88 81 83 84 81 73 76 76 68 70 53 47 44 41 37 31 39 32 34 29 28 26 24 25 18 24 22 16 22 22 22
14 14 26 17 17 19 18 22 22 26 25 15 21 31 27 31 34 33 33 46 51 49 63 65 62 71 74 72 77 75 81 78 75 79 79 81 75 67 76 73 66 67 62 52 49 40 33 35 30 35 26 29 21 20 15 20 18 18 14 16 23 24 15 21
21 17 19 26 19 16 24 20 19 21 20 21 17 25 30 21 30 27 24 37 45 43 53 53 55 55 59 65 70 63 75 66 66 64 66 60 67 60 66 62 58 52 43 40 38 29 33 25 31 24 24 28 15 25 17 22 17 26 15 22 23 17 15 19
17 23 23 17 19 19 25 22 25 19 25 19 25 21 21 29 27 23 24 25 30 43 47 48 53 49 60 60 56 61 61 59 68 61 64 56 59 59 51 50 53 49 45 32 32 22 21 30 19 27 17 20 23 21 16 14 19 26 20 21 17 26 25 21
26 21 15 24 19 19 24 23 19 17 16 25 24 22 18 25 21 21 21 27 19 33 32 38 35 41 53 55 58 57 59 53 62 60 63 60 58 55 42 46 40 39 36 32 22 21 23 19 20 14 23 26 25 24 25 23 20 18 14 24 24 20 25 18
15 16 20 15 17 21 23 16 19 14 23 26 18 18 24 24 14 20 19 18 17 25 22 37 30 44 36 45 51 55 48 49 47 48 47 53 52 44 48 44 39 35 27 20 18 20 15 25 16 17 23 20 14 18 15 16 19 23 23 16 26 16 24 25
16 26 18 20 24 25 21 18 21 23 16 19 20 24 18 24 19 20 21 20 20 14 19 22 30 36 32 33 40 38 38 47 40 44 42 43 43 38 40 39 26 24 28 26 20 19 14 16 21 20 17 15 26 26 26 17 16 15 17 17 23 15 25 22
20 15 22 14 17 18 26 20 24 18 23 24 16 21 21 15 21 21 25 17 26 21 24 16 26 23 36 37 29 34 34 38 37 36 32 42 40 29 26 32 28 15 14 18 20 14 22 19 19 17 17 19 18 15 18 19 25 24 18 18 26 21 20 26
18 17 20 19 20 14 17 20 26 21 20 25 20 19 26 15 22 14 19 15 16 23 16 18 15 26 29 26 34 31 31 37 35 28 33 32 34 30 30 21 22 21 16 21 14 18 23 15 25 24 20 20 20 15 15 26 14 24 21 25 15 23 17 22
18 15 17 25 21 14 22 19 25 24 17 21 22 24 24 25 23 16 22 24 14 19 15 20 23 17 24 21 18 31 30 22 31 24 23 28 17 19 18 26 19 14 25 18 17 14 24 19 17 18 19 26 24 16 14 17 18 19 25 16 24 25 19 23
24 16 25 24 14 20 23 14 23 24 18 17 15 19 25 19 15 19 25 18 19 26 26 16 25 20 18 25 22 24 18 24 16 18 26 18 16 26 19 19 18 17 14 18 23 21 21 25 23 17 14 26 19 14 22 18 15 22 17 20 16 14 21 25
23 19 26 22 15 25 19 18 15 21 26 15 22 21 17 25 25 21 15 26 14 14 24 19 25 21 14 17 24 20 24 17 26 23 21 22 23 23 25 23 26 14 21 23 26 22 21 18 23 16 23 24 21 16 23 19 16 16 24 26 19 19 20 23
24 17 15 14 16 17 16 17 18 15 16 19 14 22 14 24 25 20 22 26 18 20 26 21 25 14 14 18 24 20 21 22 14 20 21 22 18 24 23 17 20 20 22 20 24 18 23 23 19 18 15 24 23 16 18 16 18 19 19 22 22 14 21 26
24 17 19 16 14 17 19 19 20 21 22 20 24 23 17 19 14 21 22 17 14 15 24 18 18 19 22 22 26 14 22 22 19 21 14 17 24 22 24 18 21 23 25 19 14 17 24 15 20 22 20 25 17 26 25 16 21 14 14 25 23 18 26 14
19 25 25 25 23 19 16 24 24 25 23 17 24 22 17 16 18 16 22 16 16 22 23 25 24 15 19 19 24 19 14 26 16 21 20 20 26 21 14 26 23 23 21 19 20 20 25 21 16 23 19 15 20 22 17 20 23 22 25 23 23 18 21 18
25 23 18 22 23 23 25 15 15 17 16 22 16 24 25 25 17 14 19 24 26 17 15 22 20 18 26 24 17 22 26 22 15 26 23 17 22 17 15 14 16 17 21 23 21 26 22 19 22 17 21 14 23 26 26 14 22 25 21 15 26 14 20 26
22 22 26 20 18 16 21 16 20 17 22 26 22 16 24 17 26 18 21 26 20 20 26 21 21 14 17 18 21 21 17 22 16 16 19 23 21 20 20 18 18 24 14 23 15 18 23 22 24 26 23 19 16 18 20 22 14 20 25 23 23 22 25 22
15 16 18 16 16 14 18 18 26 26 20 18 21 17 18 20 16 19 22 20 22 24 25 19 22 21 19 14 14 18 17 19 14 23 18 22 17 19 22 21 19 15 14 14 24 16 22 19 15 18 25 15 16 18 25 14 21 26 19 20 22 14 18 15
18 17 22 23 24 22 16 22 14 26 21 15 25 26 15 14 19 20 19 21 24 21 15 18 15 26 15 20 26 26 23 16 22 15 24 23 15 19 19 22 19 18 23 22 21 24 15 15 14 23 21 15 15 26 15 17 17 20 26 23 20 26 23 21
25 21 19 25 14 18 22 16 23 14 25 22 16 18 23 21 18 18 26 21 18 18 25 24 25 26 24 14 21 15 17 19 14 23 18 22 20 26 26 14 15 22 14 23 18 24 18 19 14 15 21 18 20 25 16 21 14 25 15 19 18 14 16 20
18 15 15 26 18 25 22 15 17 16 25 23 18 19 19 26 22 18 23 20 23 23 16 15 16 25 26 25 21 16 20 17 17 14 14 20 22 26 21 18 16 23 21 14 24 16 25 23 23 17 17 16 16 15 24 18 17 18 18 24 25 17 26 18
17 24 14 18 16 20 20 21 20 17 18 26 23 25 17 22 26 22 14 17 22 25 22 23 17 15 20 23 23 14 24 16 14 25 25 23 18 26 14 20 26 19 15 18 18 18 17 25 25 18 24 26 26 25 24 14 15 25 20 14 26 26 18 19
16 17 21 26 20 14 22 15 25 19 16 22 16 16 22 15 23 17 20 26 25 19 16 21 19 21 20 26 25 24 18 21 16 23 23 22 25 18 24 14 17 24 21 15 21 25 21 25 26 18 18 14 20 25 26 17 18 19 21 15 19 14 14 22
