P2
64 64
255
22 14 15 17 18 25 23 26 20 16 23 17 22 24 18 17 17 26 18 25 14 24 24 17 21 22 24 21 17 24 20 23 19 18 23 26 25 15 22 20 20 19 19 24 25 25 19 23 15 15 18 18 22 16 25 23 25 18 15 23 20 21 23 18
22 14 22 21 14 26 16 25 20 24 19 21 24 21 22 26 22 17 20 21 17 18 19 24 16 24 18 16 18 18 24 24 15 18 17 23 25 26 22 26 25 18 22 22 21 22 26 23 16 21 25 23 15 19 26 23 19 24 23 19 17 26 22 16
20 22 15 25 21 16 21 25 26 15 17 20 22 25 18 25 20 17 18 26 22 14 17 18 23 24 20 21 21 15 18 21 14 21 20 20 22 20 17 17 26 26 17 23 15 23 18 16 16 25 15 18 18 23 18 15 19 26 20 16 25 19 25 26
25 19 26 25 26 14 18 21 18 23 21 24 22 20 23 21 18 26 17 22 23 26 26 24 20 20 19 18 22 21 17 24 24 15 15 17 20 23 23 21 22 22 17 15 25 22 19 22 21 26 21 22 18 16 22 24 26 16 17 15 21 25 18 19
19 21 21 24 25 26 19 20 25 21 19 22 19 22 24 23 18 22 25 24 20 25 17 24 26 20 14 23 16 17 19 16 21 19 17 23 26 15 16 20 15 19 26 24 19 24 22 14 15 20 15 16 20 26 21 25 25 19 20 21 14 14 22 26
17 14 18 22 19 25 18 15 16 23 22 26 17 23 15 26 19 22 24 22 22 21 23 14 20 14 17 22 17 24 17 24 25 24 24 17 15 18 19 15 25 19 19 18 15 23 18 25 26 22 15 17 17 19 19 23 26 17 16 20 16 26 22 15
16 26 18 23 21 23 23 19 24 15 17 20 19 25 21 26 25 20 24 17 15 24 14 26 24 25 16 18 18 19 16 16 15 25 23 15 21 19 22 16 18 20 26 20 15 24 22 21 20 23 21 16 25 24 18 21 23 14 18 19 18 17 23 18
14 16 15 19 20 20 19 18 20 23 26 18 24 16 17 14 18 26 17 20 23 20 17 14 16 25 18 26 19 21 17 26 21 14 16 20 20 24 20 19 21 23 23 26 19 20 20 24 20 16 15 24 25 21 22 20 17 21 22 24 15 17 15 23
20 20 22 21 23 23 22 26 21 17 21 17 18 22 20 15 25 20 21 25 26 24 16 16 14 25 25 18 17 15 21 18 14 23 23 16 23 23 24 15 25 17 17 22 16 20 20 25 17 25 23 14 21 24 20 26 25 25 18 14 22 20 22 14
23 22 22 17 22 26 16 22 24 15 16 17 25 21 24 26 14 17 21 16 16 20 25 20 26 26 16 25 16 20 15 26 20 16 26 17 22 16 15 18 16 21 16 23 18 23 21 22 23 26 18 16 15 16 18 14 18 15 20 18 24 18 25 20
16 23 17 26 17 23 23 14 20 18 15 17 18 26 19 15 16 17 21 16 21 26 15 15 25 15 22 25 17 18 14 18 18 14 25 20 16 21 14 18 20 17 26 26 22 24 18 15 17 26 14 26 20 24 14 24 20 16 15 25 19 16 18 16
25 22 17 14 24 21 26 20 15 20 20 17 17 26 23 18 22 17 21 16 25 14 22 26 19 16 15 14 25 18 14 25 20 26 23 18 17 14 17 26 15 25 22 21 16 26 23 26 25 25 26 16 24 19 19 16 26 14 15 20 21 23 15 18
26 20 26 26 14 26 16 19 23 20 15 18 23 18 22 22 26 14 22 24 16 22 16 15 17 25 26 26 22 20 18 25 23 20 14 25 25 23 16 23 26 17 17 19 20 14 15 24 15 19 15 17 19 26 14 26 21 24 19 25 17 25 20 23
23 17 20 16 17 16 26 25 15 24 25 19 19 18 23 20 15 16 17 25 24 20 18 21 15 24 17 18 20 17 24 17 20 15 26 18 20 20 24 17 14 16 18 23 16 16 22 21 21 17 25 25 18 21 22 25 23 19 22 19 24 25 16 24
25 18 23 25 20 19 20 23 25 14 17 17 24 20 15 18 17 18 21 26 20 26 18 16 16 24 21 24 14 16 19 14 16 19 23 20 19 15 25 17 26 20 24 14 23 26 22 20 23 20 18 25 24 16 26 26 19 18 16 17 16 16 17 17
22 14 21 24 19 25 18 23 16 16 25 20 14 19 14 19 17 22 20 20 24 15 26 19 18 14 20 18 24 24 24 15 19 25 18 22 14 24 23 19 22 25 25 16 17 26 18 19 19 19 22 25 15 25 17 25 23 17 16 21 18 25 26 21
23 21 18 16 18 26 22 21 15 21 18 15 21 23 19 23 23 20 14 26 25 23 15 20 24 18 15 18 20 17 26 26 17 21 15 22 15 14 22 16 24 24 20 17 20 15 24 18 22 20 15 24 19 20 16 22 17 25 18 21 20 20 18 14
14 22 21 18 23 25 20 22 20 16 19 26 19 25 22 26 26 19 23 23 15 20 24 25 14 18 14 23 17 17 18 26 22 26 21 21 14 19 17 14 14 14 18 19 17 20 16 21 17 15 18 19 15 25 25 25 14 15 17 26 18 17 26 15
14 15 19 22 19 23 25 22 16 24 16 26 25 15 15 22 23 19 26 25 26 21 20 18 16 18 23 19 16 26 17 17 26 15 26 23 25 24 18 19 21 19 26 18 26 15 22 26 15 25 17 24 25 14 16 16 21 17 14 20 16 26 21 24
23 17 26 19 24 26 19 26 23 20 26 25 20 15 19 23 17 27 25 23 29 27 24 23 18 21 25 18 26 21 16 15 22 14 14 17 15 25 15 23 22 19 17 22 30 24 19 17 26 17 17 26 21 25 17 23 16 20 15 20 16 15 25 17
25 19 16 15 23 20 26 25 20 24 21 17 18 20 15 29 21 22 23 21 27 24 22 32 24 30 26 21 24 14 18 17 19 15 14 21 24 19 20 29 27 30 33 26 29 33 26 21 29 25 15 22 20 20 23 26 23 21 25 18 19 25 19 19
26 20 20 25 19 20 23 18 20 26 17 15 16 27 29 24 32 28 26 35 28 34 37 26 34 30 24 27 22 25 18 17 19 19 18 24 17 31 21 33 32 29 34 30 31 37 35 31 32 30 30 25 25 16 19 26 24 15 16 17 17 22 16 14
26 16 22 17 17 20 20 19 15 20 18 23 23 23 28 31 30 33 33 41 31 35 39 40 29 34 25 27 22 17 22 14 21 14 15 26 28 28 29 30 35 39 39 33 38 38 30 34 26 31 24 28 25 18 22 20 21 23 24 15 16 16 14 14
22 23 23 14 18 24 21 15 25 20 21 24 21 23 25 28 30 33 37 45 42 34 43 35 41 31 36 34 32 30 28 20 16 19 21 24 25 30 35 33 40 40 38 36 45 43 44 36 40 37 33 27 20 26 21 14 15 23 21 18 18 17 24 21
14 15 14 14 18 14 14 15 15 19 26 32 30 34 40 40 41 41 47 39 39 42 46 43 35 36 36 32 37 35 24 20 26 17 26 24 32 28 41 35 37 41 47 42 40 43 45 45 44 41 31 37 35 26 20 23 22 16 23 15 24 18 24 21
19 18 26 19 23 18 26 23 22 23 29 22 30 30 38 36 39 50 42 42 48 52 51 41 42 46 41 40 36 28 31 25 30 24 33 30 32 31 38 37 49 49 44 50 45 52 48 43 48 43 35 37 29 22 20 24 15 16 14 22 25 23 16 25
17 24 14 15 17 25 19 22 15 22 24 32 33 35 37 43 44 44 50 49 56 55 55 44 45 49 41 46 39 30 27 33 27 24 30 32 41 34 43 44 48 50 51 49 56 49 49 44 47 41 42 34 38 33 21 29 16 23 25 22 21 25 26 26
22 23 25 14 22 17 17 19 21 22 23 28 32 42 39 49 46 56 56 50 55 53 53 57 51 54 44 48 37 35 35 33 35 27 35 33 40 48 46 48 57 54 60 56 52 48 55 57 48 49 39 38 35 39 31 23 20 19 18 18 15 23 26 21
20 20 23 18 15 14 24 20 20 32 34 32 35 44 44 48 56 55 54 55 64 58 63 56 50 56 54 45 45 32 36 31 32 31 35 39 41 45 51 50 59 54 61 55 58 61 53 52 51 46 50 37 41 40 26 28 18 17 23 25 17 26 18 24
15 16 18 23 17 23 20 16 20 28 32 33 43 42 45 45 48 60 55 60 63 66 63 61 53 58 54 47 49 39 40 31 42 30 35 45 45 40 45 50 55 59 62 67 69 63 62 61 51 55 45 48 36 38 30 29 19 27 16 24 23 21 19 16
23 20 17 26 20 16 21 22 27 31 36 33 42 49 54 58 55 65 60 71 68 69 59 66 54 51 51 48 40 36 36 40 36 38 43 35 40 46 50 59 64 56 62 63 62 71 56 55 60 56 51 45 45 35 38 26 22 23 26 19 15 20 16 22
26 18 21 20 23 15 23 24 24 34 38 36 41 45 48 51 56 56 70 63 67 71 66 69 59 58 52 48 43 37 38 44 38 40 45 45 43 48 58 58 59 69 61 64 68 70 61 65 62 51 43 46 43 38 36 27 26 24 20 20 16 26 25 14
17 24 22 14 18 22 22 16 21 27 36 36 35 46 47 52 55 67 65 67 67 69 68 60 59 59 47 43 42 35 42 36 34 40 40 40 43 45 49 56 65 70 68 73 72 66 67 58 58 56 48 44 45 41 33 34 22 28 19 18 25 22 26 14
20 21 14 24 14 24 15 19 32 34 34 41 45 40 53 53 56 62 59 73 69 69 63 67 55 60 53 53 42 35 36 33 36 42 40 40 48 43 53 52 61 68 70 76 67 64 58 55 55 58 53 43 43 39 37 33 31 28 22 17 14 25 23 21
25 17 16 14 16 22 14 17 31 26 30 35 44 50 53 56 54 54 57 65 60 62 59 68 63 61 56 47 47 38 40 43 35 39 38 44 44 49 58 58 58 59 61 66 62 70 62 55 52 52 42 38 39 34 32 34 21 22 22 24 19 25 25 19
22 19 20 15 15 25 24 21 26 32 36 34 39 39 45 51 53 61 61 67 65 60 67 58 59 54 50 50 41 38 40 30 39 40 40 41 43 51 45 48 61 63 57 67 57 56 58 63 58 53 47 37 37 40 35 32 24 16 25 14 22 19 17 22
26 24 16 15 23 21 18 24 18 21 30 38 41 36 46 53 53 60 50 62 65 60 61 52 60 46 48 50 38 35 35 32 28 33 28 36 44 48 47 56 50 55 59 62 56 62 53 50 53 54 47 45 32 28 26 27 20 15 14 18 17 19 21 16
19 20 15 14 20 21 22 23 25 28 30 33 32 39 45 47 50 54 58 57 54 50 56 56 45 51 41 46 36 37 27 27 33 31 28 36 39 45 40 48 51 57 50 54 49 51 53 50 48 40 46 38 34 30 33 27 26 19 19 16 16 20 21 22
17 26 22 26 16 21 25 14 24 25 23 33 28 38 39 40 43 52 43 51 50 50 45 45 53 46 45 42 37 36 34 23 27 31 32 39 36 44 40 42 42 55 54 50 57 46 45 41 45 37 39 43 38 31 28 18 22 23 15 26 18 19 26 15
22 26 27 22 29 28 23 22 28 27 32 26 39 42 42 48 51 43 49 52 49 55 47 53 50 47 41 38 42 41 32 35 24 25 28 39 44 39 41 46 52 45 48 50 56 56 47 53 54 49 48 34 35 29 27 32 32 24 24 22 27 21 30 22
23 31 23 22 31 24 21 25 33 33 35 38 40 38 39 39 48 49 50 57 46 56 58 51 43 48 48 43 40 37 38 39 24 36 33 37 39 46 43 47 57 48 57 56 49 55 56 45 51 55 47 44 40 42 38 28 34 26 38 39 30 39 27 37
29 30 26 32 33 33 35 25 36 34 26 38 31 44 39 47 43 45 50 51 53 55 49 54 49 51 42 43 41 44 37 37 36 32 37 43 41 44 52 55 49 58 58 53 51 61 57 58 49 54 43 51 45 41 44 38 38 37 40 34 44 33 37 35
25 20 27 29 27 29 32 23 23 29 26 28 35 34 29 39 41 39 37 44 37 38 42 37 46 40 34 41 30 34 29 24 23 31 29 38 40 38 46 48 45 50 51 49 42 46 46 49 46 42 38 36 38 34 34 36 38 26 30 32 38 28 32 29
29 18 26 21 27 22 23 25 19 21 28 27 21 24 29 23 31 35 31 31 41 30 38 28 38 31 26 30 28 26 25 21 18 24 18 27 26 30 28 27 29 40 32 30 33 34 40 35 34 37 25 24 28 24 28 31 25 22 26 30 28 25 22 24
18 26 26 26 18 18 15 15 16 24 15 23 24 21 27 25 27 28 29 29 26 25 33 31 29 21 22 27 17 21 21 20 16 25 25 19 16 22 24 25 20 24 23 22 30 29 27 25 22 17 16 16 21 15 15 23 14 22 22 18 16 20 18 21
18 21 15 22 19 14 25 19 26 16 26 26 20 20 20 14 19 24 18 27 30 20 27 29 17 23 14 18 15 22 20 21 25 17 23 23 25 26 20 27 20 25 18 21 19 19 29 20 17 24 22 19 18 15 23 22 26 14 24 20 15 20 24 23
19 14 19 14 21 25 16 23 25 19 16 24 14 16 17 18 23 21 24 26 18 19 21 25 16 18 14 26 23 25 20 24 16 25 23 25 22 14 18 20 16 16 19 17 17 15 16 26 25 21 18 18 22 16 26 16 23 25 16 20 16 21 18 21
16 26 18 18 14 19 17 22 18 26 20 22 14 22 23 16 16 20 21 17 18 20 25 15 17 14 20 24 19 26 26 20 20 20 20 15 26 20 22 19 17 26 20 20 21 23 19 22 16 15 21 24 21 17 19 19 25 14 23 20 14 26 25 16
21 26 19 25 24 22 21 15 19 15 20 14 16 17 18 22 17 26 15 19 17 14 17 22 26 26 25 15 15 14 16 16 17 16 26 16 17 14 19 23 24 25 17 20 20 19 18 20 24 24 14 20 14 17 21 18 18 24 18 15 24 26 26 25
15 17 19 19 15 20 23 20 22 24 15 22 20 15 24 24 16 23 23 18 25 20 16 19 21 16 24 24 17 24 15 20 16 18 20 24 18 15 19 18 24 26 25 20 18 24 25 22 14 16 16 16 24 21 23 20 18 18 15 14 22 25 18 25
14 21 14 15 20 18 15 26 14 16 23 21 22 17 23 18 18 20 24 16 26 23 20 20 14 19 24 23 14 26 16 20 21 16 24 23 18 14 16 15 26 20 22 24 16 20 15 25 25 22 14 21 22 19 20 20 22 19 20 25 22 15 17 24
20 21 18 14 16 18 25 24 20 17 20 19 20 16 20 25 25 16 24 26 18 26 18 23 17 21 16 22 25 26 14 24 21 23 21 17 15 25 22 19 25 21 18 18 21 16 19 14 16 23 16 19 19 22 15 14 26 22 17 15 16 16 25 17
24 22 25 25 19 20 26 19 18 18 17 18 24 23 14 25 24 18 17 24 26 16 17 24 21 19 14 25 18 21 23 26 14 14 15 20 16 23 18 15 24 25 25 18 19 18 16 18 16 15 14 17 21 22 17 21 21 25 26 14 22 18 14 14
22 15 15 16 18 24 24 22 21 21 16 26 21 25 22 22 24 14 14 23 14 19 14 21 23 26 14 17 25 23 17 18 17 26 24 15 17 21 14 17 22 22 23 22 17 15 14 17 16 18 15 14 20 18 18 18 18 14 25 23 19 23 19 14
17 16 16 17 20 23 26 18 19 26 22 21 20 24 18 18 24 25 24 25 15 24 26 23 23 24 21 15 14 17 17 26 18 24 26 19 18 21 21 19 19 14 23 14 20 23 16 26 26 19 22 26 22 19 21 19 18 26 26 21 18 14 19 15
25 25 25 24 19 23 24 15 18 26 19 20 26 21 24 17 16 22 16 20 23 24 23 22 24 21 26 17 21 19 14 23 19 26 16 19 19 20 19 24 15 23 23 14 24 16 25 14 26 18 26 15 23 23 16 22 22 16 20 21 21 21 14 16
16 17 23 24 22 23 17 22 21 24 23 26 19 25 14 19 26 17 24 14 16 22 23 19 25 24 16 19 20 15 22 16 18 15 17 24 21 23 15 22 24 21 17 15 26 22 14 20 24 15 21 24 14 14 26 23 19 18 19 20 21 26 20 26
22 25 19 25 22 25 19 19 23 23 23 16 23 19 22 23 14 14 18 25 25 16 16 14 26 25 16 26 26 23 14 18 23 17 18 18 17 25 26 21 14 20 23 24 15 16 25 21 14 22 21 20 18 17 16 25 20 16 19 25 16 19 23 18
16 25 22 26 19 21 17 16 17 21 18 23 20 16 18 18 17 16 24 22 21 17 23 24 26 26 26 26 19 23 18 21 26 19 20 14 23 21 19 22 20 26 21 25 23 19 15 15 25 25 24 23 26 14 18 15 26 25 19 20 26 16 20 19
23 23 23 26 22 16 15 16 21 21 22 15 26 23 25 14 20 26 16 16 17 15 15 22 18 21 23 22 16 24 18 17 20 14 17 19 22 24 20 25 17 15 18 20 21 14 24 16 22 16 20 17 23 25 23 14 14 20 24 19 19 25 17 26
20 26 19 25 22 17 14 17 17 18 18 26 17 21 17 21 16 18 24 14 21 17 16 26 19 21 21 19 16 26 22 17 15 21 15 19 26 19 23 16 17 22 24 17 14 16 14 22 22 23 21 21 18 23 15 24 20 16 14 24 14 23 26 18
24 17 14 18 17 15 21 17 14 15 18 25 26 24 16 25 15 25 21 26 24 19 22 24 14 21 19 18 18 19 21 20 18 16 14 17 21 16 23 23 22 26 24 16 22 15 19 20 18 17 23 23 21 15 18 20 15 14 20 15 14 23 24 23
24 16 22 16 22 21 23 25 20 20 16 23 22 18 21 20 25 15 21 24 15 20 26 21 20 21 16 18 17 16 14 15 23 25 15 20 18 17 22 17 17 14 22 20 25 24 25 14 20 26 21 14 26 19 25 21 18 14 15 15 15 21 15 17
23 21 14 16 19 24 15 19 18 23 23 17 15 14 15 26 15 18 24 22 18 23 19 23 15 22 22 14 24 21 24 23 20 22 14 25 20 21 16 26 20 20 23 24 16 18 16 14 24 23 19 23 25 17 23 17 15 18 25 14 17 15 15 24
