P2
64 64
255
14 22 25 19 20 20 26 24 16 16 22 20 20 25 25 17 14 23 23 20 14 26 16 17 14 23 23 14 26 21 14 23 24 22 24 18 19 17 25 20 23 24 18 22 26 25 16 24 14 18 19 14 26 16 26 22 18 14 23 26 19 15 24 15
15 15 15 19 19 18 22 25 14 21 21 23 25 16 25 23 17 26 23 14 23 21 21 14 24 14 22 15 24 16 16 20 15 18 23 22 22 23 23 19 16 25 21 21 21 23 19 14 18 20 18 18 25 21 21 24 22 15 21 14 21 21 14 19
17 18 24 18 18 26 19 20 15 20 26 22 15 23 15 22 22 22 15 22 22 15 18 20 20 23 21 14 25 21 24 22 16 24 21 14 19 15 25 25 23 15 25 20 22 14 22 21 16 19 17 16 20 24 22 22 14 19 23 16 16 21 22 20
14 16 26 21 18 19 23 25 20 16 15 17 19 14 15 24 15 26 25 22 24 25 18 23 22 17 20 14 21 15 26 24 26 23 19 23 20 22 20 17 17 17 26 21 23 18 19 17 19 18 18 17 24 14 26 19 19 17 19 21 25 15 22 14
15 24 15 20 17 23 14 20 24 25 23 15 22 21 18 22 23 20 22 16 25 15 25 18 24 15 15 17 23 26 20 22 21 18 15 20 24 18 21 26 14 14 20 23 22 26 23 23 24 16 17 23 21 17 21 21 15 23 26 23 14 18 15 23
23 19 20 21 18 23 20 25 22 14 17 19 24 24 20 16 26 26 21 21 24 15 22 16 18 20 20 16 15 25 16 20 16 23 21 19 16 16 18 18 20 21 24 23 16 20 15 15 23 15 23 18 16 25 23 14 21 15 21 26 20 24 14 23
26 24 20 24 18 14 24 23 15 15 20 16 23 20 15 17 25 14 22 22 19 17 24 19 23 16 23 19 21 23 19 19 21 14 17 15 21 17 25 17 15 22 14 18 18 21 22 15 22 20 20 23 16 25 26 15 23 24 25 22 17 16 23 17
16 15 15 22 18 15 24 15 14 19 21 23 25 16 26 22 16 26 25 16 26 20 25 21 14 22 15 25 24 14 16 14 17 24 23 20 17 25 19 16 25 22 20 16 14 19 21 24 14 18 17 22 15 14 21 19 14 22 21 15 25 20 14 15
25 21 19 24 26 15 20 21 25 25 18 14 23 18 18 21 23 17 23 24 20 18 14 21 15 18 14 18 20 17 19 22 25 24 23 23 24 17 16 23 26 21 16 14 19 21 21 22 22 21 15 23 25 14 18 17 14 26 26 19 16 20 21 15
19 24 18 23 23 20 22 26 14 23 26 15 19 24 18 23 21 25 23 14 22 14 26 19 14 15 20 22 18 14 25 14 23 26 15 20 14 17 25 19 24 26 20 25 16 26 20 24 20 18 20 17 26 14 15 26 19 26 17 15 18 19 18 22
17 16 26 19 25 14 26 22 24 21 23 15 14 25 26 26 21 25 14 15 15 17 26 22 15 15 26 14 22 24 16 20 26 19 24 21 26 17 20 17 15 18 17 19 23 21 22 14 22 22 25 19 14 15 25 23 21 20 25 16 18 17 18 16
25 19 21 14 26 26 18 15 26 14 23 18 21 18 24 19 18 22 20 23 19 15 14 26 26 21 22 23 22 18 19 26 14 21 24 26 16 15 21 19 23 17 18 22 18 16 26 21 17 26 18 18 20 20 25 17 21 18 22 26 26 17 16 21
20 16 24 17 19 17 23 21 23 14 18 16 25 24 25 17 25 24 24 22 14 14 26 16 25 26 19 24 17 21 25 14 18 24 17 15 22 16 15 17 18 26 23 19 14 22 15 21 19 24 16 16 25 18 16 19 15 17 26 18 21 25 26 18
15 16 23 24 17 15 25 16 22 18 18 14 25 17 22 14 18 19 15 21 18 14 22 15 19 14 22 21 15 24 25 20 15 19 14 21 15 25 24 19 15 24 21 22 17 14 26 17 26 15 26 23 21 18 14 23 15 17 18 14 15 25 19 22
22 16 26 21 26 15 15 21 18 16 19 22 25 23 21 15 21 21 19 18 23 19 25 20 22 14 15 21 25 18 16 21 17 16 19 22 21 16 16 15 18 17 16 25 21 19 14 23 17 22 22 16 17 21 23 18 20 16 15 17 22 18 17 19
26 26 19 15 20 22 25 18 20 24 20 16 22 16 14 21 26 15 18 18 15 21 17 23 25 18 14 17 20 19 21 15 22 15 26 25 25 24 23 19 14 16 16 25 26 16 21 19 14 22 24 26 15 23 14 21 16 22 21 25 17 17 25 17
17 21 14 21 16 17 26 19 14 16 20 21 24 17 20 26 20 26 15 26 23 21 24 15 22 25 16 23 15 17 23 24 14 16 24 18 20 21 20 19 21 19 22 14 21 20 21 15 17 20 15 26 14 22 20 26 17 19 23 26 20 20 17 23
18 18 14 25 22 25 26 15 15 18 18 21 15 15 16 21 16 25 23 15 20 20 20 23 25 21 24 22 17 14 14 15 19 23 19 16 25 25 17 20 18 23 15 21 21 17 22 17 18 16 16 16 26 22 18 24 17 23 22 19 19 18 19 26
18 21 23 15 20 21 23 15 17 17 18 26 21 21 21 25 21 15 19 23 20 17 16 20 24 15 21 26 16 18 20 17 17 26 16 14 15 18 23 25 24 26 20 22 14 26 26 25 26 19 17 23 19 15 17 18 22 25 17 23 21 18 14 22
18 22 18 20 14 16 19 18 24 16 15 21 15 14 16 24 24 25 25 21 19 19 29 27 17 18 15 14 26 17 16 22 18 26 17 19 17 25 24 21 25 28 22 22 27 24 21 28 15 21 25 16 20 21 19 25 20 14 22 25 15 24 21 21
23 22 22 18 15 24 26 25 15 23 15 16 19 26 22 27 23 21 32 25 23 23 32 30 28 25 22 27 24 19 14 20 21 21 20 23 20 18 27 25 25 30 29 30 26 30 27 21 21 25 17 24 25 18 16 20 25 17 16 23 16 24 21 16
18 24 24 26 26 17 17 18 24 23 21 14 25 19 28 22 27 28 25 32 30 31 37 30 35 32 22 31 27 19 27 27 23 22 26 23 18 22 30 33 33 35 35 26 29 28 30 34 28 29 22 21 20 14 23 26 14 26 21 26 24 22 15 20
23 20 16 24 17 19 16 19 19 19 14 24 27 32 26 33 29 39 39 38 37 38 34 35 39 29 34 27 33 26 24 26 31 32 28 28 36 35 33 32 37 35 39 40 35 33 32 33 31 32 27 23 19 27 16 22 14 15 23 14 23 23 23 17
16 23 15 14 25 15 18 15 17 26 22 27 30 28 34 38 31 39 42 41 38 44 45 32 33 39 38 35 34 36 33 29 40 29 43 45 36 45 37 34 33 39 39 43 34 43 35 40 36 31 31 35 23 24 19 17 25 20 19 19 20 22 26 15
20 14 17 19 22 18 22 15 19 25 20 22 24 38 37 43 33 41 40 48 38 45 44 51 46 42 54 53 49 42 44 44 40 46 48 45 45 48 51 48 43 49 37 48 46 49 39 35 38 39 29 37 29 29 29 15 18 19 23 21 24 20 23 14
14 23 22 16 24 21 24 20 26 26 31 29 27 33 37 39 48 44 49 45 52 47 52 55 49 63 60 52 62 62 53 50 57 46 51 51 59 62 56 63 50 46 46 48 53 48 47 50 36 44 41 32 28 27 25 21 14 16 18 21 22 21 17 25
26 22 23 23 22 15 15 16 21 24 31 29 37 36 40 47 43 49 45 53 52 48 56 61 66 59 64 62 68 64 61 60 63 54 63 71 69 63 60 64 69 65 60 58 49 54 46 47 43 48 35 41 40 27 26 24 25 22 23 23 15 15 19 20
25 17 17 16 19 17 22 20 18 31 30 35 42 33 49 52 44 47 51 50 61 58 72 74 69 77 71 71 70 72 66 75 76 65 66 79 70 69 68 73 70 73 67 67 56 49 51 55 53 50 45 38 36 32 33 20 21 23 24 17 26 16 25 19
18 18 21 20 25 14 19 17 20 27 28 36 39 40 45 46 50 54 52 54 59 76 68 76 83 83 80 87 82 78 80 78 86 82 79 77 83 86 79 82 75 81 75 73 59 59 50 52 52 49 45 36 32 29 35 33 28 25 14 20 21 16 17 19
21 22 16 22 19 20 14 23 23 24 27 42 41 37 43 45 57 56 55 64 74 72 79 86 81 90 90 86 93 85 89 93 93 86 85 87 87 89 83 84 79 88 80 78 72 71 57 54 54 47 52 41 43 33 26 22 20 16 20 16 15 15 15 17
25 24 16 21 14 22 26 16 27 27 33 32 40 43 48 52 58 54 60 70 73 77 91 90 86 88 98 97 94 90 96 102 92 99 98 97 91 96 97 91 93 94 87 84 79 74 65 61 60 55 42 40 44 32 31 32 26 18 23 16 18 21 24 20
21 23 18 15 19 26 24 16 31 31 30 35 42 45 50 51 56 63 70 83 82 94 97 89 97 95 97 104 107 97 96 108 97 97 100 97 99 97 95 101 91 97 95 92 90 75 65 63 60 56 54 40 41 36 39 34 25 28 25 20 21 17 14 25
20 23 15 19 14 24 25 25 22 34 33 34 35 48 52 50 62 60 70 74 89 89 95 95 95 97 104 102 107 104 107 106 115 105 111 104 110 101 104 98 101 105 91 96 87 85 76 67 58 55 52 41 44 42 40 32 23 17 18 15 23 26 15 24
24 19 21 18 19 23 21 27 29 30 34 36 42 40 54 53 59 57 64 85 82 96 99 101 105 102 102 109 104 108 107 115 118 114 110 114 112 102 100 99 108 94 97 90 88 75 65 61 60 53 53 48 41 39 27 27 24 27 15 26 14 23 26 22
16 15 26 14 22 15 19 23 29 35 32 33 36 43 44 51 53 57 71 79 87 91 96 104 98 103 110 108 110 117 114 125 126 115 117 117 107 110 110 99 108 103 92 89 85 73 66 58 52 46 53 43 46 42 39 28 25 18 18 22 16 16 22 23
21 16 25 25 18 14 23 19 28 26 30 37 45 48 41 53 50 63 69 72 81 91 88 97 104 110 111 107 111 112 118 128 124 122 117 114 108 106 109 108 98 92 96 93 85 75 62 60 51 55 41 47 45 40 34 33 18 21 26 15 19 14 17 16
17 18 14 16 18 26 18 14 28 31 32 34 33 47 49 43 50 59 64 78 76 84 89 97 97 98 106 109 107 117 121 128 131 118 117 117 106 110 103 99 100 90 96 89 74 75 63 54 53 50 47 38 40 38 26 27 24 16 19 16 15 26 17 22
20 24 25 14 20 25 17 19 28 30 31 30 42 39 43 47 50 54 58 71 70 77 89 97 98 100 106 108 102 109 117 119 120 115 114 106 114 106 104 97 96 92 92 79 80 72 67 46 44 47 46 36 32 39 25 28 22 20 16 18 19 17 25 18
18 16 20 15 16 20 15 26 18 30 33 28 37 43 38 46 39 50 58 64 64 80 81 80 86 94 98 105 100 108 112 106 109 104 113 110 108 103 95 100 87 86 75 76 64 68 58 43 44 37 40 35 35 31 30 25 25 23 22 20 20 23 19 23
19 17 22 26 25 15 18 24 22 22 29 30 26 36 35 35 37 40 54 61 61 72 73 85 91 83 93 99 99 102 105 97 104 93 96 96 96 101 99 88 87 82 83 68 65 58 54 46 44 46 35 36 35 32 20 26 26 24 24 23 23 21 14 24
25 23 17 20 19 22 17 21 24 20 28 31 32 28 30 43 41 44 40 57 57 64 65 81 76 88 84 87 86 94 98 91 92 88 86 93 89 84 85 78 83 70 71 61 53 56 46 35 34 41 38 36 25 22 21 22 16 15 17 23 16 25 21 16
22 19 22 24 15 19 19 18 17 23 26 20 24 30 27 36 31 31 41 50 55 55 59 65 67 71 80 78 77 86 81 88 88 76 80 86 85 81 79 78 68 65 69 56 50 46 45 36 38 39 27 32 27 19 27 22 19 19 14 20 25 20 22 16
24 18 15 17 24 17 15 24 15 25 25 26 29 25 30 30 34 35 35 35 47 48 57 64 61 67 68 68 74 69 81 74 72 81 73 70 70 79 72 64 67 58 54 57 48 43 30 33 30 34 24 29 21 21 21 22 23 15 19 19 24 18 24 14
19 18 25 17 23 24 14 26 18 26 23 16 14 29 22 26 26 29 35 39 33 43 52 57 56 57 69 64 64 67 75 65 64 64 72 65 69 64 68 65 57 58 55 42 39 30 24 33 33 21 26 19 17 18 20 21 14 16 19 25 23 22 17 22
21 21 23 16 25 25 18 16 25 25 22 26 18 14 23 27 29 32 21 33 31 33 46 49 55 58 53 50 62 58 57 61 67 61 61 63 54 50 59 55 52 43 41 40 37 30 25 24 25 19 24 14 25 26 24 24 14 15 26 22 14 15 22 26
26 15 14 15 18 20 14 25 16 22 24 21 26 25 14 15 15 19 22 24 19 35 29 38 38 47 51 53 56 52 62 52 61 52 56 57 57 51 53 43 36 35 34 36 28 25 18 26 26 21 26 22 18 26 22 18 21 24 17 17 26 14 22 19
25 17 17 17 26 16 16 22 20 14 18 19 14 16 24 24 26 15 17 17 25 23 26 36 36 42 40 38 41 50 52 52 55 56 56 50 45 46 45 35 33 36 29 22 19 19 23 17 23 14 15 18 26 14 18 21 15 14 26 24 22 18 23 25
26 16 15 24 20 15 15 23 22 14 24 22 23 24 14 19 22 16 18 18 22 25 19 24 29 31 30 45 46 38 39 41 41 51 43 41 47 33 31 30 25 22 27 15 25 25 26 15 19 23 22 19 19 14 25 25 17 16 25 20 19 24 22 26
23 20 23 21 16 15 23 21 21 25 23 19 16 22 20 22 24 22 17 17 20 25 16 26 25 30 26 31 38 40 40 41 42 44 35 38 35 29 26 34 18 23 21 14 18 21 18 24 19 20 17 25 18 17 20 23 26 16 26 26 25 25 15 14
16 14 18 25 18 25 17 23 20 22 19 19 26 25 19 21 24 19 19 21 17 17 19 14 15 24 29 33 35 33 27 27 29 28 30 37 35 23 22 28 26 14 24 17 16 23 22 20 16 23 22 24 24 19 25 23 23 15 18 19 24 17 20 25
25 15 21 22 15 23 19 14 21 24 18 25 25 25 14 20 14 25 21 23 16 22 15 15 17 18 26 21 18 19 25 31 32 26 30 20 25 23 19 22 26 18 17 18 23 23 24 20 26 25 19 26 15 18 24 21 15 14 25 17 14 14 21 21
20 19 23 20 19 25 17 25 22 18 23 26 14 23 19 23 26 19 14 14 19 22 23 26 26 19 18 18 18 15 18 24 16 27 21 18 24 22 26 25 17 20 18 18 23 20 23 14 21 16 23 18 26 21 24 17 19 26 17 25 16 18 24 21
25 16 25 15 23 24 22 15 22 23 19 19 18 25 24 24 25 25 22 18 22 22 22 25 22 25 26 17 17 18 25 25 26 26 14 21 17 17 25 15 25 14 17 24 16 22 22 20 26 14 18 20 23 18 17 19 14 25 23 24 20 17 18 25
23 26 24 17 22 25 21 17 26 26 15 15 19 18 18 17 23 22 22 22 20 16 23 17 22 17 21 18 14 18 15 21 20 20 18 25 22 25 21 15 25 20 21 22 24 23 15 15 26 16 26 23 19 20 23 16 25 23 25 24 26 26 26 23
24 21 18 23 24 17 23 18 25 16 25 22 21 15 23 17 15 22 15 16 24 25 22 17 19 21 15 18 14 25 22 26 16 24 17 22 18 15 25 16 14 25 18 17 23 15 14 23 18 15 21 22 16 14 24 20 14 16 16 16 18 23 24 22
19 23 24 24 22 26 26 24 17 26 21 24 24 26 20 17 22 17 18 18 15 23 18 22 26 23 17 22 19 24 19 25 14 17 17 14 14 21 22 15 14 15 19 24 18 25 21 21 26 16 25 19 25 15 25 26 16 26 15 14 23 20 14 24
20 25 22 15 20 15 24 17 24 14 16 26 26 16 26 19 24 22 21 22 20 22 23 15 25 18 18 20 25 17 15 26 19 19 15 25 20 17 16 20 20 25 15 18 17 26 26 25 24 17 24 17 26 24 21 21 14 25 20 26 21 20 19 18
24 19 26 16 14 17 23 22 25 24 15 25 16 24 17 24 26 17 14 17 24 22 20 22 14 15 18 15 17 21 15 23 19 26 19 16 26 22 16 14 20 17 22 24 14 14 25 19 21 21 26 17 26 19 24 16 23 19 15 14 26 17 24 22
25 25 21 19 23 24 16 21 23 19 16 14 24 22 23 23 17 19 19 23 24 19 20 17 26 19 20 20 14 26 16 25 14 20 26 16 19 22 17 26 26 15 21 20 23 20 24 20 20 15 22 15 14 26 21 21 16 15 21 22 15 22 26 24
19 20 23 26 18 22 14 25 24 19 16 15 17 14 16 15 21 24 14 18 17 19 15 19 22 15 21 22 14 26 14 26 19 17 25 26 14 26 17 17 17 19 18 19 17 24 23 21 20 21 23 16 16 15 20 23 26 15 16 25 17 14 16 23
24 23 25 26 18 16 21 24 24 21 25 14 17 25 19 24 15 21 22 22 18 14 25 21 14 15 16 14 17 18 23 25 14 14 26 20 17 20 24 20 18 24 14 22 16 15 22 23 17 23 26 18 23 17 19 25 21 14 20 16 14 21 26 26
15 24 22 19 21 18 24 24 21 19 23 19 17 15 18 24 18 17 24 17 19 22 23 24 18 25 14 14 24 19 19 25 19 20 16 14 24 18 24 14 21 24 21 14 20 18 15 24 20 20 18 20 25 24 21 20 20 20 22 23 14 15 19 17
23 21 23 25 16 20 14 18 19 14 21 19 20 22 20 25 25 24 26 22 22 15 22 26 14 15 18 18 20 22 20 22 18 17 16 21 19 19 18 22 25 18 17 22 22 26 20 17 21 16 19 20 21 16 25 21 23 15 14 15 24 26 17 21
19 25 19 24 15 23 26 22 25 14 18 25 25 14 25 24 21 14 19 23 14 18 19 18 23 22 18 14 14 15 18 15 16 22 24 18 22 24 16 22 17 26 19 25 25 22 14 18 25 14 25 25 18 24 17 19 22 20 24 15 16 14 14 22
