P2
64 64
255
25 18 20 23 25 25 17 21 26 15 14 18 17 23 24 17 25 26 16 15 25 23 24 21 23 17 20 26 14 23 24 15 20 20 22 18 24 19 23 14 19 25 16 21 20 17 23 20 18 15 14 14 17 15 16 25 21 26 25 17 17 25 18 18
19 23 23 18 26 14 22 16 14 17 24 18 26 21 22 22 25 23 18 14 19 16 22 21 16 26 24 16 19 19 16 25 18 21 16 22 19 26 23 20 24 23 23 26 19 18 22 15 18 22 21 24 26 15 24 15 21 25 22 21 16 14 22 14
20 17 14 15 14 15 14 20 22 17 22 17 14 23 17 19 18 24 16 14 20 21 21 25 14 25 14 26 23 26 24 20 16 18 24 18 18 16 22 26 18 18 16 25 26 19 17 21 25 15 22 23 16 18 21 24 20 25 18 18 26 17 21 22
17 26 21 26 14 26 23 17 25 22 19 25 21 23 26 24 15 15 19 19 14 21 25 18 22 16 22 15 14 24 22 22 18 19 19 18 17 23 14 24 23 22 24 21 14 20 20 26 19 18 14 16 16 20 18 19 20 25 15 26 14 21 17 24
24 18 21 15 19 24 17 20 19 20 20 14 19 17 20 19 25 19 17 16 22 15 20 19 23 19 25 21 20 16 20 26 25 14 24 14 14 18 17 24 20 14 18 17 19 23 19 15 18 18 25 25 24 16 20 14 16 22 26 23 19 15 22 24
25 22 17 18 18 26 23 17 25 26 14 16 23 17 19 24 26 26 25 23 21 19 17 21 20 14 15 24 17 25 23 17 25 19 19 26 26 20 19 14 25 14 17 26 19 21 23 26 26 23 15 14 22 18 15 14 23 22 26 15 26 15 16 14
14 16 22 18 17 23 14 16 14 23 21 21 15 21 18 25 15 17 18 18 22 14 15 20 24 16 15 21 19 21 17 14 24 17 18 22 15 20 23 22 14 14 19 19 20 24 20 14 14 16 16 17 17 16 25 17 23 14 20 16 23 26 15 26
20 17 14 17 17 26 15 25 16 14 20 14 26 17 16 16 18 25 18 16 19 15 16 15 22 20 21 22 18 22 24 24 20 14 24 15 17 24 17 26 20 24 15 20 23 26 20 20 17 20 15 20 14 20 22 18 23 15 20 23 25 24 18 16
15 17 15 14 15 22 20 16 23 22 15 22 21 20 24 15 23 22 14 18 20 21 24 24 20 21 18 14 25 18 19 18 26 23 23 17 20 23 21 14 17 14 23 20 18 25 22 18 19 17 15 15 24 19 24 23 26 17 24 22 14 16 17 14
21 22 22 15 20 17 18 23 23 20 19 18 23 18 23 18 24 20 15 16 16 25 21 25 14 17 14 18 16 15 24 19 17 20 17 23 21 16 19 26 14 17 16 26 16 24 25 18 21 19 26 25 15 24 22 23 16 22 23 26 20 19 22 20
24 21 26 20 22 15 21 15 26 23 25 15 21 20 20 17 23 16 21 14 14 24 16 23 17 21 22 22 16 25 25 17 15 24 23 14 25 26 16 16 24 18 20 18 26 14 17 18 17 20 16 18 17 16 15 24 21 25 19 26 21 15 21 20
20 22 15 17 14 25 26 14 21 17 18 17 15 20 25 23 16 20 22 23 20 24 18 20 16 22 25 15 16 25 20 14 21 15 25 20 20 16 24 15 21 23 15 20 17 19 22 17 17 15 22 15 26 16 24 16 16 17 21 18 16 26 24 18
20 19 26 23 19 15 17 23 25 18 19 26 26 22 24 20 14 18 23 18 23 26 15 22 20 16 20 23 20 22 26 21 17 15 24 22 22 15 14 26 26 25 23 22 16 22 21 18 21 16 15 17 17 15 17 15 17 20 22 14 14 16 23 23
16 23 20 15 14 20 17 21 20 18 15 24 23 17 20 15 26 17 16 21 22 22 19 26 15 18 17 17 16 21 21 18 20 25 14 18 17 21 23 24 15 21 16 15 19 17 25 19 23 22 22 26 26 15 14 17 24 26 14 25 25 23 22 18
26 15 22 21 14 26 25 24 21 26 22 23 20 20 26 21 25 15 18 18 21 20 24 18 23 20 25 18 14 16 24 17 24 25 14 21 25 18 15 15 25 19 23 26 24 21 16 17 24 26 16 17 26 16 18 15 16 21 26 19 14 21 16 22
26 24 24 21 14 17 21 22 16 23 23 14 19 18 22 14 26 22 26 14 18 17 24 19 20 16 16 23 26 24 22 26 23 21 24 24 15 15 21 14 21 17 24 15 22 19 19 26 15 14 23 16 26 17 14 19 19 15 21 21 25 22 18 21
23 19 25 15 22 25 15 16 22 21 21 24 15 18 14 26 18 21 25 20 18 22 19 17 18 19 21 16 17 20 19 16 21 26 14 24 24 15 19 25 25 17 17 22 14 19 21 18 17 22 19 26 18 22 20 20 20 25 19 23 25 18 20 16
16 22 19 20 19 19 21 20 17 19 22 21 17 22 20 21 20 17 17 16 20 26 23 26 14 26 25 23 24 23 23 21 24 17 21 17 17 16 17 20 20 26 21 20 17 16 23 20 17 26 24 14 25 15 17 23 18 22 23 14 17 17 18 19
14 18 24 23 24 19 24 25 19 15 24 17 18 15 20 17 18 19 21 18 25 21 14 21 17 14 21 19 16 26 21 18 21 24 17 17 20 19 17 19 22 20 21 14 20 16 14 24 25 19 14 26 20 24 14 22 26 14 16 15 17 23 14 24
23 18 26 19 18 26 26 23 19 16 18 19 19 21 14 26 27 19 27 29 26 26 29 27 20 19 19 17 18 14 23 24 26 21 16 14 17 23 22 24 23 29 28 25 22 25 22 18 15 14 22 22 21 17 18 14 26 24 23 15 23 14 24 26
23 18 25 19 21 21 14 23 25 20 24 18 14 19 23 17 20 22 32 31 23 32 32 24 27 28 23 23 15 21 22 19 19 20 26 16 23 15 29 26 26 30 22 31 26 32 23 28 27 18 20 22 26 19 16 16 19 23 22 26 21 20 23 14
22 25 19 14 19 18 25 19 26 19 25 24 22 17 29 21 23 25 36 26 28 28 36 26 26 27 29 20 16 24 21 15 17 23 22 24 25 30 27 32 23 25 25 30 28 37 32 33 26 23 24 25 16 25 26 20 17 21 26 23 15 22 26 24
15 17 26 21 15 15 20 25 21 17 25 25 29 32 28 28 28 37 34 37 36 30 36 29 39 28 27 27 27 20 25 22 18 26 20 29 24 31 29 37 33 30 33 35 31 31 28 37 33 29 29 29 23 26 17 16 21 17 14 21 25 22 16 15
26 23 20 15 17 19 23 14 25 14 24 17 21 31 35 29 35 38 35 34 36 38 40 36 42 36 34 34 25 29 22 23 19 18 21 29 29 26 39 30 39 32 38 35 34 34 33 37 34 38 36 33 28 28 27 16 16 22 17 26 19 25 26 24
17 19 17 21 16 19 17 23 14 15 22 24 25 31 31 41 36 43 47 41 41 46 48 45 36 33 43 28 27 31 25 22 15 26 32 35 34 30 42 37 40 39 44 37 37 40 44 35 36 37 30 38 33 25 19 22 18 18 20 14 22 24 26 21
25 22 23 20 18 21 22 16 23 25 24 24 32 32 36 45 36 47 46 46 46 43 48 46 49 39 37 43 38 33 32 30 28 27 25 27 35 34 42 45 49 42 44 53 50 46 49 49 38 43 37 32 27 31 21 21 23 22 24 23 21 24 21 24
19 17 24 15 25 16 22 26 15 18 29 37 31 34 42 48 44 50 44 51 52 47 48 48 46 40 39 45 35 28 31 32 27 30 35 38 34 45 49 45 48 48 54 49 57 54 51 42 44 44 43 39 35 34 28 18 24 25 18 24 16 15 19 17
15 23 18 15 23 26 19 14 17 21 25 31 34 40 44 47 49 45 52 50 61 49 58 55 48 49 42 39 40 36 30 27 30 28 27 33 36 39 50 49 54 59 56 53 56 49 54 54 52 43 48 42 41 34 26 23 27 17 21 16 20 15 19 19
18 25 24 22 14 21 24 19 21 25 25 28 44 36 45 50 49 56 50 56 57 60 63 55 48 54 54 50 38 33 39 38 29 32 33 42 46 41 47 45 59 54 55 61 58 55 52 58 50 47 40 44 42 36 28 32 17 17 16 25 14 17 19 24
19 15 20 26 20 25 23 18 19 33 26 38 38 37 46 49 52 63 58 65 57 66 62 59 57 51 47 49 45 43 30 37 30 30 38 34 38 46 45 47 55 58 60 68 60 60 64 52 48 56 49 46 36 37 33 31 24 25 14 19 14 18 18 23
15 23 14 14 25 21 24 18 25 33 34 43 34 48 50 55 58 56 63 65 72 64 70 66 54 59 49 46 39 45 38 36 38 36 33 40 49 48 55 58 65 63 65 67 72 71 58 53 61 56 54 41 42 36 30 24 26 26 15 18 26 22 22 20
18 21 17 19 25 23 20 23 23 29 39 36 47 45 44 59 54 66 62 64 69 73 64 59 66 51 56 55 43 35 39 39 41 42 37 40 39 52 50 50 61 65 63 70 69 63 67 55 51 49 48 48 35 32 32 26 22 18 24 24 17 25 24 24
15 22 17 15 26 15 26 26 31 32 39 37 35 39 50 58 63 61 61 73 76 76 66 60 58 59 54 47 43 40 41 45 41 33 44 40 43 55 56 58 56 71 69 75 74 70 68 65 53 48 54 47 38 36 36 24 20 26 18 18 23 22 24 25
14 19 26 20 25 17 16 27 32 26 36 41 41 50 54 58 61 66 63 62 75 72 61 59 58 53 52 44 41 37 40 35 35 41 42 36 49 50 50 58 63 65 66 66 76 64 66 57 55 58 49 39 36 37 37 32 21 26 26 25 23 18 22 26
15 24 14 25 16 22 17 20 29 29 39 38 36 47 43 57 55 61 66 68 69 66 65 67 62 58 56 49 40 46 40 44 40 34 41 38 48 51 46 55 53 56 63 67 64 64 68 61 53 52 44 39 36 36 39 25 26 17 16 24 19 26 26 20
19 25 18 14 23 17 19 16 19 29 35 35 37 43 45 44 53 61 60 67 64 64 59 55 51 59 50 48 45 34 33 35 40 37 32 37 48 48 45 54 57 64 67 59 59 57 59 63 50 50 45 49 44 38 27 33 19 20 22 19 22 16 16 25
14 19 25 14 25 24 19 24 23 30 33 33 33 44 42 53 47 51 62 62 64 64 52 55 57 56 46 49 47 43 30 35 36 37 36 39 45 40 46 56 49 54 55 61 56 62 51 54 56 51 43 46 37 30 25 30 24 19 23 22 17 24 16 19
25 21 20 23 15 19 19 26 27 23 32 34 32 42 38 40 54 57 53 58 57 57 53 55 51 44 42 44 37 32 32 28 33 27 30 35 39 46 40 45 47 52 58 50 57 48 50 47 44 42 37 44 37 36 31 24 18 23 20 14 26 20 17 25
22 16 22 25 21 15 17 21 19 28 29 26 34 35 36 44 51 46 48 52 56 50 55 49 44 49 47 36 42 39 32 24 26 30 34 34 41 34 43 43 44 47 52 45 50 49 46 42 44 46 45 41 38 35 23 28 15 16 20 15 25 18 23 14
20 29 21 27 24 20 29 18 21 22 28 29 32 44 46 45 42 54 52 56 47 47 55 47 47 41 49 35 34 36 27 31 32 33 33 42 36 48 40 53 50 44 50 56 58 58 55 49 53 41 45 39 36 34 33 31 21 23 32 26 29 31 25 29
27 29 31 28 27 22 24 28 26 32 27 28 41 39 47 49 43 47 51 46 48 57 48 47 50 42 44 37 41 44 35 33 29 35 37 43 37 40 53 49 47 50 49 58 52 54 59 49 53 55 40 47 43 44 37 30 34 37 37 37 39 31 28 32
28 28 34 30 28 30 33 30 35 27 31 33 35 44 39 47 45 50 46 52 53 56 47 51 50 47 41 41 44 45 32 36 28 38 36 46 41 49 52 53 59 55 54 57 52 50 59 59 51 56 52 47 43 47 33 35 39 38 37 41 37 44 43 34
25 26 30 28 20 23 24 24 27 23 28 27 32 37 29 39 34 44 41 38 45 39 45 42 43 36 42 31 34 26 32 23 27 35 33 30 42 44 46 38 45 38 50 45 48 42 40 45 47 36 40 38 30 33 31 30 27 38 26 35 27 30 34 38
17 21 22 20 24 24 17 24 26 19 25 27 29 29 24 28 35 31 29 32 40 41 38 34 36 32 33 31 30 22 23 29 29 27 29 23 23 32 29 29 38 33 39 36 39 41 31 38 39 27 32 29 26 24 27 30 30 27 25 23 23 32 20 32
22 15 22 18 14 15 18 16 16 18 26 16 24 24 16 19 22 24 23 21 24 33 23 24 26 28 20 20 24 26 24 26 20 15 19 18 16 19 29 23 25 25 27 24 24 28 23 29 20 23 15 17 24 24 25 17 20 23 22 18 18 24 14 16
26 17 18 19 18 25 26 17 21 25 14 24 24 26 24 16 20 22 25 17 26 27 21 23 20 25 15 24 26 21 14 22 24 26 25 24 16 26 21 26 25 17 24 19 28 24 23 19 27 20 19 18 22 17 14 22 21 14 17 24 16 24 15 24
15 20 24 18 26 25 14 25 19 14 23 21 17 16 14 18 15 17 18 23 23 17 18 25 24 21 15 26 23 17 16 23 16 17 16 14 26 19 18 23 18 14 25 17 20 21 20 22 21 22 25 25 26 14 26 24 20 26 20 24 23 19 16 21
19 14 20 14 15 18 25 16 19 19 23 22 14 22 20 24 14 17 24 15 25 24 26 19 14 20 17 15 26 18 14 19 15 19 16 22 14 24 26 17 22 22 15 16 14 14 19 23 24 21 17 18 25 20 20 21 24 15 21 23 18 17 15 22
24 15 18 22 22 23 20 14 24 14 19 26 16 25 23 18 18 17 22 16 17 15 24 24 26 16 16 23 25 15 18 22 19 18 21 17 20 25 21 22 23 22 17 15 22 24 23 15 15 25 25 16 15 24 24 24 17 17 17 25 26 20 23 19
24 22 18 25 18 23 21 19 22 17 20 17 18 22 24 24 15 19 24 15 14 19 25 21 15 16 24 24 23 24 18 17 15 18 24 14 16 21 19 20 24 24 24 25 24 19 21 22 23 17 19 15 20 18 25 23 21 18 24 26 17 25 26 22
24 14 16 17 20 23 26 15 17 14 18 25 15 16 14 23 21 20 18 24 26 25 26 26 25 15 17 26 19 22 26 23 26 14 24 20 16 21 25 14 25 23 17 25 15 22 26 26 26 20 14 16 22 21 21 14 22 22 21 24 22 14 19 24
23 20 22 20 26 22 21 18 16 16 15 24 15 22 22 19 23 17 22 17 20 23 20 21 20 17 19 24 25 17 15 15 15 21 23 16 15 16 25 14 24 15 19 21 17 25 19 14 26 16 24 26 26 20 14 16 17 20 20 20 14 21 17 24
15 24 20 17 19 19 16 19 26 25 19 20 16 26 17 15 14 21 22 23 17 25 19 14 24 19 15 22 14 24 23 18 26 22 25 24 20 14 20 23 17 14 24 24 21 22 19 14 24 24 20 21 24 16 17 18 26 15 26 21 22 21 25 15
17 20 23 17 21 25 26 16 23 19 20 25 26 26 15 24 20 16 15 21 21 20 22 22 14 18 18 18 24 24 18 14 24 14 19 26 18 25 21 24 20 18 17 24 24 16 22 22 21 22 15 19 17 19 16 24 23 24 26 24 19 15 20 25
25 24 24 16 20 14 15 16 16 18 15 25 19 20 23 14 14 23 14 18 19 24 20 20 26 16 26 23 18 16 21 19 16 26 16 21 23 18 20 22 22 26 20 19 14 26 24 16 19 20 14 25 17 19 15 16 19 16 25 22 14 21 21 22
21 17 26 22 20 21 15 14 23 25 19 26 23 18 19 26 14 20 16 22 15 23 15 16 15 14 20 16 15 18 15 15 21 26 22 15 19 25 17 21 23 23 22 21 17 20 22 21 26 21 23 19 15 24 14 18 15 23 16 21 21 26 26 22
23 21 19 25 21 23 23 24 19 21 25 20 16 25 22 21 21 20 23 25 26 23 23 24 20 18 25 22 18 23 14 21 17 17 18 14 21 14 18 15 21 17 26 24 14 16 24 26 22 21 25 14 15 14 16 19 17 25 14 16 20 19 19 23
23 19 14 24 24 26 17 16 20 20 18 20 19 18 25 15 23 23 17 26 15 23 22 22 25 19 25 22 20 21 21 14 15 14 24 24 22 26 20 26 21 21 18 21 15 22 20 16 20 26 24 14 22 25 19 26 16 18 18 14 26 26 20 26
25 20 17 26 14 17 15 25 14 18 17 19 24 19 16 18 18 16 25 17 17 14 19 16 19 18 24 23 25 16 22 25 21 23 24 22 17 19 24 17 23 24 15 22 21 25 23 21 21 20 14 25 14 14 25 22 16 18 22 21 20 24 16 26
23 18 22 20 23 14 20 22 25 26 15 19 24 26 24 25 24 24 15 20 14 17 20 17 20 15 18 15 25 14 22 20 26 24 17 25 21 20 15 19 21 21 18 14 22 25 25 18 19 22 21 20 26 18 21 15 14 15 23 18 18 19 17 22
20 20 15 15 16 22 16 26 16 25 19 20 24 15 16 16 16 19 17 15 25 14 25 20 14 18 23 24 24 14 17 21 19 21 17 16 26 19 26 24 18 17 17 16 21 25 14 14 20 24 21 24 20 26 17 17 17 14 16 19 15 20 20 22
26 23 24 22 19 15 23 21 18 21 22 23 22 15 18 17 25 17 25 20 22 24 17 19 26 25 24 26 22 19 14 14 16 23 22 24 15 18 18 19 20 17 23 21 22 19 25 19 26 18 15 22 14 22 14 18 25 18 15 24 14 18 15 18
25 15 21 26 26 19 16 26 14 22 15 23 25 24 15 16 14 16 24 26 16 20 18 19 21 18 14 21 17 19 14 22 15 24 21 23 15 16 16 20 15 25 21 15 14 17 14 23 26 25 19 19 16 22 24 18 23 25 21 14 19 18 17 24
24 15 19 21 24 24 22 23 16 26 15 26 14 20 26 16 18 17 21 20 24 23 14 20 22 20 21 21 16 21 23 23 22 24 22 17 23 15 23 16 22 14 22 25 14 25 24 22 14 15 24 19 16 14 24 24 16 20 18 24 14 24 25 15
