P2
64 64
255
31 20 31 23 37 20 18 22 19 18 28 18 35 32 20 37 26 21 22 20 21 38 22 19 22 26 22 24 35 38 35 22 18 24 37 31 20 37 34 23 32 38 30 28 34 25 28 21 33 29 20 19 38 21 34 23 19 25 33 30 29 36 28 20
33 34 29 27 20 31 35 35 18 26 32 29 20 36 35 22 30 30 28 19 20 26 34 31 27 33 35 18 31 26 21 23 36 36 31 36 20 30 28 30 29 35 33 28 36 38 22 35 29 20 36 26 20 34 18 26 18 19 31 18 29 20 27 28
31 34 31 24 28 25 34 32 21 18 21 26 22 35 28 27 22 32 29 27 33 25 28 31 36 34 18 19 19 24 21 24 32 34 28 25 20 21 22 33 34 32 29 30 25 30 37 24 21 35 34 25 27 20 24 26 35 19 21 23 29 19 35 29
25 37 38 24 22 27 21 20 21 29 33 30 21 32 35 37 23 37 25 24 18 27 18 19 27 22 33 21 26 34 25 24 35 25 21 24 26 30 21 31 37 26 21 23 38 34 24 37 21 22 21 38 19 32 28 37 35 37 33 34 34 24 38 33
18 36 25 36 33 24 21 23 19 22 31 34 30 23 34 29 23 23 19 32 26 36 27 38 31 22 35 31 30 36 37 21 19 23 26 26 28 28 33 30 35 27 23 19 35 26 36 28 27 20 37 18 33 22 31 28 29 22 31 26 23 21 23 34
21 28 20 38 32 22 18 33 20 19 22 29 36 20 23 26 18 18 30 33 32 30 26 29 24 20 26 26 29 20 20 22 20 35 25 35 20 33 28 31 33 29 26 20 24 24 29 22 35 24 21 18 20 25 19 22 31 22 34 19 21 28 21 26
29 38 29 30 24 24 20 30 22 31 19 37 18 26 37 21 27 29 24 19 30 21 28 34 38 19 37 24 19 32 35 24 23 30 31 35 36 24 30 27 26 34 33 18 37 18 31 27 35 36 36 28 26 23 18 20 28 30 23 29 32 34 30 35
34 36 37 20 20 19 37 31 32 25 37 27 29 23 33 29 30 31 18 37 34 25 27 26 20 37 35 33 35 37 35 37 21 33 34 28 35 36 27 25 32 31 27 32 31 26 35 38 31 37 27 25 24 26 38 23 34 29 30 18 37 19 22 22
28 18 29 27 22 37 23 25 27 18 27 26 27 30 26 36 24 35 28 33 24 36 36 21 25 37 37 20 23 36 27 38 22 21 38 38 31 24 36 25 30 25 34 36 29 26 33 23 18 29 21 32 35 23 37 22 38 28 24 23 26 37 29 38
35 34 30 38 25 20 32 33 29 34 29 20 18 36 25 33 22 34 28 31 26 35 35 24 33 27 30 23 27 29 37 18 30 24 18 23 26 22 34 38 22 34 26 26 35 33 20 38 24 29 26 24 21 24 33 21 37 31 22 36 28 22 30 18
22 18 37 20 37 38 24 36 18 36 37 21 32 23 27 26 18 23 28 37 33 22 35 21 33 24 22 32 27 37 37 21 38 28 21 29 27 28 31 21 23 18 32 37 31 25 33 24 27 23 36 34 19 26 31 20 21 26 21 38 20 20 27 32
28 23 28 25 29 20 35 24 20 31 29 34 28 32 22 29 23 20 27 36 19 21 32 34 25 35 18 20 18 31 29 25 34 32 28 36 34 25 32 37 36 19 29 22 33 29 22 20 32 31 21 27 26 36 36 19 24 29 38 20 23 26 18 22
24 23 18 24 31 27 36 21 27 29 22 37 25 27 18 33 22 32 36 22 32 18 34 32 24 38 34 23 18 28 30 22 25 29 30 25 38 28 23 37 26 20 22 34 27 38 25 20 24 35 19 34 18 19 27 20 37 31 25 21 19 31 31 22
25 25 20 31 33 33 33 32 32 27 21 34 35 30 31 33 27 18 34 34 33 22 27 33 31 30 29 27 35 29 31 36 25 35 29 33 34 29 31 38 33 32 25 30 24 28 26 33 33 26 37 31 26 35 31 20 36 23 19 19 27 35 22 20
23 26 30 32 20 36 37 21 34 36 28 37 21 24 37 28 20 36 18 32 27 27 20 20 25 19 32 29 34 18 32 34 20 26 20 25 18 36 29 31 20 29 20 25 19 25 24 26 30 36 34 30 38 21 30 28 18 37 33 30 23 28 24 35
18 19 27 30 19 21 35 18 29 32 37 19 22 30 25 38 35 33 32 19 30 29 27 31 30 31 28 34 34 18 25 35 31 28 32 25 20 28 27 35 19 30 36 37 22 26 29 20 37 31 28 30 24 21 29 19 29 32 36 26 35 19 36 31
38 25 33 20 31 25 31 19 35 19 36 37 22 25 30 37 26 21 38 35 34 20 25 24 38 37 28 30 18 37 36 19 28 30 21 23 31 25 30 28 23 27 19 38 35 34 28 33 20 28 28 32 38 28 34 26 27 38 31 22 26 33 29 37
26 27 37 34 18 37 26 23 19 33 21 22 34 38 18 26 21 25 28 22 21 33 23 29 32 25 34 22 37 24 27 24 19 20 27 32 23 27 34 34 35 31 22 28 34 33 29 35 25 28 29 32 25 27 35 26 29 27 31 21 32 27 31 24
26 18 34 35 20 30 28 33 27 24 30 32 19 28 22 25 26 22 26 30 37 33 21 30 28 36 18 22 23 20 18 21 28 36 38 32 23 21 31 26 21 38 21 23 37 34 25 19 19 27 29 26 29 26 29 38 21 30 22 19 38 32 27 21
36 33 25 35 25 26 25 33 34 29 18 22 29 26 26 32 19 29 26 29 37 35 41 28 32 38 35 22 27 34 23 36 32 29 24 31 28 29 21 29 37 40 36 24 40 29 28 23 32 27 26 24 19 31 22 24 25 21 20 32 36 26 37 33
27 18 32 30 34 28 29 38 30 29 29 33 38 28 20 30 24 42 42 39 44 42 39 33 32 41 38 37 38 31 25 18 33 18 34 21 30 30 27 42 27 30 25 26 30 29 42 44 34 30 34 22 33 19 34 28 29 24 18 23 19 29 38 22
25 29 23 30 31 21 30 28 37 24 22 38 32 32 31 27 45 37 44 49 47 43 44 34 34 36 37 31 20 38 25 31 27 24 18 24 32 28 38 26 35 37 38 35 36 36 29 28 44 33 34 38 36 19 26 35 36 22 30 34 19 38 21 28
35 21 28 28 37 27 27 26 18 21 30 19 34 43 32 42 49 33 35 42 51 41 47 52 32 44 30 41 41 36 38 22 26 24 19 23 41 34 40 33 45 37 34 49 48 50 37 42 34 39 35 27 26 24 34 19 36 21 18 25 24 18 27 36
27 32 19 29 24 26 35 34 36 21 22 34 34 28 44 31 43 36 48 55 43 47 57 54 52 51 39 30 47 27 35 19 33 24 41 30 47 33 46 47 40 50 47 43 40 56 47 41 45 48 32 34 26 33 27 38 29 24 30 28 36 32 30 36
23 29 28 37 20 31 32 35 19 23 29 34 37 36 36 55 38 54 54 53 50 61 55 57 54 50 51 52 42 33 28 28 28 41 29 46 37 38 43 52 51 43 54 53 48 49 59 43 49 35 43 34 32 35 28 36 35 25 21 38 18 21 32 23
28 27 21 25 22 36 37 29 18 22 27 39 34 52 35 54 57 49 47 50 52 60 57 52 52 42 50 40 41 40 32 40 30 28 42 43 38 41 58 55 58 55 45 51 60 47 62 60 48 51 46 45 42 44 26 32 34 20 29 31 28 19 36 27
23 37 32 28 29 21 35 38 30 31 29 40 39 47 48 42 43 62 54 56 61 54 54 62 55 62 42 55 35 46 38 37 39 34 34 40 48 42 42 51 60 59 59 50 69 51 48 62 58 59 42 35 43 41 45 33 38 26 38 22 23 37 35 18
31 37 24 18 31 19 25 23 39 31 40 44 50 50 42 51 47 64 59 59 61 68 53 58 68 50 57 57 47 49 30 34 32 47 33 36 49 50 46 46 60 58 63 70 59 63 61 53 46 54 53 56 35 33 34 32 24 33 34 36 30 22 38 27
33 22 32 19 23 37 35 25 40 29 38 32 38 54 56 52 65 70 71 58 59 64 70 58 71 55 63 50 56 44 42 50 44 33 45 46 45 50 61 52 64 58 70 61 70 64 66 71 58 47 51 55 50 48 35 42 34 34 21 31 18 28 18 22
24 30 32 24 20 38 21 39 41 26 40 38 54 43 46 52 57 59 76 73 63 73 65 59 57 66 48 61 44 39 49 51 35 42 54 51 58 64 63 68 70 68 69 80 61 62 58 61 59 60 49 48 57 36 42 35 42 37 21 35 33 24 38 30
33 35 28 35 37 35 32 28 36 37 49 49 41 47 50 62 58 75 70 79 77 69 80 63 68 56 63 56 54 53 56 54 42 43 53 54 55 66 55 56 61 61 72 84 71 71 76 60 70 70 57 42 44 37 40 29 27 20 22 34 34 28 29 22
38 37 22 34 27 33 18 36 36 31 45 48 45 45 67 70 58 67 69 76 83 68 84 68 58 55 68 51 44 53 55 40 44 41 40 40 45 56 53 59 69 62 78 82 81 77 82 62 69 62 57 59 53 53 34 36 34 33 31 18 18 28 35 23
24 32 25 37 29 25 35 38 25 36 34 46 58 53 61 69 71 74 82 78 82 87 67 67 67 65 59 51 48 43 42 47 45 43 48 53 63 66 68 67 66 66 76 78 79 83 65 71 67 56 55 46 40 39 52 40 43 27 34 33 23 36 30 30
26 34 32 34 24 27 30 27 25 43 36 36 40 52 57 61 75 75 65 67 68 81 67 68 63 59 71 47 44 47 41 44 40 56 51 39 44 54 62 67 77 67 81 80 76 76 77 73 56 59 52 58 57 48 43 31 39 39 23 26 19 34 36 32
22 23 19 26 22 36 32 35 42 39 45 45 52 42 63 52 71 76 62 69 81 74 68 64 76 71 65 53 60 42 46 45 46 52 50 38 61 50 56 62 67 73 83 82 65 72 63 68 59 59 50 51 51 39 35 28 40 25 24 28 25 33 26 30
21 23 35 19 36 23 25 31 37 37 47 53 52 47 57 64 55 72 72 65 79 65 65 60 54 56 61 52 56 45 51 40 37 42 45 55 55 54 51 63 60 61 73 78 77 78 62 61 52 68 46 50 54 52 50 42 25 26 25 30 21 21 27 23
30 32 35 18 35 31 37 19 33 41 32 39 47 48 48 46 60 69 70 74 69 66 64 68 71 51 59 51 47 43 43 49 49 46 36 42 57 57 65 61 64 55 61 57 74 62 58 71 69 49 62 47 42 47 44 29 33 32 29 18 36 23 27 31
25 23 35 29 36 23 37 33 40 37 27 49 53 40 48 44 58 56 51 63 63 66 58 51 54 48 49 46 55 34 42 46 41 36 40 40 38 43 63 47 56 70 63 62 57 55 52 66 64 61 46 43 40 37 46 43 26 30 37 18 35 18 36 31
22 18 24 30 34 26 31 31 31 40 37 38 40 53 48 60 49 54 63 55 64 51 57 50 65 46 58 48 39 51 48 25 31 38 38 42 55 50 55 45 54 67 67 51 60 50 50 59 47 42 44 35 47 41 33 29 22 22 20 22 38 33 22 23
41 29 26 23 36 24 30 41 38 33 39 34 37 45 46 52 54 53 53 66 60 65 53 49 63 53 52 58 49 51 50 29 42 43 47 36 51 55 62 63 63 68 64 50 55 64 53 64 51 61 42 48 43 47 34 46 33 43 29 36 28 33 30 43
30 24 42 25 25 40 33 44 29 32 28 42 49 48 41 60 61 62 53 56 57 63 55 52 56 47 49 58 53 56 34 50 29 45 37 56 59 45 50 55 65 69 68 59 60 68 70 57 55 64 64 60 56 36 48 30 30 46 44 40 39 47 50 31
46 48 42 31 28 29 43 43 31 35 36 45 36 40 55 45 61 58 54 51 63 66 52 64 63 58 59 54 54 53 53 33 42 47 51 40 58 57 56 63 60 65 73 56 71 73 56 62 50 55 63 60 49 39 43 56 53 40 46 41 37 39 44 47
29 38 30 25 29 29 36 42 39 30 30 27 45 32 38 40 50 42 52 47 55 46 59 56 48 42 44 37 49 45 31 47 32 46 33 40 49 44 58 56 42 61 53 54 50 62 45 54 41 42 47 38 42 47 34 32 40 35 31 48 39 43 38 47
34 27 22 33 28 37 22 30 41 32 32 32 23 24 30 38 37 40 38 42 41 34 46 43 37 33 31 41 38 31 38 33 35 27 35 30 45 42 30 43 50 37 51 35 39 48 37 45 39 49 38 31 24 34 38 30 40 27 30 28 38 37 42 42
34 31 36 37 30 21 26 22 30 18 30 33 36 19 33 31 37 33 29 43 46 34 25 32 35 36 26 20 20 37 31 31 28 31 27 18 28 23 33 38 40 31 36 26 38 41 26 26 24 24 27 25 24 33 23 38 37 34 36 29 23 38 19 19
38 30 20 34 35 35 32 23 33 30 20 30 21 37 32 18 21 24 23 24 38 33 35 37 35 29 30 30 38 29 34 28 29 38 31 37 20 31 28 21 28 30 34 26 23 35 31 38 20 29 26 18 31 38 21 27 34 34 22 23 24 36 27 38
31 32 25 21 32 24 21 35 30 35 35 31 21 36 24 24 34 18 37 20 22 35 18 20 36 21 38 20 21 33 35 25 30 21 22 26 33 20 20 33 27 28 27 25 38 23 38 28 32 25 31 31 18 34 37 27 35 31 24 23 22 18 35 33
20 22 22 19 29 28 38 34 21 38 24 29 19 23 18 35 28 29 28 33 32 27 22 35 24 24 26 34 25 20 35 22 31 28 25 37 37 20 36 28 35 32 37 25 26 21 19 18 37 27 29 27 28 23 36 35 26 34 32 37 27 28 36 32
26 22 30 20 20 18 26 25 24 31 18 29 24 34 22 22 35 37 25 31 32 23 36 34 19 28 25 22 38 38 29 19 33 26 37 19 20 34 29 18 18 20 35 25 35 25 28 32 35 22 26 22 21 22 19 24 36 21 25 24 38 21 36 25
33 33 19 22 28 21 23 34 19 31 27 31 24 25 19 20 24 34 25 35 33 24 33 34 35 35 36 27 22 37 34 25 34 31 31 22 23 22 24 34 19 33 23 24 33 38 30 22 38 27 27 21 38 34 32 24 19 37 35 36 21 29 29 23
33 22 30 24 38 23 25 30 24 35 24 37 23 36 29 22 28 28 28 34 20 28 26 22 24 21 22 35 32 30 24 31 35 37 22 23 32 21 33 35 30 34 19 36 36 37 20 23 22 37 31 18 37 26 37 21 26 24 27 38 35 18 25 33
22 28 26 29 29 37 18 26 36 21 29 38 35 21 31 36 26 23 31 20 19 19 37 38 23 19 18 36 21 25 34 26 19 36 31 21 24 33 21 34 18 22 19 31 36 23 36 22 28 33 26 29 23 38 21 19 33 32 35 23 23 32 33 19
29 33 27 25 29 26 18 21 38 19 23 34 34 27 34 22 25 33 22 28 29 21 27 32 18 23 18 31 24 24 23 37 27 21 32 30 25 34 33 19 22 31 24 22 32 35 21 18 31 23 29 33 32 23 23 37 35 35 24 37 18 18 29 20
23 27 38 32 38 29 25 29 25 25 33 32 36 24 37 20 19 27 37 37 18 31 32 19 31 24 23 18 27 22 37 18 27 30 32 20 36 34 24 27 32 31 23 26 33 29 34 23 28 37 35 26 27 25 36 28 20 27 22 38 20 32 38 34
32 20 33 34 32 22 36 27 21 27 24 37 18 31 28 34 25 20 37 31 29 32 21 21 26 24 20 27 32 25 34 34 34 23 31 23 24 34 25 28 30 23 31 23 28 27 28 18 34 30 21 21 36 19 30 18 35 23 34 29 18 33 32 33
35 31 28 34 32 28 23 18 32 23 27 28 37 34 24 22 37 27 32 18 33 32 21 22 35 28 22 27 38 35 19 36 20 26 30 29 36 37 30 32 18 37 25 33 29 18 20 32 36 31 38 35 27 33 19 32 26 19 19 21 32 32 36 18
35 21 22 29 31 28 26 18 19 32 31 29 19 19 34 28 23 24 20 18 20 25 37 18 21 24 30 30 28 31 35 30 23 31 36 28 38 31 18 33 28 18 38 35 24 27 30 25 19 31 18 35 29 23 24 38 33 18 33 36 31 38 19 33
25 33 18 18 18 19 37 21 21 19 31 25 33 29 26 30 35 36 35 27 29 36 31 22 18 38 27 29 37 30 21 24 29 27 38 29 24 28 34 22 27 28 29 33 32 28 26 21 24 32 18 25 25 31 19 34 21 35 31 25 29 27 33 26
35 30 31 26 18 38 38 32 31 22 18 33 18 22 28 30 21 20 37 21 23 21 24 24 25 28 25 25 27 33 19 31 31 19 24 29 35 28 21 37 25 21 33 18 37 26 30 29 32 37 25 35 28 24 26 19 30 24 37 20 29 18 34 24
30 31 18 38 28 27 32 24 21 35 25 28 31 35 24 34 30 37 20 33 37 25 38 27 38 31 30 35 19 30 20 31 28 24 31 30 20 24 21 29 36 26 18 36 19 37 18 32 34 18 21 19 28 26 31 29 31 38 19 27 34 32 27 20
37 30 35 28 35 25 26 22 34 18 23 34 26 33 28 35 18 36 37 22 35 26 26 27 21 23 25 23 34 20 23 31 33 18 18 18 23 21 34 37 25 26 35 28 22 27 36 34 36 31 23 36 29 23 19 36 22 32 35 36 19 36 38 20
31 26 28 28 30 38 33 29 33 19 37 26 31 22 18 29 32 22 35 32 33 28 25 29 32 24 34 29 38 35 20 23 23 18 26 21 35 27 35 20 21 36 32 32 31 34 22 37 38 30 33 18 27 26 31 28 21 31 31 33 21 27 18 36
28 27 31 23 32 22 36 23 22 32 34 20 35 23 37 22 31 38 37 34 30 25 36 31 34 32 24 27 19 24 26 35 23 38 18 24 25 29 26 18 37 18 24 18 24 33 37 27 37 35 21 34 31 29 31 38 25 21 23 33 37 28 33 36
34 22 24 34 36 19 31 22 22 18 38 31 23 37 20 26 18 29 35 20 35 32 35 21 36 24 29 20 23 18 32 20 31 38 19 20 25 25 18 30 31 19 33 32 28 20 18 19 28 22 18 22 28 23 37 33 26 35 19 19 37 21 34 37
