P2
64 64
255
25 25 24 18 24 15 16 17 21 22 15 22 18 17 19 14 24 16 14 19 25 20 15 20 22 18 14 18 18 26 15 22 22 19 16 21 26 18 26 18 17 24 15 23 15 15 26 18 16 15 18 18 17 14 22 23 24 20 19 16 17 15 16 26
15 18 21 25 14 26 22 20 17 20 18 22 21 21 22 26 14 14 20 16 20 20 17 16 15 16 22 15 22 18 17 19 15 23 18 18 21 21 17 18 15 21 14 17 15 24 15 26 25 19 26 19 20 15 25 18 18 14 17 21 19 26 14 21
14 18 20 24 20 15 22 26 19 26 22 23 14 25 16 24 21 21 16 15 21 22 15 17 26 25 19 25 25 20 21 15 25 16 23 17 23 21 26 25 25 18 14 18 23 18 18 15 19 23 18 14 20 25 25 26 16 23 14 18 23 22 25 16
20 17 22 25 23 15 23 16 18 19 19 26 18 16 19 18 22 15 16 22 24 18 20 14 17 22 23 16 22 21 20 18 24 18 15 18 14 23 14 22 24 26 16 19 17 21 24 25 21 18 23 22 20 19 25 18 20 17 26 19 21 20 19 14
14 22 15 18 22 22 14 26 26 26 18 23 25 23 17 16 19 26 22 21 23 21 20 23 19 24 22 20 19 24 16 14 16 26 23 16 18 25 23 21 22 17 26 17 23 15 25 17 24 19 23 25 19 23 24 15 16 17 23 23 16 24 14 21
14 14 21 16 16 20 16 25 22 24 15 18 19 24 20 22 20 26 15 15 16 17 20 24 24 18 14 24 17 14 18 24 15 14 24 23 15 17 14 25 26 20 23 25 26 17 25 16 16 25 21 19 14 20 23 17 20 23 15 14 15 14 21 18
26 25 15 16 21 20 18 24 19 16 18 15 24 26 14 22 18 25 15 18 24 17 21 24 15 17 22 26 23 15 18 19 15 15 15 23 19 24 26 17 24 20 19 24 21 16 16 24 26 23 18 26 22 15 17 22 21 15 18 25 14 18 24 16
20 16 22 23 14 22 18 24 17 19 18 17 24 25 21 25 21 24 20 19 24 15 19 24 17 25 14 25 25 19 22 17 24 17 23 18 15 20 19 14 16 18 16 18 19 24 18 21 25 24 25 15 16 16 20 21 21 20 16 26 26 19 24 23
20 19 22 23 18 24 22 26 16 16 20 17 19 15 25 26 16 22 23 23 25 19 14 18 15 20 23 23 21 21 22 24 26 26 26 16 21 15 22 25 19 20 21 16 17 24 20 15 19 21 19 15 23 24 18 22 22 14 20 21 16 22 15 15
19 26 21 14 16 22 24 17 26 25 21 22 21 26 20 15 19 21 16 22 25 19 22 21 14 17 18 14 14 16 26 17 15 19 18 19 23 18 19 16 14 21 26 21 17 23 15 24 16 14 16 26 14 19 15 22 22 21 20 22 15 19 18 17
20 25 22 16 26 18 25 19 16 14 22 18 24 15 14 14 25 18 18 26 23 24 16 17 18 20 17 24 16 26 16 16 24 14 15 26 20 25 20 14 21 19 20 23 16 23 19 14 21 14 24 22 26 23 21 16 17 20 15 15 22 20 15 24
15 19 21 26 23 21 21 20 18 20 22 16 22 15 25 16 21 21 14 26 18 16 16 22 20 24 22 26 23 23 25 19 21 24 23 19 17 23 16 25 16 20 14 16 16 24 15 21 20 22 21 20 19 15 18 17 17 20 15 19 19 25 17 17
14 24 26 23 26 22 15 22 17 16 17 26 16 25 22 19 14 16 21 24 19 25 16 21 16 14 15 14 25 24 17 17 19 25 15 21 19 16 25 15 19 14 17 14 19 19 24 15 22 17 15 25 16 25 24 25 25 15 15 19 14 23 22 17
25 20 21 21 22 20 15 16 16 14 26 22 22 26 18 21 24 23 23 26 18 26 23 19 23 15 20 19 22 20 18 14 18 19 25 20 14 18 15 18 14 15 16 15 14 23 23 14 23 16 15 18 20 15 16 14 26 16 19 16 19 20 26 14
20 21 21 19 18 23 18 19 25 21 24 19 22 17 20 17 23 21 19 22 23 21 24 23 14 18 15 18 21 15 26 14 22 19 16 26 18 25 19 21 22 26 23 20 20 15 24 26 26 16 17 25 22 25 25 17 23 26 24 26 25 23 23 19
25 22 20 14 15 19 25 22 24 16 24 14 22 18 18 16 21 21 17 15 19 16 20 26 20 24 25 21 25 25 14 19 24 19 18 20 14 23 26 14 16 14 26 14 14 26 15 24 24 15 15 25 25 17 19 24 15 22 16 20 20 24 25 20
25 18 24 18 24 26 18 25 19 23 17 16 22 24 23 23 16 23 15 18 23 24 23 25 18 17 19 22 24 20 25 24 21 25 16 26 26 22 26 25 22 17 20 18 25 16 23 18 23 22 16 22 16 26 26 14 15 15 26 19 20 23 19 19
24 22 19 15 17 26 23 15 25 19 14 23 26 20 18 14 24 22 25 23 19 14 19 25 16 18 19 21 24 18 18 19 25 22 14 22 20 24 18 21 19 22 24 21 25 14 14 23 24 18 21 22 23 14 22 18 26 26 26 16 15 15 18 26
19 15 21 21 26 23 18 18 22 25 26 20 18 22 24 21 24 24 15 16 22 19 20 26 25 23 24 19 26 20 19 18 17 24 16 26 26 15 19 15 14 26 16 20 16 19 26 25 21 17 24 22 14 14 22 16 18 19 18 25 17 19 25 21
16 17 21 20 17 15 23 18 25 22 18 17 26 25 20 16 17 25 17 17 23 23 21 23 18 19 24 21 15 16 19 24 20 22 15 21 26 25 17 27 28 26 18 21 19 21 20 18 24 24 14 25 16 26 24 14 23 25 20 21 23 25 18 19
18 18 16 21 18 22 22 14 19 20 25 25 20 25 19 23 30 22 32 29 32 32 22 27 26 20 24 22 16 20 24 22 26 20 22 20 24 26 28 28 26 29 31 27 31 26 26 31 27 23 26 25 22 18 14 23 19 17 16 15 23 17 24 23
19 20 21 23 25 21 14 19 16 18 20 19 15 26 26 24 30 35 24 27 28 32 34 31 32 30 22 31 24 24 26 17 20 22 14 15 28 26 27 30 35 34 33 36 25 26 33 32 32 21 29 21 21 23 23 22 22 24 16 17 26 15 19 21
21 18 20 16 17 20 16 15 21 15 14 25 21 22 22 27 28 30 40 36 34 36 39 40 36 27 28 28 32 28 19 23 14 15 15 27 30 24 32 29 30 31 31 40 36 41 36 33 31 27 29 24 24 22 22 15 22 21 18 19 19 20 19 20
23 20 18 15 26 15 22 22 18 14 19 29 25 26 30 30 32 40 37 34 40 45 43 40 41 40 37 25 23 21 23 24 23 19 28 23 25 31 28 36 33 42 34 42 41 39 33 31 38 37 25 28 26 29 25 23 26 21 15 25 25 24 16 16
21 16 14 20 23 21 23 16 20 23 19 25 28 30 32 38 38 41 40 39 41 46 37 41 44 42 32 28 33 34 26 27 17 27 22 34 29 30 39 43 46 48 39 46 38 39 46 44 37 35 33 38 23 23 20 19 21 15 17 18 21 16 22 21
21 19 15 15 15 14 23 17 23 25 22 29 26 34 38 41 38 50 42 47 46 42 51 47 38 41 36 40 30 34 24 19 28 20 32 37 37 35 44 38 45 47 47 43 52 46 40 47 46 39 40 32 34 22 20 21 15 17 14 20 15 17 15 20
24 24 23 16 22 16 25 17 14 28 28 28 37 34 37 44 51 50 54 50 53 46 55 43 51 43 42 40 32 30 26 21 28 33 34 30 31 45 40 49 52 50 50 53 54 47 49 52 50 39 40 39 33 26 28 26 17 21 21 23 19 23 14 19
22 15 17 22 20 20 18 25 28 22 30 33 42 41 37 42 52 55 55 57 49 56 50 49 48 47 40 47 35 39 29 28 24 27 29 34 40 38 39 45 49 49 53 59 59 54 59 48 50 40 48 37 35 39 35 29 20 25 18 15 17 25 14 20
17 15 16 21 16 15 19 23 19 29 32 30 39 40 39 54 51 56 59 58 58 63 54 62 49 56 48 41 44 40 40 34 35 35 36 44 42 41 46 51 54 56 54 61 55 62 52 59 51 45 45 46 33 34 34 31 21 20 26 23 16 22 23 22
19 26 19 25 16 15 22 20 30 30 30 42 39 38 41 48 47 62 53 58 67 62 65 56 55 49 50 43 46 41 39 41 34 41 35 38 47 41 52 48 61 56 59 63 57 60 65 63 56 46 41 44 35 41 36 32 23 21 22 15 14 20 26 20
18 21 26 16 26 19 18 26 25 25 32 31 39 43 42 52 50 65 68 68 61 66 64 65 62 52 54 54 47 42 38 40 36 32 35 41 47 45 55 53 62 58 65 68 69 68 57 53 59 47 51 40 40 40 34 32 24 22 16 16 25 23 17 25
20 17 22 19 14 20 23 27 26 32 32 41 45 42 43 50 58 58 64 70 74 71 67 59 54 55 59 53 42 46 45 35 43 32 34 42 44 55 59 60 64 64 61 74 69 64 66 66 57 53 54 39 39 31 34 34 21 28 24 24 18 24 18 22
24 15 19 20 25 21 23 24 21 29 39 38 47 47 55 57 63 64 63 72 73 66 64 67 66 59 52 43 43 38 38 35 41 37 34 39 50 46 55 63 65 62 69 69 72 70 62 64 61 51 43 50 40 41 35 26 28 25 22 23 25 23 23 25
19 25 16 16 24 24 14 18 20 29 31 37 41 39 44 58 60 62 70 65 70 67 63 62 61 62 52 55 46 40 38 37 40 41 35 38 42 48 48 51 59 63 67 69 73 71 70 63 55 57 50 46 43 39 37 33 24 16 17 21 19 14 19 24
19 16 15 24 17 23 17 24 26 30 38 39 45 44 53 48 59 60 64 71 65 65 69 56 56 50 48 51 47 42 32 32 40 36 43 44 41 52 54 60 61 63 71 67 63 69 59 55 59 48 50 43 44 31 33 34 23 25 26 19 26 19 19 17
14 26 14 17 24 26 20 16 18 24 28 36 41 48 45 47 49 54 61 60 64 64 64 60 60 50 49 44 41 35 39 36 38 39 38 40 42 40 50 51 50 55 65 63 58 60 53 55 49 53 50 46 40 32 38 22 25 15 25 19 24 17 23 19
19 24 17 26 19 21 17 25 21 25 35 30 37 43 48 45 49 48 56 55 65 60 60 58 52 50 51 40 47 44 38 38 36 39 28 33 38 45 44 48 60 53 61 57 62 60 56 59 45 43 44 36 43 39 27 21 23 23 15 21 26 23 21 19
23 26 23 17 14 15 19 19 23 22 27 33 32 41 46 51 43 54 58 48 59 53 49 55 54 52 49 44 33 33 30 36 31 36 37 34 42 38 44 49 57 51 52 61 50 51 58 48 53 41 43 36 42 28 27 23 24 14 17 24 22 23 22 19
24 26 16 21 21 25 25 20 21 19 29 27 39 37 44 48 43 45 55 53 57 51 51 51 43 46 48 39 41 28 29 22 34 28 35 39 35 34 41 39 45 52 53 50 51 47 46 48 49 43 42 31 33 34 28 22 19 24 15 18 25 19 24 22
27 28 20 17 24 28 19 22 22 23 24 33 36 44 39 40 48 52 55 54 48 46 45 49 46 46 40 47 34 30 39 28 35 31 31 40 35 44 51 47 50 48 57 54 51 54 47 49 45 51 45 42 32 32 28 26 29 32 32 25 20 30 26 21
22 26 22 21 31 29 31 28 29 31 35 31 35 37 42 44 52 44 47 48 50 50 51 47 47 48 52 37 39 40 30 33 24 28 33 37 47 49 41 54 50 50 54 60 50 54 59 53 48 51 47 43 35 38 29 26 27 29 27 27 37 34 31 36
35 27 27 28 36 32 24 34 37 31 30 34 31 46 42 39 50 48 51 46 49 48 51 51 46 46 41 43 40 45 38 33 33 33 35 44 49 45 47 50 53 50 60 55 59 60 48 50 49 48 46 42 45 36 40 39 39 39 42 37 42 34 34 43
23 26 30 23 22 27 23 26 33 31 32 26 26 33 34 37 42 41 44 39 45 48 44 40 47 39 40 41 31 37 29 27 34 31 30 30 41 41 43 48 41 44 42 45 48 41 47 49 39 37 33 38 30 28 26 36 34 32 26 36 33 29 26 35
28 18 28 26 25 27 29 26 24 20 24 20 22 29 22 28 32 33 31 30 34 32 29 33 27 37 27 32 21 25 19 18 28 19 28 29 27 29 36 34 30 33 39 39 32 41 35 32 31 25 28 33 29 22 20 29 22 31 30 25 20 22 25 24
22 18 18 14 23 18 26 17 15 18 17 23 20 21 23 20 27 25 25 29 32 24 25 27 29 26 27 24 16 25 15 19 16 17 15 26 20 27 27 28 26 21 31 33 25 27 26 27 26 19 17 14 21 25 22 21 15 26 17 25 22 26 16 19
21 18 15 22 20 17 18 26 25 23 17 22 14 23 16 16 15 23 17 27 26 18 21 17 25 17 20 17 18 19 22 22 26 17 25 26 20 23 19 26 28 21 28 25 25 28 22 26 21 14 23 22 23 19 24 15 18 25 19 20 20 20 18 17
21 15 25 19 16 25 21 20 18 17 25 18 20 17 23 14 21 25 25 23 25 24 24 18 16 22 16 22 18 22 18 14 19 15 15 21 17 21 22 14 19 24 14 20 16 20 15 24 18 26 17 26 26 21 21 23 17 23 22 20 24 14 16 15
23 24 15 24 20 15 17 25 23 20 15 18 18 15 26 19 14 14 15 20 16 19 26 17 14 14 18 14 18 15 17 14 23 26 14 24 25 16 18 19 15 18 16 21 16 23 22 18 21 23 22 22 22 26 16 25 21 22 20 19 16 20 19 25
16 25 15 17 18 23 23 24 17 23 18 25 15 18 26 18 19 15 24 19 16 22 16 18 14 21 26 26 14 26 15 15 22 22 17 15 17 18 19 25 18 21 19 18 18 15 14 21 26 17 23 20 25 21 25 18 17 15 23 16 23 16 19 26
23 15 14 16 15 24 19 15 17 25 21 18 26 20 16 23 14 18 17 22 23 21 24 16 23 26 25 25 26 23 14 17 20 21 21 24 21 20 16 21 23 23 25 16 26 25 23 21 15 18 26 19 22 16 26 18 24 24 26 17 26 22 14 20
22 14 19 24 20 20 19 26 21 21 25 21 15 24 24 18 14 25 16 18 16 17 18 15 15 20 18 24 15 16 22 25 15 15 20 20 21 26 21 16 21 22 16 26 23 15 19 17 21 21 25 17 23 15 26 22 22 21 19 15 23 19 20 22
15 25 14 15 24 25 17 26 21 16 16 21 21 22 16 26 22 24 16 16 22 18 20 21 17 19 20 16 19 15 15 18 16 21 21 26 19 23 21 18 17 18 19 21 19 19 15 25 19 25 19 25 19 22 21 19 19 24 20 20 16 18 18 14
22 14 23 21 18 23 26 24 24 15 17 20 17 14 23 20 19 22 22 21 17 19 17 20 21 26 23 24 22 26 17 26 23 20 23 17 15 14 23 19 14 19 14 14 24 23 16 19 19 25 18 25 15 20 17 25 18 15 16 26 21 18 21 15
15 14 21 25 26 15 17 25 25 16 24 14 22 20 19 15 22 20 18 15 20 22 17 21 25 21 18 24 17 18 23 24 22 16 16 19 18 21 15 21 21 15 20 17 18 25 18 26 22 24 21 21 16 26 21 21 17 16 16 19 16 18 26 15
16 25 22 20 26 14 14 22 16 22 25 17 16 20 16 14 16 14 18 23 25 20 22 17 22 25 15 18 26 26 18 21 14 15 25 19 15 25 26 25 19 25 23 18 15 23 19 15 22 25 16 15 16 16 17 19 14 19 15 14 22 19 24 24
22 25 22 23 16 14 23 18 20 24 14 26 16 19 23 14 23 17 15 14 23 18 16 26 17 18 25 22 16 18 18 16 21 14 26 15 16 22 20 22 15 25 20 25 20 17 23 19 23 21 14 23 18 26 15 17 22 18 14 25 21 15 18 18
19 25 21 24 15 24 14 24 19 23 14 25 15 18 18 15 20 25 26 22 19 25 22 16 19 17 25 21 21 25 15 16 23 16 15 19 19 25 16 14 17 16 19 25 20 17 16 19 20 16 21 26 14 16 18 17 20 26 26 26 23 24 20 21
24 22 15 26 17 22 24 22 14 19 17 20 16 24 26 22 24 20 18 15 22 14 19 24 14 20 17 22 25 24 22 18 21 24 26 26 22 26 18 17 21 20 21 24 17 14 17 16 20 25 15 26 26 16 14 21 23 26 16 16 14 15 15 15
18 23 18 22 18 19 26 14 14 22 23 17 25 22 15 17 14 15 24 20 25 26 25 17 18 22 25 21 14 22 23 24 14 24 21 23 22 25 23 22 15 26 22 23 19 26 20 17 21 17 20 18 17 17 18 17 24 19 21 26 22 25 24 19
20 23 25 23 15 18 25 15 17 14 18 24 18 25 24 21 17 15 16 16 20 16 20 25 22 14 21 16 18 18 22 20 15 16 20 19 25 18 16 25 15 23 14 24 16 20 19 24 16 21 26 21 26 21 19 17 23 21 18 14 20 25 15 14
17 21 19 26 16 23 19 20 18 18 18 21 23 16 26 24 24 22 18 16 26 26 25 19 16 16 26 21 23 23 22 22 21 25 18 22 17 16 21 25 20 25 23 17 21 25 15 15 25 17 23 16 14 18 23 14 20 25 25 18 19 16 24 16
19 22 21 26 25 24 20 22 25 19 20 20 18 15 18 14 21 25 14 25 18 25 15 26 25 16 15 14 23 26 22 16 20 15 18 15 17 18 20 14 16 17 17 20 17 25 18 18 18 26 23 24 26 25 15 22 23 22 24 21 26 19 18 16
24 26 19 18 26 22 14 19 20 21 18 14 22 21 23 15 25 15 25 16 14 18 20 26 17 23 24 18 21 17 17 23 22 22 21 23 24 22 19 26 21 14 16 19 21 14 25 20 23 26 22 24 26 23 14 20 15 17 20 21 22 26 26 20
25 23 20 14 21 23 17 23 20 21 19 25 17 25 20 16 26 18 17 15 23 25 18 20 18 24 20 16 17 25 25 17 23 21 14 23 18 14 17 17 16 24 16 14 20 22 26 16 24 16 21 16 18 23 23 19 20 22 16 19 19 19 14 24
