P2
64 64
255
38 20 36 30 33 32 37 38 21 28 29 30 38 26 34 35 25 23 33 29 20 23 36 21 38 20 35 33 19 22 29 33 25 32 36 26 26 21 26 36 36 36 24 36 20 28 32 27 21 34 30 36 36 25 24 23 32 24 26 33 37 34 35 24
31 28 38 21 30 23 21 18 27 30 18 23 33 36 19 20 33 25 22 23 35 35 29 34 21 32 30 26 37 37 28 37 18 34 21 31 27 19 38 22 38 26 35 26 21 23 34 30 27 19 19 28 21 19 29 28 22 27 25 36 24 20 23 31
31 31 31 22 18 36 33 28 25 20 31 36 19 21 37 20 36 38 18 26 26 32 27 36 38 28 19 24 22 21 18 38 28 28 30 22 31 36 37 35 23 24 24 20 19 35 30 27 23 37 32 21 29 24 33 21 20 25 31 18 33 21 26 36
21 26 34 32 34 20 29 30 30 31 34 38 35 19 31 18 29 18 21 32 18 31 18 35 25 18 24 24 30 20 25 21 27 26 28 30 29 29 38 37 29 29 28 28 26 19 36 31 22 34 35 19 32 32 27 36 36 30 18 37 38 18 25 27
27 20 27 32 20 23 27 30 31 37 21 28 32 37 30 18 36 38 37 27 23 38 34 21 27 23 35 26 26 28 23 29 37 22 20 33 29 37 21 19 20 31 32 36 36 18 22 32 19 21 19 23 29 26 38 32 27 33 33 26 26 34 21 25
18 23 26 24 24 31 35 34 26 37 21 33 21 26 35 30 36 18 37 20 38 29 20 26 27 20 37 25 37 23 33 35 37 36 27 28 36 34 26 26 25 20 28 18 37 37 30 33 18 26 36 36 23 18 38 26 33 27 36 24 33 31 37 21
37 28 38 25 27 35 23 24 31 30 36 19 19 30 24 31 20 20 18 29 24 34 31 29 29 35 37 33 37 19 22 27 33 25 34 22 38 26 31 29 29 37 37 36 33 24 20 34 20 37 34 29 34 21 37 30 36 31 21 35 22 35 24 37
31 31 24 29 24 28 37 25 28 24 34 33 33 30 38 27 20 18 37 20 34 23 18 21 36 37 29 36 21 23 33 31 18 30 36 23 35 33 25 29 18 26 27 18 32 31 29 28 33 32 26 33 31 25 36 29 20 24 26 35 30 26 34 27
31 36 28 26 35 21 20 24 23 19 33 35 26 21 30 19 19 34 19 21 28 33 18 22 32 27 27 24 24 24 37 29 29 29 28 20 18 20 31 32 24 21 24 35 35 36 31 27 22 18 20 35 36 35 36 22 20 31 28 37 35 32 22 25
34 32 20 22 31 19 21 31 31 31 24 27 28 32 38 33 20 26 34 25 33 32 21 34 22 18 26 37 18 20 21 33 18 20 31 18 35 34 35 22 30 30 31 37 27 31 23 35 32 24 26 29 32 37 35 21 24 32 38 24 21 31 29 30
33 35 18 36 30 25 31 33 20 36 25 32 32 20 22 30 33 37 27 31 34 25 31 31 23 20 26 21 36 22 26 34 37 23 29 26 21 36 35 34 24 29 27 36 25 36 36 23 26 38 32 36 26 27 33 37 19 21 32 32 25 19 19 34
33 33 33 25 26 21 18 34 22 28 38 27 33 38 18 21 23 24 29 35 36 23 35 34 35 26 24 36 32 29 19 34 34 32 36 18 35 37 23 35 30 38 23 18 24 28 23 33 38 37 27 28 18 35 32 38 24 24 20 24 36 37 28 32
22 26 31 33 36 33 21 18 19 38 22 28 22 22 18 38 38 18 21 22 33 27 36 29 30 20 32 34 30 34 35 19 36 21 29 35 30 25 34 22 33 24 34 24 34 34 37 35 29 27 27 25 28 34 34 31 38 20 34 33 33 36 19 18
24 32 28 32 37 27 37 32 19 37 26 32 35 33 32 22 34 35 21 32 24 20 33 28 25 37 28 19 37 24 18 32 27 30 33 34 30 22 30 38 36 20 21 29 23 21 23 28 23 37 21 38 25 26 26 26 24 20 29 32 19 21 36 30
19 18 31 27 36 19 34 28 33 31 29 26 32 32 38 37 23 18 18 38 18 29 32 25 28 32 38 26 18 26 37 20 23 29 26 31 25 31 25 22 36 25 35 38 27 31 18 20 22 38 32 34 36 31 19 21 31 34 25 30 27 25 36 20
33 35 37 29 35 25 32 35 19 27 33 29 22 21 27 26 29 37 37 29 18 21 32 38 36 19 37 18 36 24 23 23 35 38 29 26 19 19 18 19 34 24 28 33 38 24 34 20 25 19 25 20 29 35 19 24 18 29 27 36 35 34 30 28
34 21 31 26 24 36 35 26 28 26 37 27 37 24 36 33 28 24 36 26 31 27 25 22 35 29 24 22 29 38 27 25 24 19 36 32 38 26 30 23 18 28 22 30 33 33 30 34 23 25 38 33 20 26 18 22 22 32 37 33 31 28 20 35
35 23 20 38 31 26 20 32 35 27 27 20 35 19 20 24 22 35 27 37 30 32 38 38 22 18 22 35 32 38 18 28 31 29 32 38 28 21 36 21 30 25 38 20 28 34 27 24 20 35 33 35 24 35 29 33 31 35 32 37 24 26 24 31
36 32 36 35 28 20 21 38 26 36 18 30 22 24 29 25 31 25 36 25 19 26 37 20 19 33 27 38 28 33 31 24 23 38 27 21 21 23 23 22 21 37 33 22 21 24 30 31 29 23 28 28 22 23 22 24 38 22 20 19 18 32 28 30
24 30 35 35 23 26 20 24 31 30 21 33 25 33 18 25 31 20 39 28 23 30 31 30 39 33 25 32 37 33 21 35 19 37 35 26 30 35 19 23 21 36 30 31 24 39 21 20 34 22 32 33 31 27 25 27 28 20 19 30 22 34 27 20
25 33 30 33 33 33 25 25 35 25 27 31 31 20 20 26 37 34 42 36 29 39 41 29 44 28 27 22 37 22 36 25 19 26 27 30 28 32 21 37 38 32 44 42 28 27 44 38 34 23 35 36 37 19 25 29 30 20 30 35 25 31 38 34
23 37 32 35 37 38 36 32 32 36 28 29 32 24 33 26 26 39 42 30 31 37 45 37 36 41 31 38 24 25 28 36 37 25 23 31 39 38 33 42 46 41 38 43 34 38 31 46 29 26 43 38 26 35 30 26 24 28 35 34 28 28 32 18
36 33 20 32 29 33 33 30 20 22 23 36 23 25 32 45 41 44 51 42 35 49 51 48 46 36 43 43 37 39 28 33 30 33 26 30 35 44 42 37 48 32 45 48 36 43 39 45 34 42 40 28 21 33 33 30 27 20 22 35 28 30 28 33
38 23 26 21 38 21 30 21 20 32 20 30 30 46 47 49 45 44 44 50 46 43 47 41 47 52 35 34 28 37 30 19 35 19 40 34 40 43 45 41 54 52 57 37 53 47 46 35 49 36 47 38 29 40 39 22 35 35 38 34 24 21 35 25
21 27 37 18 37 36 33 20 26 20 35 37 43 31 48 55 57 39 50 53 58 44 54 53 56 53 35 42 37 41 30 23 24 38 37 39 42 40 49 54 41 53 43 41 59 41 52 46 49 38 36 31 45 26 21 25 22 26 32 21 22 32 21 25
32 25 29 29 33 35 18 36 36 26 25 27 38 36 47 57 46 45 43 48 60 59 52 56 58 42 45 43 35 34 38 30 40 43 44 35 51 53 47 45 53 55 57 53 62 60 61 55 60 56 43 52 35 46 24 20 31 35 32 29 29 31 32 38
25 29 25 32 24 20 26 38 29 28 34 46 48 53 44 58 61 50 52 66 54 69 49 47 55 60 56 52 46 44 30 32 37 44 46 49 48 55 51 47 50 66 64 64 67 65 52 49 50 53 38 44 44 38 36 27 36 20 38 23 32 31 36 31
35 19 36 18 22 23 28 37 34 24 40 41 45 53 55 58 50 55 55 72 73 63 70 68 56 64 60 59 56 36 45 32 30 36 48 43 51 57 47 62 65 60 57 55 53 58 56 52 64 44 53 47 50 51 39 39 34 19 20 28 20 30 34 26
23 36 26 37 29 33 35 38 39 38 29 39 36 58 56 57 51 63 68 59 70 59 63 57 64 49 61 61 41 56 51 35 46 34 43 41 47 62 60 69 54 62 59 70 70 69 66 68 69 54 45 40 45 50 48 29 41 35 25 18 37 19 23 38
32 28 25 20 36 25 21 34 32 45 33 47 57 58 54 54 64 63 58 79 62 80 76 67 56 55 59 58 46 46 54 48 48 34 47 39 48 63 65 68 65 62 77 62 78 73 62 72 64 66 47 56 56 45 31 35 34 37 29 22 19 31 34 25
36 23 21 33 38 20 28 22 29 45 39 50 52 45 55 63 68 57 79 74 64 73 64 74 58 72 58 59 48 46 56 44 48 41 41 55 45 66 61 58 64 76 81 68 81 63 65 74 65 66 54 58 45 38 37 34 42 22 32 24 33 29 33 33
21 36 19 37 28 31 28 29 41 33 51 49 53 56 51 64 59 77 82 70 69 75 66 68 74 61 53 55 62 41 47 51 47 56 52 50 45 53 63 69 66 64 80 82 74 67 77 71 71 51 58 48 49 53 51 33 35 40 18 29 18 35 32 24
32 27 34 37 32 22 25 34 29 34 36 40 50 61 62 55 73 60 73 74 83 72 77 71 66 73 56 58 43 58 46 55 55 45 41 52 46 49 57 60 79 80 87 70 82 82 71 78 73 53 59 44 54 42 46 46 41 21 37 22 30 33 32 38
38 18 19 33 35 25 21 34 27 42 44 38 48 57 65 55 61 66 66 74 84 88 68 73 64 67 54 57 56 58 41 45 56 40 44 46 53 61 63 54 74 82 75 80 74 82 73 58 69 63 59 51 40 42 34 27 41 32 33 31 28 37 26 24
36 38 19 19 25 33 23 29 38 37 33 41 44 45 48 68 54 62 60 63 84 81 65 68 69 67 69 61 58 45 45 47 38 36 40 51 44 53 64 62 72 62 77 83 72 73 63 72 68 68 57 57 55 38 40 46 26 21 21 20 34 24 33 19
18 36 27 25 35 33 25 20 34 28 41 39 40 47 60 64 57 69 70 79 61 79 62 57 57 66 56 47 41 49 48 40 54 53 34 54 50 61 61 69 60 67 66 73 73 61 62 59 65 50 45 41 47 43 47 45 27 21 29 27 18 33 36 29
35 37 29 27 26 24 23 18 40 29 47 46 45 58 58 46 66 71 73 72 57 64 73 61 60 55 66 45 57 36 42 35 42 40 40 40 48 58 49 64 69 64 71 70 69 75 57 56 49 55 48 39 48 38 39 38 29 35 29 19 25 30 22 21
26 34 23 36 31 26 32 37 24 24 39 50 49 57 57 59 57 55 71 59 55 63 66 60 58 59 62 45 49 44 38 45 44 46 39 35 47 59 52 65 51 52 52 56 71 70 52 50 55 60 50 52 42 37 40 31 27 34 22 20 20 21 24 25
27 21 26 31 38 31 32 36 38 32 37 32 47 46 48 55 60 56 49 59 66 60 57 54 53 55 45 49 42 49 32 32 36 36 41 47 43 48 57 55 64 67 59 52 49 64 63 57 45 58 39 48 44 43 36 33 30 36 21 29 26 26 28 36
38 30 36 33 23 21 41 37 22 28 33 32 46 37 57 60 58 60 47 51 65 62 59 57 58 53 52 44 45 43 42 39 35 39 40 52 51 46 56 48 52 68 56 62 50 65 53 58 61 56 61 55 56 52 41 27 40 31 38 37 26 40 25 38
27 30 31 45 40 34 40 25 44 36 28 40 43 55 40 54 45 51 65 63 63 67 66 64 67 53 49 42 43 42 47 38 32 45 42 46 55 44 49 55 69 53 60 67 63 56 51 63 51 53 64 45 54 45 51 48 48 30 37 43 33 35 49 48
39 30 34 45 37 43 44 48 42 40 49 49 41 43 47 48 61 52 63 61 68 62 50 67 57 52 56 50 57 52 55 47 50 35 39 48 60 55 57 59 67 63 68 60 59 61 60 62 68 66 53 51 53 45 40 41 56 49 47 49 37 40 56 57
27 31 25 30 39 26 45 35 40 39 31 34 33 45 37 42 49 58 60 59 56 56 55 48 49 51 39 41 45 44 39 27 44 29 41 33 49 55 55 51 60 53 53 44 55 54 52 46 51 50 45 35 41 47 42 44 36 42 42 45 49 43 45 30
40 27 37 23 26 39 27 34 35 24 28 35 30 39 36 41 41 38 46 44 41 33 51 52 50 50 32 47 40 39 40 37 39 34 40 25 26 41 36 32 33 51 41 38 37 35 39 52 45 38 35 30 25 36 37 23 33 40 24 31 36 32 34 25
31 23 20 18 30 21 37 21 21 34 29 23 19 25 33 24 35 39 34 26 29 34 39 29 26 42 40 33 30 26 38 38 32 25 23 28 34 27 39 27 36 39 27 31 35 30 27 36 24 21 27 36 33 29 18 26 36 35 21 25 24 22 18 23
37 34 32 26 38 37 34 34 18 30 20 18 23 35 34 34 19 35 36 22 29 41 24 35 37 21 35 28 34 22 25 32 36 35 30 33 35 18 20 24 35 33 38 42 41 31 24 25 19 33 22 36 18 18 25 32 30 27 37 19 24 25 21 38
29 36 26 26 38 31 38 25 35 20 23 26 29 27 30 32 21 35 26 37 30 27 28 36 32 38 29 23 20 31 26 38 31 36 37 28 37 27 37 23 29 38 28 24 18 31 21 28 37 25 28 36 27 19 35 30 20 32 31 32 37 36 36 34
20 25 38 38 26 24 20 36 30 19 35 19 31 33 36 36 22 26 19 19 18 27 31 32 38 19 29 19 28 28 26 29 25 23 32 24 29 33 31 23 36 38 31 33 28 32 23 31 36 34 21 28 24 20 38 38 19 25 38 18 37 38 33 23
37 37 30 18 38 21 35 25 35 25 37 37 33 23 28 27 23 34 26 21 33 30 27 27 25 29 21 26 22 26 38 21 20 32 37 26 23 31 21 34 32 27 20 33 38 21 29 31 32 18 35 38 20 28 18 34 35 26 19 29 31 37 18 22
28 24 18 31 32 29 28 26 32 30 26 20 32 37 28 26 21 23 23 25 25 20 24 22 37 19 21 29 36 32 26 22 26 33 20 34 35 18 27 21 24 19 22 24 26 30 36 37 24 32 23 20 22 26 27 23 29 38 33 36 32 20 19 22
22 28 38 24 21 35 24 23 32 25 19 21 35 32 19 28 26 33 21 38 32 36 24 21 20 37 37 18 38 28 25 21 37 18 21 34 35 30 36 36 21 26 35 18 26 37 26 27 29 23 20 18 27 31 37 38 19 29 31 32 21 31 27 22
23 23 31 36 38 23 35 26 23 27 38 21 18 38 37 25 33 28 32 38 22 28 28 28 31 31 25 24 30 29 18 35 22 35 29 26 22 31 29 37 34 25 25 30 29 33 37 23 29 31 34 29 38 22 36 33 33 21 36 36 25 35 18 28
33 35 35 25 33 34 20 30 34 21 30 32 38 18 35 20 18 18 24 23 26 29 18 26 29 18 33 21 18 21 29 22 27 28 33 34 25 26 37 35 38 28 18 29 20 27 18 25 37 21 30 27 29 18 29 35 19 27 28 32 22 28 25 37
19 27 35 24 21 26 21 36 35 32 30 29 18 24 18 18 23 38 35 31 23 21 31 28 30 27 26 24 19 32 37 21 30 33 21 24 35 38 25 22 33 23 32 21 34 36 27 31 37 25 23 24 18 33 24 20 21 28 32 30 28 21 26 35
18 18 26 24 33 32 27 24 22 21 37 35 37 37 22 28 18 27 28 34 27 19 34 24 28 26 18 38 22 18 29 35 32 28 33 27 24 36 34 33 35 22 38 32 24 22 24 28 37 27 29 38 36 31 25 30 31 18 22 25 23 38 36 24
36 35 38 29 24 19 25 22 26 27 20 25 29 28 31 21 29 24 25 36 21 32 25 29 32 36 32 35 35 26 32 20 26 26 22 34 37 32 22 21 30 26 36 23 36 34 29 26 18 20 37 36 38 36 29 32 35 32 29 22 22 36 33 38
25 33 36 21 25 35 33 19 18 27 19 19 20 23 28 20 23 31 35 32 30 24 26 21 20 29 31 18 34 36 25 31 24 25 18 27 22 19 25 29 23 34 30 21 38 18 37 29 20 36 26 33 24 20 26 28 21 25 29 33 32 34 18 28
33 34 27 18 34 27 18 33 35 25 35 31 21 38 18 31 20 22 23 32 35 18 37 19 29 18 18 31 20 25 34 35 29 23 20 20 24 21 30 20 26 28 31 18 38 31 21 19 37 22 25 28 31 31 38 36 22 38 27 32 21 38 27 26
27 22 30 34 26 26 35 22 34 35 36 28 28 31 32 32 28 25 27 19 26 36 36 22 35 20 30 18 18 24 34 38 21 33 37 27 36 20 24 36 36 22 19 32 22 26 20 21 20 25 23 34 24 19 35 25 32 27 20 26 18 31 22 34
31 36 27 26 31 33 36 38 36 19 26 20 33 33 20 33 21 24 24 30 26 31 35 19 29 37 24 24 29 35 27 27 37 38 37 37 36 30 29 23 18 26 24 25 26 27 29 34 28 24 26 33 35 34 34 33 37 21 19 34 31 23 22 29
27 35 25 33 23 19 28 21 18 35 21 35 24 26 28 32 33 31 31 37 26 30 37 38 22 31 28 20 31 36 19 29 30 24 20 31 26 29 18 19 32 36 18 31 30 26 23 38 30 38 31 25 28 20 35 19 28 32 36 26 26 21 38 19
27 18 34 32 37 28 20 31 34 24 20 24 18 19 35 20 37 36 28 24 31 31 22 34 36 25 29 24 32 20 26 28 38 19 31 20 29 35 29 31 36 23 22 31 20 36 23 19 28 22 26 30 35 25 22 21 18 21 28 32 38 27 30 38
22 26 35 31 31 31 38 18 20 23 32 22 37 33 35 34 19 36 18 25 36 21 28 37 31 30 21 28 35 34 21 37 23 20 28 26 36 18 28 28 24 20 19 30 33 27 29 25 36 35 31 37 24 28 30 31 25 29 36 27 35 21 37 28
36 21 19 31 35 32 29 21 24 38 33 38 18 35 22 21 36 30 22 20 34 38 34 25 21 33 21 32 18 24 32 24 25 28 36 32 26 33 20 26 30 25 23 21 19 19 29 25 32 35 31 30 31 36 29 29 27 28 37 38 32 37 31 23
