P2
64 64
255
20 25 21 22 17 26 24 22 16 18 14 17 15 15 22 20 17 21 26 22 16 26 24 24 20 20 25 20 18 26 21 23 17 20 19 26 15 21 18 15 24 25 14 23 17 23 17 16 20 20 23 21 17 22 17 23 18 14 16 23 20 18 24 21
25 24 24 15 14 22 16 24 22 21 24 21 16 24 26 24 17 25 14 17 21 15 24 21 18 15 19 23 20 17 15 16 18 26 24 19 17 20 23 14 14 24 14 14 25 20 25 17 17 18 21 24 22 14 14 19 16 23 22 23 26 15 25 19
20 17 23 23 15 15 22 20 18 21 15 16 20 16 20 21 19 14 18 19 16 16 24 20 14 21 19 17 26 14 23 24 22 19 16 23 24 26 18 21 16 24 20 14 26 24 25 20 16 21 16 24 14 17 19 26 26 26 16 21 24 26 16 16
23 16 16 21 20 26 22 22 16 22 25 25 20 24 24 15 18 21 20 17 20 17 25 19 16 20 18 19 24 16 23 22 24 25 23 16 23 24 18 17 20 18 21 22 23 26 18 22 19 16 21 18 20 20 15 15 19 16 26 22 24 22 21 25
22 19 21 16 24 17 19 17 14 19 23 17 25 20 16 24 20 22 19 16 23 25 21 17 26 23 23 14 21 25 15 19 14 22 21 22 18 22 21 15 14 17 14 19 22 23 21 19 16 23 15 23 18 17 23 21 15 17 14 14 16 18 16 26
18 23 18 14 24 22 24 26 19 21 18 19 20 23 19 18 20 26 14 21 26 25 26 16 15 15 18 20 18 26 18 25 21 22 18 17 20 14 17 21 14 25 21 24 18 23 16 24 15 15 15 26 20 17 18 21 15 21 18 22 26 16 25 15
21 24 21 23 14 21 22 21 23 26 16 15 14 24 19 18 20 24 17 26 14 24 20 20 26 18 23 18 24 20 15 24 25 14 25 16 19 20 23 18 18 19 24 16 24 16 24 14 20 15 21 22 16 16 22 22 14 22 17 19 25 14 16 14
24 21 20 18 21 16 20 26 26 23 19 24 24 24 23 24 25 23 23 17 20 24 21 19 18 17 17 22 15 26 15 16 14 23 17 14 18 14 20 24 19 25 17 19 19 19 16 26 19 19 24 14 17 18 17 17 16 18 16 24 16 24 19 26
24 21 26 26 20 22 21 14 17 14 25 22 14 16 22 21 17 14 22 14 24 22 24 24 26 14 25 20 14 21 26 21 16 18 24 24 20 20 17 14 15 26 24 14 16 18 26 14 19 20 17 23 16 17 20 23 24 16 26 23 20 22 21 26
23 15 21 17 15 15 14 21 22 19 19 20 15 25 19 23 16 23 22 16 21 14 15 14 19 15 18 21 25 24 14 21 15 18 25 19 24 24 17 26 24 20 18 14 16 16 26 24 15 23 24 24 21 15 25 24 19 14 15 25 19 17 17 18
26 16 21 20 19 21 17 18 14 14 17 23 23 20 14 19 21 19 23 21 18 19 26 15 20 20 17 16 23 24 25 17 21 20 16 23 21 18 20 19 21 22 25 18 16 14 23 15 22 20 16 23 14 17 14 20 26 16 24 26 25 16 20 22
15 15 15 15 21 21 20 18 18 21 14 23 21 25 25 24 14 21 23 16 26 25 25 14 26 20 19 17 26 16 14 25 26 19 17 22 22 22 24 23 14 16 19 16 22 19 18 14 17 26 18 26 14 15 20 14 18 18 26 14 16 16 24 18
19 22 21 17 14 23 23 15 24 23 14 22 25 26 21 16 22 24 24 18 15 14 25 21 18 17 20 22 26 22 21 16 21 19 25 16 18 14 14 19 23 26 21 21 17 14 26 23 16 16 19 14 26 14 24 19 21 19 17 24 23 25 19 21
24 26 20 24 16 19 22 20 21 16 25 19 19 24 17 22 25 18 16 18 18 22 25 25 22 20 22 22 18 16 17 18 18 21 16 20 17 25 17 26 14 23 23 26 14 17 21 22 21 26 22 21 21 16 25 16 20 18 23 25 26 25 16 22
16 15 20 17 21 17 24 16 24 24 20 14 25 20 14 22 17 20 15 24 24 20 21 23 24 23 26 22 18 19 17 20 16 14 23 25 19 21 16 18 24 23 26 21 21 14 17 18 19 15 24 24 19 23 17 20 18 22 22 16 20 25 25 25
25 24 16 18 15 15 23 19 26 22 14 15 18 25 21 21 25 25 14 18 23 25 26 16 20 20 19 26 15 16 23 21 26 26 17 15 14 16 21 16 23 24 21 22 26 15 17 16 18 16 17 14 20 16 19 23 14 25 22 17 23 24 20 17
26 17 21 24 17 16 15 17 14 23 14 21 19 20 14 24 18 14 24 26 22 19 25 25 23 16 25 22 22 14 19 15 17 25 22 26 26 25 16 19 15 19 21 19 23 25 22 14 21 21 24 16 19 25 25 17 26 22 22 17 17 19 21 16
22 18 19 20 24 26 19 26 16 24 22 26 14 22 18 17 16 15 26 19 16 20 25 25 26 18 18 22 17 15 15 14 22 22 26 22 16 17 17 23 16 24 17 23 21 24 22 19 22 25 16 24 19 18 26 16 15 17 17 15 26 20 24 21
22 16 23 22 23 24 16 26 21 26 19 24 22 18 20 16 18 26 23 14 23 14 22 22 14 25 23 20 20 23 22 23 14 24 15 23 14 17 18 22 16 20 17 26 16 22 20 20 24 17 16 20 16 23 14 19 18 14 15 22 25 16 16 14
15 14 22 14 19 15 20 19 26 20 17 14 16 25 18 24 23 26 18 22 29 29 25 20 23 15 22 18 21 25 26 19 14 24 15 23 14 19 15 22 25 21 17 20 29 29 29 27 18 15 14 19 15 20 16 16 22 22 14 19 14 24 17 19
25 19 21 22 24 25 15 15 24 15 21 24 16 22 19 26 21 31 27 24 24 24 28 25 23 28 19 25 23 21 16 15 19 15 21 21 25 18 24 25 22 26 26 26 27 32 32 23 22 18 17 22 15 20 17 15 18 15 21 20 21 18 26 22
15 20 20 18 15 19 21 20 16 16 26 25 24 20 30 26 23 28 31 28 30 34 28 31 24 30 28 29 16 26 26 17 24 24 25 26 20 23 28 22 25 25 29 37 27 29 33 32 28 26 19 18 18 16 26 14 26 18 19 17 22 20 14 18
16 24 26 20 26 25 17 25 16 26 22 20 23 23 29 27 26 33 30 31 33 31 38 40 35 28 26 37 35 31 27 30 23 24 28 26 32 35 33 30 39 29 36 39 32 33 40 36 32 29 30 25 18 19 23 25 22 15 24 24 24 19 25 18
25 25 25 25 23 22 17 22 17 18 23 24 23 29 30 34 29 33 43 33 37 42 45 41 41 43 44 39 44 41 38 33 35 40 37 43 39 34 34 33 41 38 45 44 45 38 44 39 29 33 35 23 30 28 17 24 26 23 19 14 15 17 17 21
14 18 21 24 24 22 14 22 18 18 25 26 28 32 33 43 39 38 45 45 44 43 44 49 45 45 53 53 45 49 43 47 41 45 47 48 52 46 44 45 45 44 47 47 37 44 41 37 40 43 33 34 29 32 24 22 21 23 20 15 23 24 24 21
21 14 18 24 24 17 24 19 25 17 27 32 35 29 38 42 38 38 47 45 49 42 47 46 54 53 52 62 51 62 52 51 54 58 56 60 60 56 58 55 56 51 55 53 47 44 51 41 45 40 36 36 32 34 31 28 19 25 25 23 22 21 24 21
25 22 17 21 26 16 16 16 20 20 22 27 33 43 41 47 42 51 54 51 57 58 64 60 60 62 60 66 65 66 63 59 59 58 69 69 69 64 63 62 58 65 55 55 55 45 53 42 44 41 41 39 40 31 27 24 19 14 19 15 20 17 26 18
22 19 21 24 25 19 17 21 26 22 32 36 36 34 45 40 46 51 52 51 60 64 66 73 70 78 67 69 78 67 71 73 76 72 70 79 73 77 73 76 71 64 62 56 54 51 59 47 47 43 41 45 41 39 33 31 25 24 21 24 20 19 23 16
18 17 14 17 19 25 24 25 17 33 34 28 40 45 42 47 50 57 58 56 64 76 70 72 84 86 78 78 85 85 78 78 81 84 75 80 84 87 79 86 82 76 78 64 71 59 59 50 47 46 43 38 35 34 37 25 18 22 16 26 15 15 19 14
17 15 19 18 21 25 16 18 25 32 37 36 43 43 48 51 49 62 60 61 67 83 85 81 86 87 83 87 84 93 92 89 83 94 80 84 91 90 90 85 83 88 86 78 68 68 56 58 56 48 51 44 39 41 38 29 21 27 21 22 21 21 23 20
25 20 15 26 24 22 23 22 26 35 31 43 45 42 47 48 60 53 69 76 84 80 94 94 95 99 96 96 94 89 92 99 102 95 89 92 93 97 91 98 93 85 85 89 84 74 58 63 57 51 49 50 36 33 39 24 29 20 19 18 20 22 21 15
17 17 14 24 15 23 15 20 29 29 36 36 37 43 55 49 51 56 69 79 83 95 92 91 95 93 102 96 96 104 107 96 100 102 102 104 96 97 97 98 93 94 89 93 82 77 70 64 51 55 54 45 43 39 31 34 31 27 18 19 21 14 21 25
25 14 15 18 16 15 22 22 30 36 39 36 43 47 48 59 59 64 69 77 84 93 96 94 105 98 102 110 111 107 107 111 116 111 110 103 110 99 107 96 95 95 98 91 95 82 66 60 63 57 52 50 45 31 40 36 22 22 19 15 26 23 24 17
15 26 21 16 26 23 26 28 29 25 29 32 44 51 43 50 54 58 76 86 87 98 98 95 105 101 100 106 108 114 116 109 121 113 114 115 113 106 101 105 101 102 102 98 89 75 68 66 55 52 44 48 35 40 28 29 27 20 14 19 25 24 22 21
21 23 17 19 17 22 23 23 31 23 36 34 39 44 52 51 52 62 70 73 90 90 95 95 107 102 103 110 111 113 111 124 125 119 118 108 115 104 104 105 98 105 97 92 80 76 67 64 52 52 51 42 40 35 36 33 23 27 26 17 26 24 24 24
17 26 26 22 14 18 16 23 27 23 30 30 39 39 43 53 51 57 69 81 87 89 93 98 99 105 101 110 118 113 113 117 128 125 120 119 113 106 111 110 98 103 87 88 84 70 61 53 53 51 48 46 43 35 36 29 26 25 24 23 19 22 22 20
17 26 16 24 21 15 14 26 27 28 31 35 36 45 41 51 54 51 61 77 74 91 93 96 100 102 108 107 117 109 119 121 131 116 115 111 116 111 111 105 101 94 91 79 76 68 69 58 46 42 51 44 33 30 29 29 23 14 22 24 16 18 15 25
16 19 25 15 26 19 22 22 22 32 26 29 33 41 48 40 45 53 55 71 73 83 81 86 101 101 96 109 109 115 115 110 114 119 115 110 102 102 100 93 95 88 84 80 75 63 60 46 44 49 39 39 37 31 31 24 27 22 18 14 17 20 26 15
25 15 18 14 16 26 22 17 23 18 28 26 29 38 42 41 45 53 61 65 73 75 79 87 88 100 94 106 103 107 102 104 105 107 112 102 99 104 92 95 92 81 77 71 66 67 55 50 41 45 34 34 28 35 28 24 15 17 22 17 16 23 14 16
14 19 23 18 15 22 18 25 24 21 29 26 34 34 43 42 44 50 48 64 59 67 77 76 91 87 98 90 97 95 97 99 99 102 96 104 96 95 94 86 81 81 76 74 68 64 46 50 39 44 40 35 29 22 23 19 19 23 20 23 15 15 19 14
20 25 20 26 26 15 18 22 24 15 28 32 33 35 38 39 43 41 49 57 55 65 66 72 75 89 80 86 96 97 91 96 83 87 97 88 86 93 81 81 77 80 66 69 56 50 41 46 44 32 33 35 24 22 24 25 17 17 19 23 14 15 20 14
15 22 19 14 23 26 22 17 18 26 18 20 23 31 32 34 32 31 35 42 47 58 69 73 72 78 85 79 86 79 78 78 85 86 89 85 78 76 78 82 70 65 70 55 50 49 37 42 36 37 30 31 21 27 21 19 21 18 26 16 18 22 25 15
21 14 15 15 15 22 26 16 26 24 19 20 23 21 33 32 28 27 32 39 51 54 54 66 64 67 69 74 73 75 73 81 77 79 79 71 72 68 65 70 67 65 52 57 45 43 32 37 26 26 23 32 19 27 25 17 19 14 19 23 18 26 24 26
25 19 23 22 18 23 25 21 19 26 22 23 16 25 26 29 34 32 24 33 39 48 43 57 55 67 67 70 65 70 65 67 73 68 75 70 72 59 62 58 53 55 44 43 42 38 36 24 33 31 27 29 20 14 19 15 20 21 26 23 20 24 16 23
14 21 26 19 26 23 21 16 15 16 15 18 24 21 20 21 21 26 24 32 39 32 41 44 49 57 52 61 55 60 69 67 68 60 67 65 61 60 60 49 47 41 46 40 33 24 29 22 23 25 25 14 25 19 20 19 20 14 19 15 20 23 17 26
22 21 24 18 26 21 24 25 26 15 26 21 23 22 26 21 23 24 27 18 27 36 28 39 36 48 46 54 58 56 61 56 55 60 55 52 50 48 49 42 38 38 30 28 25 20 27 17 27 22 15 15 21 15 26 21 17 26 18 17 15 15 14 15
16 18 26 24 25 18 26 14 22 16 23 20 19 20 20 18 20 16 17 14 17 18 24 25 32 43 37 48 45 49 56 47 52 55 51 55 42 41 44 36 37 28 32 24 22 23 21 15 15 19 25 15 21 24 14 22 22 14 15 26 19 26 14 20
26 21 26 25 19 18 18 16 17 18 15 18 26 19 24 17 14 22 17 19 26 18 18 20 25 34 41 45 42 39 44 51 51 44 49 42 47 40 36 38 26 23 20 15 24 18 24 21 20 23 18 18 22 16 17 21 25 20 17 21 15 19 22 17
25 19 17 24 14 18 26 15 25 23 19 14 26 20 25 25 19 21 24 16 22 14 15 22 24 31 26 32 37 36 42 36 38 42 35 32 30 39 30 31 23 18 14 23 23 14 25 18 16 19 23 19 21 19 15 26 25 17 15 23 15 15 19 18
22 20 17 19 22 19 23 17 26 26 16 17 24 17 15 14 18 14 15 19 18 21 15 25 18 26 26 23 28 33 29 30 28 32 35 35 29 21 27 19 20 20 23 16 23 14 24 24 16 15 21 26 25 22 23 22 19 15 20 14 21 25 16 19
24 14 23 20 21 26 23 15 15 15 24 16 23 16 17 17 25 21 16 16 23 19 18 22 24 22 23 28 21 28 29 22 28 23 21 24 17 24 25 18 14 17 16 21 17 25 25 14 17 26 18 20 21 24 25 21 26 23 24 18 21 15 18 22
24 21 18 22 19 16 18 15 18 16 26 15 22 17 25 21 14 14 26 17 17 15 18 23 23 25 26 20 20 16 17 26 18 24 20 21 19 14 18 15 18 18 20 26 17 26 18 19 14 18 25 21 21 15 22 23 21 17 15 17 23 22 19 26
19 18 24 24 26 17 17 21 14 25 14 22 22 24 16 25 20 21 24 17 20 23 21 16 16 17 23 17 18 24 15 26 19 21 18 20 22 22 19 24 26 25 19 16 25 20 15 26 21 22 16 26 16 18 22 26 19 18 16 25 14 22 18 21
14 18 24 22 25 19 19 20 17 23 16 23 15 20 15 24 14 20 21 17 18 14 23 15 16 19 19 21 20 19 26 17 15 22 18 15 26 14 17 20 19 25 24 26 25 24 24 24 15 22 23 22 22 18 21 20 23 22 15 22 26 20 17 23
25 17 16 20 20 24 19 19 24 15 15 21 26 14 16 15 18 14 17 14 23 22 15 15 26 22 15 25 14 21 22 22 23 21 24 17 21 21 14 15 24 18 23 25 22 24 23 17 26 25 20 23 17 23 26 26 17 21 26 25 23 26 14 19
20 18 18 14 25 26 26 26 18 17 22 25 20 19 14 24 17 23 23 21 19 22 25 15 22 15 17 15 17 20 14 24 16 14 16 14 14 26 20 22 24 16 14 22 23 25 20 15 26 23 26 20 24 16 16 21 18 21 21 24 18 14 15 21
22 15 17 24 17 16 19 24 21 26 21 19 17 25 20 19 20 22 17 15 26 18 17 14 24 23 25 21 20 26 23 23 24 23 26 14 14 15 24 24 17 15 14 23 14 14 21 22 22 21 18 17 21 15 15 26 24 14 15 21 17 16 25 20
14 26 17 25 26 17 14 23 15 17 17 15 14 25 18 18 26 16 22 14 18 22 17 17 15 15 25 24 23 23 15 26 15 26 19 19 22 26 15 24 16 21 18 26 21 15 21 20 18 18 23 19 24 20 23 14 17 18 24 18 25 16 24 19
21 23 18 16 25 17 15 23 26 20 18 26 26 16 17 14 26 14 17 18 19 14 17 17 24 21 25 25 26 19 23 26 14 24 24 25 18 23 25 23 22 25 16 14 16 14 26 25 24 20 25 17 16 15 26 15 16 22 15 17 24 23 14 18
17 23 26 14 14 23 22 18 24 18 25 17 18 22 19 21 15 23 22 26 26 18 26 18 14 17 19 23 26 16 18 26 25 21 17 26 20 14 22 26 14 26 25 17 19 22 18 23 24 26 21 25 21 14 17 16 14 26 17 20 26 19 22 15
24 18 17 23 14 26 18 26 19 16 16 24 15 14 17 18 16 21 20 17 19 20 23 19 14 19 24 20 24 24 23 14 18 16 22 22 22 26 16 15 23 23 21 21 16 15 15 16 16 25 20 14 23 23 15 20 19 16 14 21 18 18 20 24
22 25 20 14 14 26 19 15 14 24 15 15 26 14 21 26 16 22 24 25 25 25 24 14 18 26 24 17 22 26 18 17 15 22 20 16 18 22 14 19 15 14 19 22 24 26 17 14 14 20 19 16 21 21 15 18 16 15 14 21 26 14 18 18
17 17 14 17 24 17 23 23 26 21 21 24 14 21 14 25 19 17 17 24 21 24 25 21 20 25 26 18 20 20 16 18 21 16 20 20 18 22 17 23 17 21 23 21 18 26 20 23 16 19 22 16 14 16 24 15 24 23 26 17 23 24 24 21
24 17 23 22 23 20 24 21 17 20 22 15 17 14 18 24 25 26 17 23 19 21 25 26 21 25 16 19 21 19 18 15 24 16 25 18 16 15 14 18 25 19 24 16 24 22 21 23 24 14 15 18 25 15 16 21 21 24 25 19 18 24 17 26
