P2
64 64
255
18 23 26 32 29 24 34 34 30 23 27 33 33 30 25 26 21 29 24 22 29 30 29 22 23 35 31 20 30 36 25 38 28 24 24 30 22 35 34 24 29 29 20 33 19 34 35 30 22 29 31 30 37 36 33 28 25 34 27 19 18 22 21 33
26 23 33 23 33 19 29 18 20 29 29 20 35 36 33 32 33 37 32 22 24 35 36 23 30 25 19 26 32 20 28 38 26 21 18 33 25 25 35 31 18 34 27 24 26 24 35 18 25 32 18 20 35 19 23 29 38 37 22 22 23 18 30 33
37 18 20 19 21 18 25 23 18 24 28 23 35 38 18 22 33 19 34 27 36 20 27 19 29 34 26 36 26 38 34 20 22 25 19 31 23 37 20 35 26 30 21 22 22 23 33 38 26 21 28 35 38 30 37 23 34 22 26 25 27 31 36 32
33 18 36 36 30 21 38 18 25 33 37 37 33 28 36 23 33 23 21 34 18 31 33 28 20 38 31 20 19 31 35 22 32 36 26 24 38 30 30 24 20 35 34 32 18 36 27 21 23 37 20 21 37 35 33 26 33 38 23 21 23 22 34 30
29 25 32 23 34 34 33 22 34 27 33 20 18 30 37 23 25 31 19 19 22 20 38 19 19 20 38 26 21 26 30 20 24 30 30 21 28 32 27 36 29 35 35 37 27 37 22 37 22 23 23 35 19 24 36 33 23 18 26 34 22 25 34 37
28 32 29 34 35 22 19 18 22 37 33 37 23 26 26 38 26 25 29 21 31 20 21 23 27 21 38 22 31 26 29 30 20 25 20 26 30 20 34 31 34 34 32 23 34 36 23 36 27 33 35 28 37 32 36 22 29 25 19 25 26 35 35 33
37 21 20 19 26 19 37 23 19 23 18 24 33 24 22 28 22 19 18 28 29 22 31 26 36 20 30 30 24 38 21 36 22 22 22 18 32 27 34 32 27 18 25 35 33 18 24 18 37 33 25 36 31 27 19 27 31 24 30 38 33 29 27 27
34 36 35 19 35 26 18 27 24 21 22 23 23 34 24 32 34 23 22 19 38 29 38 33 31 31 18 34 31 36 27 30 34 21 28 21 33 23 35 25 27 38 38 23 22 21 27 31 37 22 25 21 26 38 33 38 30 27 23 26 24 23 30 28
28 26 35 22 23 26 22 33 31 22 28 31 33 34 30 34 24 25 30 35 34 20 31 20 19 28 19 24 20 38 33 34 29 23 31 28 38 22 26 32 21 27 38 30 26 19 22 20 31 34 36 23 34 30 36 37 21 34 33 31 24 33 32 22
31 20 33 24 19 18 38 32 27 29 32 24 33 32 23 37 25 35 18 33 37 38 35 37 31 23 26 23 18 37 28 18 23 36 25 27 20 30 27 24 35 19 25 30 28 31 23 28 34 31 34 34 24 21 26 28 35 34 27 19 20 18 33 21
24 33 23 23 36 25 22 19 24 34 33 31 30 37 33 19 32 27 28 27 29 29 35 19 31 29 32 25 28 36 31 23 22 31 24 23 24 30 22 26 36 24 21 18 28 22 35 23 35 31 29 23 38 30 22 37 32 29 38 38 37 32 21 20
19 23 29 27 20 20 29 24 38 26 35 31 33 27 33 31 26 36 35 33 25 20 28 34 37 32 27 26 33 18 35 18 21 19 32 25 19 19 26 19 30 30 33 22 38 24 27 19 35 27 21 18 36 28 32 35 25 25 27 24 22 24 35 27
38 36 23 29 21 22 32 31 25 27 26 36 18 20 30 21 21 21 35 37 33 22 26 24 28 26 18 18 38 29 21 22 34 37 30 38 32 38 25 29 19 36 22 22 30 34 24 18 18 35 23 34 27 36 21 27 33 37 37 18 31 23 19 28
22 35 29 19 34 19 26 18 35 32 29 31 29 24 32 24 35 24 24 34 19 21 36 20 22 21 28 30 24 37 32 23 23 37 19 27 26 19 29 28 37 31 23 29 28 31 25 30 20 28 38 28 28 35 37 21 37 26 31 23 37 38 18 25
37 21 23 27 20 24 18 35 38 34 30 25 26 31 21 31 28 31 20 20 33 31 32 29 24 29 30 32 25 18 34 19 38 38 32 26 38 24 32 24 33 35 26 37 37 22 28 19 20 35 25 23 35 33 28 19 25 26 23 24 18 22 21 20
28 31 37 36 23 23 19 20 33 36 38 28 29 18 35 24 33 38 34 28 18 26 19 28 36 21 20 34 18 37 28 21 37 31 30 26 23 32 34 31 21 29 21 38 33 18 29 23 19 31 18 27 23 26 26 29 31 28 26 31 33 25 22 30
30 31 21 32 21 24 26 20 37 34 36 29 22 19 32 30 25 31 30 24 24 20 36 34 38 23 30 21 21 19 35 19 36 38 29 30 18 18 25 18 36 20 29 23 25 38 31 18 25 31 30 21 20 32 25 19 28 21 28 25 27 26 29 31
38 35 27 21 21 24 26 24 22 29 30 24 34 35 37 33 30 31 25 28 24 37 37 19 24 31 24 34 27 20 21 21 24 31 30 19 29 19 22 23 21 20 34 24 33 28 19 19 23 38 22 31 23 23 30 19 36 34 33 18 30 32 25 25
18 25 37 32 26 19 32 18 19 24 36 26 21 37 26 20 24 27 19 26 27 27 34 28 36 24 32 38 33 26 23 19 34 37 28 26 33 27 24 32 22 24 25 34 35 24 20 34 28 36 27 28 37 33 24 31 25 19 25 31 38 18 18 38
25 32 31 21 27 21 34 33 35 25 31 23 19 22 23 24 22 26 37 22 42 31 26 28 38 35 18 29 36 29 29 23 35 21 27 29 31 27 26 21 32 40 33 35 25 28 30 24 39 31 21 28 28 21 34 33 25 30 29 19 36 24 37 18
19 28 35 18 34 38 34 27 24 22 23 23 38 19 30 26 38 42 41 31 33 32 40 42 36 36 40 38 33 36 22 21 20 18 26 24 32 21 41 26 34 28 26 37 45 31 42 31 28 34 34 36 23 27 25 38 25 27 38 26 27 27 26 23
31 24 28 31 20 35 19 28 23 23 29 31 35 24 31 42 30 43 31 39 32 40 36 43 36 40 33 23 25 28 34 28 31 30 30 23 34 32 24 40 46 41 36 32 35 41 29 44 35 38 33 22 28 21 21 28 31 26 20 18 19 37 18 31
20 34 23 18 30 19 24 30 36 36 31 26 30 39 29 29 48 50 50 41 39 34 47 37 41 39 30 32 30 35 31 41 35 38 44 33 32 48 44 34 40 51 42 35 51 45 42 31 48 44 35 38 40 24 33 29 33 20 27 21 38 21 38 37
34 36 19 32 36 38 36 24 24 28 31 33 34 45 38 31 39 37 44 46 56 54 46 55 44 45 55 38 40 44 53 33 37 39 41 52 46 38 40 55 41 48 46 51 50 40 43 41 35 35 36 43 25 24 22 18 38 36 25 37 26 26 23 33
36 18 38 29 28 27 24 31 25 26 37 26 46 46 46 42 49 43 42 61 58 57 56 56 47 53 67 52 49 59 53 54 40 54 57 61 62 47 54 63 48 63 60 44 51 44 42 47 52 48 48 37 35 27 38 19 33 35 27 27 30 32 20 33
22 29 21 31 19 24 29 38 25 26 30 27 46 43 51 42 43 55 45 49 62 57 66 52 65 66 67 56 56 57 67 59 57 62 54 74 71 60 71 70 73 65 65 45 59 56 59 46 45 49 49 48 45 34 39 25 19 28 23 32 38 20 19 29
37 36 21 37 26 28 29 32 18 25 31 42 45 35 47 46 58 45 64 64 61 57 73 62 65 75 74 70 74 80 69 70 76 76 67 72 78 74 76 63 74 67 63 69 60 57 55 48 47 41 43 44 36 48 27 37 31 24 23 20 36 27 25 35
22 26 32 22 38 28 22 19 34 43 38 47 38 56 43 64 55 65 64 71 62 66 67 84 89 82 83 88 83 78 79 70 79 87 88 85 85 79 74 85 87 73 68 61 59 63 70 64 53 63 47 46 49 41 39 29 29 22 27 24 23 28 30 20
23 38 36 24 33 19 18 25 37 44 45 38 45 44 54 59 57 68 57 62 67 79 87 77 87 98 93 90 86 92 90 90 97 87 82 96 88 93 98 78 88 77 83 88 72 60 62 66 64 60 52 44 40 33 36 25 31 27 21 25 31 30 29 28
35 27 32 31 28 37 35 20 35 46 32 38 45 57 47 68 55 72 75 63 90 94 86 88 85 87 89 94 86 105 98 105 93 103 94 103 94 106 91 89 93 90 99 84 88 78 72 75 71 64 45 48 51 35 32 43 40 28 30 35 36 28 34 35
20 18 19 32 37 37 33 33 28 29 48 55 42 51 58 53 66 65 77 69 91 101 101 90 92 93 107 103 100 105 103 94 105 105 110 100 102 106 97 99 90 103 103 89 82 74 67 75 59 57 59 47 53 51 39 41 23 22 38 35 35 25 30 31
28 18 29 30 36 34 30 22 29 41 48 42 46 44 50 56 71 78 84 91 85 91 106 93 114 100 113 114 106 99 116 102 107 114 119 112 119 103 115 97 98 109 103 99 87 80 65 72 56 57 62 46 48 35 42 27 24 37 21 23 35 24 35 33
33 28 25 32 30 27 29 30 41 45 49 40 54 55 60 62 56 75 77 81 89 102 109 106 116 107 119 106 110 115 123 107 124 119 110 108 119 111 117 112 101 117 112 105 103 94 72 59 57 59 58 56 47 54 49 44 44 27 24 38 23 28 37 30
38 37 26 32 24 37 37 27 37 35 45 41 51 63 67 51 72 73 85 79 101 95 112 99 108 108 111 117 124 109 122 125 129 113 129 113 108 111 104 109 103 99 111 93 105 88 73 69 75 60 60 61 47 38 48 35 30 24 28 26 37 24 38 30
23 37 24 25 28 27 37 36 25 29 40 35 44 42 62 60 65 69 83 86 103 97 112 112 106 122 124 128 113 127 133 136 134 127 122 125 111 112 123 103 121 103 100 102 84 85 69 62 66 67 58 48 58 47 38 31 23 27 30 26 34 21 37 32
22 25 22 28 30 30 37 25 31 33 31 54 40 43 62 53 62 58 80 81 93 102 111 97 119 103 105 123 127 129 126 138 133 133 115 124 117 115 121 119 112 116 96 103 98 89 66 59 54 67 61 44 53 41 48 34 40 32 27 20 38 24 36 21
33 21 35 24 38 23 26 33 39 31 46 38 44 41 43 58 49 71 73 72 90 92 98 105 101 118 105 124 129 127 118 129 144 122 127 114 122 122 114 101 116 109 102 96 84 88 79 57 61 62 43 59 36 46 43 45 34 22 36 20 30 37 22 23
33 26 18 28 22 36 18 31 27 40 44 45 43 50 59 52 61 62 76 66 78 86 90 99 95 104 108 103 126 129 112 121 127 132 117 110 121 113 120 104 95 97 88 91 74 77 79 57 57 51 51 43 41 37 45 29 20 19 28 20 30 25 26 21
30 24 36 31 33 19 18 22 32 39 42 34 32 36 46 51 58 63 59 69 83 87 86 96 100 92 101 118 115 106 121 111 122 115 110 105 106 110 98 105 93 94 80 89 72 62 56 52 43 48 58 37 39 43 42 29 23 37 33 31 27 36 32 30
18 27 23 31 23 25 36 33 37 32 23 38 32 49 55 58 57 46 65 67 71 89 79 80 89 89 109 111 99 99 102 99 111 98 101 102 115 100 91 100 101 85 80 89 76 60 58 55 42 51 55 40 46 28 42 28 38 38 20 36 22 30 28 27
30 24 18 31 26 38 22 36 28 22 27 30 30 50 36 38 47 52 63 68 60 82 89 80 82 81 92 87 108 96 104 106 104 91 103 100 91 98 102 98 92 73 70 83 73 57 46 50 45 35 45 50 37 36 40 20 25 37 35 27 27 37 19 28
22 27 20 25 34 27 33 38 35 31 20 37 38 36 42 40 43 42 49 48 56 71 66 75 74 82 96 84 99 98 87 100 99 88 83 102 86 98 79 93 91 66 78 68 55 58 54 54 51 45 40 41 30 30 19 29 26 35 38 35 22 23 24 30
32 23 31 27 27 21 18 38 35 37 25 31 33 25 32 43 44 33 34 58 59 58 64 70 83 67 72 72 87 93 90 77 85 89 79 73 81 84 75 68 78 71 72 55 58 42 41 43 45 47 44 41 29 35 23 31 28 24 34 31 21 19 26 28
37 26 23 31 26 24 32 30 30 37 23 23 32 21 34 26 33 32 34 38 47 56 58 64 69 73 78 72 74 83 77 86 84 73 71 71 84 72 75 70 74 55 49 49 47 32 37 27 29 40 41 30 22 27 37 22 29 21 33 26 35 36 25 25
20 38 31 36 33 31 34 21 29 25 29 32 28 25 36 34 29 25 37 32 49 49 47 58 50 51 58 57 73 67 65 68 69 67 69 76 61 63 70 67 54 44 52 36 33 40 40 24 36 33 31 32 19 37 28 28 26 23 23 29 33 30 19 35
34 21 18 25 31 26 20 28 30 20 29 34 19 35 38 32 19 22 31 36 42 30 46 53 40 43 64 60 65 67 69 61 76 73 71 58 53 65 50 43 54 48 36 29 40 32 30 39 38 36 31 21 30 24 28 19 23 34 36 35 20 36 21 38
32 32 28 29 37 31 37 36 26 31 29 28 20 24 18 24 38 21 34 28 38 40 28 47 50 37 53 61 45 47 62 58 66 50 59 61 57 45 43 44 45 34 34 37 23 34 19 25 18 36 20 30 18 34 34 34 32 38 25 26 27 28 24 36
25 35 23 22 21 23 37 29 28 29 25 26 34 37 32 18 34 28 23 21 33 18 35 32 41 31 36 40 54 46 49 45 55 43 45 45 41 41 54 32 36 26 25 20 33 24 24 30 27 25 35 26 34 27 25 25 19 21 35 31 19 21 31 26
21 34 32 36 18 29 18 37 28 37 28 18 31 23 27 36 38 33 18 29 26 29 37 33 34 39 33 44 44 37 55 51 55 56 39 45 35 41 48 31 39 24 28 19 27 19 37 20 20 37 28 24 24 25 24 32 38 38 28 28 33 24 32 29
18 30 18 22 32 38 22 37 23 38 30 28 35 18 32 20 38 23 30 24 31 34 26 23 18 32 31 28 36 40 43 51 34 47 36 33 36 45 31 38 22 32 32 33 36 37 35 25 34 28 35 20 25 27 30 27 30 18 33 24 22 22 32 19
22 35 30 34 28 30 29 32 35 31 21 25 25 38 21 19 26 28 26 31 28 37 19 20 32 38 23 32 39 35 33 45 36 45 44 30 31 38 34 38 27 32 20 28 26 18 28 37 26 23 31 18 28 38 20 18 35 35 27 22 34 19 33 38
31 27 35 21 21 22 36 31 36 37 36 20 29 19 24 26 23 19 19 20 30 29 22 37 24 32 33 25 21 20 28 21 20 35 19 20 31 29 28 22 20 33 23 25 36 36 34 38 35 38 27 21 36 30 30 18 24 27 35 25 38 27 23 22
18 29 22 28 25 27 20 30 27 18 20 34 36 22 22 20 32 34 35 29 27 20 38 21 30 29 37 35 27 19 34 28 38 31 34 26 26 27 31 37 33 24 29 21 23 27 20 32 24 26 24 18 23 22 21 30 22 21 27 31 29 36 19 29
29 30 28 24 20 26 30 22 37 32 28 20 32 31 32 37 23 18 23 22 37 28 27 18 33 26 35 37 38 34 22 34 33 38 18 29 38 30 32 30 23 22 33 21 34 24 36 23 19 37 23 20 35 37 33 19 28 25 26 22 27 35 18 38
36 22 35 28 35 32 36 27 23 21 27 33 18 26 25 23 37 33 33 34 31 19 25 30 18 30 21 20 24 18 33 35 31 27 30 38 24 38 32 36 21 28 31 29 21 28 31 33 38 38 33 26 34 18 20 27 22 20 34 31 37 25 32 31
34 22 28 34 28 26 18 32 35 35 18 19 20 18 38 26 19 23 22 33 33 21 35 38 37 25 20 24 25 35 36 33 35 38 19 34 26 31 38 38 24 30 38 20 22 30 20 23 24 34 24 28 37 36 21 26 25 21 22 21 28 34 26 31
29 21 30 30 35 19 25 19 35 36 33 27 36 35 26 33 20 27 27 26 22 36 37 35 26 30 20 30 25 37 31 20 19 27 24 27 30 18 37 30 23 26 18 25 25 23 37 22 22 27 26 26 32 18 28 34 31 22 24 31 35 25 28 31
28 31 23 23 25 37 30 29 27 34 34 25 19 29 21 22 22 26 21 30 36 29 18 24 37 37 30 34 37 20 25 36 23 33 31 19 25 34 19 25 30 24 25 32 18 37 34 30 31 24 26 29 24 23 37 20 32 21 30 34 37 32 21 33
31 33 29 31 27 38 19 25 18 38 34 31 26 30 18 33 38 30 27 30 24 19 28 28 24 35 33 23 28 20 19 18 34 38 25 27 29 31 24 28 35 34 31 36 19 21 36 29 38 33 23 25 33 22 22 20 29 31 21 20 31 20 28 20
23 33 25 38 35 29 35 31 36 31 20 33 34 36 27 33 28 25 37 18 28 29 29 32 31 38 36 23 35 37 34 37 31 24 32 23 23 35 38 33 37 25 22 37 22 29 29 31 30 28 37 29 23 25 36 32 21 23 33 21 25 30 28 21
37 18 22 18 38 21 23 18 37 23 33 26 33 27 31 32 29 23 29 28 19 20 22 38 29 22 18 19 20 37 24 38 24 25 31 34 37 25 31 26 20 28 28 37 32 24 29 34 31 28 24 28 37 38 35 24 20 32 24 27 20 38 30 34
25 31 34 28 33 32 32 18 19 19 36 38 28 20 36 22 29 35 29 22 23 31 20 32 19 38 27 23 25 28 29 24 24 36 35 38 25 25 27 28 25 28 21 19 28 28 22 20 33 23 19 27 27 24 36 32 25 24 28 27 21 33 31 38
31 32 19 25 19 29 34 18 19 30 33 27 29 27 33 19 35 23 37 36 19 30 36 33 29 26 33 22 21 22 27 27 35 35 30 20 19 33 23 33 20 38 20 37 33 27 20 25 18 26 18 23 26 22 27 29 18 21 38 29 25 30 36 22
23 25 25 23 32 27 32 30 32 35 34 24 35 33 26 36 31 26 31 18 38 33 23 29 38 25 33 20 37 37 22 32 32 37 25 32 24 23 27 24 35 19 34 30 38 33 28 18 33 21 35 27 23 36 36 38 21 32 34 36 26 24 29 35
