P2
64 64
255
18 25 24 21 24 14 17 16 20 25 17 20 25 24 26 26 25 18 25 25 23 15 26 14 19 17 26 15 17 16 25 26 16 24 17 21 14 24 14 17 15 22 17 23 16 21 14 19 15 14 15 25 14 24 26 24 24 20 24 18 23 23 17 20
20 21 15 20 19 21 18 17 19 15 25 17 19 26 20 14 26 18 15 23 19 19 14 16 26 22 23 16 16 17 14 23 15 14 15 17 26 20 17 18 26 22 16 22 25 15 20 26 14 21 24 25 25 15 14 26 23 26 26 20 21 18 20 25
20 18 26 26 26 21 25 15 14 14 25 24 18 15 21 22 26 16 15 20 15 14 18 18 21 18 16 23 22 17 23 22 16 16 15 14 16 26 25 15 14 17 22 16 23 21 21 26 20 24 16 15 23 18 22 15 14 16 19 18 20 16 23 15
22 24 15 26 25 17 18 16 16 22 19 18 17 16 22 16 21 20 22 20 25 26 23 23 14 15 24 25 14 21 18 18 14 22 22 24 14 22 20 22 21 14 22 17 17 21 15 24 17 14 22 22 24 21 19 23 15 20 21 21 25 20 22 14
25 23 17 22 26 25 16 21 16 26 15 19 23 24 17 14 14 24 21 18 20 20 25 15 25 25 20 19 23 20 18 25 26 23 19 26 14 24 17 26 25 16 18 21 19 18 14 24 22 25 24 24 26 23 18 25 15 25 26 14 17 24 23 25
24 17 15 18 18 17 17 21 19 26 15 16 18 17 14 15 23 20 21 15 19 17 23 24 20 14 25 24 14 14 22 19 24 15 14 24 22 21 16 23 24 26 15 24 26 20 14 17 25 15 23 25 15 25 19 21 22 20 19 25 25 15 21 15
22 23 20 19 17 23 20 17 20 21 19 22 18 21 21 24 16 26 19 19 19 22 21 22 16 23 25 20 20 25 15 22 24 18 25 23 26 14 23 17 23 23 24 15 18 24 19 20 22 16 16 22 17 16 23 25 17 19 26 15 24 17 18 15
24 21 24 16 21 18 16 15 18 14 23 24 25 26 18 26 18 21 16 14 24 24 17 21 26 22 22 15 16 23 23 16 24 15 24 24 18 25 18 23 24 17 17 21 16 25 18 18 24 24 16 16 21 25 15 16 26 23 22 23 25 17 14 18
19 15 21 25 16 21 18 22 20 14 23 20 25 24 15 18 19 21 21 21 19 25 19 14 19 14 22 16 21 17 19 24 26 24 23 24 25 22 17 15 18 17 17 23 25 24 16 21 17 18 20 20 24 21 16 26 19 24 19 18 21 16 20 15
20 25 14 26 14 24 19 22 23 16 16 20 17 15 23 18 22 24 26 15 23 14 17 15 16 17 26 21 23 21 22 16 15 26 21 26 17 17 24 15 15 20 23 26 16 26 18 21 14 23 19 22 17 15 20 16 23 17 18 24 26 19 25 21
26 21 21 15 14 14 26 26 22 22 26 15 16 16 17 14 25 15 22 17 20 22 18 24 24 25 21 23 16 21 14 15 22 14 16 14 15 19 25 25 17 17 19 22 18 23 15 14 14 19 24 26 17 20 18 26 24 25 26 25 17 21 17 21
16 24 19 14 20 22 16 20 24 19 14 22 15 14 25 25 15 22 26 14 24 15 18 18 24 16 24 21 15 23 14 18 19 20 25 16 18 22 15 21 23 16 23 15 24 22 25 18 25 26 26 24 17 24 21 25 23 15 19 17 16 21 25 20
24 23 20 22 18 15 16 19 24 17 26 21 17 24 18 18 17 24 24 15 22 22 19 20 21 23 20 19 26 24 15 15 16 17 17 18 20 18 24 20 26 16 16 22 20 23 20 18 25 14 15 17 25 18 24 14 14 24 16 14 21 19 15 18
18 18 22 25 24 15 21 19 18 19 26 16 24 19 15 19 23 18 21 22 15 14 24 18 26 15 19 15 23 17 14 19 17 25 25 15 26 23 17 26 16 19 17 23 25 16 21 21 16 25 26 19 24 17 14 19 14 26 24 26 19 16 14 26
21 26 14 21 16 14 23 23 15 21 22 26 16 25 17 14 14 20 17 19 19 15 18 19 22 23 22 17 23 16 26 21 14 16 23 26 20 21 21 26 24 19 24 20 20 15 17 26 19 15 20 18 25 17 23 22 15 22 20 19 23 20 15 20
21 22 25 23 24 14 16 14 16 26 18 26 23 20 18 19 23 21 19 17 24 16 22 22 19 23 14 17 19 20 23 16 18 21 15 17 23 24 17 19 23 16 15 17 15 25 19 15 25 19 20 24 23 23 18 22 19 17 15 17 26 21 20 16
17 16 18 14 14 20 15 15 25 17 19 18 23 20 24 15 20 22 18 25 14 18 15 26 19 23 26 20 20 17 21 14 15 23 15 15 20 17 26 14 21 15 16 17 26 15 15 14 23 22 23 21 14 20 21 21 15 17 25 14 22 23 26 23
18 26 24 25 22 23 23 25 19 22 15 25 14 20 25 25 25 24 19 16 14 25 16 14 25 19 18 15 19 19 25 15 23 25 16 23 16 18 24 18 17 16 26 16 17 25 20 23 25 25 14 22 19 18 22 15 19 16 24 17 17 16 18 21
26 15 18 25 20 14 16 18 21 14 16 19 14 25 17 19 16 25 16 26 22 17 18 26 15 16 20 19 22 19 14 14 22 16 16 24 19 15 21 16 22 22 19 18 18 16 25 17 23 18 20 18 24 25 23 19 14 25 22 17 17 22 25 24
26 25 23 24 26 22 22 23 19 15 14 20 18 16 16 26 21 18 25 27 29 26 17 27 24 15 16 23 15 26 21 17 25 16 20 18 16 26 18 25 22 25 21 28 27 26 26 20 17 19 22 17 26 19 14 18 17 22 22 16 17 21 14 17
23 17 18 26 26 22 24 20 19 16 17 20 21 23 24 20 28 24 31 21 24 32 28 31 22 28 21 16 17 15 24 20 23 16 22 20 23 17 19 26 32 29 27 31 32 31 23 29 28 20 24 26 17 17 16 15 23 20 25 19 23 20 19 19
26 19 16 23 23 15 17 14 19 16 15 16 18 29 20 21 32 33 26 26 35 25 29 28 30 33 22 27 26 23 20 19 22 16 24 19 20 27 24 32 33 34 33 29 26 34 35 24 25 27 31 28 21 21 17 20 18 21 15 26 22 25 19 23
26 21 15 26 22 22 15 19 21 20 14 27 24 28 29 29 31 39 32 37 29 36 34 30 35 34 30 28 22 29 18 14 18 20 16 19 31 29 28 37 33 34 39 30 29 41 40 36 32 27 30 25 28 20 19 16 23 20 18 25 20 15 19 19
19 15 23 21 15 18 20 21 24 21 16 20 21 30 26 35 41 43 36 35 43 45 35 32 35 34 27 30 31 27 18 19 20 22 25 32 32 31 29 30 41 33 33 40 38 33 36 43 29 30 26 23 29 19 27 14 20 18 20 21 26 16 16 21
21 23 18 19 17 20 24 19 23 16 22 28 24 33 30 42 35 40 43 43 45 47 37 41 46 34 35 28 26 31 29 27 15 18 30 30 27 31 38 42 41 41 39 44 46 45 43 45 41 41 32 31 24 26 21 16 26 14 17 20 14 15 22 21
23 22 25 18 20 18 15 15 19 24 21 25 35 39 40 42 41 39 44 44 41 51 41 47 40 36 42 41 35 36 30 24 24 27 27 26 36 41 34 44 38 44 44 44 50 42 42 49 38 42 36 35 34 24 20 17 26 20 18 18 17 19 23 23
17 24 16 21 23 17 17 24 21 18 23 29 35 41 46 47 46 50 45 46 54 53 54 46 50 46 37 43 42 37 32 21 27 22 26 35 39 39 42 51 44 44 53 52 55 53 53 51 43 37 45 39 31 28 28 19 19 21 15 20 23 21 14 26
23 18 19 14 14 19 25 23 22 32 23 28 37 42 46 48 53 50 51 60 52 49 53 53 57 43 45 40 42 37 32 33 29 34 27 39 35 36 40 45 48 48 59 49 49 51 47 56 43 51 41 36 37 36 25 31 18 25 20 21 14 14 18 16
18 19 18 16 14 23 18 20 23 31 30 32 41 38 50 45 51 56 53 59 63 65 60 54 53 57 45 39 35 35 34 39 30 38 30 35 44 48 54 55 52 60 60 57 58 58 61 59 46 46 43 43 39 36 33 29 20 18 19 17 15 19 14 14
20 17 16 20 14 25 17 16 26 32 31 34 42 44 45 53 55 62 61 64 64 68 56 58 58 57 51 43 39 34 41 30 32 37 41 41 41 47 45 56 62 59 56 63 57 62 63 63 50 56 49 38 43 35 27 24 28 27 25 24 14 21 17 17
17 24 23 16 15 22 23 20 19 30 30 36 34 47 42 53 58 57 57 70 64 72 71 64 59 52 56 52 45 42 35 40 41 39 44 46 43 49 54 50 60 59 70 67 66 68 57 60 57 49 47 46 46 34 31 33 28 16 20 14 25 15 20 14
24 16 18 21 20 26 16 25 25 27 34 37 39 49 47 49 53 62 65 69 73 71 61 69 65 51 58 51 43 42 34 33 34 36 34 40 50 44 47 52 58 60 62 65 66 64 70 56 57 50 49 46 38 41 27 23 31 23 26 26 16 24 26 23
17 17 18 20 20 16 21 27 29 36 37 43 38 46 46 49 59 65 66 71 67 72 63 60 59 53 49 50 40 35 37 36 34 40 44 42 40 55 57 54 58 70 65 68 78 64 67 59 55 50 50 47 37 42 38 32 26 23 16 16 24 26 15 19
17 23 14 24 18 16 20 27 23 34 36 32 39 41 55 50 62 62 64 71 74 72 64 67 56 53 52 54 46 36 34 37 34 39 45 40 43 49 59 58 56 61 63 64 76 68 61 64 60 57 52 48 43 39 27 29 21 25 21 25 25 21 16 14
15 24 20 25 24 15 18 20 26 26 37 31 43 45 50 56 58 63 66 67 64 69 64 56 60 53 47 44 47 38 44 32 34 43 41 44 46 52 58 61 55 59 63 70 63 67 66 58 60 48 49 43 40 32 36 24 23 23 16 25 24 24 23 23
26 17 23 26 22 25 18 20 27 29 32 30 36 45 45 48 55 52 54 67 63 58 65 53 57 57 56 40 47 41 39 36 34 31 39 38 41 47 52 52 58 58 61 65 66 67 53 53 59 52 45 39 33 39 31 24 27 21 23 14 19 17 20 18
24 15 16 19 23 26 21 17 20 27 32 39 44 40 42 45 45 53 56 56 56 61 55 55 59 54 51 51 45 41 36 28 37 31 31 33 45 47 45 49 55 55 54 65 60 53 59 52 48 46 44 47 43 35 29 28 23 19 16 18 22 15 24 24
14 24 23 20 19 16 18 15 20 28 35 32 38 41 39 40 49 56 51 52 52 49 55 59 56 45 44 41 37 33 29 25 35 30 29 40 38 47 50 47 50 54 50 50 57 55 58 46 47 44 37 35 41 35 31 27 21 25 24 18 20 16 19 21
21 17 25 14 15 15 25 18 26 30 31 25 36 31 45 45 45 45 52 48 50 53 56 49 49 49 42 41 32 28 27 28 24 26 29 33 34 38 47 50 49 51 52 55 56 55 44 53 44 37 38 33 29 33 21 30 26 20 19 18 19 16 20 19
29 29 20 19 21 26 20 29 18 19 32 27 30 41 35 40 49 43 47 57 49 54 45 46 53 40 40 36 32 40 33 30 32 36 28 40 40 38 43 42 53 52 57 52 49 47 53 46 44 40 41 34 36 31 28 33 31 21 28 32 21 21 24 21
24 32 26 22 22 26 33 31 29 33 26 30 32 36 41 47 49 42 49 46 52 46 52 52 45 42 40 44 42 37 30 29 27 33 36 44 39 44 44 55 50 50 48 49 54 50 58 50 52 45 41 47 39 39 37 36 28 31 36 31 35 34 33 32
32 26 24 29 27 34 33 33 30 37 32 30 37 35 48 42 44 52 53 46 46 48 55 57 50 44 45 50 40 37 34 38 39 36 38 36 49 46 42 50 52 56 61 57 57 49 58 55 52 52 52 42 42 46 35 39 38 41 39 42 33 40 45 33
23 31 29 27 20 25 25 29 27 27 21 33 32 27 38 33 46 42 46 37 46 46 38 41 47 39 44 31 37 37 25 32 23 23 27 29 37 44 45 45 45 45 51 41 49 45 43 39 42 39 33 36 29 37 31 29 26 27 28 26 34 37 38 35
25 18 19 17 21 24 29 20 20 23 17 27 22 29 23 31 27 34 34 32 35 29 40 29 39 38 25 34 27 25 25 20 20 18 19 21 25 24 26 27 39 40 35 38 42 34 32 31 29 33 32 29 21 19 22 26 26 30 20 23 25 32 26 25
22 18 15 19 23 19 23 21 16 16 22 22 16 23 18 18 24 27 31 31 24 31 24 23 21 19 19 26 20 24 22 19 15 24 21 19 23 20 19 19 32 32 28 31 30 33 21 26 30 22 27 18 19 23 25 25 23 22 19 20 25 17 26 21
17 14 25 18 26 21 18 15 15 18 26 20 25 23 15 23 24 22 24 24 26 27 27 24 27 26 20 19 18 25 17 15 20 19 15 14 23 24 22 16 23 20 23 23 26 22 24 20 25 24 17 24 14 22 16 22 18 15 25 15 26 21 22 23
14 14 19 15 14 25 20 24 15 26 16 25 17 21 24 18 21 26 16 18 24 23 24 19 14 21 19 25 24 14 16 26 15 25 19 23 23 14 25 25 19 14 15 14 26 14 23 18 20 20 16 18 18 21 26 16 18 21 15 19 20 22 18 14
19 24 14 23 15 25 21 23 24 16 22 15 25 22 15 18 16 21 21 16 22 24 16 19 18 20 25 14 22 15 20 16 14 19 20 15 22 19 14 23 17 25 24 23 21 18 21 20 21 21 21 19 19 26 16 22 17 18 26 20 26 23 15 22
22 23 17 17 24 20 22 23 21 16 15 25 22 17 21 19 21 20 19 19 19 15 16 19 26 14 18 23 20 25 17 18 22 25 20 16 16 15 14 23 16 18 24 24 15 25 18 23 17 15 17 24 25 21 18 21 24 17 22 17 17 22 20 18
20 21 24 22 17 22 24 18 20 16 15 24 26 22 23 21 23 20 26 15 23 25 24 17 16 15 16 18 18 25 17 22 24 14 22 25 21 17 17 20 26 17 19 21 16 15 17 25 14 21 19 20 21 25 21 25 24 14 15 14 19 26 24 25
18 15 26 18 14 26 24 26 19 20 19 26 22 18 14 21 25 21 17 21 22 15 24 23 18 25 15 23 14 19 20 24 19 26 23 16 23 25 21 20 14 19 22 15 20 22 19 18 18 18 25 23 14 23 14 15 24 17 18 25 15 20 15 24
16 23 24 20 19 26 19 19 23 18 22 24 23 26 22 18 24 22 22 17 20 16 15 26 19 19 15 14 24 14 19 22 14 17 20 14 24 23 22 26 16 20 15 20 20 25 16 25 21 14 25 18 21 26 17 16 25 22 24 26 22 15 25 17
17 15 14 15 23 24 15 16 21 21 24 15 23 20 25 21 22 24 15 24 16 23 25 16 17 21 15 24 25 26 23 23 21 24 16 23 17 18 18 23 23 22 25 16 14 18 22 23 23 17 25 23 17 20 25 18 22 17 14 24 22 16 24 22
16 22 24 20 16 22 26 23 26 15 16 21 21 15 18 20 21 25 21 14 15 19 23 21 17 16 20 19 14 20 26 19 20 20 21 24 21 21 24 21 25 22 16 20 26 23 18 19 17 21 16 24 20 24 19 18 24 24 17 21 24 26 19 25
25 23 15 20 18 26 20 25 23 26 23 25 26 23 14 15 21 24 16 26 21 24 24 19 15 15 22 19 25 16 21 14 18 18 23 15 17 20 26 19 21 16 26 24 23 23 15 24 23 24 20 22 25 20 23 15 24 18 15 14 22 19 24 18
19 19 25 26 19 23 22 21 21 20 26 21 17 23 14 17 17 18 21 14 25 19 14 16 20 22 19 16 23 24 19 22 24 24 26 26 24 24 17 15 16 16 15 20 18 25 15 25 21 24 26 17 19 24 15 23 25 14 14 20 14 26 21 15
24 23 25 18 20 24 19 18 26 20 15 26 25 15 23 21 17 20 23 14 25 22 14 22 24 18 25 24 24 19 22 25 18 14 24 25 16 25 23 18 17 26 18 24 16 23 23 14 15 26 20 15 23 20 15 24 16 17 26 15 17 18 14 25
26 16 21 21 15 18 15 15 23 21 16 16 25 23 21 15 16 18 15 21 14 17 22 20 23 25 14 26 26 14 19 24 16 16 25 15 19 14 16 14 20 26 19 19 20 20 25 25 24 14 25 19 17 14 14 18 16 18 17 16 20 23 26 21
16 18 20 26 16 18 19 17 25 26 22 17 25 16 24 15 21 18 17 24 17 19 25 18 26 14 18 25 15 17 22 26 20 22 17 15 22 22 22 20 19 24 21 15 18 18 23 17 15 22 14 24 23 16 17 17 14 17 15 18 14 23 24 14
21 15 23 15 17 16 24 17 14 21 23 22 15 25 19 23 18 17 23 23 16 16 18 17 19 25 17 26 23 15 21 24 14 26 14 17 25 18 23 16 25 19 24 24 17 21 14 17 25 22 19 21 23 25 16 24 22 17 18 18 18 17 24 17
20 22 17 25 18 16 23 21 14 23 25 16 15 14 20 21 14 21 19 24 14 18 20 22 14 23 18 24 26 26 14 16 15 23 26 14 23 22 22 14 25 22 15 24 16 25 25 20 16 24 19 16 16 25 20 20 20 25 24 19 21 18 16 18
22 20 19 14 15 18 22 17 25 17 21 24 24 17 21 25 24 21 21 23 25 23 20 15 26 18 24 17 24 15 14 19 22 16 17 15 20 20 14 25 15 26 22 19 18 15 23 15 24 24 19 23 23 26 22 20 16 16 20 24 25 19 18 22
18 20 16 26 19 21 18 23 21 25 16 18 24 24 26 18 14 17 14 24 26 14 25 25 20 14 24 18 21 22 19 20 16 16 21 15 22 23 21 16 17 25 26 18 19 17 17 23 16 25 25 21 15 19 16 15 18 14 17 19 23 19 20 26
15 15 16 26 22 21 19 16 14 14 14 19 23 26 23 20 18 25 14 22 23 16 26 14 16 26 18 21 17 16 14 22 24 20 26 19 18 14 19 26 23 14 15 21 17 18 21 24 25 18 26 16 23 24 15 17 22 18 14 15 15 21 16 19
