P2
64 64
255
33 36 24 26 29 30 18 28 30 19 32 38 27 37 23 18 20 21 20 37 22 19 33 26 37 29 18 35 22 31 37 35 31 30 31 29 23 29 24 22 27 25 25 26 20 35 27 33 38 19 28 36 21 18 35 33 32 22 27 38 30 26 29 32
37 23 18 18 38 38 32 31 29 29 30 30 19 18 32 28 33 25 23 36 38 27 26 29 34 28 27 32 36 22 31 22 19 21 31 20 26 35 32 26 20 29 34 35 28 36 34 23 23 18 26 30 20 19 23 30 21 32 23 23 38 20 20 34
37 29 19 26 35 33 23 31 33 19 21 27 32 34 33 18 29 35 27 22 37 29 26 29 32 33 38 28 19 36 21 36 35 19 36 27 29 33 27 26 37 19 23 33 22 34 24 25 20 28 22 20 29 19 27 31 18 28 27 32 32 37 23 22
19 34 27 22 33 38 19 19 22 34 20 23 38 27 24 38 27 24 28 31 26 35 31 36 30 20 25 33 27 29 23 38 18 22 20 32 22 36 34 21 35 21 23 31 25 19 25 29 32 19 19 22 29 22 36 36 30 32 28 18 25 19 18 20
28 18 23 37 28 22 38 19 26 35 19 30 18 24 19 31 19 24 26 28 19 22 36 23 24 30 23 35 24 19 26 30 29 33 26 32 36 36 30 29 29 33 31 25 37 26 28 30 38 38 20 27 20 37 31 37 27 26 19 22 19 38 27 18
27 31 27 21 35 36 36 35 18 32 26 35 29 25 27 25 23 27 26 36 29 25 22 25 21 19 31 37 23 35 34 18 32 31 26 24 26 22 24 35 31 29 20 29 34 21 30 19 30 35 31 30 38 21 35 33 20 27 35 36 35 22 34 33
35 32 21 18 24 32 23 35 20 19 37 31 25 29 29 19 37 36 20 21 36 20 22 27 22 37 26 27 28 18 33 25 26 33 32 29 31 28 25 19 24 25 35 35 27 18 34 30 24 18 29 24 25 36 25 33 38 33 35 30 26 21 21 22
36 23 25 27 19 27 34 38 30 25 22 20 21 22 32 34 36 36 36 33 28 23 18 22 30 28 32 22 38 20 29 25 27 25 23 24 20 32 19 21 32 20 18 31 31 22 33 37 33 26 31 28 20 29 34 35 25 35 31 18 36 27 32 20
35 18 29 19 37 21 23 27 37 35 21 36 22 20 30 33 35 33 23 20 23 31 38 27 38 33 20 21 28 34 24 29 19 23 29 18 36 30 29 31 35 20 34 31 38 26 28 35 37 34 34 32 28 28 28 23 32 27 33 26 35 34 24 18
34 32 31 36 35 38 36 35 21 35 33 18 19 38 27 31 30 34 32 35 32 34 36 27 21 27 21 26 18 22 19 28 32 19 35 25 21 35 22 38 18 20 33 33 26 31 22 27 33 28 30 29 34 25 24 24 31 37 18 20 29 32 32 18
38 30 34 28 34 30 19 23 26 20 34 18 37 26 26 22 36 27 24 35 37 27 29 33 37 22 31 32 24 25 20 22 28 37 21 27 32 21 26 34 36 18 20 30 28 25 27 23 34 18 26 23 19 31 29 36 38 35 25 31 28 32 36 20
23 25 23 31 22 37 37 27 29 24 23 18 19 32 20 29 31 29 20 24 32 18 37 20 20 34 35 21 27 29 23 19 30 20 22 33 18 20 35 30 25 35 28 34 34 36 23 31 30 37 36 19 34 18 22 29 25 28 35 37 36 36 35 23
20 38 24 25 22 33 29 20 28 20 35 28 18 35 18 34 23 21 35 36 32 35 26 29 23 21 28 27 18 32 25 31 31 18 37 35 28 36 25 31 25 23 32 28 19 32 25 32 35 20 20 26 30 19 27 23 26 34 35 28 28 25 36 24
37 21 33 24 24 23 21 33 35 19 26 19 37 18 27 36 18 24 32 33 23 30 36 27 38 20 21 25 26 38 35 25 20 19 20 38 23 32 32 24 30 33 31 24 24 28 27 36 31 37 26 24 18 29 27 28 28 35 36 28 37 21 29 28
24 22 36 24 22 35 29 30 32 28 30 29 21 26 37 35 35 23 21 19 33 34 22 32 22 26 32 18 18 25 27 29 36 38 26 30 35 25 25 36 22 26 32 33 30 22 33 33 31 24 22 38 35 19 36 25 23 26 29 24 28 22 30 26
18 30 37 26 38 34 34 24 35 23 26 23 22 20 31 29 31 25 27 33 38 27 20 33 32 30 23 24 36 29 25 19 33 35 30 23 27 21 19 29 21 21 19 34 33 24 20 32 35 26 23 36 18 37 33 26 30 23 37 31 30 21 35 22
18 38 32 31 18 23 33 37 33 35 24 29 24 22 32 30 25 33 27 21 19 21 27 23 36 27 30 29 20 24 38 32 38 33 36 24 32 36 37 28 19 33 21 34 28 18 25 33 32 31 33 19 23 33 26 33 24 35 25 24 23 32 29 38
25 27 34 35 38 35 37 20 27 27 34 37 33 32 34 31 37 18 28 23 18 25 30 33 28 22 32 26 22 32 20 31 30 25 19 30 27 20 25 19 37 27 18 33 19 35 27 21 21 20 28 29 26 35 26 38 26 37 23 28 28 18 28 20
29 38 24 24 38 34 26 30 37 24 20 33 23 25 33 37 27 28 19 37 26 18 38 19 38 23 26 30 33 32 19 32 28 22 38 27 33 30 21 25 32 27 25 18 36 37 32 19 32 24 28 23 21 26 26 19 18 32 19 21 23 19 38 19
36 21 18 34 20 38 18 21 31 23 26 33 29 30 28 36 24 23 32 30 32 31 26 36 24 25 29 32 31 21 20 25 27 34 38 21 31 29 26 23 39 28 38 33 29 29 25 23 38 36 34 23 31 37 37 31 20 21 18 36 22 21 24 21
38 22 18 23 21 25 21 18 36 34 22 35 35 30 39 39 26 33 32 36 27 44 39 41 36 35 27 32 20 30 33 21 27 31 24 38 32 36 41 44 40 40 30 42 37 42 33 38 40 29 36 36 22 27 27 28 33 31 24 38 37 38 32 21
35 19 25 22 29 33 36 31 31 38 29 26 32 35 34 35 43 33 45 36 37 38 49 37 33 39 44 42 39 32 20 33 37 43 34 41 36 49 52 57 48 38 36 48 40 32 48 44 36 38 39 41 29 38 22 37 37 20 38 19 32 33 35 32
28 34 24 35 23 31 29 30 20 29 19 22 27 38 44 29 35 37 48 35 51 49 54 41 46 45 35 36 36 35 28 38 36 41 60 57 57 55 68 50 51 59 57 53 44 41 50 41 48 41 34 40 24 34 29 27 24 30 32 22 34 23 37 23
22 32 21 31 24 27 28 28 23 19 29 34 33 47 44 50 51 49 57 54 54 64 60 60 63 55 53 40 31 50 33 39 58 44 49 55 61 73 69 65 76 70 62 58 51 38 53 48 41 40 45 37 39 41 29 24 26 36 37 27 29 24 28 27
38 33 36 19 29 27 31 37 29 26 22 28 46 39 48 36 38 61 49 61 67 69 76 60 68 55 69 55 56 49 43 57 52 61 70 74 77 87 88 83 78 80 61 65 45 46 57 45 53 51 46 43 37 30 32 20 34 18 31 30 19 38 34 22
26 24 23 31 29 37 30 38 21 32 37 46 31 49 44 55 44 67 64 77 67 73 86 71 70 70 74 69 58 56 67 58 67 82 83 92 94 99 92 87 86 83 68 79 65 61 58 56 49 43 44 39 36 35 34 23 28 22 27 18 21 34 18 36
18 30 20 28 29 27 30 19 20 22 33 45 36 53 41 48 49 71 64 81 93 85 81 87 86 85 72 79 63 66 80 66 66 87 88 100 97 93 91 94 99 84 78 87 76 57 66 47 52 41 41 54 37 42 45 42 20 38 26 35 33 23 35 27
29 34 28 31 33 38 26 35 40 35 44 32 46 39 44 63 67 80 73 85 98 91 102 101 99 90 76 79 79 73 86 85 79 83 85 101 114 100 113 98 104 96 85 93 73 71 55 54 46 64 58 52 37 41 34 24 31 25 18 29 21 28 35 29
23 34 24 33 22 32 37 27 24 42 35 48 37 39 61 65 61 77 93 89 96 105 116 120 107 104 84 87 80 87 75 79 83 94 105 102 114 123 107 115 114 94 101 81 79 78 74 67 53 52 60 58 56 32 34 26 32 30 33 21 27 24 28 37
20 18 27 22 34 18 24 31 24 36 38 54 42 42 49 57 70 83 96 105 103 118 112 128 118 116 93 88 92 91 78 85 90 105 108 126 136 122 122 112 116 99 104 97 78 73 60 57 60 60 55 56 54 37 44 26 37 33 26 37 28 38 25 28
31 24 37 31 37 26 27 36 23 42 50 47 42 45 64 76 84 91 100 107 111 130 118 128 120 119 109 106 98 81 84 93 93 98 123 115 118 135 115 125 106 111 99 103 80 79 66 61 61 69 64 42 50 51 44 35 36 29 35 21 36 28 34 31
35 33 31 31 31 33 32 38 34 39 37 42 48 58 55 71 79 86 99 108 114 133 121 123 119 99 94 93 84 92 103 100 108 99 126 117 129 136 123 108 107 100 96 108 93 72 74 65 68 71 57 50 52 47 41 35 30 22 35 35 33 20 25 29
24 38 37 31 27 34 38 40 38 32 34 44 39 54 58 74 82 78 102 115 117 122 129 113 116 101 93 90 85 100 93 105 104 122 111 131 135 130 122 127 119 106 106 99 99 90 79 73 57 68 64 47 40 53 45 43 44 21 33 35 21 37 38 38
19 20 35 29 19 34 31 38 36 32 34 35 39 62 52 63 83 86 84 98 110 110 103 105 105 93 86 98 95 94 98 105 99 118 112 129 127 122 119 115 102 100 102 93 79 70 65 66 75 60 52 60 54 54 36 33 37 25 38 29 22 33 29 34
26 22 37 26 24 33 21 39 41 33 44 46 56 56 46 57 77 72 90 100 93 107 101 106 106 101 90 82 89 80 93 88 115 111 124 111 118 130 121 123 102 106 87 93 88 69 72 72 71 67 60 50 40 48 51 36 38 30 37 27 32 38 37 31
35 25 38 28 26 38 37 36 32 39 41 36 41 44 47 49 58 82 89 88 99 92 99 83 100 90 93 75 80 85 90 98 96 108 120 120 117 119 108 111 113 95 79 78 72 69 64 74 52 54 46 56 51 44 49 33 40 37 28 31 27 21 36 34
22 29 24 27 21 20 28 21 26 38 42 32 41 53 51 49 60 64 69 67 80 89 81 90 86 78 77 80 81 87 85 100 95 113 108 117 127 118 119 101 101 97 89 65 64 68 73 56 49 53 55 58 53 45 48 35 34 19 27 21 36 19 33 20
38 26 22 27 18 32 31 25 33 42 43 50 49 52 42 54 47 56 57 60 81 79 69 64 79 76 79 76 69 85 69 88 104 95 111 122 114 116 106 108 87 88 69 61 69 65 51 66 66 57 54 56 50 32 33 44 37 20 37 22 31 24 22 32
36 18 24 19 31 24 33 28 37 37 45 32 38 40 52 60 51 60 51 53 58 68 70 69 58 66 58 70 78 74 81 89 97 101 114 112 117 99 104 83 83 77 74 75 65 50 65 52 53 42 39 55 35 48 31 24 32 29 18 21 30 28 22 22
28 26 29 27 18 24 33 27 31 34 25 41 49 35 48 44 51 51 44 60 55 53 59 59 62 62 54 66 66 83 83 90 91 97 117 94 100 86 98 96 85 64 67 58 64 50 52 45 54 54 54 33 50 36 42 23 38 28 36 29 18 33 33 31
36 24 29 19 20 35 29 33 18 23 34 35 36 47 46 55 43 52 50 44 44 51 55 46 51 50 58 60 67 68 83 81 78 87 94 102 96 83 82 83 67 75 66 67 47 54 52 39 48 47 34 39 42 25 31 20 35 21 18 37 31 29 27 31
33 18 18 27 29 37 33 29 38 25 31 29 43 46 40 48 40 37 37 40 41 38 37 52 43 58 57 52 64 74 63 65 86 89 96 81 79 85 71 66 75 63 59 46 51 57 46 54 37 35 35 30 29 33 22 33 35 28 19 32 19 31 36 37
19 20 18 32 26 34 26 31 23 23 38 20 34 36 38 48 37 35 43 35 46 35 44 39 40 33 54 45 48 54 72 79 74 74 70 72 80 68 71 74 72 63 63 48 45 43 51 35 34 42 30 28 39 37 19 29 19 28 32 32 38 31 35 19
28 25 35 23 33 33 26 20 31 36 32 33 18 35 42 37 40 34 29 32 37 40 37 34 28 32 33 46 50 43 64 65 66 62 69 79 76 77 66 59 64 55 54 39 30 35 48 32 38 30 43 22 18 36 19 35 28 22 29 27 20 28 24 19
27 19 29 20 18 37 18 21 29 29 35 33 29 22 28 24 38 41 43 37 38 29 41 43 30 42 44 47 33 46 56 57 52 60 61 73 67 50 50 46 55 36 38 38 42 26 39 38 41 37 25 25 33 24 36 31 20 21 35 37 24 27 27 29
25 25 37 21 37 26 35 28 34 22 30 32 34 27 30 21 31 32 39 28 24 26 32 38 31 22 22 36 47 35 45 56 63 65 59 61 48 47 54 41 43 31 25 42 38 31 35 37 39 18 36 31 22 28 23 32 25 21 26 26 29 31 23 31
34 36 36 21 31 26 31 38 23 34 26 20 26 34 29 23 21 32 23 29 38 26 23 30 37 26 33 36 26 39 31 42 49 47 58 45 45 37 50 34 30 30 20 35 30 22 36 33 29 30 28 27 27 21 23 18 31 35 23 34 25 37 36 29
24 24 21 20 18 36 30 32 24 37 21 35 27 19 28 24 35 18 28 20 38 32 35 25 32 19 29 18 36 38 26 39 50 35 51 39 39 45 42 36 21 21 31 33 29 31 34 30 34 25 29 21 22 19 37 21 30 31 21 38 18 33 29 30
21 21 34 26 35 34 30 26 23 34 37 28 32 22 25 34 33 32 20 24 26 32 24 38 19 26 25 36 22 23 35 27 36 37 29 44 35 29 26 22 35 33 25 28 21 34 20 23 25 24 35 30 34 30 36 32 25 25 21 33 34 33 24 22
29 34 28 33 19 30 30 36 30 24 34 32 38 29 23 32 32 29 31 31 20 19 27 28 31 21 31 36 31 25 31 25 37 36 37 31 30 27 31 27 20 36 36 29 22 23 36 26 31 22 36 23 35 24 32 29 29 35 26 25 22 26 19 32
28 36 37 20 28 26 26 18 31 20 28 35 34 36 23 32 19 21 31 38 23 29 30 34 27 33 38 18 30 29 31 30 20 22 20 37 25 21 28 24 21 34 22 27 24 30 22 37 26 27 30 36 18 21 18 31 20 36 20 25 34 36 26 37
37 21 34 23 35 27 36 26 27 21 23 24 31 32 23 20 34 35 31 34 38 33 22 29 23 32 30 34 29 19 33 33 18 37 29 26 34 36 30 27 23 29 28 33 31 36 34 25 24 29 19 21 29 29 30 24 22 28 33 38 30 20 37 21
27 34 26 24 28 35 18 22 35 21 21 20 37 23 37 35 37 31 25 24 22 24 27 34 21 36 23 28 24 25 20 36 38 33 19 33 32 20 22 34 19 25 37 27 30 27 32 23 19 30 18 20 23 30 36 28 21 32 31 29 23 37 31 18
32 32 31 28 26 22 31 28 26 26 37 38 34 22 28 20 23 36 19 25 27 23 29 19 24 30 34 31 38 34 35 27 22 33 34 22 21 26 23 37 33 21 18 19 20 36 36 19 27 18 31 21 32 32 26 25 25 28 36 20 18 22 20 28
31 19 37 34 21 21 24 30 21 18 21 36 24 18 32 38 24 24 30 37 30 24 35 28 23 21 38 26 18 32 37 34 29 24 38 34 32 21 35 22 19 25 35 26 32 22 37 21 19 37 29 27 32 38 28 28 20 29 21 36 26 18 22 26
19 25 26 30 35 27 31 22 24 27 30 18 27 25 37 34 25 34 26 21 32 19 24 26 34 20 34 22 18 38 38 31 33 28 38 23 34 37 21 37 27 21 23 33 18 38 28 29 29 21 20 22 30 35 38 30 37 31 23 35 37 38 35 31
20 37 35 32 33 31 19 25 36 36 20 26 36 31 24 23 34 21 34 28 30 20 27 27 25 33 24 18 34 20 23 21 18 29 25 31 36 34 19 21 21 38 35 21 24 18 35 36 30 27 31 18 20 22 27 35 32 28 18 38 32 35 23 30
25 35 25 26 27 28 18 33 36 33 34 20 28 34 28 21 34 33 22 34 28 30 35 36 37 31 23 30 31 31 37 36 34 19 23 21 30 28 18 25 25 19 35 23 30 35 22 30 25 19 34 34 21 25 20 27 31 28 35 31 25 23 34 31
24 26 32 20 30 26 37 36 34 20 27 31 29 36 25 23 21 34 23 37 18 23 22 31 26 20 29 20 22 27 33 38 38 23 18 31 21 36 27 27 20 31 36 30 29 36 23 21 36 35 31 26 19 26 25 24 31 29 20 34 28 33 38 34
23 21 19 29 20 28 28 37 31 34 30 18 37 21 36 27 25 37 32 35 24 35 24 31 34 37 23 32 31 27 36 34 19 35 21 33 33 38 19 38 35 38 32 37 18 19 24 33 21 25 26 19 20 20 36 33 38 25 24 19 29 31 25 35
26 27 36 36 26 23 21 36 33 24 33 31 22 18 24 18 36 33 24 23 37 22 24 19 36 26 21 33 24 19 36 26 18 30 27 23 34 36 27 34 36 26 18 34 28 20 31 38 36 34 27 29 21 21 34 38 25 19 33 23 25 33 35 21
31 18 18 33 29 38 30 27 25 30 34 31 32 37 21 36 30 24 35 18 23 35 25 29 27 33 18 36 22 22 27 30 19 34 38 24 35 26 31 30 21 28 37 21 21 29 20 19 31 18 38 20 27 19 28 34 38 33 38 21 31 37 23 25
32 34 27 18 38 20 35 32 37 23 26 35 20 33 28 30 23 18 20 22 26 25 27 30 29 25 30 28 27 29 18 24 28 23 21 24 28 31 32 38 30 36 29 27 35 29 27 32 32 18 28 36 30 22 34 37 25 35 19 21 30 24 35 23
19 24 18 18 34 30 18 29 25 25 26 28 37 38 30 18 28 25 37 36 38 34 29 20 35 38 33 25 36 37 22 26 25 35 28 32 37 26 25 21 36 37 23 34 36 20 28 36 29 21 26 34 28 24 18 18 21 38 31 23 24 37 19 37
