P2
64 64
255
20 25 23 23 19 17 19 22 16 24 23 26 25 17 16 26 25 16 26 17 21 18 26 16 23 15 21 26 20 25 23 18 15 20 16 22 15 15 23 20 19 24 22 17 23 18 15 19 25 15 14 21 18 18 19 18 17 20 26 21 24 26 24 16
19 24 21 14 19 14 18 23 24 24 16 19 25 21 24 21 18 18 22 23 20 15 21 14 20 17 26 22 20 17 22 25 17 21 24 26 25 22 23 19 23 14 15 14 20 17 21 19 26 14 19 14 17 20 15 23 18 18 23 24 17 20 24 16
25 19 17 17 14 16 26 15 25 21 17 22 18 23 18 16 18 26 26 16 19 17 20 17 26 14 15 18 18 15 25 18 22 14 14 17 20 18 19 16 15 16 26 15 20 20 19 21 23 17 19 20 18 23 17 26 23 20 16 14 19 14 19 17
24 21 21 14 25 22 19 18 16 26 19 17 21 17 26 21 18 20 15 21 15 21 15 15 20 22 21 20 14 17 22 22 18 20 15 23 26 25 21 14 17 23 23 14 26 19 20 21 23 20 15 20 20 23 19 17 17 18 21 24 25 21 20 25
20 14 18 17 18 23 18 24 26 21 22 23 26 26 16 19 19 26 24 26 17 23 22 25 26 19 18 14 23 15 16 14 19 16 20 25 20 15 26 19 20 15 23 26 16 20 16 21 19 16 22 20 26 18 19 18 19 21 24 22 17 26 17 25
14 26 19 24 21 19 21 18 23 15 14 14 19 24 19 23 22 22 18 22 15 26 19 25 25 23 19 26 23 18 17 21 14 20 16 23 23 20 16 17 24 22 24 19 21 25 18 18 15 25 21 19 18 20 26 19 19 21 15 23 25 24 23 26
23 22 22 26 21 21 25 20 24 16 18 16 24 22 23 17 17 22 21 24 26 26 24 24 17 23 26 25 20 15 20 16 17 23 22 19 25 25 18 22 26 20 24 16 17 19 24 24 18 23 20 14 20 16 25 16 15 21 16 15 18 15 15 14
23 23 20 16 24 18 17 25 16 21 18 17 16 17 20 17 26 14 20 22 18 20 26 17 24 20 20 19 17 20 21 17 22 26 16 19 15 18 21 25 26 15 18 19 14 26 24 18 20 17 26 16 14 18 16 19 21 23 17 14 18 18 20 18
24 20 26 15 20 18 17 25 18 22 16 17 19 16 25 14 20 19 16 24 25 20 18 16 19 21 24 26 23 25 26 16 24 18 17 19 21 16 21 20 22 15 21 20 20 24 20 22 23 23 26 15 18 21 16 16 26 21 21 15 26 21 14 21
25 25 25 21 16 17 16 23 19 16 24 16 25 16 16 23 16 24 15 14 25 26 18 24 22 21 24 23 22 22 26 17 17 14 20 18 21 24 18 25 26 21 19 26 17 19 19 20 23 18 18 15 18 14 18 22 26 21 14 24 22 18 26 18
22 26 21 25 16 22 23 20 14 16 22 25 14 25 25 24 15 20 19 26 24 21 22 16 15 16 21 15 18 15 25 15 24 23 16 14 23 25 14 25 26 19 25 16 19 19 16 16 14 24 19 16 19 26 17 24 24 14 26 24 19 22 16 14
20 22 19 15 21 17 21 18 16 24 21 18 24 19 26 17 14 15 25 16 17 26 26 20 17 18 20 20 24 21 14 18 14 18 19 19 17 25 19 17 16 20 24 24 25 14 25 26 22 20 26 26 23 20 23 18 25 21 26 21 26 18 25 21
19 15 26 17 22 15 20 14 26 18 16 15 14 24 16 25 15 23 23 23 14 23 18 21 22 15 23 18 21 16 22 18 26 26 19 18 20 16 23 22 24 15 25 25 23 26 14 21 15 26 19 15 26 17 20 15 20 14 14 17 14 25 14 18
20 25 14 26 26 18 25 25 24 18 18 19 21 25 19 15 21 17 26 26 16 23 25 18 26 25 23 24 24 24 26 20 19 15 19 24 15 16 19 24 15 23 24 21 15 17 20 21 22 15 15 26 21 22 17 22 16 19 17 22 19 23 23 20
23 14 15 15 16 19 25 19 23 22 22 25 15 24 20 15 26 21 18 22 21 16 15 25 21 26 23 14 14 26 21 22 17 15 18 25 15 15 15 23 25 26 24 19 18 16 22 16 19 15 23 17 26 19 25 17 22 23 20 16 16 24 25 14
20 20 22 23 26 15 25 14 18 20 15 25 23 20 23 20 21 22 20 19 23 23 21 20 26 25 15 16 17 17 22 21 25 14 20 18 17 22 21 16 18 18 24 23 20 17 17 24 22 16 14 16 14 16 23 14 17 24 17 26 19 26 21 21
26 22 16 19 25 26 17 19 24 22 18 24 17 25 26 17 17 25 23 15 18 15 24 20 18 14 16 19 24 19 18 25 19 18 19 18 20 16 16 17 21 23 15 17 24 24 17 24 23 26 17 18 15 24 21 24 14 18 14 23 21 20 18 23
15 23 15 24 22 20 15 24 20 20 17 26 26 15 19 16 14 23 15 22 24 25 21 16 22 20 23 24 18 15 22 26 24 20 20 20 24 19 15 15 25 16 18 20 23 14 26 15 25 18 17 18 24 21 14 22 22 19 24 22 21 15 18 17
24 14 21 21 22 18 20 21 23 22 19 18 15 25 21 17 22 21 17 25 22 19 24 25 17 14 14 16 22 25 22 26 22 22 18 16 20 25 24 26 17 17 23 20 25 19 25 19 16 16 20 17 19 25 23 15 23 14 25 20 19 23 21 21
20 26 25 21 17 24 17 25 14 14 26 14 20 19 21 17 22 17 28 26 18 22 28 23 25 16 21 21 15 21 20 21 17 16 26 20 14 16 22 18 24 25 23 22 23 18 27 27 26 25 18 15 17 24 16 25 21 16 24 17 25 24 25 18
20 15 25 21 20 21 19 26 15 14 23 17 21 22 19 21 21 27 24 27 34 28 21 28 20 25 22 25 23 25 20 14 20 21 26 16 23 15 19 23 32 31 23 24 28 29 26 23 19 17 18 26 21 21 24 15 16 18 15 20 15 16 15 19
18 21 21 21 14 18 20 25 24 22 14 18 19 19 28 26 29 30 34 35 36 31 31 24 33 31 27 30 17 15 14 26 20 22 23 17 18 22 29 31 29 33 30 36 30 37 27 25 24 21 19 21 20 26 22 18 18 17 25 21 16 24 25 15
21 22 23 18 22 23 16 17 15 19 16 24 27 20 26 34 28 34 31 34 34 30 29 31 38 32 36 33 31 29 24 18 19 24 26 18 22 34 27 28 35 33 41 39 29 32 37 37 31 36 26 25 26 15 15 18 18 25 21 26 18 17 17 22
25 21 16 21 20 23 20 19 16 16 22 24 30 35 26 28 33 40 34 42 43 36 43 39 40 33 33 37 28 24 24 21 25 20 22 30 34 30 33 37 42 42 34 40 45 41 35 32 31 32 30 28 22 19 24 26 15 15 16 23 19 15 21 24
14 26 25 19 25 20 22 18 23 21 21 30 27 28 34 42 40 35 39 45 37 39 38 48 34 35 31 34 38 32 24 23 18 25 25 33 27 37 42 36 35 41 46 41 39 40 45 37 40 31 34 32 25 32 19 18 22 22 23 19 16 25 25 25
20 22 21 16 25 19 19 19 24 17 22 27 33 28 31 42 47 46 45 42 44 48 42 42 40 38 37 38 35 36 31 26 25 21 23 29 37 37 41 39 45 40 43 41 41 42 50 46 39 36 40 28 34 27 29 24 16 24 21 21 17 25 22 14
23 26 15 17 22 16 16 20 14 20 32 34 38 40 36 49 47 49 50 53 47 50 50 51 51 47 45 40 31 38 28 31 30 25 25 34 38 45 48 50 46 46 46 51 52 56 45 48 42 47 41 40 28 30 28 27 18 15 14 19 22 24 22 21
23 23 25 14 15 18 25 20 16 30 28 32 31 45 45 49 44 56 47 52 60 50 54 49 47 47 44 46 34 40 29 29 27 32 28 31 40 47 43 54 55 55 58 60 50 48 52 57 46 51 44 45 41 28 25 24 22 26 20 17 17 23 23 14
19 23 18 24 14 24 17 24 27 24 34 31 44 46 41 42 53 52 58 55 58 61 64 57 59 46 45 45 36 33 38 35 34 36 36 44 43 47 53 47 53 55 59 53 60 61 51 60 55 46 51 37 41 39 30 22 19 21 17 22 15 14 26 19
26 17 22 17 21 24 18 15 23 26 37 35 35 47 47 46 53 52 54 60 68 64 57 63 57 51 50 42 39 36 40 36 37 42 37 43 46 46 47 49 62 53 60 57 66 63 54 59 51 48 49 38 34 31 32 33 26 18 24 25 22 23 20 16
21 19 25 26 26 19 17 19 31 34 27 34 45 43 42 54 53 59 60 71 64 61 62 57 61 56 53 54 47 45 32 44 43 35 40 37 39 48 57 56 58 60 71 68 69 64 59 59 52 56 50 43 34 32 34 27 26 16 20 20 23 21 15 15
15 26 16 26 18 25 15 20 22 31 27 38 36 43 45 48 54 65 60 74 64 70 65 62 54 62 51 47 44 45 43 43 32 39 36 36 48 49 52 57 66 67 71 74 64 71 68 64 59 59 43 42 43 37 28 25 22 18 24 20 16 22 21 26
22 21 24 22 15 18 23 28 28 30 33 41 46 49 47 58 60 63 70 67 71 70 72 62 62 51 47 49 39 35 39 44 36 40 35 44 44 48 57 60 58 65 64 74 79 67 71 59 58 56 44 45 35 38 28 33 22 23 19 22 17 15 19 17
23 15 26 21 21 24 24 20 22 23 33 43 46 40 52 52 61 62 58 62 76 72 70 66 63 51 47 51 47 41 37 43 36 40 44 47 48 45 53 60 65 59 65 69 67 62 58 54 51 58 51 44 36 43 33 28 31 28 15 21 14 26 16 18
21 14 17 18 17 15 16 18 27 35 28 33 36 40 43 55 52 54 65 65 72 70 63 64 60 60 52 52 43 42 32 39 37 33 35 39 41 51 56 52 58 63 66 63 64 68 63 65 56 51 52 40 35 34 27 30 31 21 19 15 18 16 22 22
19 25 20 23 26 24 20 26 20 22 27 34 41 43 53 45 55 58 63 61 68 63 64 53 52 47 53 48 47 36 42 38 41 31 34 40 47 52 54 57 59 53 55 64 59 65 55 56 48 54 47 40 40 39 34 25 21 18 14 14 16 19 14 14
21 19 22 15 26 20 23 16 27 31 35 39 36 44 47 47 51 53 51 63 65 55 61 53 50 57 46 47 44 33 38 32 32 32 28 32 36 50 51 51 58 56 52 65 65 62 60 56 55 48 39 39 34 39 28 25 23 23 14 26 18 26 18 19
26 17 15 22 21 25 19 17 17 21 26 39 40 42 40 44 51 56 54 54 50 51 52 49 45 47 49 44 38 35 30 29 31 27 31 35 37 36 41 52 49 53 55 50 59 51 48 48 42 43 43 44 30 38 24 32 22 19 24 19 22 26 23 20
25 25 20 25 21 25 19 26 15 30 24 33 32 31 39 45 44 44 50 47 45 45 54 44 51 50 38 42 43 29 33 32 33 29 27 32 38 42 48 40 48 48 49 47 49 49 52 49 49 44 35 39 40 32 32 20 26 15 24 15 24 24 17 17
23 23 18 20 26 24 27 22 26 26 23 34 30 41 43 40 43 43 52 45 49 54 52 48 53 46 47 38 41 31 27 27 25 31 33 36 41 44 43 47 53 56 48 54 52 51 49 46 51 51 37 46 40 36 31 28 23 31 22 24 30 23 27 24
32 31 33 22 21 28 28 23 30 21 32 37 35 45 47 40 44 45 46 50 55 47 51 48 50 47 48 41 42 37 39 37 30 31 39 44 44 50 53 51 51 59 53 59 57 53 54 49 49 55 49 49 36 41 32 28 31 36 38 37 28 28 31 30
30 29 25 26 26 31 31 26 30 35 28 34 35 42 47 48 51 49 48 45 50 53 55 52 49 42 46 47 38 43 43 29 34 33 39 42 38 48 42 50 47 48 61 57 58 60 50 59 49 48 44 45 47 45 44 38 43 38 36 43 44 45 44 43
32 31 32 20 21 30 29 29 23 32 27 28 35 38 37 34 45 39 48 47 41 46 39 46 42 38 41 41 34 36 29 25 24 24 30 31 33 44 40 47 48 44 50 43 52 50 47 44 41 47 34 42 40 32 31 28 35 31 31 33 30 28 28 33
21 21 22 25 20 27 21 28 27 25 25 17 26 25 26 23 35 28 37 32 41 38 35 29 37 31 31 23 31 22 23 29 28 21 27 19 30 30 32 27 30 34 38 35 33 37 41 30 39 25 34 30 30 30 24 25 28 23 31 23 25 31 21 20
23 22 22 17 16 19 26 17 16 21 20 25 15 23 23 28 29 20 32 28 34 24 23 21 26 18 19 22 19 22 21 21 20 25 20 15 15 17 18 18 27 22 23 27 23 23 30 27 28 18 22 24 21 14 14 20 23 17 26 20 18 26 21 23
19 19 15 24 22 22 23 24 16 19 19 22 15 20 20 26 23 26 21 26 24 20 23 22 20 15 22 19 19 23 22 14 19 18 22 17 15 19 19 19 17 26 21 18 27 17 18 22 20 21 14 16 22 22 15 25 18 16 18 22 14 25 22 18
24 14 15 14 20 25 16 21 24 18 24 14 16 21 18 19 16 20 23 15 24 15 16 21 24 18 26 18 17 17 17 22 20 20 25 22 14 18 23 15 17 17 17 14 14 14 17 22 19 23 25 22 24 23 17 25 15 17 25 16 14 21 22 23
21 15 22 16 19 15 22 25 22 19 25 23 23 19 26 17 14 17 25 20 22 26 15 24 24 24 14 23 17 24 20 17 24 14 19 17 25 20 26 21 25 25 22 23 15 15 22 15 22 16 14 22 14 18 18 14 14 16 25 14 25 25 19 23
19 20 24 15 19 21 20 20 24 21 25 14 16 16 19 25 23 25 15 24 16 17 24 17 20 19 22 17 22 25 14 19 20 17 15 25 24 24 23 18 21 26 24 25 17 18 16 26 26 24 19 26 18 16 20 24 18 16 25 25 17 15 20 20
21 16 19 18 14 16 17 15 16 18 22 22 26 22 15 26 21 23 25 18 25 23 18 23 17 17 22 15 15 18 24 20 24 14 23 17 24 22 23 25 25 16 21 26 22 18 17 16 15 20 19 23 14 25 16 16 18 23 19 20 23 26 14 19
25 18 15 20 15 24 26 26 21 20 20 26 26 22 18 26 22 16 26 19 26 24 20 18 20 22 20 21 22 22 23 25 16 23 22 26 23 18 16 18 22 21 18 15 18 16 23 25 23 25 26 22 18 26 15 14 16 23 19 21 19 21 25 16
25 16 19 19 24 25 20 25 16 25 17 23 19 22 18 25 26 26 17 15 24 19 19 18 24 21 22 21 20 20 25 16 17 17 26 18 26 16 24 16 17 23 24 26 23 15 16 26 26 19 18 23 26 20 18 14 17 17 14 25 17 25 25 18
21 14 16 18 26 14 25 23 23 26 16 14 20 24 25 15 16 15 26 23 18 18 16 24 20 26 15 21 26 15 24 26 23 22 16 14 14 26 26 24 21 19 20 14 23 24 24 15 26 21 21 23 14 16 15 21 16 26 16 16 16 14 16 25
26 14 24 26 19 26 25 23 21 19 19 22 15 23 14 20 24 19 22 14 25 15 24 19 20 18 24 15 20 21 19 23 15 17 15 17 16 22 14 16 17 17 15 20 14 24 21 19 23 23 18 16 15 24 20 25 23 23 14 22 15 25 18 17
22 25 24 16 23 15 20 15 25 19 17 23 16 25 18 19 22 19 25 15 17 17 26 15 24 23 25 25 17 22 17 19 15 23 16 17 24 14 23 15 20 19 17 21 24 22 23 24 24 19 21 21 18 23 14 22 18 17 21 18 18 23 18 16
16 23 24 26 15 26 26 25 26 19 18 23 24 21 25 23 22 20 25 16 24 22 22 18 19 20 18 25 15 20 26 19 26 19 26 19 21 14 16 15 25 23 22 26 24 21 23 23 15 21 16 26 22 26 25 17 23 25 14 17 20 20 24 17
20 18 25 21 18 26 15 18 19 18 15 14 14 22 15 24 24 14 17 22 14 22 22 26 20 25 25 15 25 20 18 22 25 23 16 14 18 18 21 20 22 23 20 23 24 14 18 19 25 17 21 14 18 15 26 22 25 21 18 23 22 14 25 17
21 16 24 21 14 24 21 21 17 22 19 15 16 18 19 20 19 17 24 15 14 14 15 22 22 22 17 15 22 14 14 15 22 18 14 22 24 14 21 20 14 23 23 22 20 19 16 24 15 18 18 24 25 17 26 18 20 26 22 20 16 14 17 19
17 23 25 18 14 24 24 25 22 24 21 26 20 18 16 25 21 24 22 15 23 23 25 22 21 14 22 19 18 16 18 19 26 16 21 21 14 19 21 22 22 20 26 17 19 23 19 18 17 23 15 17 25 14 14 26 24 16 17 14 21 21 15 21
24 24 16 17 24 26 26 16 20 25 14 20 18 18 14 19 15 25 19 21 22 18 23 17 14 22 22 22 20 19 18 21 25 15 17 17 17 21 19 18 21 17 17 22 17 19 24 24 17 16 14 23 26 22 25 25 19 21 17 25 23 26 24 18
24 24 19 21 22 22 22 23 14 26 19 22 14 26 19 26 20 22 26 22 17 21 22 21 22 22 17 25 19 22 17 21 25 14 26 16 24 22 16 17 18 25 16 15 16 25 26 17 23 23 22 20 23 16 22 21 16 20 16 24 25 14 18 26
26 16 14 26 20 17 19 22 23 25 21 15 16 25 15 21 16 14 26 16 24 22 19 22 25 15 16 21 17 24 17 25 21 25 25 15 19 14 21 18 25 16 15 21 17 19 24 17 15 24 17 22 25 19 15 16 23 21 17 22 23 15 21 22
18 18 23 24 14 14 19 25 25 22 14 18 16 16 15 15 20 24 17 17 22 24 20 25 15 21 19 24 26 22 26 25 16 20 19 22 15 19 21 23 23 25 23 16 20 25 25 26 16 17 21 24 25 19 21 20 20 19 25 24 20 20 20 20
16 15 19 25 18 20 20 22 24 17 23 22 22 14 16 19 21 18 20 14 23 21 17 15 21 21 17 18 24 24 22 26 26 21 15 16 20 24 17 16 17 18 23 25 18 17 23 14 18 18 26 26 19 16 24 25 15 23 23 24 26 14 17 22
