P2
64 64
255
37 19 35 37 23 25 18 24 21 24 29 25 20 18 28 25 33 31 23 37 36 32 20 27 36 23 21 26 22 24 26 28 24 36 24 18 35 38 24 20 23 19 36 23 36 27 33 24 23 29 30 23 34 38 35 35 18 37 32 21 30 23 29 26
37 19 18 24 20 34 23 20 25 29 31 30 28 28 31 30 35 18 25 26 24 21 24 32 30 26 18 19 25 30 33 24 27 38 31 27 28 30 36 24 24 38 35 23 22 22 37 19 26 19 29 37 32 29 20 30 29 25 29 29 29 31 26 37
20 20 21 28 23 33 36 20 36 35 22 33 28 34 28 37 24 19 31 32 32 33 38 35 33 37 18 19 26 27 32 20 22 27 25 32 23 25 24 38 27 19 31 22 19 25 29 38 22 36 28 30 18 20 33 25 31 33 29 32 21 25 27 32
28 23 32 22 29 20 23 25 20 18 21 26 38 20 25 33 28 18 23 33 24 35 27 28 32 24 25 32 19 27 26 19 18 29 26 18 33 27 36 24 18 27 23 32 30 24 21 34 18 36 20 33 25 20 29 31 18 35 31 33 27 34 36 30
38 32 33 34 31 24 37 37 38 24 27 32 29 18 38 30 26 31 25 31 25 26 25 28 21 21 25 35 22 28 24 37 24 28 20 27 24 19 37 19 22 25 31 24 32 29 28 37 20 18 22 19 21 23 29 35 23 27 23 38 37 31 24 24
31 36 32 21 33 21 34 28 27 20 31 21 24 19 18 32 19 19 27 24 29 29 35 18 19 27 24 34 33 24 36 20 26 21 30 32 22 33 22 26 31 35 18 21 21 20 30 32 35 20 34 24 32 24 31 18 25 29 26 31 19 19 35 33
37 18 35 33 34 33 20 33 18 28 25 23 28 32 19 37 31 30 29 24 28 21 34 19 31 28 24 26 20 37 21 24 26 38 29 24 23 30 30 32 37 32 24 25 31 35 27 27 21 24 21 36 36 33 26 29 18 34 34 25 33 34 29 22
19 24 18 33 23 23 23 22 25 22 28 23 24 30 18 26 29 34 18 31 32 27 27 29 20 22 21 31 32 29 20 20 27 32 23 22 38 37 27 24 26 22 29 34 34 30 32 37 27 36 27 18 25 38 37 37 25 32 37 35 23 27 25 32
19 31 19 28 34 23 32 19 35 28 26 36 38 26 38 30 24 38 37 31 20 25 29 31 19 23 22 22 26 37 38 26 38 32 38 28 30 25 29 27 20 34 19 29 29 37 37 21 18 31 37 35 35 36 38 38 21 36 31 18 27 34 34 29
25 18 37 37 23 24 19 33 21 26 29 26 38 29 35 22 28 29 36 36 25 22 32 38 31 21 27 30 28 26 35 30 28 29 36 34 29 21 25 35 27 18 23 22 35 28 36 18 23 23 38 20 30 34 33 33 37 26 19 38 29 24 37 32
35 20 24 35 37 21 18 27 27 21 28 25 32 37 24 30 26 18 19 38 33 20 21 33 19 37 31 32 37 31 23 30 20 19 38 26 18 26 34 33 27 20 23 24 20 21 24 36 26 23 20 32 19 23 20 18 36 18 28 21 27 22 20 32
22 25 26 33 20 33 36 22 20 32 18 35 29 38 28 22 18 25 38 32 25 35 19 28 38 22 36 35 21 21 26 36 34 28 30 22 24 22 18 21 21 23 34 34 32 34 24 38 27 33 25 27 33 33 36 38 20 26 27 33 29 23 25 29
20 19 36 18 38 26 34 37 36 34 38 25 30 19 32 29 32 25 30 24 19 19 20 38 28 19 34 35 31 31 18 34 27 24 30 27 24 38 25 36 20 32 20 26 23 26 22 23 19 33 23 32 27 29 37 33 23 25 18 24 18 32 31 23
20 19 27 37 23 26 36 24 24 34 25 27 23 30 31 29 37 29 30 38 25 32 28 31 21 37 22 26 29 35 32 35 35 18 37 26 26 25 33 23 20 34 20 32 35 19 37 26 27 33 31 19 24 26 20 21 18 37 33 21 32 33 38 32
29 27 24 27 31 29 32 23 24 20 29 28 32 27 20 27 34 35 25 25 27 29 24 37 29 29 26 37 29 37 29 33 23 19 24 30 24 20 20 32 22 18 23 19 30 27 19 25 27 35 22 38 18 31 29 32 27 21 26 34 19 25 35 28
21 34 26 24 32 34 22 27 21 38 37 30 20 32 25 23 24 20 38 18 23 18 19 35 37 19 30 25 27 38 36 30 21 27 28 32 28 18 28 18 20 24 33 35 29 34 34 32 22 37 22 20 24 38 29 30 20 38 34 21 26 36 35 20
26 35 21 33 26 38 25 36 25 18 34 22 35 24 38 34 18 32 26 31 18 23 23 38 35 21 34 28 30 26 36 38 38 31 27 18 32 22 31 30 19 22 28 26 32 26 35 22 21 31 27 38 18 36 35 25 26 19 32 29 29 38 35 19
37 28 35 37 36 38 37 20 26 27 36 18 33 35 26 24 30 25 22 28 24 22 34 26 25 27 28 34 33 18 29 20 25 18 31 20 23 31 23 19 20 33 30 28 33 31 38 35 38 27 31 28 29 22 26 36 37 34 21 21 22 21 30 20
25 21 37 28 23 27 31 38 24 32 35 19 35 20 38 27 24 26 28 18 24 32 22 33 26 29 24 35 34 22 34 34 36 29 36 25 20 24 22 24 24 18 18 20 34 20 35 23 22 32 25 25 34 27 20 23 24 29 24 27 35 22 32 30
34 21 30 19 33 19 36 22 29 35 35 36 36 25 26 36 24 39 29 30 35 34 41 37 23 36 23 27 18 21 32 21 28 36 18 33 19 20 27 24 25 35 36 24 30 36 41 36 37 21 34 36 35 37 24 30 32 22 33 35 31 22 29 22
25 25 29 33 26 27 34 20 36 38 25 36 23 21 31 36 26 34 29 36 46 33 44 30 24 33 27 36 28 26 19 24 25 22 33 30 21 31 31 25 39 41 35 31 34 32 26 31 23 35 36 25 37 33 25 23 25 33 23 36 31 19 30 21
27 25 35 24 33 29 31 25 20 29 25 32 31 24 36 33 29 27 42 35 49 32 31 37 27 40 31 38 28 33 27 24 19 19 105 36 25 37 25 46 36 36 30 38 49 34 44 29 40 42 36 25 32 20 30 19 28 20 28 21 20 29 32 19
34 19 33 20 34 19 37 35 18 27 25 28 24 39 33 41 46 35 43 34 42 42 45 34 49 31 34 41 30 33 39 33 34 18 107 27 34 27 32 33 48 51 52 33 50 50 32 46 31 33 37 33 41 21 25 28 30 34 36 18 31 28 33 20
27 28 32 38 23 34 33 25 21 20 27 34 27 44 47 39 37 55 39 53 38 47 51 45 45 46 38 36 45 24 34 25 34 105 122 34 33 35 35 42 45 55 40 45 56 56 41 50 50 36 33 43 28 39 33 37 33 29 32 27 38 35 34 18
22 22 24 28 35 28 25 31 24 27 31 27 37 48 38 45 43 43 50 46 52 47 56 52 46 37 43 44 50 35 37 27 18 113 121 39 33 48 46 51 40 55 47 51 52 61 55 43 39 53 39 45 32 33 35 22 38 22 34 28 28 25 29 29
27 21 32 37 22 24 25 26 20 23 40 36 49 33 47 52 48 43 58 49 49 53 58 54 59 47 49 48 51 29 43 116 35 116 43 117 44 39 41 58 46 57 56 59 55 47 61 54 52 41 44 48 50 39 36 21 36 38 21 28 25 33 24 28
25 26 26 35 38 34 30 26 22 22 37 37 40 49 58 57 50 48 64 54 50 63 49 52 58 44 56 47 36 39 31 112 33 44 211 41 35 40 54 60 61 66 67 51 56 66 54 58 52 49 56 51 42 48 27 27 28 32 22 29 31 25 36 22
26 20 23 19 32 36 24 31 20 25 39 44 50 38 41 44 65 49 51 62 59 64 59 52 58 53 45 54 37 46 132 117 36 38 116 121 39 46 46 58 69 61 70 64 71 64 61 58 59 50 48 52 54 31 41 40 33 29 21 36 38 18 32 37
36 32 30 37 36 20 28 20 34 26 30 34 37 56 63 61 60 66 71 63 74 65 66 67 62 67 55 57 56 140 129 40 52 136 36 126 58 56 63 64 58 71 76 63 64 76 57 58 49 47 60 57 55 48 48 28 38 37 26 22 38 25 33 25
27 19 22 32 27 20 27 37 26 30 41 48 41 46 65 65 68 55 69 79 68 64 75 73 61 55 56 46 47 55 210 37 129 133 40 50 130 60 50 53 74 69 77 77 70 77 63 75 56 55 52 54 46 34 44 37 32 37 36 33 19 28 34 26
24 34 28 38 32 33 34 36 42 37 41 37 41 59 62 50 63 68 70 70 82 84 71 68 57 60 54 64 50 123 39 136 128 52 125 45 140 47 65 58 62 78 63 69 73 69 70 58 65 63 53 59 39 40 45 33 25 20 38 31 36 23 25 24
18 23 29 33 22 19 27 38 27 44 50 52 52 50 54 70 67 58 78 69 73 79 69 62 73 64 70 62 140 48 50 40 132 139 129 132 50 67 62 74 63 79 66 68 84 77 69 66 64 61 51 54 46 36 35 27 41 28 34 36 18 20 30 20
23 25 19 19 18 33 31 35 42 47 35 41 51 56 52 55 66 59 70 68 77 82 82 70 77 71 60 62 54 135 52 50 225 50 127 130 45 50 56 74 70 81 77 83 72 74 81 60 63 68 49 57 53 49 43 42 24 22 32 26 26 23 19 27
21 28 23 35 24 38 21 38 43 39 49 41 50 52 47 71 74 78 72 68 74 86 67 70 60 72 64 57 52 140 39 56 206 42 123 57 140 49 58 60 70 77 70 85 76 67 77 73 69 59 55 44 47 44 40 45 38 24 37 35 25 29 18 37
33 42 24 40 38 40 27 43 30 37 54 57 55 59 63 57 61 83 80 73 86 77 73 71 76 65 67 59 67 63 134 44 44 247 63 60 61 149 72 60 81 75 77 82 81 80 77 82 81 68 64 52 60 61 44 39 44 29 37 31 43 38 43 31
44 38 46 47 46 37 32 45 53 47 44 50 65 53 77 80 64 85 75 87 74 78 80 71 80 69 66 59 60 62 65 152 154 67 240 60 62 77 150 83 71 92 81 81 87 84 84 93 85 71 70 73 56 62 54 51 44 55 49 58 56 50 48 54
37 50 36 36 51 39 42 51 55 51 56 66 55 62 82 80 84 76 94 90 80 88 81 87 78 88 77 82 82 64 63 157 76 147 142 149 82 76 171 92 90 86 100 103 90 101 99 99 92 85 86 78 68 77 77 71 61 57 66 64 69 60 56 61
46 46 56 55 60 41 50 53 53 57 70 60 69 78 70 71 91 80 91 99 84 101 82 82 86 95 93 84 69 83 72 76 147 75 162 172 173 81 172 98 96 91 91 98 108 106 95 102 102 95 83 83 85 79 72 80 76 75 61 67 74 71 78 70
46 42 43 43 36 38 57 45 42 42 54 49 58 61 71 72 77 82 83 71 77 90 81 73 88 86 79 76 76 61 71 145 62 148 150 65 68 166 170 76 81 75 95 82 80 89 96 88 87 77 81 67 83 70 57 60 53 52 62 60 69 67 61 64
41 32 44 50 47 43 46 33 32 38 41 41 49 59 53 58 73 69 66 61 70 65 69 62 74 75 57 52 67 47 60 134 52 132 141 48 56 234 68 63 73 71 69 70 82 71 79 74 78 64 57 66 61 67 51 44 52 57 56 45 43 51 54 41
24 31 40 43 34 27 32 27 25 28 33 42 54 41 51 47 46 46 48 54 50 66 59 61 54 55 45 56 51 56 53 44 128 202 37 56 58 58 219 65 48 50 57 67 62 57 58 49 53 63 59 50 40 43 52 36 36 40 44 43 36 32 30 45
23 25 33 24 23 34 35 33 22 32 38 32 37 31 31 51 50 49 46 46 54 42 55 56 55 41 45 45 30 32 41 122 122 26 115 40 33 119 133 53 42 49 42 42 45 41 51 51 49 44 50 32 45 33 23 24 22 35 29 23 34 31 30 34
37 21 29 25 34 34 25 34 38 21 26 19 27 36 41 48 47 33 35 45 44 37 38 37 51 49 36 26 33 23 38 107 32 203 28 37 29 124 118 37 31 46 33 51 39 50 50 42 46 38 40 32 30 24 38 20 22 31 20 26 30 38 37 24
38 33 23 24 28 34 34 30 23 36 35 34 32 25 30 44 32 41 34 36 32 40 34 31 43 36 35 26 30 26 29 23 202 32 104 37 28 122 109 26 31 44 43 32 31 29 48 28 46 37 24 25 26 27 18 31 21 21 24 28 34 30 26 30
32 38 32 33 34 25 36 25 25 18 26 37 32 29 19 28 42 26 31 43 34 30 33 27 26 22 24 29 31 30 18 103 119 26 105 28 123 110 24 34 44 27 43 46 32 41 25 43 32 26 23 32 28 34 28 27 28 33 34 23 18 19 22 36
24 33 32 18 33 36 20 24 23 25 29 32 26 34 38 38 31 33 36 36 26 40 34 37 27 27 18 23 35 25 103 122 28 29 18 123 103 117 24 36 24 38 29 32 25 38 34 37 28 26 20 18 22 19 31 27 23 29 25 25 26 34 30 38
24 25 36 34 32 33 20 37 24 30 18 31 33 19 34 26 36 37 35 36 31 23 37 28 30 34 33 18 28 119 114 19 26 23 123 23 113 110 20 29 24 34 36 32 26 26 29 31 32 36 22 33 28 19 24 38 33 24 25 33 27 26 25 18
31 19 19 19 25 32 25 27 23 35 36 31 20 38 24 27 28 19 37 31 30 31 18 30 38 32 22 28 121 123 21 30 35 31 30 121 198 34 26 21 38 21 21 26 33 30 29 23 31 24 23 34 30 32 25 18 25 32 26 28 38 20 28 32
35 35 30 19 19 26 27 20 28 27 26 32 38 28 28 18 31 38 29 38 29 24 36 24 33 38 19 23 29 190 33 21 21 19 117 123 19 117 24 38 34 37 35 27 29 25 34 32 25 20 26 28 19 27 21 27 23 36 29 30 26 18 21 20
28 32 24 21 25 28 19 26 22 28 37 26 36 36 22 25 32 32 25 24 33 27 31 32 20 28 19 37 116 26 117 20 28 34 118 106 21 21 119 32 18 24 22 29 21 32 34 25 24 20 23 36 19 23 19 35 37 34 27 37 24 19 36 24
23 32 34 27 29 36 20 26 37 31 20 23 37 27 36 21 18 26 25 19 26 36 34 24 28 38 23 108 34 38 105 26 26 34 29 205 32 109 20 22 36 32 23 29 19 26 22 20 23 35 25 20 23 23 21 28 18 21 19 19 22 33 28 25
23 31 28 34 18 32 24 28 22 22 31 30 28 18 28 23 32 22 38 31 35 30 25 34 18 20 20 21 110 109 29 32 24 31 196 21 106 25 32 33 36 22 37 26 20 31 36 26 34 26 29 22 31 22 38 33 26 25 25 18 38 20 20 25
23 36 19 19 30 29 28 24 20 23 23 35 35 24 29 37 29 32 38 34 28 23 38 33 35 31 32 24 200 25 30 29 30 18 109 122 120 34 21 37 25 21 21 28 36 32 29 23 37 27 26 22 37 35 37 31 34 24 33 31 22 23 32 29
25 22 22 31 27 28 31 24 34 19 35 27 37 31 32 36 19 35 34 21 29 21 28 26 32 25 26 28 193 21 27 28 18 18 202 32 38 28 18 24 28 27 37 25 29 35 33 27 30 33 27 31 19 24 34 31 36 30 38 28 29 35 28 21
37 36 28 34 35 28 19 24 22 19 28 26 25 36 32 19 18 37 24 20 26 32 29 19 27 30 33 113 22 109 22 20 18 111 29 122 22 31 32 18 20 30 35 33 38 36 19 19 24 35 35 23 19 37 33 21 36 36 25 23 32 18 32 30
29 35 32 37 19 34 28 24 18 21 28 28 22 29 24 28 36 38 25 33 28 36 30 33 22 38 21 26 191 33 22 34 27 28 123 28 36 25 18 28 33 25 36 32 25 26 35 26 32 19 22 27 26 29 32 25 33 22 34 26 31 32 20 22
23 32 34 32 37 18 38 25 21 35 29 33 18 38 34 32 31 28 22 31 22 19 23 38 19 20 34 112 24 119 18 35 29 116 38 29 35 32 36 20 33 27 22 22 21 23 34 34 25 22 24 37 32 19 24 21 26 27 29 36 23 32 23 22
18 26 33 28 21 38 33 34 34 29 19 30 26 36 33 19 23 37 19 25 21 35 31 30 24 31 20 19 36 26 112 21 107 32 36 35 30 23 20 32 38 26 32 25 38 18 21 23 19 35 24 27 26 33 35 22 27 34 25 34 27 19 34 21
35 21 24 24 29 23 35 22 33 33 34 25 30 25 22 27 38 38 36 33 32 38 31 34 29 24 33 29 25 103 21 38 110 34 25 38 29 19 20 18 31 26 30 34 25 36 38 21 19 20 25 23 31 20 25 33 29 35 31 37 27 34 29 26
34 38 38 34 37 19 21 28 28 37 35 21 38 28 32 19 25 28 36 34 18 37 34 22 34 32 32 21 109 26 28 29 23 20 22 29 27 24 25 21 26 31 20 29 37 18 18 20 35 23 24 37 22 18 33 28 31 19 20 22 36 38 36 37
38 37 23 30 36 22 24 38 20 21 35 30 34 33 35 22 38 34 22 33 32 26 34 27 22 32 30 115 36 38 31 22 24 27 28 38 25 33 28 24 32 38 35 29 25 18 25 20 33 32 30 29 21 23 34 35 29 29 29 29 21 25 38 22
23 18 32 22 20 23 38 25 19 35 31 22 38 36 31 34 29 36 27 36 18 18 20 37 38 31 31 31 31 22 37 29 22 21 30 34 38 18 24 25 37 31 18 21 30 33 38 23 24 37 34 28 31 27 33 19 23 29 36 31 31 29 38 31
28 21 33 33 20 32 28 18 38 31 27 38 22 31 31 20 22 30 23 24 33 19 29 22 35 29 24 20 20 38 19 32 20 28 36 27 38 25 30 26 21 22 28 34 18 37 28 20 35 26 19 32 25 32 20 34 27 37 19 25 37 23 36 34
32 23 36 23 36 18 24 24 32 36 22 38 18 36 31 24 35 38 20 37 21 23 27 38 18 18 25 33 24 26 21 29 26 28 22 30 28 34 25 20 19 31 18 28 29 36 34 33 21 27 30 32 36 18 38 31 26 26 23 25 18 31 23 23
