P2
64 64
255
23 18 23 26 18 25 22 22 19 23 18 24 16 20 26 19 17 23 19 20 21 22 22 20 21 23 16 16 26 24 19 19 24 21 14 24 16 14 17 15 17 20 21 23 14 21 23 15 15 17 16 23 16 23 22 19 20 19 19 21 16 16 26 25
14 22 21 20 19 24 14 21 17 18 24 22 26 18 17 20 24 18 25 21 19 21 15 20 21 16 14 16 26 17 15 18 16 14 15 17 24 20 19 14 18 24 22 20 21 21 24 19 25 26 25 18 19 22 23 20 26 23 25 25 15 21 20 15
17 15 14 21 20 24 24 24 20 18 20 18 17 23 18 26 22 16 20 16 18 23 20 22 25 21 17 15 15 19 16 18 23 26 20 14 20 26 22 24 25 24 14 17 23 16 26 16 25 26 24 19 26 22 16 17 20 14 21 26 22 21 17 26
18 23 22 17 19 23 17 20 14 21 18 22 17 15 24 23 19 16 23 21 25 26 20 22 21 19 16 19 23 20 17 25 21 18 22 23 16 16 23 19 15 21 15 26 19 25 22 19 19 20 25 18 22 23 20 18 25 16 15 26 24 22 14 23
17 21 26 18 23 14 21 26 18 24 20 17 17 14 17 21 20 17 16 21 20 22 16 26 16 25 26 25 22 24 17 25 14 26 21 23 19 23 18 20 24 15 21 23 14 22 26 25 21 24 18 17 20 18 14 24 14 26 22 25 18 23 15 22
16 20 20 20 21 17 20 18 22 19 22 18 16 15 18 23 17 22 21 14 25 18 17 19 21 19 26 26 15 16 25 15 26 14 23 14 21 19 20 21 14 24 18 18 20 17 17 24 20 25 25 25 26 23 17 24 22 21 20 24 18 17 14 20
21 23 21 20 23 17 19 14 18 25 25 18 24 25 22 20 24 25 14 17 25 26 24 21 18 20 20 14 20 23 20 14 17 21 26 19 25 26 23 21 17 25 19 17 15 23 17 14 23 22 18 25 23 23 15 17 17 15 20 24 14 14 19 20
14 21 16 17 26 15 19 18 26 23 25 26 14 14 19 25 16 15 16 23 14 17 16 20 25 15 18 19 16 15 17 22 18 19 22 14 16 14 20 25 20 20 15 17 19 24 25 23 24 16 19 26 25 20 17 20 25 22 22 23 15 19 26 26
14 25 21 22 25 16 18 21 20 20 22 14 17 15 16 24 17 14 19 26 17 14 23 16 15 21 21 24 20 16 16 21 17 17 25 15 17 25 26 26 14 24 26 25 16 16 18 20 24 21 25 14 16 16 17 19 20 17 14 17 18 18 23 23
23 21 17 19 17 21 14 24 26 17 22 22 23 16 25 16 15 23 16 23 22 20 25 19 18 14 22 16 16 15 14 20 17 21 22 22 18 20 24 26 21 20 18 24 20 19 17 20 19 19 23 16 17 17 14 22 23 18 20 15 19 21 24 23
25 18 15 21 26 20 19 16 26 21 20 20 15 20 18 16 23 25 14 23 23 24 21 23 14 26 22 23 14 14 23 25 19 14 26 23 22 26 19 23 21 20 24 19 18 23 21 19 21 17 16 21 16 14 23 25 14 19 25 25 16 15 24 22
17 20 14 17 25 19 17 24 22 14 22 24 15 16 25 26 15 23 25 24 16 17 19 15 17 21 19 15 18 20 23 18 20 19 18 16 24 19 23 24 18 18 20 18 21 25 22 18 14 19 14 22 19 24 18 23 14 18 26 16 20 26 21 23
26 16 20 16 17 19 15 15 21 17 18 25 26 18 20 22 14 17 23 22 18 23 25 15 22 18 26 20 17 20 24 17 22 18 21 26 23 17 18 22 17 17 15 16 16 15 14 20 14 25 18 24 21 25 26 25 15 23 17 17 17 22 21 22
16 16 25 25 21 20 16 24 16 17 17 20 18 20 18 23 17 23 23 23 14 18 24 25 17 16 16 15 21 23 18 26 24 18 17 14 21 20 17 23 14 25 26 17 21 16 16 17 17 26 26 24 20 15 18 19 18 20 19 22 20 18 25 17
17 17 15 26 15 14 18 22 17 20 23 23 21 16 19 24 17 24 20 19 20 23 25 23 20 26 26 15 17 15 25 18 26 19 26 15 19 26 24 26 18 22 23 16 22 21 25 23 26 18 26 20 21 16 26 23 25 22 20 19 20 24 19 25
22 14 22 20 23 20 22 21 19 16 19 21 23 26 25 14 22 19 19 24 23 14 25 18 17 22 26 14 17 19 26 21 22 20 17 16 25 24 21 22 14 24 16 14 22 16 26 18 17 19 26 15 20 17 20 23 14 14 23 26 21 14 18 23
26 17 17 14 26 14 20 20 19 25 26 24 18 19 25 14 16 21 14 14 15 24 15 22 20 22 15 21 23 23 25 17 26 26 21 19 16 22 16 22 20 14 19 18 16 22 18 18 21 15 17 16 26 25 16 25 21 26 21 23 25 20 22 21
15 21 26 20 21 18 14 19 22 26 20 18 15 25 26 15 22 17 16 15 26 22 21 17 20 15 24 22 24 24 14 18 18 26 22 25 15 19 23 18 20 18 19 18 20 16 14 26 17 14 18 15 16 16 22 26 20 14 15 19 24 17 19 26
19 26 24 20 17 26 20 20 25 17 18 15 15 15 18 26 14 17 25 24 25 20 24 19 25 24 19 18 16 23 18 16 24 21 22 26 23 22 16 16 15 25 18 25 22 21 22 19 16 20 21 14 19 17 23 26 21 21 22 14 23 20 23 26
14 19 21 23 26 14 17 20 23 18 16 18 25 14 21 22 17 18 25 17 20 24 20 23 24 19 22 19 20 14 21 19 18 26 24 16 23 20 24 26 22 19 28 29 27 17 24 25 22 18 16 24 14 16 20 26 26 18 19 15 24 21 24 24
20 26 22 26 18 23 20 17 25 14 16 20 25 24 18 27 23 24 27 25 26 26 26 32 23 22 21 22 26 17 22 22 26 16 25 23 20 15 21 24 24 25 23 31 25 31 28 30 27 17 15 16 20 17 24 24 23 22 18 14 25 15 25 20
23 26 24 16 22 17 14 23 14 17 17 20 26 27 22 31 31 34 30 36 34 33 27 31 33 27 29 20 23 20 19 23 18 15 17 19 21 27 26 30 29 33 35 34 35 31 31 27 26 30 24 26 22 23 25 15 20 20 18 23 25 25 20 20
24 23 17 24 22 20 25 21 16 25 22 23 17 26 29 36 38 33 30 32 32 36 33 36 36 32 24 23 31 27 25 15 23 21 17 23 30 23 29 33 34 36 36 31 41 32 37 32 27 26 26 25 27 25 23 18 24 21 18 24 21 23 15 14
22 16 23 20 16 23 21 23 14 17 25 17 32 33 28 35 30 40 41 43 33 41 45 35 37 34 34 31 35 28 27 19 26 24 25 20 35 32 31 29 40 41 33 42 33 34 38 35 31 37 26 28 31 21 15 16 24 20 15 23 18 26 18 22
24 25 18 14 18 21 22 17 17 25 21 23 25 34 35 34 35 35 43 46 38 48 47 36 34 40 43 29 26 33 21 25 14 29 26 25 31 38 40 33 36 41 42 47 39 37 42 36 42 31 31 34 30 24 17 25 23 25 24 25 17 20 20 25
25 23 18 21 26 19 15 21 22 22 26 34 31 35 41 35 40 49 39 45 46 45 50 51 49 40 41 39 38 30 25 31 28 22 23 26 39 40 46 39 45 49 41 48 46 51 45 39 44 40 39 31 34 30 28 26 21 16 19 26 16 16 19 24
24 14 21 17 20 20 21 22 21 30 32 37 29 32 36 41 47 51 54 55 47 48 52 43 50 44 40 45 40 29 29 33 24 24 27 28 37 38 45 48 48 55 55 57 52 48 43 53 45 42 45 36 30 30 26 29 14 19 14 15 15 14 24 25
19 20 26 25 26 18 18 14 25 21 30 39 35 43 44 52 52 47 55 50 52 50 59 52 55 54 47 37 41 36 31 26 29 27 26 39 45 40 50 50 56 48 54 61 54 51 58 50 54 47 42 41 39 31 30 25 20 14 15 24 23 21 18 26
23 18 23 26 24 20 16 25 22 28 30 38 32 47 47 50 53 51 61 64 64 59 61 56 57 45 46 51 40 38 38 33 30 30 32 38 36 39 49 52 49 52 64 60 61 61 61 50 56 44 40 35 34 31 27 24 17 25 15 24 21 26 15 17
15 21 15 26 20 14 15 25 27 28 27 33 41 46 45 47 55 52 61 63 69 68 57 60 50 54 45 41 47 43 41 30 41 30 41 43 46 48 47 48 60 59 63 57 58 63 54 51 54 55 52 49 37 30 38 24 21 17 21 24 26 23 16 26
23 22 18 17 20 14 24 15 31 30 37 42 37 41 50 51 60 55 63 70 64 65 68 57 53 59 47 43 44 36 40 40 38 44 39 35 42 47 46 55 54 61 60 71 61 68 58 63 49 54 51 46 42 43 28 29 21 21 26 23 23 20 14 20
18 22 14 17 24 25 22 21 21 32 32 42 38 44 46 56 56 56 68 71 69 71 69 70 54 62 55 51 42 42 35 33 39 42 42 46 43 54 58 57 64 61 70 74 71 71 70 59 51 50 43 49 44 38 30 33 31 27 15 26 20 24 20 23
19 21 22 25 18 23 17 26 28 26 30 34 46 46 53 52 56 63 68 66 76 72 74 66 66 56 51 49 41 37 35 38 42 33 37 45 41 43 55 57 56 63 66 68 73 70 68 60 59 48 46 41 39 41 28 31 26 16 20 19 17 18 22 26
17 24 16 14 22 18 24 21 22 25 28 32 40 42 46 47 58 62 68 66 68 70 65 70 62 57 59 49 44 46 42 44 35 37 39 44 43 45 48 56 61 63 69 71 64 69 67 61 62 48 50 46 37 42 35 25 29 24 15 20 19 26 16 24
17 19 18 23 14 22 24 25 23 29 34 39 42 50 47 52 55 58 61 71 65 63 70 62 65 59 54 47 49 34 37 38 35 32 34 42 47 43 52 60 61 64 65 65 72 71 56 55 60 50 53 38 43 39 33 23 31 23 17 26 21 19 17 26
22 23 15 25 22 19 24 27 30 32 35 35 38 46 42 51 50 59 65 56 57 62 63 54 62 47 44 50 45 37 41 32 37 35 30 45 49 50 55 54 51 57 55 60 58 57 63 62 56 52 42 48 43 38 30 26 20 25 20 17 15 21 15 20
22 25 24 23 25 21 19 24 27 24 31 30 37 39 46 53 56 55 61 53 57 53 52 58 50 57 45 42 35 35 28 36 40 36 34 33 44 44 48 45 49 58 61 54 65 54 60 54 48 52 48 37 34 39 37 28 17 25 14 20 22 19 26 18
21 16 22 25 20 15 23 14 18 30 30 37 36 33 38 44 48 56 47 59 52 49 49 55 56 52 39 38 34 36 37 32 34 35 33 32 36 37 43 42 49 47 49 52 56 59 48 53 42 41 47 42 34 27 31 31 16 23 24 20 19 17 23 25
17 26 15 26 18 25 15 15 14 29 32 31 39 34 38 49 51 50 50 47 54 46 45 51 47 40 48 44 32 34 27 24 33 31 34 28 32 45 49 45 43 46 54 51 52 51 53 49 49 38 39 42 31 35 24 25 23 26 19 22 18 18 21 20
23 20 25 26 23 29 19 27 28 21 24 28 38 42 43 40 47 45 53 55 52 53 50 47 49 42 39 44 35 33 28 35 27 31 38 37 34 40 44 41 54 44 53 50 54 48 48 54 46 46 43 34 44 31 26 31 26 25 30 32 21 32 25 30
31 27 25 30 27 33 27 23 25 30 28 39 36 34 42 51 43 49 55 48 50 48 46 57 48 46 44 45 46 34 33 27 35 37 40 39 41 43 52 48 50 54 58 58 58 54 50 49 56 45 40 49 43 32 30 27 30 36 38 37 38 31 32 39
30 28 28 35 31 35 24 24 31 28 29 29 37 36 47 46 44 47 44 48 48 52 46 57 46 44 43 39 43 41 31 32 28 29 35 39 41 51 42 51 49 60 56 52 54 57 56 53 49 46 44 40 41 38 38 39 32 34 34 43 39 42 41 40
29 28 23 26 24 28 26 22 21 22 22 26 29 27 35 32 34 39 47 46 46 40 41 47 35 42 44 40 36 31 34 35 23 26 25 27 41 39 40 43 44 45 43 42 51 52 41 39 42 37 43 39 39 26 34 28 31 28 37 30 35 32 31 37
27 27 28 22 25 18 20 19 24 17 24 26 23 32 23 31 31 33 40 38 30 29 30 36 38 37 26 32 25 21 23 19 28 25 23 26 33 24 25 35 38 40 41 38 39 35 35 36 38 36 33 31 20 23 30 20 29 24 21 26 25 22 24 29
18 25 16 20 15 26 17 16 19 22 18 24 26 23 15 28 20 27 33 31 29 34 22 24 24 27 25 18 14 20 25 20 25 24 24 23 24 24 21 22 30 30 27 33 28 23 31 32 26 21 18 26 18 25 15 26 15 19 26 26 17 26 22 16
18 15 16 14 22 25 21 19 21 14 19 20 23 21 19 26 17 24 17 28 25 22 17 29 27 26 14 19 20 14 26 26 19 22 19 24 18 21 21 16 27 18 29 19 26 24 24 27 16 26 17 19 19 15 24 19 25 14 17 14 20 24 15 23
22 15 20 24 19 23 16 23 19 20 16 16 26 19 15 18 14 20 14 24 22 24 22 15 18 16 17 14 20 25 17 15 17 24 17 18 23 15 15 25 24 25 20 26 19 23 16 22 20 17 14 22 17 17 16 18 22 18 16 26 23 26 25 20
18 16 23 25 24 25 18 22 15 20 16 24 25 18 15 21 14 26 15 22 26 21 16 20 18 25 20 20 25 18 19 23 24 18 24 25 16 21 16 26 16 19 26 20 24 22 25 17 25 16 18 26 15 16 25 23 15 15 17 24 15 16 20 23
15 18 18 20 24 20 15 20 26 16 16 21 24 14 18 21 23 14 20 25 19 15 26 21 24 19 17 14 24 22 25 14 18 16 17 19 23 19 25 22 26 14 17 26 20 25 19 18 16 24 20 26 24 20 22 19 16 24 18 23 16 18 24 19
19 17 18 23 22 21 16 19 17 19 20 25 24 17 18 14 21 15 18 20 18 26 19 20 19 26 25 17 17 19 26 26 24 25 18 15 26 23 21 18 23 18 23 21 17 25 22 17 14 19 25 22 21 26 21 16 18 21 21 19 23 20 22 23
19 26 21 26 20 23 20 18 23 26 17 14 15 20 15 19 26 18 18 20 19 18 19 21 24 19 25 17 21 19 25 17 18 16 26 17 24 25 22 16 20 19 16 26 26 25 20 14 23 22 24 14 26 26 26 26 23 21 16 15 16 20 23 18
24 21 18 25 22 17 22 19 14 21 22 17 20 22 19 22 19 14 22 14 24 21 18 22 16 15 23 25 22 22 15 14 24 24 22 14 23 15 18 25 14 16 26 20 19 22 18 18 16 19 24 16 17 23 18 14 21 20 18 15 24 18 17 14
22 22 16 17 25 18 17 20 16 19 22 26 18 24 14 17 20 26 20 18 14 22 16 25 23 21 17 22 20 20 23 20 16 18 17 22 26 21 25 22 19 24 22 25 26 14 26 22 19 14 15 14 24 18 18 19 20 22 25 22 21 14 18 21
20 25 22 14 20 14 25 17 16 22 15 16 24 23 15 26 21 26 25 23 25 19 24 18 16 19 21 17 17 19 20 20 15 19 24 15 17 19 25 15 24 26 19 16 15 24 26 16 15 17 14 22 17 19 24 19 25 17 25 20 19 18 20 19
16 21 17 24 26 15 19 26 14 18 23 25 19 17 24 24 21 22 22 14 16 22 15 26 18 26 15 24 14 24 14 16 23 20 16 18 23 21 24 17 25 14 23 21 17 16 26 23 21 20 21 20 21 21 18 14 15 21 26 20 15 24 23 17
21 19 25 21 20 22 26 22 17 25 23 16 16 21 25 24 16 20 23 16 21 15 15 19 17 19 24 16 20 19 18 19 22 26 16 15 24 25 15 14 16 21 23 16 24 25 17 15 18 25 22 23 16 18 21 21 26 17 25 21 14 25 25 26
18 22 20 26 22 19 16 24 15 24 22 23 26 15 16 17 17 14 21 23 20 23 20 14 19 24 25 14 25 23 24 23 23 18 15 23 16 16 20 17 14 23 25 16 21 15 16 17 24 24 20 15 20 25 21 15 15 15 18 26 19 15 17 15
20 24 19 16 18 20 16 17 20 21 20 14 26 25 23 15 25 14 26 15 15 25 25 25 19 17 14 22 19 25 22 16 21 14 19 14 14 18 20 18 14 23 24 17 25 21 20 24 18 22 24 24 25 20 14 26 24 22 20 25 14 24 24 14
17 24 24 20 17 15 20 24 26 24 18 19 26 21 21 24 14 19 14 21 15 19 25 20 19 24 19 17 15 14 17 14 21 24 14 17 18 23 14 20 23 23 15 14 23 25 17 21 19 22 15 20 22 22 26 20 17 22 22 18 17 19 25 14
19 21 17 18 20 16 20 21 19 21 23 15 15 21 20 14 21 21 18 14 26 17 14 15 14 15 20 25 22 24 22 17 24 16 26 22 14 16 23 16 15 24 17 21 19 18 23 25 15 14 20 18 20 22 21 22 17 19 19 26 15 23 23 26
25 16 14 26 22 23 15 23 17 25 14 23 26 22 15 23 16 14 20 17 17 26 18 17 24 16 17 22 20 14 17 15 18 17 25 18 22 16 24 18 23 18 15 22 24 25 25 24 25 20 22 19 26 20 19 16 21 21 21 22 23 14 18 14
16 23 15 24 26 23 17 24 16 15 19 14 16 15 17 24 20 22 17 26 25 14 25 17 20 15 25 15 24 17 19 17 20 15 22 16 14 22 15 21 20 22 15 20 18 20 26 23 19 19 26 25 24 17 17 24 25 25 25 17 26 17 20 15
15 18 19 23 18 26 14 24 15 16 19 17 15 15 24 22 23 14 17 23 17 26 21 18 19 23 25 16 23 20 15 23 21 15 18 26 21 14 20 19 16 20 18 14 20 22 17 20 14 20 16 15 20 23 22 22 22 23 19 20 20 25 23 18
15 23 18 26 21 20 15 24 23 23 19 23 23 24 14 14 24 14 24 25 15 21 23 16 18 25 15 14 25 23 14 26 20 26 17 21 16 19 17 20 18 19 15 15 26 21 22 22 26 17 20 20 17 14 22 15 16 22 17 24 16 20 26 16
