P2
64 64
255
24 24 32 26 34 33 32 22 22 36 28 37 35 18 27 19 36 27 31 28 29 22 30 37 22 18 25 18 34 37 31 32 27 21 38 36 35 28 25 33 19 29 27 25 34 19 37 24 23 18 22 25 26 35 37 25 21 36 25 32 34 27 23 32
22 31 22 22 18 22 19 24 19 31 37 24 37 32 23 38 23 32 22 38 18 22 19 29 23 27 25 27 23 37 28 28 22 23 29 30 34 34 18 18 35 34 21 24 38 30 36 24 20 36 37 24 27 34 37 34 38 20 26 29 20 25 37 27
22 20 22 28 37 31 32 35 20 22 31 23 28 24 31 32 27 19 38 22 21 26 35 32 22 34 25 38 31 31 35 30 24 29 19 36 32 21 33 19 28 31 33 36 23 24 38 22 26 22 20 23 26 31 20 22 38 33 33 20 25 24 18 24
25 31 24 33 28 36 32 25 27 27 28 23 32 20 23 26 31 33 25 36 34 35 28 27 30 21 35 22 19 24 28 30 25 32 38 18 23 28 33 33 32 29 29 37 35 25 30 19 37 19 26 25 31 18 20 19 29 29 22 27 22 20 28 30
33 24 24 32 26 37 30 25 26 18 31 34 37 19 23 36 35 38 37 22 30 34 34 27 38 25 23 18 19 38 23 37 24 23 29 31 37 18 33 29 28 26 24 21 23 29 29 26 32 38 38 33 33 28 35 24 35 37 28 29 24 28 36 22
32 23 20 32 21 19 25 33 32 29 38 34 32 20 20 21 29 27 33 22 20 26 34 37 36 27 38 34 34 24 34 21 23 21 30 24 38 31 33 29 38 37 27 35 37 26 32 18 32 36 35 18 30 35 21 27 20 34 24 38 20 34 38 22
22 24 27 27 18 35 27 37 30 29 29 33 22 31 36 20 38 32 24 24 22 22 34 19 23 19 37 26 29 28 36 26 35 27 28 35 30 30 29 34 33 32 32 30 37 36 34 35 31 19 27 20 31 33 27 21 29 19 28 20 25 25 19 36
20 27 20 19 38 20 35 31 21 30 35 19 38 37 31 24 36 22 20 28 31 38 26 18 31 19 19 23 30 31 27 35 21 33 23 37 26 19 35 31 23 36 37 27 34 36 25 23 18 33 29 27 22 29 31 26 22 26 25 30 34 27 29 25
25 25 32 36 23 35 24 25 23 21 35 37 27 30 24 25 31 19 28 21 23 20 18 21 34 21 23 24 34 26 29 37 27 21 22 29 19 19 23 36 18 27 18 22 33 32 38 19 28 19 37 19 35 24 32 27 34 24 19 23 27 21 30 26
20 28 34 27 28 19 30 31 24 27 18 27 29 24 23 28 25 34 28 27 36 23 28 25 37 18 22 20 19 25 23 33 19 18 25 31 33 26 34 36 27 38 36 31 24 31 29 23 18 31 33 32 29 19 38 35 32 34 23 33 36 36 35 29
31 28 32 22 21 22 28 35 38 31 19 19 37 29 31 34 36 25 30 35 35 19 36 20 22 30 35 33 22 30 24 37 19 31 37 35 22 35 38 33 24 32 28 23 28 30 24 35 34 24 20 26 36 32 21 29 26 35 18 21 33 28 25 21
31 35 33 33 34 19 20 28 35 32 18 36 20 33 22 38 22 26 30 19 18 19 38 38 37 29 31 18 35 23 20 26 20 30 23 34 33 34 29 38 33 22 30 27 33 27 35 35 27 24 20 27 26 38 20 25 33 30 38 24 32 23 37 30
34 31 32 34 34 20 25 27 25 35 38 37 38 19 18 32 34 29 20 37 20 24 32 29 36 31 27 31 18 31 25 27 21 30 37 23 30 27 25 30 32 27 18 33 38 21 26 24 32 21 31 36 19 22 20 28 31 24 27 32 26 35 35 25
18 34 28 20 25 21 37 36 38 28 36 24 27 19 21 18 26 36 28 18 38 20 28 32 35 23 33 25 29 35 25 33 31 38 22 20 34 24 27 37 26 36 28 37 31 33 27 34 26 20 31 30 38 23 25 33 19 32 30 26 27 30 23 29
22 28 30 27 26 38 29 38 29 18 36 38 24 29 26 19 38 35 21 38 22 27 18 22 35 27 23 30 36 32 20 28 33 36 34 32 19 28 24 23 36 31 27 24 33 36 29 29 28 37 22 35 18 29 36 36 23 20 38 19 21 23 32 25
25 38 29 21 22 30 37 35 36 24 27 23 33 22 22 37 37 29 38 32 22 24 22 37 21 23 26 19 33 27 20 24 34 32 35 19 22 20 31 28 18 24 21 20 19 38 22 30 34 19 29 20 19 23 31 36 31 33 29 38 20 36 23 34
18 24 20 31 36 18 34 21 21 36 23 38 34 28 21 25 25 31 35 33 28 31 34 29 32 33 21 34 36 23 25 34 36 34 31 27 22 18 31 30 28 29 38 34 31 34 37 23 26 29 18 18 22 18 33 27 24 20 22 25 22 25 32 23
23 28 19 35 33 19 27 35 35 21 28 37 37 32 21 34 37 29 20 32 28 36 18 24 28 24 36 32 20 22 27 32 30 27 35 37 34 20 38 22 36 31 24 27 36 29 26 18 28 32 33 33 38 23 26 28 18 32 35 18 31 30 26 20
28 36 23 37 32 20 24 28 32 21 30 34 25 24 20 35 30 31 37 26 23 21 34 32 28 24 27 22 30 26 30 19 18 22 38 31 35 18 23 31 22 30 30 28 34 29 32 37 27 27 24 26 32 34 38 30 28 31 21 32 28 29 30 35
32 33 27 24 24 27 37 22 30 19 36 25 30 32 28 29 26 24 29 21 26 25 33 34 26 33 32 19 19 36 38 18 23 19 30 24 19 27 25 30 25 38 30 30 40 41 35 33 39 20 21 37 24 36 36 27 20 24 38 37 26 18 21 36
33 24 37 22 29 19 19 33 36 34 21 29 33 30 35 35 22 28 40 36 39 30 43 29 25 34 33 36 18 35 36 18 26 18 23 29 19 27 40 30 31 42 41 37 34 45 28 28 41 24 33 29 25 28 37 19 37 31 27 36 30 23 30 30
33 36 29 33 26 20 35 26 21 32 31 19 20 40 25 30 36 36 29 47 46 43 44 45 31 43 38 33 22 36 32 32 29 35 40 38 20 34 37 41 27 45 49 42 37 29 37 30 43 25 29 32 18 18 31 22 20 34 29 19 35 20 36 23
21 33 31 32 22 22 20 31 28 23 27 21 23 30 44 47 49 41 33 37 41 40 40 36 45 48 43 41 30 34 44 36 32 27 30 42 36 47 32 31 45 39 50 37 51 49 49 41 49 42 35 44 32 36 26 20 27 31 28 24 37 23 19 34
21 35 36 25 24 33 22 34 29 27 38 28 43 41 47 40 36 39 37 41 52 39 48 37 50 50 45 52 40 49 55 35 33 41 40 48 53 57 39 56 54 55 54 52 56 48 41 44 50 33 48 41 35 32 36 20 25 32 24 35 34 32 38 20
32 23 35 21 36 33 37 25 28 32 30 27 30 31 39 39 40 38 59 51 55 59 55 49 53 58 50 58 52 60 53 61 40 62 52 53 59 52 48 63 56 47 41 61 52 42 58 49 37 43 48 37 32 27 22 18 22 37 36 30 25 18 34 35
32 35 29 32 33 34 20 33 38 31 28 32 45 44 55 53 41 53 45 60 54 65 66 70 68 55 63 67 66 66 66 56 57 53 54 68 75 57 68 61 59 56 60 52 65 62 49 60 48 43 47 47 40 39 25 22 29 25 21 23 38 34 26 33
35 22 20 24 30 18 28 18 25 32 42 32 34 45 40 58 43 53 66 50 65 55 70 65 63 82 66 67 76 71 77 75 75 78 66 73 71 80 77 72 80 65 72 63 64 56 51 52 57 41 51 37 52 29 45 39 38 36 24 24 38 29 22 21
33 25 34 25 24 32 24 20 38 33 44 43 54 41 53 50 63 53 63 59 57 67 68 77 83 86 77 81 80 75 81 81 70 73 79 91 82 84 82 85 71 86 67 71 56 55 62 52 51 54 43 41 40 34 32 40 30 32 38 22 30 32 33 18
37 19 31 32 23 38 32 24 22 35 42 47 55 51 61 55 66 62 60 68 63 75 79 86 88 93 79 92 86 99 91 89 97 83 77 94 81 83 92 85 93 77 87 73 82 73 56 68 49 64 59 48 55 48 30 37 33 35 28 21 21 36 31 29
31 24 35 36 33 22 30 28 23 29 48 50 43 50 61 68 69 63 65 78 82 85 99 101 84 90 88 100 103 101 97 92 88 99 92 87 90 103 94 101 84 84 91 95 80 74 65 65 51 65 60 42 49 37 34 43 26 33 38 35 37 32 30 27
36 36 19 33 35 34 18 27 29 39 42 38 40 46 61 51 64 75 65 85 90 101 94 97 96 91 100 112 101 100 109 107 103 104 93 110 100 105 96 102 108 88 92 95 92 74 66 58 60 54 59 61 57 52 46 40 24 32 34 35 32 27 31 28
36 32 38 18 22 34 19 20 31 35 38 47 48 59 50 60 62 61 78 88 102 107 110 99 112 113 112 106 103 101 100 120 108 102 110 115 117 104 101 108 109 93 108 89 84 75 77 62 63 62 59 51 49 54 47 40 29 31 30 21 26 20 35 37
21 29 29 18 37 21 22 24 44 48 33 53 59 58 58 53 71 60 80 81 98 110 109 98 113 111 113 110 117 117 120 117 127 115 105 113 108 114 113 119 102 109 112 101 103 84 69 62 61 59 49 56 54 41 42 36 40 33 20 27 36 36 28 20
29 38 26 38 32 25 33 33 41 36 38 43 47 47 58 60 70 69 73 98 101 98 114 113 109 107 119 108 120 127 121 125 130 123 130 119 109 116 121 122 104 113 101 105 101 96 73 77 75 54 63 56 43 50 35 42 42 33 28 30 23 27 30 32
24 30 21 30 30 30 28 20 41 27 36 48 44 54 64 70 72 71 79 88 95 95 105 113 103 107 110 108 126 131 126 138 132 129 119 111 123 109 118 122 107 110 109 101 91 86 83 75 69 62 64 58 47 35 48 41 40 25 23 28 27 20 29 27
36 34 28 26 25 36 30 38 34 34 40 49 47 61 45 66 69 60 71 78 81 88 108 111 104 107 116 126 115 132 129 127 138 131 117 127 112 124 112 105 110 116 110 90 84 78 66 69 69 58 51 42 38 41 41 40 32 35 22 20 29 29 29 24
35 33 27 28 38 18 37 33 39 35 44 47 46 54 60 54 51 64 66 72 91 85 109 94 99 108 112 125 117 127 115 134 133 133 133 129 116 110 103 110 98 97 93 87 90 89 76 69 64 55 47 39 41 45 38 27 21 19 25 18 26 21 25 18
27 31 36 38 23 35 18 27 38 42 30 49 46 48 58 53 63 55 74 75 82 90 87 99 110 104 112 118 109 126 127 123 125 117 118 116 113 120 102 101 97 102 102 84 91 70 73 50 56 44 53 37 50 40 39 24 31 28 24 34 33 36 33 33
23 34 18 24 29 32 28 33 27 22 36 39 35 45 53 60 48 64 70 73 70 87 90 101 105 100 105 99 106 124 106 125 120 113 119 111 108 102 100 98 90 99 83 78 73 69 57 53 53 45 50 42 34 45 33 22 24 37 29 34 33 19 33 21
19 30 35 24 23 32 20 22 26 30 39 33 34 40 51 51 41 44 65 73 80 70 87 93 90 103 93 95 106 106 100 116 98 117 113 97 100 101 94 103 93 89 88 78 68 67 62 56 59 55 40 42 49 45 33 22 38 31 37 31 29 28 31 19
35 35 33 37 38 23 25 24 35 28 36 44 31 30 46 39 56 55 45 58 63 69 88 89 88 98 85 105 95 104 105 96 107 102 95 109 100 104 93 100 81 85 75 79 73 70 61 46 49 46 37 50 46 27 38 28 18 21 25 21 38 18 27 28
30 31 23 26 18 25 35 29 21 33 33 24 31 34 36 38 48 53 39 61 66 74 63 84 75 75 81 99 99 95 98 80 94 89 83 101 86 86 78 78 86 69 67 72 54 58 57 46 40 42 34 39 26 36 20 22 26 36 18 38 24 24 31 38
25 31 37 28 26 32 31 24 22 33 21 31 34 44 37 41 38 44 44 54 64 66 75 75 64 83 72 89 93 84 93 94 85 91 80 91 80 71 78 75 74 62 61 63 61 46 46 47 46 43 39 28 21 20 25 34 22 38 21 26 30 38 26 30
26 37 27 33 19 29 24 23 36 37 22 23 33 41 29 42 44 29 38 38 47 60 58 51 74 79 78 70 70 66 74 71 84 80 71 65 70 67 76 64 70 56 48 58 42 52 32 41 38 24 40 37 34 20 20 30 21 29 32 37 26 38 25 38
33 28 20 38 35 35 31 18 21 18 37 23 26 38 33 36 35 32 26 37 37 36 40 58 68 65 70 70 76 66 69 77 73 76 80 61 76 58 68 62 57 61 52 48 46 26 44 39 36 29 22 18 28 32 31 38 19 26 29 23 27 29 29 38
35 20 24 35 32 36 38 19 22 21 22 35 20 31 32 37 26 39 36 26 39 33 36 48 55 61 57 48 57 61 63 68 69 64 60 63 55 58 56 46 47 36 51 28 39 30 24 26 32 31 22 37 27 20 29 19 19 18 36 19 34 29 28 22
38 22 21 30 32 32 25 25 34 34 31 24 23 18 37 37 30 25 28 29 24 23 26 44 50 43 51 48 65 65 53 53 68 69 63 53 57 57 49 40 39 29 27 28 23 33 31 25 26 29 18 38 34 27 19 32 27 33 20 29 24 32 29 21
38 22 30 29 30 19 29 26 25 32 24 35 32 25 25 28 19 29 26 26 33 36 34 36 31 34 52 56 44 43 47 57 47 59 62 43 50 37 44 39 37 35 32 24 38 19 32 24 38 28 38 38 34 26 18 25 20 36 24 24 22 30 23 26
18 36 35 37 26 26 27 18 23 19 28 24 33 20 37 24 27 19 36 24 19 28 30 39 29 44 48 41 43 51 43 43 55 46 45 52 39 39 42 40 31 23 34 25 36 37 26 28 18 36 36 30 32 32 28 33 22 36 24 30 23 20 18 31
35 21 35 28 18 25 21 25 27 24 26 24 25 18 36 32 37 30 27 29 22 32 26 36 21 25 30 28 47 29 30 41 50 47 35 48 39 37 38 40 22 37 36 25 38 35 30 31 18 27 20 38 20 23 32 32 26 24 23 28 38 36 18 22
24 29 35 28 31 34 22 38 19 36 18 22 18 26 26 37 18 28 22 34 27 20 18 28 26 30 36 39 31 26 28 44 43 35 38 27 21 40 30 30 19 28 32 34 19 27 28 33 30 33 18 31 24 19 24 25 29 33 19 19 31 38 24 27
28 24 22 24 23 30 30 34 26 19 38 31 21 30 20 28 26 21 18 32 27 32 25 24 37 18 18 34 26 35 19 27 26 19 34 30 24 21 37 36 18 29 18 20 20 26 30 38 23 25 21 33 28 28 22 33 35 19 31 21 34 32 18 23
20 22 38 19 34 36 23 19 35 20 22 33 21 18 32 35 21 19 28 33 30 24 22 20 29 19 22 27 18 21 26 26 35 21 18 24 26 24 29 27 24 28 35 19 18 34 36 22 31 21 18 27 26 23 28 27 33 33 29 23 29 29 28 19
29 34 27 29 20 23 29 27 23 31 28 37 19 37 35 20 32 38 23 22 30 19 32 30 27 32 22 19 32 20 33 34 25 34 23 20 38 25 32 38 36 29 31 26 38 20 29 38 28 18 29 27 24 23 28 29 22 38 21 24 36 32 33 35
32 28 18 36 29 20 37 34 29 29 34 28 18 37 24 31 36 23 34 32 22 29 28 33 38 37 32 24 31 24 32 23 36 37 25 29 26 25 18 35 35 23 18 27 20 19 27 33 20 22 36 23 30 37 30 27 18 18 26 24 20 28 21 19
32 32 24 33 28 29 26 33 28 31 31 37 19 38 38 38 26 31 38 30 33 34 35 25 35 38 28 18 18 26 26 26 28 32 35 38 19 26 24 23 38 33 23 25 33 25 29 22 22 34 27 34 33 23 35 27 19 33 33 20 31 31 34 25
36 18 29 32 26 25 33 20 34 32 34 30 38 28 36 28 35 24 30 33 36 21 29 31 19 35 35 31 26 20 31 32 29 28 34 32 19 35 23 18 35 24 37 23 26 31 37 37 28 26 37 27 36 28 20 29 22 29 25 30 23 34 37 20
31 31 18 25 33 38 36 19 20 22 25 19 33 27 23 25 23 20 31 31 35 23 20 32 26 31 18 26 32 38 29 22 20 23 33 31 23 30 20 33 36 24 27 20 35 38 36 35 31 35 18 37 32 34 29 36 19 21 26 38 30 36 22 21
37 25 32 32 32 18 27 34 25 35 19 23 30 37 28 31 21 26 38 26 23 22 28 38 20 25 33 32 24 27 37 21 32 36 29 21 22 30 18 21 23 33 27 36 30 30 23 18 29 23 27 22 30 31 29 30 37 27 19 30 34 28 26 20
31 28 34 31 20 35 18 29 19 36 37 27 29 37 20 28 32 21 22 24 27 36 35 26 23 25 27 30 30 32 32 22 31 26 26 28 19 20 34 28 20 35 36 35 23 32 36 38 26 35 20 20 37 35 36 37 33 31 22 27 31 31 38 23
34 28 30 31 19 38 31 23 23 38 34 31 38 36 20 34 36 34 32 32 25 23 38 18 36 26 29 37 36 38 26 25 31 24 38 38 33 33 29 34 29 25 25 34 21 19 30 36 34 36 24 32 23 30 20 31 25 26 28 37 26 19 30 32
28 23 20 20 23 37 32 33 22 33 22 31 25 33 30 19 32 23 21 22 33 24 23 29 30 36 36 38 22 36 20 18 24 34 31 24 33 24 37 18 38 30 22 28 25 27 38 27 36 19 21 36 25 18 24 32 22 33 33 34 38 21 38 26
37 26 23 19 30 30 29 37 29 38 35 21 32 33 18 29 34 24 28 23 34 25 25 21 26 30 34 31 24 25 27 27 23 32 31 24 18 24 33 32 32 27 35 33 22 37 31 21 23 31 37 26 31 24 34 22 24 19 37 34 33 22 36 24
34 35 20 21 18 31 37 20 37 30 34 34 35 23 21 21 28 18 37 19 21 37 20 37 23 20 35 22 23 21 29 21 26 24 35 28 25 22 30 22 25 27 28 19 34 31 20 36 36 38 28 35 23 31 20 20 18 28 32 35 24 19 20 27
