P2
64 64
255
33 26 29 24 27 25 35 22 27 25 38 32 36 21 27 20 30 38 23 25 38 32 23 20 36 36 26 28 19 33 22 27 29 27 26 33 38 21 25 37 19 20 31 22 20 26 34 22 22 21 26 18 33 21 29 24 26 20 35 27 24 25 26 35
38 38 20 30 32 36 36 33 23 28 22 27 18 21 37 31 28 35 23 28 37 19 37 27 33 19 36 32 24 25 36 26 28 38 28 20 29 35 27 37 27 26 29 28 37 37 23 27 20 19 33 24 38 27 35 30 22 22 34 33 33 19 27 32
21 20 38 24 21 19 31 31 38 38 36 26 29 38 23 26 38 25 31 24 30 33 34 24 31 20 29 34 23 25 23 29 37 37 36 25 23 22 35 20 29 34 25 22 24 30 36 27 32 38 32 36 24 32 22 19 26 37 28 31 31 19 36 22
23 34 29 32 38 38 32 32 34 19 36 26 26 38 18 33 18 36 23 28 34 34 31 31 18 22 27 34 36 30 25 26 28 35 31 18 21 30 18 31 24 28 33 24 33 27 21 38 26 26 35 21 18 19 20 26 35 38 35 22 20 34 33 26
38 20 29 32 21 21 25 23 20 23 25 24 26 19 29 27 20 33 18 38 18 30 32 30 28 18 38 35 29 36 26 23 26 29 21 35 31 22 38 29 35 20 33 22 25 22 37 28 28 35 19 27 28 38 21 29 33 21 38 38 23 34 18 29
30 32 32 36 37 32 24 26 34 31 30 20 33 27 21 30 25 19 31 25 21 36 37 30 31 24 38 28 30 24 35 21 37 34 29 24 21 26 36 23 19 38 34 23 34 19 33 23 19 19 25 19 33 24 35 38 32 29 33 23 29 27 22 35
35 19 28 22 24 24 18 35 23 21 21 32 23 36 28 31 21 32 38 37 31 21 25 33 22 38 28 32 21 35 32 21 20 23 31 38 21 35 28 21 26 27 26 33 26 26 29 24 19 23 38 23 29 30 25 38 36 26 22 37 38 20 20 27
38 32 28 36 23 34 35 35 29 20 36 26 26 30 28 31 22 38 31 25 31 35 26 29 21 20 26 38 27 23 24 32 21 20 31 34 26 36 32 27 27 35 37 24 18 25 22 36 25 28 19 36 21 24 24 20 33 25 26 29 19 32 31 38
30 25 30 21 31 37 34 25 37 36 23 26 34 31 27 34 24 36 35 21 18 37 31 32 19 18 34 31 36 31 29 24 21 23 23 38 20 28 26 22 29 18 32 27 28 21 18 32 26 37 32 23 33 22 26 36 31 33 33 33 36 36 33 29
38 33 37 31 38 26 34 31 33 33 20 18 21 36 33 32 21 37 30 24 21 35 23 34 36 20 23 31 26 28 27 33 28 28 20 27 19 24 29 20 26 32 19 25 21 23 32 19 27 28 27 21 30 18 25 30 26 27 31 19 24 19 23 22
33 21 28 27 36 38 18 37 19 19 20 35 21 19 24 23 23 37 27 37 34 38 24 37 20 30 24 29 22 26 29 27 30 38 30 38 22 35 30 29 33 38 22 33 37 21 34 27 36 23 36 33 36 33 36 29 27 19 24 33 21 20 22 18
28 34 21 20 26 29 28 24 38 28 24 22 19 37 30 27 31 28 21 29 32 23 27 18 34 30 27 37 36 23 23 33 36 21 27 34 24 25 20 23 22 32 38 20 35 22 25 18 22 36 19 38 34 31 31 36 20 29 25 19 35 26 20 29
25 30 35 18 21 27 33 34 29 20 31 30 37 26 26 36 35 25 25 38 25 35 32 37 25 20 36 26 18 22 18 22 29 30 35 29 25 29 33 34 37 20 33 24 35 27 32 24 38 32 22 22 23 26 25 23 29 37 27 21 26 26 35 23
18 20 20 25 33 32 20 28 28 34 37 21 19 23 24 25 25 31 33 29 35 33 29 25 24 28 20 32 35 19 24 35 37 18 18 28 31 20 26 25 21 30 38 33 24 28 36 24 36 37 22 30 34 18 33 33 26 26 19 24 35 31 27 37
33 28 27 32 18 34 35 24 38 29 29 23 27 25 25 26 34 31 34 23 20 33 34 31 31 20 30 34 36 35 22 35 38 31 38 18 38 30 37 32 33 29 26 31 37 26 34 33 31 36 22 33 36 26 21 18 33 30 30 24 31 38 28 32
30 30 33 34 33 34 24 21 33 38 22 19 25 37 32 27 24 36 35 23 31 34 18 22 21 31 38 23 32 19 36 27 20 35 36 28 21 33 36 30 28 36 25 23 27 36 30 32 37 26 29 21 31 22 20 36 31 30 30 25 21 23 38 18
37 18 24 33 28 26 36 20 25 24 26 37 28 27 20 34 28 25 21 29 38 19 38 19 32 36 25 37 33 34 25 18 32 37 32 29 29 24 37 25 20 25 26 34 25 19 21 33 34 24 25 23 34 22 20 24 27 26 20 37 28 38 34 31
22 19 30 18 34 19 25 22 28 37 33 33 38 22 22 31 38 33 24 29 33 37 37 26 35 23 35 38 30 18 33 18 19 32 31 18 31 19 20 20 38 35 24 33 19 20 20 30 19 22 26 24 29 19 37 21 34 38 28 29 18 25 20 36
31 23 30 34 35 31 32 37 29 22 29 38 20 22 30 37 23 31 20 38 20 23 33 29 24 32 32 33 32 20 28 29 22 27 18 19 21 37 26 33 24 29 18 25 23 28 30 19 29 33 34 18 29 25 32 20 24 28 20 22 36 25 31 30
21 23 36 29 33 20 24 20 28 18 35 33 26 36 33 29 26 37 22 24 26 27 35 21 29 32 31 19 24 31 35 19 29 23 26 29 24 21 23 30 21 26 36 23 22 27 31 40 36 37 36 26 36 34 19 21 24 34 38 19 22 23 23 35
20 33 23 22 30 20 32 29 28 27 20 18 19 18 28 35 41 31 31 29 28 30 35 43 29 30 38 23 19 26 24 27 35 21 20 22 36 21 36 25 24 39 35 44 30 29 31 39 28 38 26 34 34 36 26 26 29 28 23 33 22 31 30 23
19 25 30 20 23 20 23 28 33 21 27 36 19 30 37 24 29 40 30 44 44 40 34 29 37 46 28 41 35 34 20 35 34 30 34 37 32 24 24 26 44 34 42 48 47 45 48 44 36 28 37 37 38 29 23 26 20 35 26 29 36 19 30 29
37 22 21 35 21 30 28 25 33 18 29 34 21 41 42 44 40 38 52 35 36 33 47 50 33 45 47 35 30 33 21 29 32 22 21 25 40 41 37 40 41 50 52 33 40 41 52 35 39 48 34 26 29 38 29 18 19 22 33 20 26 19 22 36
34 24 25 25 36 35 21 34 34 21 30 30 30 29 48 35 50 46 52 38 51 40 40 54 55 52 40 46 40 26 39 24 25 35 21 42 43 31 36 37 41 55 48 53 55 50 45 55 53 48 29 35 42 40 21 33 18 20 27 35 26 29 20 31
28 22 32 37 35 37 31 19 33 27 31 42 38 48 32 38 51 50 53 47 45 51 59 63 63 62 43 51 35 42 34 24 32 21 31 42 34 45 55 38 48 51 50 57 59 48 53 48 41 39 51 34 38 35 38 18 23 31 28 25 23 28 38 32
29 22 19 38 34 23 26 23 22 20 31 29 40 49 50 46 58 47 46 60 48 71 65 73 65 72 79 58 74 51 43 30 26 23 44 39 51 39 40 53 44 59 60 48 48 58 49 51 60 51 43 46 34 38 37 27 37 29 24 24 38 19 19 22
33 18 18 25 25 23 37 23 21 39 29 42 38 54 42 41 54 48 64 56 75 80 78 77 76 94 97 98 84 79 67 56 49 34 34 36 48 46 53 50 45 63 59 67 50 61 59 58 52 47 46 50 48 37 28 36 28 31 36 19 36 29 31 32
27 27 31 33 32 32 26 25 40 39 44 36 52 47 49 64 62 52 74 69 76 84 87 100 107 118 104 108 99 105 78 86 55 59 58 48 42 43 47 55 56 71 71 60 63 53 61 67 58 47 58 47 46 42 46 41 27 29 31 19 18 19 34 24
27 27 38 38 31 36 22 33 34 38 42 35 50 48 63 50 55 58 75 86 88 91 112 118 113 139 139 124 120 128 109 105 80 68 55 54 44 55 49 58 66 59 71 58 74 60 69 58 62 54 51 52 42 48 45 36 38 34 27 21 37 28 28 25
20 20 26 34 34 26 22 22 26 45 50 51 55 56 53 67 56 65 70 95 95 110 106 120 137 159 159 146 143 148 136 122 100 75 70 67 56 44 53 59 68 71 73 80 65 68 65 71 56 58 63 56 38 43 45 32 36 22 38 21 38 24 34 26
34 21 36 18 24 18 22 38 33 45 37 45 42 53 51 68 54 74 92 101 99 110 134 153 147 171 179 171 164 166 149 140 110 109 72 61 52 53 61 55 60 68 68 83 83 64 72 58 70 67 49 51 51 41 35 32 37 34 31 18 18 22 23 32
23 20 25 37 18 29 27 28 34 34 49 50 39 51 48 58 60 75 81 96 121 117 128 155 177 186 175 176 179 172 161 161 141 111 91 72 80 59 52 71 61 65 70 69 84 70 82 73 74 65 56 60 49 54 44 42 33 22 18 31 22 35 36 23
24 33 36 28 28 18 23 32 33 32 33 40 39 58 61 55 64 81 81 107 127 132 140 164 183 189 180 193 206 194 181 161 144 136 104 100 72 57 61 73 63 63 77 70 86 70 76 63 67 65 58 44 42 42 51 36 42 29 22 30 38 32 24 23
38 19 38 32 19 26 27 35 44 34 47 43 53 43 55 69 73 81 98 110 123 116 129 146 173 175 192 188 210 190 185 165 157 139 103 98 87 64 58 54 68 64 82 83 77 79 66 65 59 55 56 58 54 42 36 27 36 23 18 36 25 25 29 19
21 26 38 36 27 25 32 27 40 37 36 47 41 46 49 67 69 66 77 88 106 109 126 134 154 168 176 194 193 185 192 176 154 144 115 111 96 80 63 60 58 75 63 77 82 80 69 64 60 64 51 58 48 54 50 38 40 28 26 28 36 26 36 38
38 38 29 22 23 27 23 26 23 44 50 48 41 48 65 49 59 77 78 87 99 99 114 125 145 149 164 176 190 176 169 161 150 132 124 96 81 81 80 63 58 58 78 80 78 68 68 73 53 56 63 44 53 47 35 38 39 24 22 22 21 28 35 37
21 26 33 18 28 25 33 28 33 37 35 51 51 56 43 64 52 65 81 80 88 91 104 111 131 129 156 158 159 175 172 155 145 126 115 106 77 89 78 60 53 64 59 58 66 75 64 54 57 47 43 59 45 37 44 25 36 28 27 35 32 18 35 28
37 20 31 28 26 26 24 21 30 30 32 34 52 39 52 54 62 50 73 79 78 92 91 104 110 124 134 142 150 155 148 156 154 125 105 101 84 76 78 56 66 71 54 54 63 65 63 51 47 52 49 44 51 34 31 25 27 23 35 28 34 36 21 24
24 38 29 23 20 21 29 28 28 27 38 38 51 39 44 48 56 51 57 55 65 65 88 77 76 88 120 123 127 132 131 115 129 117 94 96 86 78 79 68 57 56 57 56 58 50 61 56 45 53 56 43 35 41 30 35 36 38 23 23 18 37 34 18
26 30 18 18 19 24 27 25 37 28 27 27 42 32 48 41 55 50 47 65 54 65 62 66 59 76 91 94 101 106 94 97 105 89 77 89 68 69 54 58 58 56 51 49 52 45 58 51 56 42 47 35 40 44 43 21 22 32 35 18 20 32 29 23
29 38 30 25 21 32 36 24 22 20 40 44 37 32 32 45 45 49 57 60 56 56 61 48 58 64 56 77 68 82 77 84 77 71 77 83 63 66 62 56 56 42 59 49 50 45 51 51 52 36 44 49 41 35 39 31 20 23 34 33 22 28 24 18
19 30 34 33 25 34 34 21 19 24 38 39 27 45 33 47 47 35 41 52 52 40 56 41 39 47 41 63 56 59 61 75 61 56 56 63 62 51 39 41 36 48 38 43 47 53 53 43 39 32 36 28 37 36 38 31 34 35 37 35 28 21 30 28
32 28 36 28 25 28 33 18 30 30 22 26 34 28 45 47 40 41 39 51 46 46 43 48 50 50 31 45 52 52 49 57 64 64 50 56 59 46 44 33 51 48 43 38 48 43 38 38 34 29 39 28 32 23 35 34 23 35 35 21 21 18 30 37
37 34 23 36 23 31 31 36 35 28 18 33 31 36 29 42 42 29 32 37 42 40 46 42 31 35 30 37 38 43 40 42 48 50 51 49 41 30 44 42 42 46 48 49 31 43 29 47 33 43 36 37 20 29 38 25 31 34 33 33 38 24 36 33
24 36 20 35 29 29 32 35 30 34 33 25 34 29 35 26 27 44 37 35 32 29 29 42 42 39 27 22 29 27 31 44 37 39 32 24 34 30 31 25 33 33 25 36 42 36 42 24 27 30 34 28 20 36 29 24 32 26 31 29 29 32 27 33
25 35 36 26 25 19 30 27 22 18 33 33 34 24 24 23 31 20 21 37 37 36 25 25 21 38 32 23 33 23 32 21 19 23 18 30 27 25 31 39 26 24 38 32 33 28 33 27 24 27 35 33 20 29 25 18 26 24 33 34 36 33 26 35
38 20 21 33 32 32 20 19 32 32 21 25 21 37 27 31 33 36 33 21 21 22 19 23 29 28 34 20 32 36 24 22 31 29 28 19 27 24 28 23 24 21 29 33 38 28 26 22 18 32 20 28 22 36 30 22 24 21 28 36 30 20 34 28
22 35 19 37 28 28 24 32 21 27 34 31 22 29 23 18 35 21 32 30 36 21 27 27 20 25 24 35 22 36 36 31 31 20 27 37 34 26 20 23 19 34 19 38 29 28 22 20 31 24 28 37 20 23 37 28 29 23 33 20 37 21 34 33
25 28 25 19 36 23 33 35 27 19 32 35 23 31 20 29 23 27 29 27 25 36 20 34 26 35 35 18 29 18 27 31 26 18 30 29 35 29 28 37 34 20 38 21 22 23 28 25 34 32 23 33 34 21 27 18 31 37 24 21 34 20 33 20
38 27 24 20 21 25 29 28 20 31 36 33 38 29 30 22 25 24 30 20 35 28 21 18 36 25 37 34 29 38 31 33 32 37 38 24 22 21 24 20 29 33 38 37 24 25 36 24 32 36 35 21 30 37 31 25 18 24 34 28 19 32 18 18
36 35 35 25 22 35 27 18 20 30 32 20 35 27 34 33 37 36 19 37 19 33 20 27 25 33 31 22 25 35 20 21 24 31 29 28 25 19 29 23 35 35 23 31 29 38 31 24 24 28 26 30 35 37 34 18 34 23 25 33 38 20 27 23
35 36 34 24 35 25 33 19 25 32 25 21 23 34 23 22 28 36 30 37 26 23 37 38 36 27 18 18 37 29 23 31 29 20 30 26 31 23 21 25 26 37 29 37 21 33 27 38 19 23 35 35 25 27 22 31 35 34 22 37 24 20 19 38
20 32 27 22 38 27 24 30 30 36 30 21 27 34 21 36 30 27 28 33 36 19 21 30 38 31 28 29 20 29 24 18 30 21 32 21 18 37 24 35 27 22 37 21 23 20 19 21 26 26 35 33 30 29 38 20 37 36 23 26 37 30 36 28
23 28 30 24 38 34 33 27 32 38 24 38 29 36 18 20 31 32 37 25 28 26 27 36 32 37 25 25 24 19 19 26 21 31 19 26 29 34 26 34 21 31 20 38 19 37 27 38 35 25 27 18 32 23 20 28 36 38 18 36 25 18 30 36
33 21 35 26 30 22 25 18 18 29 32 32 38 33 28 26 25 32 18 34 25 24 29 24 29 30 30 33 18 25 36 38 31 33 27 24 26 29 38 32 23 19 29 31 24 33 33 29 21 22 34 24 31 20 28 22 24 24 25 21 20 31 24 20
22 27 21 28 35 35 22 18 36 38 34 37 20 36 31 36 26 34 29 25 33 27 31 20 21 34 26 19 19 22 25 34 22 26 38 29 24 28 33 18 37 28 22 24 30 21 28 20 27 33 31 26 36 20 31 32 21 37 36 35 34 24 24 19
35 19 38 26 34 37 36 32 34 37 32 32 22 38 37 27 24 23 37 33 22 20 29 22 29 30 32 25 21 30 37 22 24 28 33 25 22 36 36 30 23 38 37 36 32 19 22 20 24 18 19 32 31 24 27 27 29 32 21 30 24 30 18 18
23 20 22 31 33 35 34 36 32 21 18 37 38 19 37 31 19 31 18 23 36 37 26 28 23 28 18 20 23 33 35 38 20 33 18 22 24 35 26 30 20 35 22 29 21 21 21 34 29 24 32 34 23 24 22 37 24 29 33 18 38 38 34 31
19 38 26 22 20 29 37 23 36 28 37 23 33 25 26 19 24 30 25 19 32 36 29 28 36 26 21 25 30 25 32 24 32 33 22 19 31 19 27 38 21 20 28 28 29 31 28 32 36 25 20 23 18 32 30 24 32 38 37 32 36 26 30 21
33 33 19 20 27 28 38 35 18 37 28 23 34 37 37 25 30 20 19 19 35 32 22 32 22 30 29 24 30 20 32 18 30 34 20 27 29 25 29 29 37 35 19 23 33 19 22 27 32 38 24 23 32 29 32 24 23 18 19 24 26 27 31 35
25 32 35 34 36 38 19 36 22 28 29 21 28 35 23 28 22 37 36 27 21 23 38 38 31 36 32 25 18 21 34 19 21 28 18 20 33 24 35 35 21 26 20 21 26 31 26 30 22 36 20 21 27 23 38 20 32 26 28 34 28 36 19 35
20 29 32 29 21 21 26 22 37 26 34 20 23 34 23 34 22 28 32 20 20 29 26 22 19 36 25 28 32 31 23 35 29 24 18 35 37 29 30 19 32 26 28 21 18 36 33 28 20 19 33 32 25 38 26 29 37 33 27 36 34 24 25 34
20 32 23 36 30 23 22 34 35 21 28 37 35 21 31 32 32 33 35 33 34 37 26 34 30 26 38 36 21 32 21 31 25 30 35 25 21 25 25 37 37 33 26 27 22 29 22 23 22 37 19 35 21 24 32 22 33 36 35 38 23 21 28 36
38 34 24 25 29 35 28 32 18 34 20 19 36 28 30 32 21 26 22 33 27 21 35 29 28 25 25 27 30 20 36 38 24 29 32 30 36 33 36 24 30 19 29 31 38 25 22 36 28 37 18 36 25 19 22 26 27 20 26 33 30 28 18 22
