P2
64 64
255
29 22 31 21 18 21 33 24 22 25 29 28 21 29 34 31 29 27 31 21 25 19 25 29 22 37 27 36 34 30 23 32 25 36 25 36 27 33 38 31 24 37 23 35 33 18 26 38 32 23 35 20 29 33 30 20 27 23 37 23 27 38 30 32
35 36 23 30 21 26 20 19 34 27 33 24 32 30 18 21 35 33 23 32 30 23 27 19 37 18 36 19 35 33 37 28 31 35 32 31 27 35 29 27 26 27 21 34 36 37 21 20 29 37 34 31 28 21 35 22 29 20 29 38 25 31 19 30
33 33 32 18 38 25 30 31 36 27 29 36 36 23 18 26 18 28 37 26 26 22 27 38 31 24 19 38 35 20 24 32 30 22 38 26 31 19 23 36 34 20 23 27 35 19 38 18 21 18 37 23 21 23 19 26 38 32 37 28 31 18 18 36
20 27 37 31 35 20 29 29 35 28 21 29 19 24 30 35 31 34 33 31 32 30 25 28 35 24 19 21 34 19 38 24 32 27 29 25 26 22 33 24 31 30 38 32 37 32 37 29 24 24 23 38 35 30 31 33 24 32 29 25 37 38 24 32
19 22 36 28 21 20 37 19 28 38 37 23 26 30 28 28 27 25 26 21 32 36 33 28 22 29 27 18 37 24 26 23 29 32 26 36 19 24 34 24 32 38 38 22 28 32 23 26 28 36 32 21 34 30 38 24 21 19 28 38 19 35 29 27
21 23 20 18 22 23 22 38 24 23 19 22 20 30 18 28 26 31 34 32 23 21 34 23 27 29 19 37 31 26 19 37 31 22 25 18 18 36 29 22 27 25 32 30 29 35 28 24 33 23 34 21 22 33 25 30 24 18 21 22 25 25 21 31
30 26 28 38 21 35 25 18 27 21 34 24 29 28 33 28 29 20 33 21 32 34 34 24 38 33 18 35 20 33 21 27 26 28 37 18 23 22 28 29 26 26 22 29 28 19 33 31 18 18 24 37 36 33 25 19 34 24 28 23 34 28 23 31
20 26 30 27 26 31 19 33 24 26 27 35 38 24 37 24 27 26 24 25 38 19 38 32 22 38 33 34 32 37 38 36 34 34 38 32 18 21 19 29 34 35 31 33 37 38 25 30 18 31 31 22 38 19 23 31 38 18 29 31 21 28 24 30
18 34 19 32 28 37 37 20 35 19 34 36 30 32 34 22 20 22 37 26 30 23 32 19 26 23 29 37 35 27 22 38 36 28 34 25 31 26 28 32 21 37 33 31 37 31 32 21 30 29 34 22 28 29 18 23 25 27 24 30 22 36 38 35
27 37 31 35 35 32 18 18 30 34 30 23 19 29 34 36 33 24 18 22 32 31 18 18 19 34 30 38 20 29 34 31 35 30 35 35 33 25 20 34 18 21 28 32 31 29 28 26 36 31 18 20 21 36 33 36 30 28 26 18 20 30 23 22
29 33 29 28 36 32 37 21 31 32 33 36 24 18 21 29 25 35 21 30 27 19 36 34 38 32 35 21 25 26 18 23 23 29 31 27 20 21 33 25 21 31 37 32 30 38 18 28 32 22 33 29 29 33 26 23 37 19 21 37 29 18 34 21
28 33 22 19 34 20 29 19 18 26 29 21 35 18 18 38 24 22 27 21 22 21 37 24 24 19 21 26 33 27 23 38 37 29 26 25 20 34 25 34 22 31 23 18 22 29 31 25 27 36 30 35 37 29 34 30 36 33 31 23 20 26 31 28
36 38 33 30 20 28 20 25 18 30 30 22 33 27 38 19 33 38 25 30 22 25 33 22 20 21 29 33 34 37 26 27 23 23 32 21 28 18 25 25 30 26 30 27 26 18 36 33 24 27 22 36 30 37 26 21 36 27 33 33 37 34 21 31
26 31 19 28 28 19 22 23 19 36 36 26 22 29 28 18 23 33 30 25 29 28 38 23 25 18 31 24 25 25 23 19 38 33 18 38 38 35 21 37 21 22 20 27 18 26 24 28 33 18 38 27 18 34 18 28 30 30 21 30 34 32 38 37
29 33 31 37 26 19 34 19 27 24 37 37 35 36 28 35 24 31 28 36 23 19 20 34 32 26 34 26 35 38 35 38 38 23 30 30 38 22 18 18 33 18 23 34 34 24 30 27 23 31 20 30 37 21 29 25 31 34 27 20 31 36 38 34
35 35 21 32 36 32 28 33 35 36 35 30 27 25 34 35 35 32 19 26 28 26 27 20 29 25 32 35 27 33 20 24 36 31 24 37 20 18 24 34 20 22 26 27 20 18 29 21 19 38 27 31 30 23 22 32 29 25 29 24 23 21 30 35
28 37 29 31 32 37 36 18 18 20 30 20 34 25 34 29 38 29 18 34 26 38 21 18 31 18 29 18 38 29 29 32 35 19 27 25 20 33 31 33 25 19 26 18 38 32 28 36 18 18 32 18 30 27 35 29 38 37 23 23 23 25 30 35
31 34 29 32 36 18 27 28 20 22 37 29 36 18 29 26 36 25 36 32 29 36 23 25 18 34 30 27 19 28 19 30 20 28 30 34 30 27 38 27 19 18 18 21 38 32 34 22 18 24 26 31 37 26 30 21 33 29 19 21 23 35 38 23
28 19 28 25 35 32 36 34 31 30 31 30 21 22 18 33 35 26 38 20 22 35 28 26 22 22 18 31 28 32 18 36 34 19 28 30 31 19 23 35 18 22 21 21 37 34 30 25 19 20 24 35 36 27 19 35 24 20 27 22 37 29 35 20
22 19 36 23 34 30 30 19 27 30 33 22 38 19 20 35 28 31 28 34 31 37 38 40 31 37 37 34 18 31 30 24 29 27 20 27 37 28 34 22 37 29 29 23 27 27 36 40 38 22 37 33 28 36 24 19 33 32 33 35 34 30 24 32
32 20 18 35 34 25 33 30 28 23 22 34 35 22 35 31 25 29 28 35 43 37 34 28 26 33 35 28 36 25 38 25 38 24 23 35 36 35 34 34 40 37 42 44 35 43 44 35 32 30 22 24 32 29 28 34 21 22 26 32 32 36 18 35
28 25 25 34 34 28 22 27 35 18 21 19 27 29 42 39 39 40 36 44 47 42 49 28 42 39 34 29 31 35 36 21 18 21 36 22 34 33 29 28 40 28 37 33 43 31 41 47 38 25 41 36 22 31 23 24 18 34 31 31 38 24 33 34
21 18 24 31 32 21 22 18 18 25 36 26 36 41 27 39 43 33 47 33 39 39 40 50 33 44 34 45 24 35 23 31 36 27 21 28 44 46 35 38 34 32 47 33 33 51 49 42 50 28 29 39 31 34 30 21 27 33 18 30 25 23 38 18
38 25 24 27 26 29 29 23 32 19 37 27 27 37 36 42 38 47 56 38 54 50 39 37 40 50 48 30 43 32 34 32 18 37 25 25 47 49 39 46 51 45 48 49 48 53 39 41 51 38 38 34 34 36 23 34 29 38 36 37 27 27 24 31
37 35 18 18 27 37 21 35 26 25 27 40 36 48 39 42 46 39 47 51 46 42 55 45 47 57 44 44 49 34 29 32 21 41 28 42 48 34 39 38 53 40 45 44 61 41 40 43 54 50 48 30 47 42 24 37 21 30 28 35 28 24 38 23
19 21 36 20 18 24 34 34 21 21 38 37 42 33 38 48 55 60 44 61 51 51 59 60 45 51 53 39 41 37 42 26 23 39 27 31 47 45 48 41 49 44 55 62 54 48 46 50 43 39 46 43 35 46 26 24 35 21 23 33 34 24 21 35
23 19 28 21 33 19 31 37 36 36 40 49 45 51 47 52 43 62 61 48 52 51 61 63 60 49 45 49 50 44 30 38 42 30 48 46 46 45 52 44 64 52 53 61 55 64 50 61 58 53 58 39 39 34 25 31 26 18 32 20 23 27 38 31
30 37 33 28 23 34 29 37 32 37 27 45 54 56 47 62 48 66 65 62 53 72 52 70 62 50 46 49 43 53 30 34 35 36 40 40 49 57 61 59 50 61 64 55 58 54 62 50 66 47 47 49 49 43 40 29 28 33 32 18 36 28 35 19
37 36 19 35 19 23 36 18 23 36 31 45 46 49 50 66 61 69 70 67 68 66 65 66 66 58 49 47 59 45 40 52 37 35 50 46 53 61 63 59 55 73 59 75 64 60 66 68 54 61 56 41 52 34 30 45 24 38 25 24 30 38 36 29
27 24 29 26 34 20 21 30 33 34 34 41 45 54 61 55 61 58 70 74 80 62 77 65 59 71 55 44 41 54 45 35 46 37 48 37 44 50 62 67 55 57 65 73 78 59 60 59 64 61 53 49 57 38 42 33 33 33 34 30 37 37 31 21
20 19 24 25 27 25 31 19 41 40 41 40 39 43 58 65 72 76 63 70 65 78 76 74 68 73 63 54 44 41 41 47 42 46 49 57 53 48 52 70 70 70 67 66 68 82 67 71 59 54 47 46 52 46 49 33 37 24 24 22 29 28 22 25
33 23 24 20 21 34 32 27 37 43 47 38 57 47 61 60 56 60 69 71 81 87 72 65 67 63 61 55 59 55 39 39 55 41 51 54 56 55 51 72 60 62 79 79 73 86 73 68 61 53 57 48 44 44 43 31 33 27 28 18 37 20 24 28
30 30 26 19 22 19 19 28 29 33 35 50 44 55 51 58 60 66 71 77 90 76 80 74 61 66 65 67 57 45 56 49 41 51 38 44 45 47 69 63 67 72 69 89 72 73 67 61 70 58 57 45 54 55 50 46 30 24 24 37 18 32 35 36
36 21 36 38 23 38 25 23 32 28 38 38 44 60 58 65 55 63 77 77 75 80 83 75 76 67 56 48 61 52 43 54 45 44 54 39 53 58 57 61 66 76 80 86 83 79 80 67 59 55 62 49 53 52 41 32 44 28 24 31 23 28 24 33
20 32 36 22 38 19 20 33 34 37 51 52 42 53 56 70 71 73 63 82 72 81 80 77 70 67 50 55 58 44 45 42 52 39 48 42 59 51 60 66 63 63 67 70 82 64 79 76 54 57 48 50 44 42 46 31 43 38 31 34 35 35 20 32
31 24 38 34 31 20 25 24 37 40 45 39 50 58 64 62 55 75 71 63 76 80 62 62 58 57 64 60 53 42 54 39 42 47 36 50 59 54 67 68 70 69 71 80 66 72 71 60 71 53 62 54 39 35 41 40 30 32 31 31 35 32 23 18
27 28 22 18 18 37 33 26 28 30 40 39 39 40 49 48 58 64 69 74 59 72 59 69 55 63 53 44 56 47 34 41 36 41 37 47 56 48 47 54 56 58 74 66 67 74 71 56 69 56 61 43 43 46 45 37 27 35 30 35 35 25 18 30
34 26 38 25 38 25 37 20 34 30 40 46 41 48 56 56 49 64 71 52 71 64 52 62 63 64 55 43 49 37 40 38 34 36 37 37 48 60 52 65 56 58 61 55 68 57 56 65 50 52 44 42 46 48 38 42 37 19 31 37 34 26 20 28
29 26 22 20 20 36 37 37 34 25 40 48 41 53 50 51 47 50 63 67 49 56 65 67 48 46 42 38 38 36 49 33 35 36 41 47 44 49 54 47 49 58 66 52 57 60 47 55 46 59 46 42 48 42 30 38 33 33 22 26 21 34 35 19
39 24 38 29 39 37 30 23 30 28 32 40 54 36 58 52 55 60 58 65 56 56 53 59 57 61 55 52 49 54 49 46 33 48 41 36 38 46 55 49 54 49 69 52 69 60 57 68 50 46 60 39 44 50 44 30 38 32 30 38 38 41 32 37
35 37 40 41 35 34 42 31 38 33 47 44 42 49 42 43 48 64 48 62 54 51 62 50 57 53 54 45 55 53 40 41 32 36 53 44 41 49 45 51 65 68 67 71 62 64 54 58 64 52 45 43 49 45 46 36 42 47 47 46 34 33 37 39
37 46 41 46 42 45 29 33 34 42 50 51 48 51 51 56 55 49 66 55 58 61 52 59 68 53 58 43 49 57 45 33 35 52 44 55 48 54 48 65 70 69 56 62 61 54 60 63 62 51 52 48 47 50 55 45 48 41 38 36 56 45 41 46
25 27 44 41 28 41 33 27 33 35 28 26 42 45 49 47 57 47 45 53 52 58 53 49 41 53 52 41 34 49 30 37 32 31 47 49 36 47 38 44 49 49 51 45 54 52 53 46 55 39 46 41 43 30 46 30 36 46 32 31 30 41 40 40
35 30 35 21 25 32 36 27 27 28 25 38 29 30 42 47 43 46 43 51 35 50 49 38 48 49 48 38 40 28 42 22 22 26 33 42 28 42 45 33 32 50 50 37 47 54 53 52 31 32 47 30 38 43 43 27 36 39 27 32 28 42 30 37
28 19 19 25 22 24 24 37 30 37 24 27 34 19 32 22 28 37 40 29 31 37 42 29 35 34 37 38 34 20 37 37 34 38 27 26 36 20 40 26 40 39 37 31 33 44 41 34 30 37 27 29 36 38 24 28 24 24 25 25 37 32 35 27
26 19 21 30 28 38 20 20 26 27 31 38 25 23 19 23 21 39 22 28 30 25 31 22 22 30 37 27 21 29 21 18 38 35 26 31 24 37 29 20 32 25 33 32 26 26 25 38 35 21 32 27 25 37 36 28 34 26 33 32 34 33 32 20
37 37 18 38 32 19 22 23 33 31 28 31 27 26 37 18 31 21 29 36 23 34 20 33 25 34 29 29 21 32 21 32 38 32 28 25 21 32 24 36 26 21 21 28 34 21 30 33 26 18 18 21 35 36 36 18 20 22 33 28 26 20 26 32
36 32 21 36 21 33 23 33 21 32 24 36 36 26 35 33 28 32 26 30 18 34 37 37 22 38 29 28 30 18 36 24 35 26 21 32 18 19 31 29 31 20 21 30 25 38 30 32 22 25 37 34 28 19 30 27 28 20 33 37 36 18 33 20
18 37 30 29 37 33 23 22 32 19 21 36 32 29 28 21 22 30 24 36 22 36 34 26 36 22 20 34 19 36 22 32 22 21 26 38 29 21 33 24 29 27 32 26 25 26 19 30 32 35 33 25 23 38 27 22 21 32 26 24 29 25 19 33
37 32 27 35 33 35 22 19 18 37 23 30 26 26 19 20 28 37 27 34 23 19 32 19 37 33 23 30 28 33 30 38 20 32 37 29 34 18 27 18 30 22 32 26 21 19 21 34 37 30 35 21 38 25 26 26 31 37 26 38 19 23 25 19
29 32 26 31 28 30 31 19 32 28 34 32 28 38 26 23 34 22 20 30 19 30 20 25 27 20 22 24 25 24 37 37 19 30 25 27 20 32 32 21 30 23 27 23 37 30 35 30 33 25 19 31 35 38 31 26 22 26 29 32 34 31 26 24
18 33 29 33 19 23 37 29 28 34 18 30 20 19 24 23 34 35 27 26 34 30 20 36 20 29 19 18 25 35 25 34 32 20 23 21 37 24 38 24 21 19 32 20 20 19 34 19 30 22 36 37 31 27 22 25 34 29 31 32 37 34 32 24
30 18 25 28 35 38 34 32 35 38 24 18 24 35 28 21 30 27 31 35 29 23 29 22 37 32 26 20 18 38 20 28 20 28 31 19 22 18 19 32 38 33 20 33 18 25 37 24 27 31 36 27 35 37 28 25 18 35 35 23 27 38 36 27
28 27 27 29 19 18 18 36 38 28 27 33 34 24 18 29 32 34 25 35 35 34 37 26 33 37 28 36 25 23 21 20 27 24 36 26 34 29 35 37 30 23 38 27 31 20 27 28 21 37 30 35 30 26 18 18 26 28 33 22 20 18 28 31
30 35 24 34 37 21 36 26 25 29 31 29 38 29 19 20 27 38 22 38 37 19 30 22 37 23 23 37 37 31 36 22 33 34 25 23 18 25 29 35 27 24 22 32 31 37 35 23 36 24 37 29 35 32 34 27 23 18 29 27 18 34 19 24
29 24 29 20 19 21 30 26 36 28 29 28 35 37 31 26 36 18 21 25 27 18 31 35 19 31 24 36 27 29 23 20 29 38 33 36 37 18 22 31 33 19 34 21 38 32 38 32 36 27 26 37 33 36 18 30 32 26 28 33 28 35 30 22
24 23 24 26 26 35 37 22 23 28 35 25 23 35 22 36 24 38 31 29 28 21 30 18 34 27 37 28 29 29 32 20 26 30 22 23 29 19 36 26 33 28 38 31 30 33 28 29 36 31 22 28 22 33 23 34 37 18 35 33 22 22 28 28
35 33 25 24 19 29 26 18 29 26 23 38 24 19 19 34 32 30 27 30 18 19 23 32 36 31 28 34 20 33 21 18 36 29 26 28 36 21 31 23 34 21 31 25 26 37 27 37 37 32 18 25 29 32 34 36 31 38 21 30 21 38 18 33
21 20 26 31 36 37 32 31 27 30 29 31 32 28 21 33 35 20 21 20 31 31 37 25 18 35 19 33 36 34 30 28 36 35 37 23 25 23 34 35 21 36 34 27 24 31 38 22 18 37 35 19 24 33 37 32 29 22 18 18 30 30 22 26
34 38 29 31 36 25 34 25 20 33 31 31 30 35 36 23 35 31 26 20 26 31 18 32 29 27 30 19 36 38 32 38 37 38 22 35 19 29 22 21 30 29 19 18 24 25 29 22 30 19 36 24 31 23 22 22 30 20 32 24 20 21 28 19
23 38 37 26 23 25 30 24 19 24 21 30 31 37 34 28 29 22 35 27 24 27 30 31 37 26 22 20 23 26 29 22 25 20 34 37 38 22 30 36 29 35 28 22 37 28 30 35 36 31 35 21 21 35 26 21 36 24 36 29 22 30 19 24
30 22 18 38 37 18 27 29 20 24 26 30 35 37 33 25 32 38 26 31 36 24 36 21 36 38 28 22 18 25 29 35 23 37 20 23 27 30 28 29 27 21 27 30 19 37 25 29 18 29 27 20 37 26 20 20 19 21 20 25 26 28 29 36
18 29 38 27 38 19 29 23 24 18 18 37 22 38 35 26 33 27 32 25 34 29 35 20 36 33 33 32 30 36 18 32 26 31 36 24 38 32 36 28 35 27 23 31 22 33 20 23 24 29 36 31 23 36 36 18 34 33 18 29 31 22 34 33
24 18 23 33 36 38 38 33 31 35 37 37 23 32 28 18 27 36 22 35 23 33 24 29 34 22 30 18 27 31 24 18 38 26 29 18 24 21 36 21 22 34 19 35 18 27 31 35 28 35 18 25 25 28 27 32 36 33 36 30 28 33 27 24
