P2
64 64
255
14 15 25 26 17 18 24 25 26 19 14 26 15 15 21 18 18 24 18 26 20 26 25 18 16 19 25 16 26 24 21 26 19 17 22 21 17 25 20 26 17 24 18 22 26 20 19 16 17 26 19 22 18 19 25 15 25 26 22 21 16 25 16 19
22 15 22 20 26 22 16 26 21 23 25 20 21 14 23 19 23 18 24 15 15 25 23 23 15 23 14 14 23 24 18 26 24 15 18 17 16 23 15 23 15 14 14 16 22 23 18 24 17 14 20 23 16 26 26 21 20 17 18 14 22 14 24 23
19 20 22 23 26 24 15 15 14 18 26 26 19 15 23 14 22 19 26 22 18 18 19 20 20 20 16 23 26 24 22 24 17 24 21 21 20 21 17 18 15 19 15 20 14 22 22 23 23 16 25 19 18 19 19 24 20 21 22 23 17 24 18 14
17 24 20 23 15 26 18 14 17 20 23 16 17 19 25 20 24 24 16 26 26 19 23 20 25 15 21 18 21 26 14 20 18 22 16 19 16 23 24 22 15 20 19 23 21 25 21 23 24 19 21 15 23 19 17 22 17 23 21 23 20 25 14 14
16 16 14 15 17 19 20 16 15 16 14 14 21 15 19 21 25 16 26 15 15 26 25 22 19 17 24 17 26 23 17 24 20 15 26 26 14 18 24 21 17 20 22 24 19 15 21 22 23 15 14 26 24 22 25 21 22 20 19 16 15 17 18 22
24 26 15 14 26 18 23 19 18 17 21 16 24 15 25 16 26 14 22 16 22 14 24 24 15 23 24 26 15 23 22 14 21 16 17 26 14 22 14 24 21 26 15 21 23 19 15 25 14 19 16 14 19 23 23 19 17 16 20 19 14 17 16 19
20 17 17 23 24 17 16 21 21 17 25 18 22 18 21 25 20 20 19 14 24 16 19 14 23 24 26 19 17 24 24 20 20 19 21 21 21 21 16 20 24 16 20 19 15 23 15 18 14 17 17 26 16 17 23 15 14 19 25 21 16 16 16 20
24 24 22 19 16 22 26 17 14 23 26 18 21 20 22 23 18 15 20 23 22 19 16 14 26 23 14 14 25 18 25 16 24 21 24 18 21 23 24 15 22 26 23 16 23 20 22 14 24 19 17 21 19 24 18 20 18 22 17 25 19 20 20 20
21 14 18 17 20 18 22 17 15 22 16 16 15 18 26 25 26 21 14 26 20 25 17 22 16 18 15 21 17 21 19 19 26 26 16 15 25 23 22 14 19 24 21 17 18 23 18 14 15 14 21 26 20 21 25 15 15 14 24 24 23 16 23 26
25 20 20 26 14 20 23 18 14 26 15 19 15 16 21 16 19 16 19 24 20 19 24 16 18 21 17 20 15 20 15 24 17 20 17 20 22 16 21 21 20 22 14 25 23 24 25 26 15 22 15 22 21 21 24 19 24 21 15 16 22 24 16 21
18 16 17 20 20 18 25 25 15 23 15 22 22 18 26 25 24 20 24 21 24 17 26 17 16 23 21 19 21 22 23 22 26 20 20 21 20 17 18 15 26 23 18 16 17 14 21 20 17 16 18 25 18 19 21 20 26 16 25 24 23 15 22 19
14 20 23 24 15 22 16 21 22 23 23 17 14 23 24 15 26 15 14 21 17 14 21 14 19 22 17 19 20 15 23 16 15 23 25 24 20 22 23 17 23 26 22 21 14 15 24 23 26 23 19 26 22 24 17 26 24 24 20 17 22 16 23 26
15 20 15 26 23 19 23 18 18 22 26 17 26 17 24 15 21 23 24 22 22 14 15 14 22 26 24 15 23 15 14 26 16 16 20 15 21 23 24 15 15 21 23 21 19 22 20 20 17 25 14 20 18 22 23 20 14 19 18 19 26 14 26 18
17 19 18 20 20 23 26 22 15 14 24 18 21 17 20 15 15 24 19 19 15 14 19 24 24 24 17 21 22 24 17 23 25 23 20 18 15 24 16 25 15 14 16 22 18 19 25 21 18 24 21 14 20 15 25 16 17 15 22 19 21 25 22 14
25 18 25 25 22 25 16 15 21 25 23 24 14 19 17 17 23 25 15 18 26 20 14 23 18 15 23 22 25 22 21 20 15 16 21 18 21 20 26 23 25 18 25 23 19 24 15 17 22 15 26 18 23 19 23 17 19 23 20 16 17 19 26 24
26 25 14 14 23 14 22 21 15 14 17 18 19 26 20 23 14 26 21 24 22 15 26 14 25 18 17 23 25 15 15 21 21 21 26 18 24 14 26 24 22 24 22 20 22 17 18 16 20 18 18 23 20 18 17 25 26 25 26 20 16 21 25 23
18 14 17 16 20 23 15 18 15 26 26 20 18 22 19 19 25 16 18 19 16 20 16 15 22 24 23 24 14 15 15 20 16 18 21 19 19 20 17 15 25 21 20 14 17 23 23 21 23 24 23 16 24 21 24 26 22 26 22 24 25 26 14 25
20 20 23 14 18 23 18 20 20 21 14 19 26 14 24 23 14 22 18 15 25 21 17 20 21 14 17 22 14 19 18 16 14 24 19 19 16 21 26 17 22 19 15 25 25 16 25 18 23 19 15 15 18 21 17 16 22 14 21 22 25 22 24 23
23 14 16 18 24 19 21 22 21 22 17 21 18 23 26 18 25 15 21 25 26 18 26 17 22 24 16 21 14 22 19 26 21 15 15 21 26 19 26 16 26 14 16 26 25 24 17 18 20 20 20 16 20 25 18 24 24 23 22 21 14 23 19 20
17 19 19 24 21 26 20 18 18 21 15 18 19 24 19 21 23 16 25 26 23 28 21 17 18 18 24 17 21 25 16 16 24 25 19 20 25 19 23 24 20 17 19 24 20 17 24 28 25 23 17 23 14 22 14 23 18 15 16 15 26 22 26 18
15 20 25 24 19 22 18 24 25 16 23 25 15 15 18 27 21 30 32 23 22 25 25 29 22 28 21 23 19 15 17 19 16 16 20 23 22 18 17 26 21 26 23 22 23 24 31 23 23 21 18 17 20 22 17 26 26 24 17 20 22 24 25 20
17 23 25 20 19 19 14 22 17 14 22 16 21 24 19 24 30 34 27 29 28 28 34 27 24 26 32 25 23 25 20 19 18 17 21 24 23 20 20 34 30 30 30 31 27 26 26 25 34 23 29 24 24 19 19 17 25 23 19 22 19 22 23 21
15 20 21 21 14 24 14 14 18 18 24 15 27 32 27 32 31 34 40 31 33 36 36 39 29 31 29 29 21 27 27 22 15 23 24 18 26 22 25 28 38 28 39 32 34 40 40 33 31 29 33 29 27 19 19 19 26 21 19 26 15 26 22 21
25 18 19 22 19 23 24 24 16 21 26 23 29 26 33 38 30 35 42 37 43 36 36 32 37 29 35 35 23 26 27 24 16 17 19 32 35 36 39 36 39 40 42 37 36 43 43 31 37 31 26 23 22 24 17 21 16 19 15 14 19 22 17 15
22 21 19 24 25 26 19 24 18 26 20 31 30 29 33 42 42 42 38 40 44 39 38 44 46 40 43 32 34 25 26 27 22 26 25 33 34 37 32 34 44 45 38 49 49 48 46 40 41 42 30 37 28 21 28 17 23 16 18 26 25 25 24 16
18 19 25 15 14 16 23 22 15 27 25 26 28 30 43 46 43 48 46 53 45 44 41 44 50 45 43 43 34 36 29 19 19 29 29 27 30 37 44 44 43 42 43 48 48 44 40 38 42 34 38 39 29 24 20 26 23 23 20 15 26 18 26 18
25 26 19 19 16 24 20 15 23 21 27 37 30 40 46 41 41 41 53 54 56 49 50 44 51 49 43 46 41 29 26 24 25 21 35 28 37 42 45 51 41 47 52 53 49 51 45 45 44 39 36 32 36 28 26 19 15 20 15 23 24 17 19 15
17 17 19 22 17 19 21 19 21 26 25 33 32 38 44 49 44 47 48 51 60 54 48 50 52 49 40 41 38 36 26 37 33 36 35 37 33 37 43 51 47 51 48 51 51 51 47 46 43 51 47 37 39 38 31 21 28 26 19 14 16 24 23 22
21 14 14 22 17 15 26 17 28 21 34 30 44 36 49 48 53 57 57 56 58 59 59 55 56 49 53 44 47 44 28 40 36 29 35 40 36 48 50 50 57 62 53 53 53 60 61 58 55 54 50 46 44 39 26 24 29 14 15 25 20 19 23 25
20 25 16 20 17 25 22 20 20 24 26 34 33 38 43 52 49 59 53 55 62 68 64 54 57 56 47 43 45 41 40 37 35 42 34 42 45 40 44 55 50 57 59 69 64 56 56 52 57 55 49 45 45 34 37 22 21 22 18 17 17 24 21 16
25 23 16 16 26 19 18 15 26 29 27 36 39 49 44 49 52 57 58 62 61 62 68 64 61 50 46 49 44 38 38 33 37 41 39 42 49 42 53 52 54 65 59 66 66 60 63 55 49 50 47 39 43 40 38 25 30 26 21 22 15 20 18 24
25 18 25 15 25 17 14 25 25 28 32 43 42 48 43 51 58 64 63 64 76 64 65 66 66 56 50 55 44 35 37 35 39 41 34 38 47 43 48 56 62 59 70 71 69 65 60 62 59 56 44 50 35 36 29 32 28 21 23 16 14 20 17 20
20 20 22 18 20 21 20 21 22 31 37 39 44 40 52 50 55 59 61 66 74 67 71 69 57 60 50 55 48 41 34 40 46 43 39 36 41 46 51 58 57 66 68 68 68 67 67 56 53 58 47 45 45 35 40 33 21 25 19 19 21 23 24 23
26 18 19 14 25 15 18 17 24 35 37 39 36 39 50 49 56 64 58 69 71 74 68 61 62 58 49 48 43 42 43 42 40 32 40 40 47 43 59 62 63 66 61 66 71 64 68 63 56 56 49 42 45 34 27 26 25 23 25 18 16 23 24 20
17 18 20 23 20 21 24 20 31 31 27 35 37 40 43 51 51 53 67 62 66 67 61 65 61 50 58 52 46 46 41 42 32 39 36 40 45 45 58 52 60 58 69 64 62 62 60 59 49 56 46 48 45 32 35 30 24 26 18 17 15 15 18 26
14 25 17 24 16 16 26 22 25 22 34 32 44 45 53 55 48 52 64 57 68 69 56 60 62 47 45 49 49 42 34 31 31 39 35 40 46 41 53 49 59 56 61 65 61 55 59 51 52 55 52 49 40 40 37 26 24 23 22 16 17 25 16 14
23 26 25 20 18 18 21 25 20 26 33 31 43 43 39 48 54 51 51 57 63 56 64 58 57 45 54 50 47 42 34 29 40 30 38 36 36 46 51 52 56 50 56 61 65 63 61 58 47 44 45 36 34 31 27 25 27 15 21 25 19 22 19 20
20 25 23 21 17 21 26 17 25 29 33 38 30 38 43 46 54 53 55 57 61 54 58 58 49 50 39 38 42 40 32 29 31 30 31 33 45 47 41 43 46 47 49 56 51 55 51 57 48 48 40 44 38 39 32 32 24 26 19 18 23 14 17 16
20 17 25 23 16 17 22 26 19 26 27 27 31 42 42 38 45 48 55 49 53 50 52 53 45 51 39 43 42 30 30 28 22 24 34 29 31 39 43 50 41 52 52 56 53 51 49 45 45 38 38 36 37 36 30 27 14 22 23 19 24 20 17 22
17 19 18 26 24 21 22 27 22 28 30 29 41 33 44 50 51 52 44 55 52 48 56 46 52 47 43 47 42 39 27 26 26 24 35 42 45 48 41 47 54 49 52 51 53 53 49 52 49 44 41 41 38 30 31 22 25 29 28 26 23 27 24 30
25 22 30 31 29 32 27 25 26 31 34 35 43 44 43 43 48 43 56 55 56 55 50 47 52 49 46 37 37 34 34 38 35 33 42 38 43 44 43 50 50 55 54 53 59 57 55 51 50 52 51 42 43 34 35 31 28 36 32 33 36 27 30 39
33 36 25 28 29 35 25 27 36 26 30 39 41 40 38 43 47 50 49 54 48 46 47 48 55 52 43 49 41 38 42 28 39 31 38 40 41 41 48 51 55 55 58 57 56 50 49 48 49 47 50 52 44 40 38 42 36 32 42 38 33 39 43 39
30 30 32 31 26 29 30 26 32 30 30 25 28 38 34 38 42 46 40 46 37 43 48 38 41 46 43 40 33 27 29 33 23 33 37 34 38 39 37 42 43 44 47 51 48 45 47 47 48 38 42 41 35 36 30 34 38 26 30 28 32 28 38 26
28 25 23 28 21 22 17 18 18 25 22 27 27 24 26 23 27 31 37 32 36 36 41 35 28 34 35 35 31 30 27 20 18 27 27 18 30 35 33 27 35 29 31 32 30 31 31 37 30 27 27 30 21 25 26 29 28 22 22 25 26 20 24 32
18 21 18 18 22 14 25 15 14 17 16 16 14 15 16 26 20 32 33 22 29 24 22 25 32 28 22 19 16 23 24 19 17 17 19 25 15 21 24 26 25 32 28 32 29 21 30 28 24 23 23 22 22 18 23 25 19 18 22 14 17 19 26 21
21 18 21 15 18 17 18 26 20 17 14 17 26 22 15 19 17 16 24 28 24 25 21 17 22 19 24 20 24 24 23 19 19 14 17 22 19 21 26 18 20 19 28 22 18 26 18 24 17 14 19 24 19 16 21 23 21 22 18 26 18 26 23 24
16 21 16 16 15 25 25 19 14 21 19 23 16 17 17 18 15 18 15 17 19 20 19 25 23 25 22 22 22 25 23 18 25 21 16 18 15 21 21 17 17 18 23 25 23 17 17 17 17 15 19 25 17 21 23 21 26 21 22 24 15 25 18 20
16 14 15 23 16 24 25 25 19 20 25 20 21 20 25 14 23 24 19 19 16 14 26 16 22 23 17 18 24 23 18 21 16 22 19 19 23 19 24 20 17 22 14 20 18 15 22 14 18 23 19 22 15 23 24 17 24 17 23 18 20 20 21 21
16 22 20 26 18 26 23 15 19 26 26 24 17 19 16 19 15 22 26 26 24 16 18 23 23 23 26 15 16 19 20 18 21 20 19 14 17 19 19 24 23 21 24 22 15 19 14 22 23 20 14 21 26 17 14 23 18 14 19 25 17 22 26 24
15 15 24 16 16 17 26 18 21 22 18 26 21 23 18 16 20 18 24 25 22 25 24 16 17 16 22 21 22 20 21 19 23 15 18 20 20 25 16 17 17 26 24 14 16 20 14 22 17 26 14 24 20 20 14 18 23 24 14 15 19 18 26 23
14 17 21 25 21 25 25 21 20 26 17 20 23 17 20 21 23 16 23 15 22 14 22 20 24 15 18 21 24 17 15 25 23 24 19 17 25 25 24 14 15 21 20 21 20 25 20 15 15 18 25 22 19 20 24 15 25 17 17 18 26 19 18 16
19 19 26 25 23 18 22 20 23 19 24 16 25 26 16 14 24 19 16 18 14 16 14 16 24 26 21 26 21 23 22 16 17 15 18 19 16 16 17 17 23 14 26 20 16 17 19 17 24 26 20 15 17 19 20 19 20 22 18 16 18 14 15 22
15 19 20 17 17 16 19 20 20 19 23 21 16 15 18 19 24 20 22 20 16 14 18 22 26 16 17 16 16 24 21 15 20 16 20 15 18 17 24 18 17 21 18 24 24 26 20 17 20 21 26 24 15 21 20 20 18 21 23 19 16 16 15 25
23 14 18 23 20 17 14 18 22 19 22 19 23 26 20 26 15 22 19 16 14 21 22 17 18 19 26 15 25 15 18 15 22 25 20 18 16 22 14 21 25 15 17 18 23 15 17 25 17 16 16 23 23 14 20 23 21 20 16 24 14 21 15 17
25 22 21 19 16 25 19 20 25 16 14 26 15 16 14 24 24 21 18 24 26 17 14 15 21 19 15 20 18 21 15 18 21 14 21 22 17 22 23 20 14 14 15 22 20 16 26 20 22 25 17 20 15 16 23 19 20 15 18 20 22 17 17 19
18 21 14 21 24 20 22 26 21 16 15 26 14 25 16 26 15 16 24 22 22 23 26 21 18 21 21 14 21 17 15 15 18 14 24 24 16 19 22 19 24 26 23 16 18 25 15 17 18 23 18 20 25 19 16 16 18 18 24 19 25 17 21 24
24 15 17 20 23 24 20 24 22 16 21 17 24 23 26 14 21 17 14 21 25 18 18 26 24 17 23 18 18 16 17 17 23 19 19 14 26 24 14 24 19 26 16 15 25 22 19 26 24 20 24 24 21 19 14 17 18 22 25 18 17 22 24 20
14 21 24 21 15 15 25 19 26 22 14 17 26 24 14 23 16 17 17 15 14 19 24 17 22 25 26 16 14 18 18 19 20 22 22 26 19 16 22 19 18 23 19 18 18 19 26 18 16 14 25 23 17 15 17 22 15 14 26 19 17 25 26 25
26 23 20 26 18 19 14 21 25 22 15 14 20 24 24 25 22 22 18 22 15 18 21 21 14 21 25 25 24 25 14 20 24 18 21 23 21 25 19 22 16 14 26 23 20 18 25 20 21 23 22 18 22 21 17 17 24 24 26 24 14 16 26 26
24 26 19 25 15 21 15 15 22 26 22 16 21 18 17 19 18 25 23 20 18 20 23 23 15 23 16 24 17 15 20 16 23 26 19 15 25 26 14 16 20 14 25 26 18 20 21 21 26 23 14 19 26 20 22 25 25 18 22 21 14 14 25 16
17 18 25 21 25 20 20 20 22 22 20 19 17 18 24 25 24 18 15 23 21 16 14 16 17 25 25 15 22 16 25 26 26 22 25 16 21 24 16 20 16 26 20 20 14 26 20 18 24 24 20 25 19 22 23 14 19 14 15 22 19 23 14 24
23 19 15 16 16 22 19 14 21 18 22 25 15 26 22 18 25 18 23 17 16 16 17 25 15 23 19 15 15 26 19 15 25 20 21 21 25 15 21 15 23 14 25 23 15 21 18 14 21 22 15 17 14 20 18 16 16 18 18 23 22 16 17 18
17 19 25 22 25 17 19 17 18 14 21 22 14 17 24 20 23 17 20 21 16 25 17 14 14 25 24 15 26 17 17 20 23 16 23 23 16 24 14 17 19 23 26 20 20 14 22 25 14 15 14 19 17 21 24 26 17 22 20 14 21 20 21 25
21 22 25 15 14 19 23 25 26 14 22 19 25 20 23 20 23 16 18 24 20 23 16 23 16 16 22 16 21 15 19 24 16 17 24 22 25 20 18 19 14 25 20 15 20 14 16 21 14 23 25 19 18 25 20 17 25 24 25 16 18 23 18 19
