P2
64 64
255
25 21 14 25 25 20 20 17 26 18 20 24 16 18 16 26 20 20 14 23 16 22 14 22 20 21 17 18 16 15 17 22 22 18 24 19 26 15 25 14 19 21 19 19 19 21 17 25 17 21 18 24 24 23 19 20 26 16 16 18 20 16 18 18
24 17 15 17 22 25 25 23 18 17 15 20 25 16 23 15 21 26 22 16 16 20 24 17 16 25 16 20 25 20 22 17 14 23 24 26 22 17 26 25 15 16 22 19 25 26 18 16 25 15 21 22 18 25 25 14 25 24 17 22 23 16 25 16
19 23 20 24 24 15 20 17 24 17 22 20 26 18 15 20 24 16 20 21 20 22 24 22 21 24 14 26 21 22 18 15 19 22 26 26 23 23 24 17 24 23 26 23 20 21 20 26 24 26 17 24 24 23 25 19 26 15 26 14 20 16 26 22
26 21 22 15 19 18 24 21 14 19 17 23 20 16 20 26 17 15 24 23 23 14 21 16 26 14 25 17 26 22 26 18 24 14 23 18 25 15 23 26 18 19 17 24 16 21 16 18 19 15 14 20 23 17 20 26 21 15 23 17 16 16 14 26
20 21 19 15 16 17 15 23 17 18 20 17 21 22 25 16 24 21 18 24 16 14 23 18 14 23 17 23 22 18 17 16 23 19 18 22 20 25 16 17 16 26 17 24 18 14 23 25 14 16 15 14 25 22 23 21 16 16 14 17 14 16 16 23
16 21 22 19 21 16 26 21 21 14 23 16 20 15 14 17 20 21 16 26 17 23 20 23 20 25 14 24 26 23 19 19 14 15 16 25 19 15 15 19 15 23 26 23 15 19 23 15 26 17 24 23 19 14 21 21 24 24 15 19 14 25 17 17
20 23 26 26 14 15 17 24 19 17 15 14 14 19 21 20 14 24 21 17 25 21 23 16 24 14 26 18 21 24 26 22 14 25 15 23 20 24 22 15 23 20 23 22 26 25 14 16 23 15 14 23 26 16 16 21 20 24 26 24 18 24 24 19
17 23 20 23 25 22 14 26 19 24 19 14 21 20 15 26 16 25 17 23 21 16 25 22 20 20 22 24 22 19 26 25 19 19 25 25 17 22 25 23 15 20 18 18 16 24 26 15 21 23 17 23 26 14 24 26 14 14 14 20 16 16 20 22
24 17 22 24 16 21 18 14 22 22 25 26 25 21 18 14 26 14 23 19 21 22 26 14 17 24 15 18 26 26 26 22 15 22 15 22 15 15 22 23 21 17 17 26 15 25 17 24 22 14 25 25 18 17 22 14 21 26 25 24 24 16 14 18
16 26 14 23 17 21 23 19 19 25 15 25 18 20 14 26 26 19 26 26 22 18 24 18 26 24 14 26 16 26 14 18 23 16 17 15 22 16 17 19 19 26 20 19 26 18 21 22 16 15 25 18 17 16 22 16 21 26 18 23 16 19 21 24
14 20 23 26 15 22 22 15 17 22 26 20 23 24 19 19 21 15 16 24 18 20 16 21 26 19 17 22 24 18 21 25 20 22 26 24 16 21 22 21 24 17 26 21 21 25 26 18 23 19 19 14 14 24 17 25 17 15 15 19 19 26 19 23
21 15 23 25 26 26 14 26 20 22 16 20 26 26 25 14 15 25 16 16 20 22 14 20 19 18 20 23 19 26 14 26 17 20 21 23 15 17 18 19 15 23 26 19 22 22 21 19 19 21 25 26 16 25 25 17 21 17 20 24 22 25 23 25
23 26 18 19 26 26 17 21 20 26 22 14 16 15 16 24 25 19 25 25 15 21 15 20 21 14 18 17 16 21 15 14 17 20 17 19 19 15 24 24 26 19 19 16 18 17 19 17 23 23 15 21 24 15 26 22 21 14 26 22 22 20 22 23
21 25 26 25 25 24 23 19 23 14 14 25 15 15 24 21 16 16 23 18 25 22 16 23 25 18 22 18 15 15 16 17 23 25 14 17 25 26 18 21 14 21 21 21 24 18 17 25 20 24 19 24 25 16 22 18 17 17 23 17 15 20 14 17
25 18 25 15 19 19 25 24 17 15 26 16 20 17 26 18 15 20 19 24 25 24 16 26 22 17 20 20 23 26 22 15 21 18 23 15 24 14 18 23 22 25 14 21 26 14 15 16 15 18 14 24 14 14 24 23 18 26 26 14 14 15 20 25
22 17 16 17 21 24 17 16 24 21 20 26 23 26 20 22 16 26 25 14 26 21 18 14 19 24 26 21 22 16 20 23 15 25 15 26 23 23 15 14 24 18 18 23 16 17 26 14 14 21 26 25 25 16 22 23 25 20 18 19 22 22 15 24
19 25 15 19 14 17 25 21 19 19 15 21 25 23 21 24 25 23 15 24 19 24 25 16 24 14 16 26 21 19 18 18 24 16 21 19 19 22 19 16 14 16 21 26 21 19 22 24 24 14 21 23 14 26 17 23 19 26 15 21 20 25 24 24
18 16 21 16 14 21 22 16 23 21 20 19 14 17 25 17 17 24 24 16 26 22 18 24 22 20 18 20 17 24 21 16 18 25 21 20 26 18 16 25 23 21 22 17 14 14 24 14 26 22 24 19 24 16 25 18 15 22 14 25 21 18 20 23
14 19 22 20 22 20 18 17 23 17 17 21 19 14 25 19 17 26 19 17 18 17 23 14 26 17 23 24 15 17 19 25 22 14 15 16 19 18 17 25 20 18 25 15 16 24 24 25 15 26 18 15 19 16 23 16 24 14 14 14 24 21 19 22
15 24 18 24 23 14 24 25 20 25 22 15 15 22 16 18 16 24 21 26 26 22 20 20 28 25 17 15 24 26 19 20 22 24 25 26 26 18 22 19 24 23 22 23 23 25 21 25 20 16 25 18 14 19 23 14 17 16 22 17 15 24 15 26
20 16 26 16 22 22 16 15 21 17 17 20 22 23 23 26 19 29 26 28 28 22 24 29 30 29 19 20 20 25 25 21 17 18 18 23 26 27 28 18 29 29 26 25 26 31 23 24 22 29 15 26 17 14 25 22 19 18 25 23 25 19 14 19
16 21 25 21 24 24 26 18 15 15 26 21 20 25 25 24 28 23 29 36 30 31 34 24 29 27 23 19 17 18 28 20 25 23 17 17 25 24 30 28 33 25 26 29 25 35 32 25 22 23 28 28 26 21 24 20 20 14 16 20 18 16 22 21
25 18 16 15 17 15 26 25 17 14 20 26 21 21 30 34 29 36 40 41 36 35 36 32 30 34 27 35 35 28 35 27 24 31 34 33 37 29 33 37 36 29 41 29 39 35 38 37 29 36 30 26 24 24 19 26 16 19 21 18 23 18 16 19
21 16 16 17 22 21 20 17 23 25 20 25 31 26 31 36 37 38 35 43 36 41 41 36 36 33 46 42 39 45 41 29 40 30 32 34 42 36 43 43 42 38 35 36 36 33 44 33 37 35 29 30 20 18 21 26 20 15 19 15 18 20 16 15
26 17 21 15 16 26 21 15 26 24 18 27 30 36 34 43 33 34 46 38 46 43 43 50 44 53 48 48 45 44 47 46 45 48 43 53 51 50 50 46 49 39 39 46 40 47 40 40 40 38 35 32 29 29 27 19 22 26 15 25 20 25 19 20
19 16 21 23 14 20 26 20 25 23 24 32 30 39 34 41 42 43 51 48 44 44 55 54 61 53 54 62 53 54 57 50 46 51 48 56 59 52 60 58 59 54 55 49 49 50 45 44 44 36 40 33 37 22 26 21 25 23 25 14 25 17 19 24
23 24 19 21 21 24 18 20 19 18 25 34 28 37 37 47 40 51 43 48 47 53 59 59 57 63 65 68 64 64 62 62 58 66 69 62 64 67 61 63 65 61 53 54 47 56 50 50 45 43 45 41 32 31 32 25 19 19 15 16 17 23 18 16
15 21 21 19 22 24 19 25 17 23 23 32 41 40 42 43 50 57 54 54 62 65 64 70 70 70 73 80 78 69 74 74 71 70 74 76 77 80 71 67 69 66 68 60 57 51 58 50 45 49 40 38 30 38 27 29 25 19 18 22 17 24 21 24
15 22 19 17 18 14 19 16 26 21 31 38 33 43 47 43 51 59 56 62 71 71 68 77 74 75 85 83 85 82 75 86 77 81 81 81 85 81 84 74 75 77 75 71 63 64 53 60 53 46 42 45 33 35 32 33 18 20 22 16 22 19 26 16
23 16 24 15 20 19 22 27 29 25 30 41 37 41 45 50 49 53 60 70 71 80 82 87 83 90 87 83 93 88 88 91 90 84 88 93 82 83 94 93 88 78 83 76 66 63 53 55 54 45 47 45 45 36 36 27 18 25 26 26 26 23 22 17
20 15 17 18 17 23 22 24 30 34 28 40 34 44 52 50 52 57 62 65 81 86 85 96 89 88 91 101 90 99 96 94 96 102 91 98 95 89 95 93 96 88 85 77 82 67 59 53 60 55 50 40 42 37 32 32 31 18 20 23 18 16 16 16
21 19 23 20 17 21 18 22 26 27 33 40 47 43 49 59 52 65 65 73 80 85 94 97 100 96 106 100 99 94 107 100 103 97 103 95 107 99 94 97 95 93 90 87 79 71 67 54 55 51 50 48 35 42 30 29 32 17 14 18 15 25 14 15
16 23 17 15 17 25 19 17 21 29 35 42 38 39 49 53 61 62 64 83 85 90 102 101 101 105 101 101 105 101 110 113 105 107 101 109 99 106 109 103 106 93 100 91 90 82 66 62 55 48 47 50 43 32 35 36 28 16 20 16 25 20 23 14
15 21 16 19 22 14 25 22 29 31 35 38 40 48 43 59 57 63 76 80 83 94 103 101 108 101 109 112 112 116 113 119 116 112 115 107 114 103 101 102 97 102 91 98 88 75 68 65 62 53 47 50 35 35 31 33 25 17 20 23 15 24 20 16
15 25 24 16 14 24 19 16 23 23 39 43 39 38 49 47 55 61 71 78 89 94 93 97 108 108 113 110 115 118 118 123 124 120 121 109 110 111 111 107 101 97 92 96 91 81 71 62 55 54 47 39 36 37 28 24 23 17 19 17 19 19 18 20
20 26 20 23 23 21 19 20 29 33 34 37 42 42 48 49 59 62 73 70 79 90 98 100 96 102 106 104 110 111 111 123 121 116 120 112 116 107 108 103 95 102 94 90 84 77 71 58 55 44 46 40 35 41 26 29 24 15 22 21 22 16 26 18
18 18 21 19 16 18 25 26 24 24 34 40 35 42 45 50 50 59 61 73 81 85 92 96 97 96 100 111 116 112 110 118 132 119 115 115 108 108 106 107 97 91 87 83 79 69 63 51 48 44 46 36 33 35 28 30 18 20 17 22 25 19 26 16
18 19 17 21 14 19 26 20 21 21 24 39 33 37 41 41 53 51 58 65 76 77 92 92 97 93 101 107 113 108 116 112 111 116 106 111 108 110 108 105 98 85 86 75 70 71 66 50 52 46 44 36 32 36 26 27 19 20 17 14 19 17 15 17
20 17 26 19 25 14 14 21 19 27 26 32 37 32 37 37 46 53 62 63 67 77 86 92 92 91 96 107 106 105 109 109 104 107 103 106 109 104 98 99 88 90 87 77 71 59 62 52 46 45 36 40 28 34 24 25 14 26 17 15 15 16 14 19
19 22 23 23 19 19 17 20 20 23 28 34 29 29 35 44 45 41 49 59 70 75 76 81 79 90 88 89 101 98 95 93 94 102 94 105 92 101 87 87 79 86 83 68 66 61 57 45 40 42 38 36 34 26 21 28 15 15 20 22 26 14 14 23
18 20 16 16 18 21 17 25 20 14 28 25 34 33 39 43 37 42 46 59 63 59 71 77 80 77 81 85 94 98 95 87 87 97 87 87 89 93 89 79 81 70 76 64 57 59 44 42 40 36 33 36 30 26 29 14 25 17 26 14 23 19 18 26
26 23 14 20 22 25 16 18 18 18 22 17 29 27 30 39 35 32 43 49 58 56 58 70 68 78 78 84 79 84 88 77 82 81 77 88 79 76 73 81 73 73 61 54 47 48 41 43 40 34 26 32 22 17 19 26 25 20 23 23 19 22 25 22
18 26 26 24 17 26 21 21 17 14 26 22 19 30 26 36 33 31 40 40 50 57 63 61 65 66 74 69 80 69 79 75 74 70 69 80 79 75 72 66 69 61 60 46 41 35 34 31 31 25 33 25 24 18 22 22 16 20 17 16 14 20 18 23
17 19 14 16 17 22 21 22 26 26 25 16 17 28 31 23 29 33 31 40 36 39 55 58 53 65 58 71 71 68 71 68 73 66 64 72 63 71 65 55 53 47 50 47 40 28 27 34 31 31 27 27 25 22 25 20 16 26 14 15 22 22 15 24
22 16 18 15 25 22 17 22 22 21 24 19 17 25 26 22 23 29 27 30 33 33 46 41 49 48 59 58 57 67 61 59 59 68 65 66 64 52 49 51 52 44 36 42 36 21 33 26 26 26 18 16 14 24 18 20 14 25 16 23 24 16 25 23
16 25 22 16 21 15 17 26 20 15 14 17 14 14 15 19 16 17 27 27 26 34 32 32 42 47 46 55 57 61 54 55 52 63 58 58 49 46 47 50 39 38 29 26 23 27 28 23 16 20 20 19 20 23 18 16 24 15 26 20 18 20 17 14
23 23 20 15 22 26 18 21 15 19 15 21 14 23 19 19 25 19 26 22 19 21 31 30 39 34 40 42 43 49 50 55 53 45 47 53 48 39 44 35 31 26 23 20 16 14 25 26 25 15 25 17 22 17 25 23 14 21 19 25 17 20 19 16
23 18 16 18 19 18 23 26 20 26 20 16 24 23 26 15 21 17 23 17 18 22 22 27 35 28 35 42 36 38 46 46 44 44 47 39 44 34 33 32 27 26 24 25 22 22 25 24 18 22 23 24 14 22 25 16 17 25 19 14 21 25 18 15
15 21 22 15 23 21 23 15 25 20 15 26 17 23 22 21 26 17 23 21 23 23 24 24 18 26 35 33 32 42 42 33 42 38 41 40 32 35 32 27 21 17 16 26 21 19 19 20 15 23 21 25 19 17 16 20 14 14 15 19 22 19 21 19
26 20 25 17 26 16 15 15 16 23 26 23 14 18 20 25 15 23 16 25 25 23 17 23 25 19 30 24 31 32 31 36 36 28 28 26 30 22 21 17 25 23 24 22 14 20 19 14 26 22 17 14 14 26 17 21 19 22 17 26 23 24 21 25
24 18 21 15 18 24 26 22 26 17 14 26 24 22 18 20 15 25 21 21 21 19 18 20 17 14 17 25 20 25 27 28 25 30 29 30 19 20 18 14 14 18 23 17 16 20 21 21 19 16 23 20 14 23 19 16 20 20 18 26 15 21 24 25
26 24 22 19 16 25 23 24 21 16 17 16 26 24 19 19 20 15 24 20 15 17 23 19 24 14 18 20 17 24 23 21 26 27 25 21 25 25 17 20 21 24 19 24 17 18 15 17 23 21 26 20 25 19 18 19 15 15 22 16 14 21 24 17
15 15 17 22 14 26 23 15 26 20 16 15 21 23 19 17 14 22 14 17 26 20 15 14 22 25 23 25 14 15 22 23 23 15 17 22 23 22 19 25 24 23 22 18 18 20 24 17 19 14 18 16 24 21 18 26 26 15 23 24 18 20 24 21
18 24 16 23 16 20 26 22 21 23 23 16 16 17 16 20 21 26 19 23 22 15 15 17 16 21 18 22 18 15 23 19 15 22 19 22 16 24 21 21 26 24 16 22 20 17 17 25 20 14 24 24 26 14 19 24 17 26 16 26 14 17 15 19
20 22 15 18 18 22 17 19 21 26 25 16 21 17 26 22 19 24 26 15 16 22 17 15 17 21 14 17 14 16 17 15 24 16 25 17 18 26 26 26 15 19 21 25 18 23 21 14 15 17 24 17 19 17 25 19 25 21 22 19 26 14 17 25
25 20 14 17 26 21 25 20 14 25 17 18 22 20 14 16 17 24 25 24 24 20 18 16 16 24 25 20 24 21 16 15 23 22 17 18 17 22 17 25 19 22 24 18 15 21 17 26 17 17 24 23 17 20 17 20 15 25 14 16 18 25 15 20
22 24 17 16 16 20 21 20 20 16 20 14 17 16 26 15 17 24 18 26 21 17 16 16 20 24 23 17 18 21 17 24 18 26 15 14 16 21 18 14 16 20 22 17 14 21 25 26 18 24 22 22 26 24 18 16 18 26 24 14 16 17 26 14
20 22 26 14 25 16 21 18 25 23 21 17 25 26 19 19 19 17 18 22 15 26 21 23 23 20 15 21 24 17 18 21 25 18 21 23 20 23 15 22 14 18 21 15 19 18 22 19 23 26 23 19 21 19 14 22 19 16 18 17 24 21 26 19
18 25 16 21 20 21 22 19 18 18 18 16 16 17 26 15 18 22 14 17 24 19 16 15 14 23 16 14 25 16 15 20 24 16 24 21 18 22 14 15 16 19 16 25 19 24 22 16 21 23 18 26 14 20 22 15 26 23 20 22 21 24 18 22
24 26 17 15 23 17 26 15 26 24 18 15 25 16 21 23 20 25 20 24 24 16 23 15 19 19 16 14 19 16 25 26 15 20 22 20 19 20 19 23 22 22 15 17 17 18 16 20 14 18 22 22 15 17 22 15 17 18 26 19 17 19 18 14
24 23 15 22 24 19 17 26 24 24 15 24 21 21 26 15 22 26 21 18 19 24 19 17 22 22 25 22 23 14 26 21 22 15 23 14 23 21 25 19 20 20 25 20 25 20 24 20 23 16 14 25 25 18 16 23 21 25 15 17 20 21 22 25
19 23 15 17 26 17 16 24 24 20 15 18 24 18 22 23 25 22 21 20 17 26 19 23 14 17 23 25 24 23 21 24 23 21 23 14 14 17 24 14 15 16 16 14 19 16 21 24 17 20 25 17 21 26 25 21 25 19 18 20 14 25 24 23
18 22 22 16 19 26 25 22 16 20 23 23 14 18 24 23 22 22 15 19 19 19 25 20 14 23 17 15 18 23 24 24 17 25 24 23 20 23 14 15 25 22 15 25 21 17 21 18 14 25 18 25 16 22 18 25 16 14 23 15 23 21 24 22
26 25 26 17 25 20 23 16 20 22 18 17 21 22 15 26 19 22 16 26 22 20 19 16 18 22 20 14 17 14 14 14 25 18 25 19 16 20 26 23 22 17 18 21 21 21 24 25 14 26 25 23 22 17 15 14 22 21 18 14 19 20 23 23
