P2
64 64
255
31 33 37 18 31 27 23 23 34 29 18 35 29 23 37 20 32 30 25 38 38 37 32 24 25 19 27 18 20 23 18 18 35 30 27 35 33 25 20 26 22 31 20 18 21 26 37 23 21 28 26 24 25 36 29 30 36 18 29 25 29 32 37 21
28 30 34 31 31 38 31 30 36 30 31 21 27 27 29 18 36 25 24 32 26 21 23 38 23 32 21 33 30 25 33 27 26 38 38 28 28 32 20 27 31 29 33 34 37 36 33 19 18 34 29 36 30 24 37 25 37 29 35 34 31 26 21 21
31 26 35 27 30 19 24 26 21 32 22 20 31 38 23 19 21 37 29 30 22 18 27 26 32 20 21 32 33 28 23 37 30 26 37 30 22 24 19 38 20 30 32 27 35 31 26 19 38 20 35 32 23 34 28 31 23 21 34 33 19 38 38 38
27 30 32 24 29 22 23 31 22 21 32 23 29 26 26 34 21 36 28 22 31 33 21 28 27 20 19 38 34 28 31 38 30 27 22 24 23 27 30 33 34 31 32 20 31 21 21 31 37 36 38 21 28 26 24 32 20 19 33 29 19 36 24 23
37 22 19 24 28 20 36 18 34 20 27 22 33 37 27 23 25 21 31 22 26 32 18 32 18 28 37 32 31 30 24 20 31 25 27 32 25 32 38 24 37 37 34 18 27 25 22 24 19 35 22 38 37 38 19 33 18 19 38 20 38 24 34 19
31 36 18 19 30 34 33 20 33 37 35 22 25 37 19 36 33 28 32 22 24 26 23 35 38 19 20 27 19 24 25 30 28 19 34 37 36 28 22 25 37 36 21 24 21 23 31 29 30 18 38 36 38 28 24 26 28 19 36 38 22 29 23 21
26 22 20 33 36 37 21 18 27 34 27 27 24 18 23 24 24 38 20 38 33 26 23 26 20 29 30 23 24 38 21 35 37 36 23 33 19 35 37 18 37 23 30 19 31 33 35 24 27 28 27 31 22 20 35 27 36 35 20 27 18 37 34 25
31 18 29 33 19 28 22 33 36 30 18 29 21 35 25 32 35 22 31 19 37 30 28 19 22 23 22 26 34 27 21 22 19 35 29 35 22 25 22 26 27 37 37 32 36 35 19 34 24 31 38 38 35 35 18 28 23 19 21 24 36 18 27 24
28 32 24 37 36 27 24 19 24 18 18 28 27 20 26 31 35 38 23 25 35 29 19 31 32 35 37 33 31 25 20 31 37 36 33 21 18 23 38 18 38 24 35 20 33 22 20 34 34 25 20 35 24 20 19 23 28 34 36 27 21 36 36 33
28 28 26 37 19 36 20 26 21 30 21 27 25 38 25 28 19 35 18 21 18 30 20 24 18 32 33 36 24 28 34 29 37 32 18 31 26 37 29 30 38 38 33 34 18 20 37 26 31 29 35 21 38 21 26 34 21 23 27 24 35 27 22 22
29 21 37 31 21 30 23 30 25 33 26 27 31 29 19 20 19 29 28 22 29 33 18 38 27 32 24 30 31 37 37 30 29 20 28 30 26 26 30 20 20 20 27 30 20 19 23 33 29 29 35 19 28 24 23 22 25 37 34 33 26 21 33 33
31 19 38 33 38 25 22 24 21 25 36 27 34 34 29 27 20 38 19 30 27 34 27 24 36 22 26 34 21 33 21 35 30 26 26 26 34 32 29 19 24 37 37 19 37 38 31 35 37 37 24 24 35 20 18 34 20 37 23 37 34 19 26 28
30 29 36 25 23 33 36 20 33 34 36 34 21 31 23 34 35 35 25 36 24 29 34 37 36 33 18 34 28 37 38 30 37 19 22 20 23 38 22 30 25 20 19 21 31 22 32 33 30 34 38 30 21 27 20 30 20 25 23 35 28 19 38 32
36 35 37 30 30 34 30 29 19 18 22 26 27 20 27 36 25 22 24 36 27 22 31 19 23 28 32 36 35 27 35 32 18 30 29 20 33 31 18 18 21 37 28 30 35 29 21 35 31 30 32 27 29 29 18 20 23 27 25 29 19 35 31 31
32 19 35 28 22 27 31 21 21 23 30 23 22 34 19 30 31 30 23 18 22 37 18 37 36 31 38 26 28 27 36 21 28 19 22 30 32 31 28 26 23 20 34 25 20 24 28 27 36 26 31 36 30 37 25 25 38 32 27 30 37 27 34 21
30 25 29 37 37 25 20 32 21 18 33 27 21 36 37 28 31 25 31 36 28 32 37 23 29 35 37 31 32 20 35 25 31 34 38 18 26 38 24 28 32 19 27 34 28 37 31 26 28 19 35 36 20 33 22 28 25 21 34 32 19 19 28 32
33 32 18 23 34 38 21 28 28 21 24 36 30 30 19 27 31 26 29 19 26 31 37 37 23 32 22 36 19 26 20 35 35 20 23 21 33 30 22 31 21 37 30 28 36 33 36 34 20 29 24 38 37 36 22 23 34 26 25 18 28 35 24 30
26 18 25 32 34 30 34 27 18 28 24 34 38 31 25 22 22 18 32 34 22 20 37 38 27 36 26 19 36 23 27 38 18 37 28 25 28 26 25 27 19 22 23 19 22 31 32 35 24 25 20 26 23 19 29 36 34 22 31 38 34 32 22 20
22 35 32 26 30 35 21 37 32 24 23 37 34 34 18 30 30 37 37 18 36 23 26 33 28 38 31 27 21 35 22 19 37 22 34 21 34 26 25 24 30 24 23 33 19 32 19 28 21 21 20 19 25 33 28 34 22 34 29 32 26 31 18 23
19 29 34 30 20 33 30 21 26 30 35 34 23 23 24 20 35 22 32 26 41 35 22 24 31 24 25 27 26 20 26 18 38 33 37 27 30 33 31 37 26 38 32 38 27 40 41 35 37 28 33 32 23 38 34 36 29 36 32 24 27 19 19 19
37 25 23 24 27 18 18 30 31 26 36 30 26 32 28 38 23 39 34 39 37 41 26 28 40 35 32 25 33 26 35 19 24 36 19 25 23 33 40 39 37 34 40 29 34 34 33 29 33 21 26 26 20 23 25 38 21 33 22 29 33 32 35 18
32 25 28 18 30 24 37 29 24 37 37 37 38 30 28 29 27 32 35 29 31 45 32 28 45 39 24 31 33 27 37 27 26 34 24 26 20 33 27 26 33 38 29 38 39 47 35 37 31 41 35 34 20 30 25 31 36 20 22 25 19 37 21 22
31 30 28 22 26 36 20 33 29 35 26 22 36 24 42 41 49 43 48 46 38 43 37 32 47 33 46 45 26 35 23 36 28 28 39 37 36 44 48 42 44 40 39 36 45 48 52 35 40 44 37 27 31 25 29 25 37 19 18 22 27 26 18 35
38 19 18 23 30 38 32 30 36 28 29 33 26 27 42 39 41 45 49 52 46 51 42 55 47 52 32 33 38 44 29 36 31 36 35 39 43 32 44 35 46 38 48 54 53 42 43 45 34 43 38 41 43 25 21 20 24 32 32 34 28 28 26 26
38 21 32 36 25 25 27 21 23 21 30 24 28 47 36 53 57 52 54 52 53 57 61 50 61 42 39 47 39 28 27 39 25 27 38 37 38 33 35 53 58 59 43 55 47 61 60 40 38 53 39 31 43 31 26 27 21 29 31 21 27 38 38 31
23 38 38 30 22 19 32 36 29 24 42 38 38 40 55 58 56 45 63 58 80 83 70 67 66 72 46 47 44 34 42 33 28 39 46 39 37 45 44 58 57 50 48 54 45 55 48 60 55 54 42 44 35 31 32 24 35 26 21 22 25 34 21 21
35 31 19 27 34 37 37 22 27 32 35 38 47 44 38 56 56 67 61 84 79 98 80 83 75 83 66 53 50 49 53 35 35 36 44 53 52 48 61 55 64 48 53 49 50 54 62 45 51 61 42 55 42 34 35 27 27 32 36 31 28 27 33 27
19 31 24 23 27 35 22 33 23 24 45 34 47 44 44 62 54 72 87 101 104 107 108 98 103 84 70 64 51 65 49 57 59 42 56 61 60 42 45 65 69 56 61 65 67 52 54 58 65 47 42 40 47 51 43 34 27 18 21 26 21 29 28 25
20 20 35 32 35 25 37 38 33 43 49 39 39 51 60 46 63 82 93 108 118 115 134 115 105 102 83 81 69 62 72 69 66 59 50 60 49 62 60 55 55 70 67 74 66 67 55 62 63 52 52 43 36 45 30 41 23 38 25 20 18 20 21 21
31 34 20 20 19 38 36 26 42 35 35 52 57 53 64 68 61 96 102 125 130 146 148 152 138 126 112 89 95 67 76 71 67 68 69 77 63 62 69 61 55 64 69 69 71 69 76 63 70 49 46 53 37 42 39 45 32 27 36 32 31 29 25 35
20 24 28 28 29 24 34 27 25 27 39 35 56 53 60 61 83 86 108 125 142 158 182 168 146 141 126 121 105 81 73 77 81 89 76 81 67 69 77 68 68 74 79 64 71 79 78 69 62 64 54 56 57 53 32 42 39 28 21 34 38 18 33 32
37 20 35 22 22 20 18 37 42 41 45 35 51 56 47 54 87 107 115 134 163 168 182 174 169 144 138 129 104 87 82 102 82 97 80 80 84 73 85 66 59 72 80 76 80 84 65 69 61 63 51 58 41 48 37 36 41 28 33 34 19 21 32 25
20 23 21 24 22 38 38 40 31 29 39 37 52 60 58 61 81 102 127 138 171 164 171 181 167 147 152 128 115 99 101 91 94 87 89 81 87 89 74 85 73 83 83 88 88 86 71 73 69 66 60 50 56 46 44 48 30 21 18 29 31 24 26 19
32 29 31 22 35 33 37 29 40 37 35 46 59 60 48 56 72 99 111 139 154 164 169 175 175 156 147 133 121 102 102 98 109 109 99 92 79 75 77 69 69 71 68 85 80 83 64 72 72 66 54 48 49 36 50 38 31 40 22 37 29 29 37 31
23 25 32 38 21 35 38 36 28 36 46 44 42 55 58 63 70 100 116 130 157 151 158 176 171 162 138 130 123 108 102 125 116 96 102 92 97 91 90 75 70 70 66 73 84 64 63 69 54 62 62 45 44 39 49 40 24 24 20 27 33 36 26 24
29 31 31 34 33 23 30 26 41 45 33 46 44 59 65 70 86 95 108 126 143 151 155 165 162 133 128 129 120 125 112 120 103 96 87 92 79 80 79 67 61 77 63 78 71 75 73 60 52 57 45 46 39 49 30 46 28 22 30 36 33 24 23 20
30 37 25 26 36 29 21 22 30 45 47 36 44 51 46 65 81 76 104 118 122 120 144 146 146 134 118 113 114 116 101 111 109 99 98 88 86 93 68 77 59 62 67 57 60 72 62 61 68 61 51 48 39 32 34 42 36 26 27 29 25 27 29 35
33 33 26 34 24 29 22 21 37 25 30 51 51 45 58 68 63 80 88 90 107 104 107 110 113 124 115 112 99 106 104 110 89 101 91 82 91 75 71 76 61 53 69 65 63 69 55 67 63 51 43 40 43 35 40 25 33 35 20 30 24 18 24 20
35 30 32 27 30 27 29 22 37 27 39 33 43 39 55 57 70 80 89 82 90 91 110 103 102 103 117 99 100 96 82 87 83 83 82 85 72 66 67 74 60 47 62 52 50 67 66 62 52 57 56 51 43 29 33 30 27 26 31 22 21 21 36 25
31 31 23 33 29 21 32 35 31 20 39 44 32 51 45 50 66 70 81 75 86 96 80 100 102 105 85 99 82 76 84 82 83 79 71 69 72 58 70 59 60 63 48 51 65 52 52 55 57 50 38 42 49 40 37 26 35 27 27 35 22 28 34 23
34 35 21 24 30 37 19 37 32 31 37 44 29 42 32 49 40 57 64 67 64 66 77 80 88 74 76 73 68 69 62 74 58 65 65 65 61 67 45 55 56 42 57 51 51 61 42 47 55 44 40 36 38 38 41 31 23 35 20 32 31 29 23 35
29 35 30 31 26 22 36 19 21 37 26 34 44 45 37 33 45 50 49 55 68 68 67 53 66 57 70 65 54 57 66 57 52 46 51 62 61 41 53 44 39 42 51 51 45 50 40 50 49 40 49 35 28 39 35 38 18 34 34 32 23 20 21 20
35 21 33 32 20 31 35 35 30 30 29 19 23 43 31 28 36 49 41 46 54 54 56 39 55 46 57 42 44 47 48 45 54 45 51 55 39 33 47 39 39 34 33 36 47 49 40 44 36 44 34 25 30 31 36 29 33 35 26 32 37 27 25 37
32 37 22 37 36 18 21 18 28 32 29 35 36 37 40 41 42 30 46 45 43 46 39 33 32 31 44 34 49 47 33 45 44 39 49 26 35 39 36 29 28 39 48 36 31 34 31 45 42 41 30 34 20 33 37 18 31 29 36 37 21 19 21 36
21 31 37 23 23 35 34 30 21 22 20 37 37 36 24 29 29 31 30 29 30 28 29 27 42 30 24 28 25 25 39 37 25 27 41 20 32 33 41 30 44 33 28 36 38 28 37 33 26 40 31 31 22 34 38 20 29 30 25 36 36 35 30 26
32 34 19 36 21 36 20 22 33 22 32 34 27 31 20 21 30 22 24 21 34 36 22 30 38 31 24 25 20 18 28 35 25 35 31 33 19 28 32 22 28 23 27 25 35 25 21 26 21 34 33 23 31 26 24 38 28 37 24 24 22 26 24 30
20 21 27 38 20 27 20 34 24 30 21 20 29 30 23 26 20 27 32 18 35 18 34 34 36 29 29 26 20 31 30 21 33 26 19 36 22 20 30 27 29 18 30 37 23 25 21 31 22 24 29 24 31 25 18 21 18 29 25 28 23 26 23 26
36 27 28 30 33 36 28 23 19 30 37 35 23 20 29 25 26 37 32 19 20 31 26 20 30 21 34 33 34 29 24 28 34 25 37 21 28 36 31 35 27 27 25 26 24 34 29 21 37 27 33 30 28 26 27 30 21 29 19 36 21 33 22 27
35 38 34 20 38 35 22 30 21 23 30 18 27 32 30 21 33 31 37 26 28 27 27 28 36 22 26 37 32 36 21 35 36 35 25 23 37 29 32 35 19 22 32 23 26 20 19 25 23 29 24 32 25 23 36 23 23 29 24 18 36 27 34 18
38 30 32 38 32 33 25 27 32 19 28 21 22 20 33 22 31 22 32 37 24 27 35 34 18 36 32 33 22 24 23 36 24 23 37 32 20 24 18 28 22 19 24 31 27 25 31 25 31 26 36 21 18 35 33 33 25 32 20 23 22 30 27 24
18 21 22 26 38 33 36 34 31 35 35 33 33 28 31 22 36 31 22 28 25 28 33 33 30 28 20 23 18 19 19 23 29 32 24 34 34 32 27 27 22 34 19 31 37 35 32 27 18 29 35 30 29 21 23 20 22 36 24 27 25 26 20 34
20 32 25 30 35 36 31 25 37 37 31 21 25 32 23 22 36 30 35 25 36 37 30 24 21 31 26 25 34 19 27 27 30 23 35 25 19 28 27 22 18 31 23 37 27 38 18 32 38 34 22 22 31 31 28 28 19 37 38 33 38 21 25 33
35 22 35 32 37 37 26 21 35 32 30 27 20 38 23 22 38 27 21 38 29 35 18 24 24 36 30 36 34 37 22 29 30 25 34 22 32 26 28 26 38 25 27 33 37 35 35 32 23 38 37 25 33 24 27 20 33 32 27 33 23 32 24 35
38 35 37 23 26 19 32 29 21 27 33 24 25 22 23 35 33 18 21 28 35 33 25 28 31 37 21 22 29 23 20 32 26 27 33 25 27 23 36 22 25 29 19 25 36 36 36 31 29 31 24 21 31 26 35 28 28 33 37 24 19 31 36 20
23 27 35 30 31 22 30 28 30 35 18 31 37 29 36 19 33 28 34 23 27 28 27 37 20 27 38 27 34 31 35 32 34 30 19 19 29 38 37 35 30 34 25 23 34 35 32 18 23 37 31 32 19 34 26 33 30 21 22 28 36 38 38 26
32 27 26 26 20 36 33 21 20 33 37 32 29 27 24 24 22 33 24 18 32 35 19 34 28 24 30 22 30 27 23 37 24 34 31 28 25 28 24 37 38 35 28 23 26 19 33 25 28 23 36 30 28 31 18 33 35 34 34 33 37 24 18 35
19 30 33 29 21 34 27 28 37 33 34 37 18 20 29 23 26 34 28 29 25 36 32 22 24 33 25 27 33 22 32 20 29 26 34 25 36 26 20 29 37 28 35 25 27 38 23 36 30 35 29 27 28 25 24 36 22 38 36 25 34 29 23 19
21 22 33 27 24 30 32 27 33 25 29 29 26 22 24 34 20 22 18 27 20 21 36 36 35 33 21 33 22 21 23 28 32 38 19 35 27 22 30 21 28 35 23 26 34 20 21 31 26 29 38 37 30 28 22 32 36 34 20 30 18 18 26 36
36 26 35 24 21 19 25 20 26 29 33 23 32 38 34 31 32 31 33 22 28 18 31 22 32 19 31 32 24 30 27 38 28 28 18 19 18 29 30 19 35 20 24 36 27 33 18 28 22 34 20 30 28 21 34 34 28 36 21 27 25 24 23 37
35 23 33 29 34 34 34 22 29 22 34 27 32 22 24 27 33 23 37 18 25 31 31 36 18 31 26 21 34 28 21 24 32 30 33 35 23 27 38 28 18 24 23 38 37 28 37 24 37 37 38 18 23 29 34 34 27 23 33 29 24 31 35 25
31 23 23 18 29 38 33 38 28 37 35 18 31 26 33 20 36 20 25 34 37 34 28 18 29 34 19 31 27 19 37 32 23 27 32 38 25 22 20 20 19 33 35 19 37 29 25 34 30 38 21 27 19 22 25 27 29 23 38 29 35 26 33 23
34 30 19 37 19 24 33 23 25 35 36 24 20 30 18 37 32 27 28 33 24 38 26 33 20 20 26 36 34 29 26 31 35 30 24 29 36 21 31 18 22 31 30 31 19 19 24 30 26 19 18 25 24 37 37 36 34 37 26 36 22 22 24 30
26 34 29 30 29 32 33 34 18 28 29 28 37 19 26 34 22 31 36 24 27 35 23 19 27 19 31 36 26 26 27 38 31 36 23 24 38 27 29 34 20 18 19 20 25 29 33 23 31 23 34 30 38 34 25 32 32 36 34 33 38 21 22 28
25 31 31 33 24 20 27 18 28 35 27 29 37 29 34 21 28 31 18 37 25 19 31 18 24 37 21 31 21 21 38 24 23 21 26 28 35 29 37 26 32 31 19 30 20 18 34 23 33 31 34 28 36 18 27 23 36 26 30 21 33 30 33 32
