P2
64 64
255
24 22 23 22 25 25 26 24 22 21 24 18 25 18 22 20 25 24 21 25 18 17 18 18 25 26 23 17 19 21 16 18 25 23 15 15 23 23 18 23 18 17 20 25 25 25 19 20 16 24 18 26 15 26 16 23 15 26 20 15 17 18 19 24
26 16 16 21 19 21 14 15 26 23 16 25 17 22 19 18 25 24 19 25 19 19 24 15 15 16 17 26 17 14 18 24 17 22 26 18 23 15 22 20 15 25 21 24 24 22 22 26 18 22 22 20 15 21 17 24 24 18 16 20 17 20 20 21
26 26 22 22 22 25 26 24 25 18 23 16 16 21 25 18 22 20 22 23 16 22 16 23 19 15 26 22 19 19 26 17 17 25 22 20 17 20 24 23 23 21 21 17 16 25 22 18 25 22 25 23 19 20 15 26 14 18 19 25 19 15 18 17
18 15 23 19 16 22 16 25 26 20 17 19 25 18 18 14 23 18 25 24 22 26 20 19 20 15 19 21 22 26 20 21 21 18 20 14 23 19 22 20 16 26 22 24 14 25 22 23 24 22 22 17 23 22 20 24 22 25 16 15 15 25 24 16
21 22 20 17 26 24 23 22 19 19 20 17 14 14 18 25 15 14 23 21 24 24 18 18 18 23 18 26 26 15 16 20 15 15 25 23 25 21 19 23 16 20 23 26 16 16 16 15 22 15 14 22 26 16 21 15 22 24 22 19 22 24 16 20
15 18 23 21 25 16 25 18 24 21 14 25 20 22 17 17 24 26 21 22 18 24 23 26 14 23 25 25 24 20 26 17 15 17 22 24 25 25 18 20 20 24 18 25 20 23 19 18 21 14 18 21 26 20 15 18 17 24 15 22 18 22 17 16
17 14 18 23 20 19 17 16 26 16 24 25 26 15 22 14 17 18 15 26 20 19 21 23 26 24 22 16 25 21 21 25 25 24 22 16 18 21 22 14 19 19 26 16 17 26 26 26 20 21 22 25 14 25 19 16 15 25 26 15 18 21 15 24
21 22 17 24 24 18 17 26 17 26 20 26 20 22 26 17 17 25 17 26 22 22 16 25 14 20 15 23 22 16 24 23 22 14 20 25 22 20 20 21 15 17 25 24 26 22 25 17 14 26 18 20 23 17 18 15 25 25 17 21 15 24 21 17
17 23 14 26 20 18 23 25 25 19 14 24 26 22 17 23 25 16 25 20 26 20 20 25 17 16 21 16 26 25 22 20 24 25 20 21 17 20 22 21 23 14 26 15 26 18 21 16 26 22 15 20 19 19 25 23 20 16 17 22 24 16 15 19
24 26 21 15 22 17 25 23 26 20 16 24 25 23 20 17 19 14 19 23 19 16 18 14 18 22 22 25 22 23 19 16 22 20 16 20 17 14 23 17 25 24 24 18 18 16 26 16 24 21 21 21 14 25 16 23 15 24 17 24 24 15 22 26
17 25 23 17 16 21 14 25 21 16 20 26 22 25 19 21 25 15 14 25 25 25 26 25 23 21 20 24 20 26 21 17 17 24 14 20 25 19 14 23 18 24 15 25 26 26 16 24 20 22 18 20 18 16 19 26 24 16 22 25 19 25 23 23
23 21 17 15 20 14 16 16 19 16 23 22 24 25 22 17 23 16 19 14 22 14 25 23 20 24 20 22 23 18 24 20 21 21 18 23 15 26 20 22 14 14 21 22 24 23 16 26 26 26 14 19 15 23 20 18 17 18 14 15 15 22 18 23
16 16 20 16 16 17 16 14 16 23 20 18 18 20 14 19 21 21 19 24 17 22 23 19 19 20 25 26 24 22 20 18 22 24 15 25 22 22 14 22 21 22 18 17 25 15 18 21 20 15 22 17 17 26 22 24 19 21 19 15 18 17 18 17
24 22 16 21 14 24 15 21 21 17 15 24 15 20 23 19 19 22 21 18 26 22 22 15 14 23 20 21 21 21 20 22 22 17 23 24 20 22 21 17 22 16 18 19 14 20 26 24 20 19 25 15 24 24 18 26 18 25 19 25 18 22 20 17
19 21 15 23 20 19 21 19 21 22 19 18 23 18 16 20 23 20 21 21 24 15 23 23 23 19 20 17 17 25 16 17 20 16 16 14 20 15 21 21 25 18 20 21 15 14 17 26 16 15 26 18 23 26 17 23 15 21 24 20 20 14 26 22
21 18 24 14 17 25 18 14 23 23 17 17 16 23 26 16 21 26 21 21 23 14 20 17 14 24 19 18 26 18 21 20 21 21 24 26 14 23 15 26 25 25 20 23 19 23 22 24 17 23 24 20 15 25 26 22 22 22 15 19 17 15 19 14
18 19 18 26 22 17 22 21 24 18 21 17 17 21 22 23 23 19 21 21 21 14 25 16 25 24 26 25 25 15 14 14 22 17 21 21 15 15 17 26 19 25 26 21 23 21 23 18 25 18 19 15 16 15 21 20 24 15 14 18 19 24 15 19
19 26 25 25 18 20 23 22 26 22 17 20 16 23 25 18 18 24 22 21 24 23 25 22 18 18 25 26 24 25 20 21 21 26 17 25 14 21 19 22 22 24 23 25 15 22 23 17 14 20 23 14 22 18 16 19 22 26 20 17 17 20 25 15
20 17 26 22 18 17 21 24 22 25 26 17 16 19 15 20 21 18 16 23 19 21 18 24 15 19 20 23 24 23 15 18 16 15 23 16 17 14 25 19 17 24 17 23 18 19 25 26 20 24 19 23 16 22 24 22 17 20 24 25 23 17 17 17
16 17 23 19 23 17 20 24 15 24 18 22 19 26 16 14 17 27 28 21 24 29 27 17 19 22 16 25 20 20 15 18 20 25 20 17 15 15 15 19 21 25 24 18 18 19 18 18 25 16 24 19 21 20 23 16 15 16 23 25 21 17 20 16
20 18 21 20 24 23 25 21 26 21 16 25 26 22 17 18 26 20 22 31 22 25 23 27 23 22 25 16 18 15 23 26 15 16 15 17 24 19 24 19 21 24 31 33 27 30 21 21 20 28 20 25 17 22 16 22 24 14 19 24 23 26 23 16
18 16 25 15 15 23 26 25 25 26 24 14 17 28 20 27 31 26 24 25 29 29 27 27 27 33 21 24 16 26 15 16 14 15 16 23 24 24 21 23 23 35 35 35 32 32 32 34 31 21 23 25 25 17 23 19 16 21 20 26 14 15 17 19
21 23 25 21 21 26 16 23 15 23 16 19 24 21 30 26 33 37 30 38 41 34 30 34 38 29 28 29 21 17 16 17 24 21 19 23 30 33 27 31 36 37 32 40 33 33 36 27 27 36 33 21 24 19 23 14 22 21 22 20 26 26 24 16
19 24 24 16 25 23 22 24 26 14 16 19 24 25 37 36 31 40 34 38 44 36 37 32 31 30 29 36 26 24 27 17 18 20 21 24 33 28 37 37 42 32 44 34 42 34 40 40 39 38 37 25 27 20 17 16 23 14 26 25 16 15 16 20
17 25 18 17 22 17 23 21 22 15 24 20 24 29 34 41 42 35 42 44 39 44 42 48 43 45 43 36 26 32 21 17 16 21 30 26 26 40 34 42 43 40 49 42 40 45 44 39 35 38 31 27 27 27 27 16 19 24 19 16 14 16 21 20
19 23 18 14 26 21 25 24 20 21 30 34 36 30 32 37 40 47 40 50 52 49 41 48 42 40 40 37 30 36 29 20 18 19 29 37 38 36 42 43 46 48 43 42 50 41 42 45 39 38 34 35 35 29 19 26 18 20 18 24 14 16 25 25
14 24 24 21 21 21 17 15 18 30 33 35 29 34 46 47 47 51 51 46 55 56 56 45 44 39 40 35 36 36 28 24 34 31 29 32 42 34 46 49 43 43 45 45 49 47 44 45 46 39 46 41 31 33 25 26 16 24 22 15 21 22 20 20
26 26 16 15 16 22 23 24 26 26 26 29 36 37 49 40 54 56 47 52 49 51 60 55 56 51 46 40 42 30 29 25 33 36 30 34 33 45 44 51 54 52 55 54 60 58 55 57 51 51 40 34 39 38 30 25 25 16 25 25 21 17 22 14
21 16 19 20 20 20 22 22 17 30 27 40 40 37 40 44 55 56 61 64 53 64 63 52 50 48 48 45 43 34 38 31 37 37 36 40 45 40 42 57 55 55 62 62 59 63 61 59 52 53 46 47 36 36 31 29 26 18 16 24 23 17 25 24
23 19 20 25 23 14 18 20 23 27 26 33 39 38 42 56 55 52 59 60 63 68 60 57 55 51 52 50 43 45 34 35 31 42 40 44 44 50 47 51 54 63 55 63 69 66 60 55 55 51 50 47 36 40 28 33 21 20 25 15 15 18 17 15
24 19 23 14 21 24 20 25 27 24 35 38 40 39 46 53 50 53 68 65 62 67 69 59 61 51 47 47 45 46 32 41 42 35 40 36 42 50 49 49 65 61 64 63 62 63 66 58 50 48 44 40 35 32 30 24 29 20 23 23 16 14 25 22
17 20 21 21 23 19 26 19 20 30 37 34 44 42 49 56 56 62 70 64 69 74 63 69 62 51 59 46 44 43 34 37 40 34 41 41 39 45 49 61 57 63 73 69 75 66 67 66 59 49 54 39 39 31 30 33 32 16 26 15 21 25 24 19
16 17 19 23 19 18 25 23 20 33 38 32 45 51 53 59 51 60 69 69 69 72 75 65 57 61 50 47 45 47 43 34 45 44 43 40 44 51 55 54 61 64 64 75 73 64 60 58 62 56 50 39 35 33 28 36 30 25 18 23 21 18 21 15
21 14 25 16 16 16 18 23 28 33 38 39 38 47 48 55 56 60 68 65 69 67 72 68 65 56 57 47 42 47 40 32 35 42 39 37 49 48 53 56 55 58 70 75 75 64 64 54 63 59 43 48 47 34 31 27 22 16 18 20 14 16 23 14
16 14 24 14 26 21 17 19 23 31 32 39 45 44 52 56 60 63 59 69 60 65 68 60 54 55 46 52 48 41 33 38 44 43 40 35 50 51 47 58 56 65 70 72 68 64 56 62 57 54 52 47 35 38 29 28 25 23 26 14 26 24 23 26
25 23 17 18 23 15 18 27 23 31 27 38 45 38 49 44 48 59 56 63 69 58 63 62 61 52 47 42 38 42 42 35 33 32 32 34 46 44 53 52 53 64 58 66 59 62 64 55 52 53 46 41 41 40 38 29 26 16 17 20 19 25 26 18
16 19 25 16 26 23 23 23 23 33 32 38 40 47 49 49 57 56 50 61 55 65 54 58 48 57 42 46 47 33 33 35 33 37 28 44 39 48 46 48 49 51 60 64 54 64 52 48 56 43 40 43 44 35 36 27 27 17 15 20 22 22 23 14
23 14 25 20 23 14 25 16 28 20 30 33 42 40 41 51 53 57 51 56 59 55 52 51 50 47 48 38 42 36 26 31 25 30 36 38 40 36 48 54 55 53 51 54 55 55 59 47 42 49 39 41 34 32 23 20 23 18 14 21 23 17 19 15
18 25 19 16 20 26 22 21 16 18 28 30 30 32 44 38 48 42 55 51 53 47 46 44 42 50 37 46 38 38 30 26 30 29 29 37 32 34 42 46 49 43 45 49 48 56 46 42 39 39 46 40 37 27 30 24 22 18 15 19 14 17 23 19
26 23 18 27 21 17 28 20 28 23 29 26 42 32 36 48 43 46 55 53 45 53 50 48 53 49 49 44 37 35 29 34 24 30 35 30 42 43 41 47 53 54 49 58 53 50 52 55 42 46 37 39 39 39 32 30 29 29 20 32 21 30 31 30
27 31 27 29 26 27 30 29 21 32 34 27 35 46 47 41 48 49 48 50 54 50 56 53 52 52 40 47 40 38 41 37 32 33 37 38 45 44 44 44 49 59 52 55 60 50 49 50 49 51 48 42 38 32 35 34 38 34 31 36 38 34 30 30
30 29 25 33 36 30 36 36 35 37 31 35 41 38 38 49 41 51 47 45 55 58 56 49 48 48 47 43 37 42 35 40 28 30 42 43 49 46 50 54 55 52 52 57 57 49 51 55 55 56 42 50 40 43 34 33 36 43 32 42 35 35 34 35
30 28 21 31 32 25 32 29 27 22 30 29 24 28 36 33 46 45 36 40 43 39 39 40 45 36 40 34 32 36 24 32 34 30 33 31 30 40 43 46 45 46 51 49 46 45 44 49 38 35 44 43 31 27 26 32 33 37 36 34 36 32 37 32
28 17 27 26 19 28 18 18 23 26 26 25 23 21 32 26 30 36 30 34 29 36 37 37 29 29 35 29 21 23 30 19 30 22 25 23 24 28 27 29 38 30 34 42 38 34 29 40 27 34 28 26 21 24 27 25 27 23 31 27 30 30 24 25
21 24 17 24 25 25 20 15 26 24 20 22 14 19 23 26 29 29 33 27 34 30 25 29 22 18 24 18 14 26 16 14 16 21 24 17 14 17 19 19 31 28 29 27 26 26 32 24 27 18 16 21 14 26 15 14 25 26 22 24 20 21 15 15
19 22 16 18 20 22 25 21 24 15 17 18 15 16 26 26 15 28 28 17 22 28 24 19 25 24 23 14 26 16 22 19 23 15 25 16 25 23 21 21 25 22 20 28 21 19 22 25 25 22 15 16 17 15 24 26 25 24 14 24 18 21 18 15
17 23 15 24 23 25 19 21 17 14 14 26 19 24 15 23 18 14 17 26 16 26 25 26 20 24 26 16 25 18 21 15 24 24 21 22 23 18 22 22 20 20 17 16 20 23 18 22 17 20 22 16 25 20 23 24 17 20 24 25 16 22 21 19
26 18 18 26 15 14 21 19 20 23 20 17 15 22 15 25 23 26 16 23 19 16 24 25 23 20 14 22 21 15 24 19 21 21 15 17 23 26 24 19 21 21 26 19 25 18 16 25 22 21 24 18 18 23 24 26 21 20 18 16 26 18 25 15
26 17 25 20 22 17 21 23 15 21 20 18 17 17 20 20 17 21 19 17 25 19 25 24 21 17 25 24 25 17 23 22 18 22 16 23 16 26 24 25 21 16 25 26 14 19 17 18 14 16 17 19 19 17 18 15 21 25 22 15 16 15 16 22
24 17 23 15 19 18 21 22 21 23 19 22 16 19 14 18 25 14 20 22 22 23 17 14 16 20 23 26 19 19 14 16 19 25 15 17 17 18 23 17 20 23 14 16 25 19 22 26 26 25 17 21 15 22 16 15 23 23 22 24 16 15 19 14
14 19 26 16 16 23 21 17 21 18 15 14 19 19 17 16 19 25 19 16 26 25 19 20 26 14 17 14 18 21 24 24 18 22 18 15 26 17 25 18 17 17 15 26 24 24 22 21 15 24 22 26 24 16 17 23 22 19 26 26 23 21 18 21
15 24 23 19 14 19 23 16 23 20 22 20 23 16 15 17 23 24 17 24 16 14 16 15 24 22 16 24 21 23 23 14 15 22 22 24 22 18 23 14 22 24 15 15 25 24 23 18 25 22 14 20 20 24 17 18 24 25 26 15 18 15 17 17
15 19 24 23 18 22 21 16 14 15 14 25 24 18 19 24 19 25 23 17 14 18 26 19 14 17 22 26 18 21 22 15 24 15 20 23 18 21 17 22 14 19 22 21 14 15 18 14 24 17 22 18 19 23 26 17 25 24 17 23 15 15 26 19
15 15 22 17 26 23 18 14 21 18 14 19 20 26 16 16 20 15 17 18 21 19 23 24 20 16 20 17 19 19 18 21 21 14 16 21 26 24 26 15 20 18 18 26 17 24 14 16 16 14 18 17 18 26 19 17 15 24 14 23 18 20 22 17
14 26 18 26 21 21 20 26 16 19 22 14 15 25 25 20 14 17 20 23 17 22 20 16 19 19 17 26 17 24 18 22 23 26 16 14 19 23 24 17 15 21 16 14 21 25 19 25 18 26 21 14 23 22 25 22 21 18 17 26 15 18 19 19
26 25 18 24 17 23 21 14 23 17 20 25 17 18 15 24 22 22 22 17 15 14 19 17 15 14 14 21 23 21 22 16 24 18 22 21 17 24 18 16 26 22 17 14 24 20 19 22 17 17 20 21 17 18 24 17 26 23 19 16 18 24 19 20
22 22 14 15 22 23 17 20 16 24 17 19 18 16 23 25 17 21 26 24 14 21 15 22 22 17 17 24 25 15 26 25 25 20 26 21 17 24 16 26 17 21 19 25 23 21 18 25 23 14 14 14 25 24 14 19 22 24 21 21 21 19 15 14
22 26 16 17 25 24 16 21 23 15 16 17 17 24 22 25 21 23 17 16 14 26 17 26 26 14 15 16 19 22 23 17 25 14 18 21 24 18 23 16 23 16 14 17 19 24 14 22 16 16 19 14 25 15 25 23 18 22 16 20 21 26 21 25
19 17 15 15 25 14 17 19 17 23 15 17 22 15 21 16 26 25 22 26 20 17 17 23 15 25 21 17 24 14 16 17 25 14 20 14 14 20 25 17 24 24 24 21 25 21 16 25 26 20 16 18 21 26 14 20 20 26 24 15 20 18 23 20
18 21 25 20 25 16 15 21 16 19 14 20 24 24 16 23 21 14 18 15 25 14 21 14 15 16 16 14 21 26 15 16 15 21 23 22 21 25 15 21 15 16 24 17 17 22 18 22 26 22 18 22 26 14 22 16 20 20 15 14 21 23 21 17
22 20 21 18 23 21 21 23 15 17 23 19 14 16 26 24 14 24 23 19 23 16 20 26 17 16 26 16 24 16 19 26 22 24 25 16 21 26 19 19 16 17 17 21 21 25 16 25 25 20 18 21 23 25 25 23 26 25 21 17 24 14 21 26
17 17 25 21 21 16 16 19 24 19 26 17 17 16 14 21 20 21 17 18 21 16 18 14 20 24 20 19 23 18 23 16 22 16 16 24 24 26 14 18 24 23 25 19 14 20 14 22 26 22 15 18 25 19 21 14 21 14 18 15 25 24 19 19
17 24 22 17 21 21 14 21 14 23 16 20 22 14 19 17 17 23 22 22 22 18 21 19 16 16 21 22 14 20 23 17 24 24 25 20 25 20 16 17 23 15 24 17 21 20 26 17 22 25 26 25 24 23 24 20 24 22 15 17 25 26 15 22
24 25 15 15 24 25 18 16 24 21 25 23 20 17 14 19 18 22 15 20 17 18 14 16 26 22 24 19 25 18 21 23 23 26 21 19 24 14 16 21 17 24 24 15 18 21 14 24 19 18 22 26 21 16 15 23 26 18 21 15 17 26 16 21
