P2
64 64
255
17 18 22 15 15 17 21 23 24 20 17 24 21 26 24 17 21 24 16 23 22 17 23 14 18 25 14 26 14 16 16 20 24 25 15 21 14 18 23 20 19 22 20 22 22 19 21 18 15 26 16 18 20 23 26 18 24 17 15 24 23 21 22 25
16 17 15 24 25 16 19 24 22 22 24 24 18 20 18 17 22 19 21 17 25 22 17 23 24 19 15 21 25 16 20 14 26 18 20 25 14 18 16 25 23 20 16 15 16 18 22 23 18 23 26 17 22 17 14 19 19 25 15 17 26 19 22 21
20 24 21 15 20 22 17 18 24 25 22 18 21 23 19 18 20 26 19 21 25 25 24 23 26 19 17 21 24 25 14 19 14 21 16 14 19 19 14 23 26 22 16 24 25 24 22 20 16 22 20 25 18 26 17 26 14 17 16 17 16 24 18 25
25 20 14 25 22 24 26 15 25 22 20 24 21 16 25 17 21 26 21 22 25 18 17 22 17 16 16 25 16 24 25 14 24 18 22 18 20 14 26 26 16 26 18 25 24 25 26 15 25 25 19 14 15 15 23 20 20 21 23 22 17 26 23 21
23 18 22 14 20 19 22 24 18 24 19 15 17 20 19 24 15 15 22 16 18 20 17 15 26 17 20 15 18 22 24 17 23 19 14 18 16 23 24 14 15 18 23 15 25 18 25 14 17 16 25 21 20 21 25 14 25 20 22 18 26 20 20 23
20 18 22 25 22 23 17 17 24 22 23 23 17 17 21 25 21 25 19 26 14 24 17 22 23 24 24 22 20 21 19 22 15 26 16 21 18 26 17 22 20 24 16 18 18 20 25 26 22 17 20 21 19 26 19 17 14 17 15 25 25 23 14 14
24 16 17 23 26 15 20 23 18 18 20 25 23 14 14 25 15 22 17 23 18 15 19 18 19 14 23 26 16 22 18 17 25 14 23 25 23 18 23 16 24 26 19 16 19 16 18 19 26 19 20 14 19 25 20 16 24 20 20 20 26 25 20 20
21 24 22 22 26 17 23 18 26 18 17 15 17 17 25 17 22 14 22 19 16 26 14 20 18 19 23 24 15 17 23 23 26 18 18 21 26 18 21 22 24 21 20 15 19 18 21 20 21 24 21 21 22 24 14 14 18 25 15 17 16 19 17 20
19 16 24 23 19 16 22 21 14 26 25 19 20 16 20 22 22 21 26 23 17 24 24 22 21 22 24 24 20 17 20 20 21 18 25 21 17 19 18 25 17 20 23 23 15 18 18 25 17 16 23 18 21 23 24 17 23 18 23 25 23 17 19 26
17 22 14 24 15 21 20 19 25 22 14 17 25 15 20 20 18 23 25 16 17 15 25 17 26 25 16 24 22 15 19 15 16 22 21 17 18 18 19 23 20 18 23 24 19 22 24 19 19 25 23 14 24 18 14 21 26 22 24 18 20 16 18 18
18 23 19 19 16 23 25 15 20 26 22 14 20 17 25 25 21 18 24 16 17 25 23 23 20 21 25 17 16 18 20 18 19 26 21 21 15 21 22 15 23 24 14 22 20 19 16 20 14 26 16 25 21 21 14 21 17 19 22 20 19 19 20 21
26 20 26 16 15 18 18 22 17 15 14 21 24 14 19 19 25 19 21 22 15 25 20 15 19 19 20 26 23 19 20 19 21 19 25 18 20 17 21 21 15 21 26 19 14 21 26 24 23 26 25 17 17 15 23 23 14 18 15 21 20 19 21 24
24 23 17 23 14 22 22 26 25 23 16 24 21 26 20 24 25 14 26 18 16 26 23 23 17 20 16 22 24 22 14 25 19 25 23 21 25 21 25 24 14 25 16 19 15 15 19 14 22 25 23 21 15 14 23 25 22 21 24 16 16 24 19 15
25 23 17 16 24 19 23 20 19 26 19 19 15 19 21 21 22 16 15 19 14 22 24 18 22 17 16 20 18 25 25 21 21 22 18 25 14 18 14 14 20 25 24 19 17 22 26 16 14 17 20 26 14 26 21 22 16 17 23 23 26 22 25 14
24 25 19 14 14 18 14 23 14 17 20 25 20 19 19 24 23 23 22 15 26 21 19 26 16 22 14 25 25 21 19 25 17 16 19 17 24 24 14 21 23 25 24 21 22 19 17 15 23 25 21 19 14 16 17 15 24 22 23 24 21 24 18 23
15 25 21 20 18 15 18 17 25 22 26 17 25 14 20 24 14 20 16 22 14 20 16 26 17 17 18 23 26 17 22 19 25 24 23 24 18 26 20 18 16 26 22 16 22 25 23 22 26 22 14 16 15 25 23 15 23 25 24 16 21 16 19 26
16 16 25 20 24 26 21 14 15 18 24 19 25 20 16 19 20 22 19 26 17 22 24 21 20 25 18 17 22 19 25 17 19 24 21 17 25 18 23 19 14 25 23 25 23 18 19 17 19 15 24 14 18 24 21 23 24 21 23 23 22 23 19 17
14 21 15 23 20 26 21 25 24 25 18 21 23 21 21 18 20 18 22 14 24 24 17 18 23 18 22 19 22 17 19 18 15 26 23 15 17 18 20 16 18 22 26 18 20 22 20 26 22 25 23 23 25 15 18 23 17 15 26 22 25 20 15 21
18 14 23 18 20 17 20 26 16 16 24 14 24 25 18 21 15 15 21 25 17 21 17 19 23 22 24 20 25 22 21 18 22 18 23 15 19 23 26 20 19 20 24 26 19 15 21 17 20 25 14 15 20 19 16 17 20 23 23 17 23 25 15 24
26 15 14 20 25 25 20 14 17 25 26 23 19 21 20 14 26 25 18 20 20 23 26 20 20 26 19 15 24 15 17 24 21 15 22 14 20 26 16 25 18 17 28 27 27 20 25 23 26 17 20 26 18 21 26 25 18 18 18 17 24 25 20 25
17 23 20 21 16 15 16 14 24 20 25 15 24 14 20 20 29 28 33 26 27 34 29 31 26 30 19 25 15 17 20 23 26 17 18 18 25 20 24 29 28 21 21 26 25 25 26 26 19 27 20 25 18 23 22 21 20 20 21 26 20 23 19 21
24 22 14 21 26 14 21 14 16 26 22 16 23 18 27 31 30 27 24 35 33 34 25 27 34 26 26 21 18 18 21 25 29 28 25 15 20 23 31 28 34 28 37 27 34 26 31 34 31 29 30 18 21 26 15 18 20 26 26 24 14 16 19 26
21 14 18 18 22 21 19 21 24 24 18 16 20 26 23 33 35 37 39 39 35 33 36 31 27 27 37 35 28 29 30 28 33 27 27 29 35 36 29 38 30 33 30 29 30 38 29 36 29 31 31 31 21 25 16 17 14 18 18 16 18 22 24 20
18 17 25 23 18 20 16 19 15 20 15 19 30 33 34 37 30 37 34 40 42 33 42 44 36 34 41 35 36 36 33 31 34 29 42 44 45 37 35 35 40 35 42 41 35 38 36 39 29 34 27 32 32 22 18 16 26 15 25 14 21 25 18 14
24 14 15 17 17 22 16 18 18 23 17 28 35 27 34 41 35 40 45 43 49 39 40 40 40 46 47 45 49 50 44 38 36 46 52 50 51 46 55 51 42 39 38 42 40 38 41 44 40 36 40 34 26 32 18 20 22 25 24 24 24 15 20 21
23 19 26 21 17 18 15 19 25 22 21 28 27 36 41 39 37 47 41 46 43 46 55 51 49 59 55 63 61 53 58 46 49 47 56 60 51 62 64 53 55 58 50 50 50 49 49 47 37 35 34 37 28 24 20 16 18 18 24 15 23 16 20 24
22 25 16 15 26 21 15 24 23 29 31 28 32 42 41 41 41 49 54 53 52 58 56 60 60 71 65 68 61 70 65 58 57 55 65 65 65 65 65 64 61 63 55 54 52 56 45 43 46 42 35 32 29 26 33 19 21 14 18 17 16 20 23 21
14 21 26 14 21 18 23 21 16 26 26 30 38 38 41 42 42 51 58 53 61 56 68 65 74 67 71 80 76 74 68 71 69 70 76 68 74 74 69 72 70 65 65 63 55 57 55 52 46 43 41 37 42 38 35 22 22 25 14 14 26 15 26 24
16 22 14 16 16 20 20 21 23 32 27 30 39 45 42 44 46 60 58 64 68 67 72 80 75 85 86 77 75 76 82 74 85 81 82 87 80 76 85 82 85 73 78 71 62 60 61 53 50 53 49 45 44 29 36 29 18 23 20 16 19 26 23 23
19 17 19 18 15 23 23 16 30 27 35 35 38 44 41 48 51 59 53 68 66 76 77 82 79 81 92 83 87 85 82 85 90 83 87 93 92 82 94 83 79 83 85 73 75 69 56 62 47 48 52 48 37 34 29 30 29 23 23 21 16 20 19 16
26 25 14 19 24 22 19 24 22 33 37 42 46 38 53 52 55 64 62 73 74 81 87 96 90 89 101 100 90 100 99 101 92 90 96 89 99 98 90 96 95 91 89 86 75 68 60 62 51 51 44 49 36 31 33 28 23 27 22 15 19 24 26 18
14 23 24 23 23 15 24 17 30 30 31 36 39 46 43 51 63 58 65 78 83 84 91 93 99 99 104 105 95 105 104 102 106 98 102 100 97 102 96 104 100 94 87 96 87 74 66 60 51 56 44 51 43 41 31 28 26 23 16 16 19 15 16 22
14 15 26 14 15 23 24 28 20 25 36 39 39 44 45 47 60 56 68 77 90 99 101 104 103 101 103 99 110 108 109 112 112 110 104 104 111 110 101 100 98 95 91 88 86 78 67 56 58 54 52 39 35 34 28 26 20 24 26 19 23 16 19 22
21 18 24 19 22 26 18 18 24 27 38 37 40 46 43 53 63 56 68 77 90 93 101 96 105 100 100 104 110 105 116 119 111 116 106 115 113 105 106 108 99 95 98 90 88 83 69 58 54 52 46 49 38 35 30 29 20 23 23 15 16 14 25 19
18 20 19 21 21 19 24 22 27 23 36 32 42 43 50 50 51 66 71 76 82 96 92 96 108 109 108 115 108 107 120 115 125 118 118 119 117 116 112 100 108 104 98 88 83 78 67 55 52 48 43 40 39 35 36 30 24 21 24 24 22 24 22 15
23 26 25 25 22 19 26 16 27 31 29 30 33 42 41 50 49 54 69 75 83 92 98 96 98 104 110 110 115 113 113 118 120 127 122 110 116 113 113 109 97 103 91 91 89 74 67 58 57 49 50 47 37 36 29 29 26 19 15 20 26 17 22 14
15 23 19 14 20 22 19 26 28 32 32 37 43 40 41 48 50 53 67 74 78 87 93 92 98 97 102 110 109 117 110 126 134 117 114 110 116 108 110 108 104 94 97 85 81 70 68 58 51 43 43 45 33 38 28 27 17 18 14 17 21 24 16 21
15 24 25 25 20 16 25 26 27 30 24 32 35 40 42 49 47 52 65 71 76 82 88 91 91 101 108 107 109 107 108 122 114 118 108 113 105 107 107 94 98 97 91 79 78 64 59 53 43 48 39 39 35 28 32 23 22 23 14 18 19 18 19 23
20 22 14 23 19 23 14 22 18 24 27 37 35 35 41 48 43 54 58 60 66 75 85 83 91 96 101 95 98 112 102 111 112 113 105 111 103 104 93 97 87 89 87 71 70 60 52 52 39 46 42 39 29 31 32 28 24 18 23 26 19 23 20 26
20 14 25 18 18 25 23 15 21 20 31 24 30 28 34 41 44 47 55 57 59 69 75 75 86 84 95 100 91 99 95 104 93 101 98 101 91 92 91 94 82 81 83 75 67 65 54 43 47 44 36 30 38 24 23 23 22 15 21 19 14 14 24 18
18 17 15 17 24 25 14 26 15 21 17 22 33 33 37 41 42 46 41 52 59 59 69 73 85 85 91 84 96 90 96 88 94 92 88 90 89 91 90 89 75 79 73 65 65 57 42 36 34 31 29 27 28 26 23 19 16 25 16 15 18 24 17 24
26 20 21 21 14 18 15 15 15 14 15 28 22 33 31 29 29 43 45 44 59 64 61 73 67 78 74 79 80 78 80 86 82 81 86 88 77 85 77 82 67 66 58 61 48 44 41 40 35 35 36 32 29 25 25 14 23 23 23 14 26 23 24 14
23 14 26 18 20 15 14 18 19 20 14 19 27 29 32 31 31 30 29 42 41 54 58 62 67 72 75 74 71 76 80 80 72 75 75 75 70 71 68 73 62 58 54 53 42 43 35 34 34 31 29 32 21 26 23 17 23 18 24 14 20 22 17 15
25 14 23 15 25 14 17 23 24 23 20 15 20 22 20 22 34 27 31 35 35 40 48 52 53 58 61 63 72 70 75 70 74 66 69 62 67 61 61 57 51 48 51 49 39 39 31 28 29 27 31 21 23 15 22 17 24 24 19 26 24 14 17 14
18 16 16 17 15 20 25 22 26 23 16 21 22 25 22 20 20 32 29 24 29 37 41 40 52 49 52 57 52 57 63 63 61 62 57 65 54 60 60 58 55 44 44 41 35 32 30 22 27 23 23 24 23 20 24 23 16 23 14 18 20 18 23 24
18 22 16 14 17 14 25 24 18 21 26 14 24 15 23 20 23 28 24 27 19 26 33 43 46 45 50 53 57 51 61 52 55 56 61 57 48 51 48 38 44 43 39 32 26 23 25 24 20 19 18 20 24 21 25 20 21 18 18 25 17 25 18 21
26 24 15 14 19 19 18 24 22 26 20 26 24 23 23 17 17 19 23 23 24 24 20 34 29 40 44 43 53 45 55 56 55 48 53 45 52 45 45 36 39 34 24 21 17 20 17 16 24 23 26 18 24 24 19 18 23 21 18 19 21 15 14 25
22 16 17 26 17 16 20 18 26 15 15 19 16 19 22 16 21 24 22 20 17 18 23 21 27 29 41 33 35 43 44 49 47 51 42 48 35 42 30 27 28 22 23 16 26 18 21 20 17 17 21 18 25 19 26 26 26 18 25 20 19 19 18 22
25 25 26 19 15 17 15 15 20 26 26 20 16 26 18 22 19 18 16 25 17 23 17 25 24 27 30 29 39 34 42 40 45 37 37 35 31 37 25 22 21 26 19 21 20 24 17 20 24 23 16 18 25 17 16 20 20 23 17 22 14 20 21 15
17 15 21 14 17 16 26 26 26 25 21 25 17 24 21 25 16 14 21 23 14 20 14 24 24 19 20 31 27 28 26 29 33 32 26 30 23 24 28 16 22 19 24 22 14 16 15 16 18 19 26 21 14 25 24 24 19 17 17 14 19 17 19 15
19 20 19 26 14 19 20 16 24 22 26 19 17 19 16 14 25 25 21 19 14 16 14 25 20 24 25 18 28 19 23 31 23 30 20 25 24 18 23 18 26 24 15 23 23 24 18 20 21 14 25 19 23 20 20 19 21 22 24 19 23 23 26 15
16 25 20 25 20 23 21 23 24 16 23 16 18 22 25 26 26 25 25 16 16 21 20 15 16 19 18 24 18 18 17 18 21 22 16 23 26 24 22 20 23 26 23 19 20 24 18 26 26 17 20 26 19 16 24 15 24 21 20 25 17 15 16 15
17 17 19 15 25 21 16 18 15 25 18 15 20 26 24 14 26 17 23 16 21 18 20 17 21 20 18 24 22 18 25 22 19 25 21 16 20 22 22 19 22 16 20 17 18 17 17 19 21 20 15 18 25 26 16 14 19 25 16 25 24 19 16 20
22 18 26 14 23 22 24 15 22 15 26 19 25 14 18 22 21 22 26 18 18 21 15 19 23 16 15 14 20 25 14 20 18 26 15 15 22 21 19 23 24 17 18 26 14 21 20 19 18 22 25 15 15 20 15 24 25 25 24 17 23 23 23 26
14 23 19 24 23 25 25 26 26 21 26 15 20 20 17 26 23 19 24 17 26 20 19 17 14 15 14 26 26 25 14 26 14 26 18 25 25 24 15 20 19 23 26 18 18 22 16 24 14 15 18 26 24 20 24 23 24 20 24 20 22 21 18 16
21 22 25 25 15 21 24 23 22 19 21 26 24 17 15 17 18 21 25 18 21 23 15 18 21 20 15 18 14 22 24 20 23 19 21 25 18 23 15 14 20 20 19 14 15 26 23 16 16 26 26 18 20 21 16 21 17 18 16 19 18 25 26 20
14 15 17 26 26 16 23 16 26 21 23 24 14 26 17 19 16 17 22 25 18 22 24 16 20 19 26 21 14 14 23 18 26 20 24 26 20 22 17 18 20 17 23 22 17 19 25 15 18 23 15 17 21 18 23 19 14 18 18 20 22 17 14 20
25 20 23 19 22 16 21 14 20 26 26 16 14 17 14 19 23 17 14 21 20 25 22 22 20 21 16 21 17 14 23 22 18 16 21 20 26 19 15 23 17 16 26 16 17 16 18 17 20 20 25 23 25 20 23 24 22 15 20 22 20 24 19 26
18 24 14 16 20 25 21 24 26 17 22 18 25 17 21 21 23 18 14 19 19 18 18 20 25 19 16 20 14 25 19 25 16 20 16 19 17 18 25 15 15 18 16 18 20 23 23 17 18 16 26 22 14 17 17 14 21 25 15 21 19 26 20 20
15 20 24 25 16 15 22 20 19 24 18 21 15 16 16 24 16 20 17 22 17 24 20 25 23 17 26 18 20 14 15 24 23 16 21 24 25 15 24 16 15 26 23 26 18 20 23 24 17 18 19 16 15 22 20 26 17 26 22 18 24 14 17 20
15 24 16 26 14 24 18 25 21 25 25 22 16 18 17 21 20 14 16 22 21 17 18 26 19 21 20 18 26 25 15 15 16 17 18 23 21 25 24 23 20 22 21 25 16 26 15 22 16 18 16 17 26 19 22 14 21 21 20 24 21 20 17 25
26 19 14 23 19 14 22 24 25 18 20 20 25 17 21 18 24 24 22 18 22 14 17 21 20 16 16 23 25 16 19 22 24 22 15 18 19 23 17 14 15 19 19 21 14 24 25 14 18 17 17 18 16 17 25 23 21 17 15 26 21 15 19 19
24 25 18 21 25 18 20 16 19 23 19 21 21 15 22 15 26 16 24 21 20 15 18 23 22 26 24 16 21 20 26 23 26 26 23 14 15 24 17 16 17 23 19 16 21 19 18 24 15 23 21 25 26 14 23 18 23 20 16 21 20 16 20 24
24 20 24 26 17 20 22 26 26 23 25 22 18 19 26 21 20 15 25 19 20 22 24 24 25 26 23 21 19 15 15 22 23 14 18 19 26 19 22 26 18 19 24 26 15 14 20 25 18 14 18 25 21 23 20 19 21 22 22 24 15 16 24 18
