P2
64 64
255
16 16 24 23 21 14 16 23 26 17 21 25 14 26 21 23 23 20 26 26 17 14 19 22 23 18 24 18 14 14 14 26 16 18 19 21 20 23 16 23 22 20 25 19 21 19 18 26 24 25 26 23 25 21 23 17 22 22 19 19 17 20 24 19
19 22 16 26 15 26 23 25 25 15 14 14 16 23 20 19 16 19 23 19 21 18 17 16 21 21 22 25 14 15 14 14 18 26 19 25 14 15 23 19 17 25 22 15 17 20 24 19 17 23 23 23 23 20 19 21 23 25 15 14 24 23 18 23
14 25 17 14 20 19 19 24 16 16 17 25 21 21 23 14 20 23 24 21 23 23 16 14 19 19 14 25 18 26 25 24 16 24 18 17 21 26 24 17 23 14 16 18 23 21 20 19 18 24 26 24 19 21 15 16 16 19 16 19 18 19 26 16
19 18 23 18 15 23 16 18 24 17 18 17 20 22 26 18 24 25 20 23 16 16 25 15 19 23 23 25 14 26 23 19 15 19 19 19 15 16 17 20 19 24 23 24 22 15 21 15 15 22 25 16 19 17 15 18 20 15 24 25 15 20 14 25
25 19 23 24 24 18 21 22 21 14 20 24 24 25 15 16 17 20 14 18 24 25 25 16 16 24 25 22 22 24 16 22 21 22 25 24 18 20 19 26 23 20 26 24 23 26 22 26 15 20 21 22 25 14 19 21 23 16 21 24 24 20 18 15
21 19 24 17 20 15 21 16 18 14 14 16 23 22 23 20 14 17 18 20 24 14 24 16 17 18 17 23 14 16 22 15 18 16 26 24 19 21 21 16 14 23 20 15 25 15 15 21 16 23 21 22 15 15 26 24 26 22 25 21 16 25 18 24
18 20 24 25 21 20 18 17 19 24 26 18 20 23 25 25 25 15 14 15 19 14 15 21 23 19 17 20 26 18 21 15 19 25 22 23 20 24 22 16 19 21 23 24 19 18 15 17 26 16 14 22 17 17 18 18 20 20 16 22 24 24 23 16
19 19 23 14 18 19 23 22 19 21 23 16 25 16 16 23 19 23 25 18 20 19 21 15 26 20 26 15 26 17 23 24 16 15 15 22 21 21 16 15 15 17 15 16 21 17 22 21 15 21 23 25 18 20 18 25 17 26 24 16 23 14 26 23
19 17 22 15 26 20 20 19 25 26 18 25 17 16 17 14 17 25 26 20 25 26 17 26 19 19 17 15 25 26 16 20 14 18 22 21 20 24 15 16 25 25 23 15 19 19 23 23 23 23 20 14 17 20 21 15 22 17 17 17 26 23 23 17
24 21 24 26 25 26 26 24 15 22 23 22 25 23 24 14 16 20 15 24 23 25 17 26 25 21 15 23 24 26 18 23 25 18 15 14 24 18 14 20 24 22 26 24 20 23 25 19 18 15 19 25 18 15 19 22 23 26 18 23 14 14 23 16
25 25 22 25 14 22 25 17 26 23 22 21 26 26 16 19 19 15 18 14 19 19 19 22 25 18 20 20 17 18 14 25 26 23 22 20 26 24 23 19 23 16 14 16 17 20 19 26 24 24 21 24 21 17 24 25 14 16 14 25 21 18 26 26
26 23 21 25 19 23 15 14 18 18 18 23 21 14 22 24 21 23 26 21 19 14 20 14 22 19 14 20 25 19 18 18 23 19 26 21 14 20 17 19 17 17 19 22 22 15 20 25 14 17 17 18 17 19 20 25 23 19 18 24 14 23 26 26
17 19 23 22 26 14 19 18 15 16 25 19 17 20 16 16 17 25 20 23 25 21 22 16 16 22 24 26 24 20 19 23 15 23 18 22 23 20 16 26 24 18 25 14 22 23 24 26 17 19 23 19 15 19 18 19 16 19 18 19 14 26 21 21
24 26 18 25 15 15 18 26 22 15 16 21 14 16 22 14 16 18 25 22 23 23 22 15 25 23 19 21 20 15 24 15 15 24 21 15 16 16 23 20 24 16 15 14 25 18 15 24 24 15 20 19 16 25 16 15 20 23 16 19 26 14 22 26
14 22 14 15 23 17 22 24 14 19 26 18 21 14 25 20 25 19 23 25 19 21 24 18 15 26 21 18 24 20 18 25 16 24 24 15 24 15 26 15 26 23 19 17 14 21 17 14 21 20 23 17 25 15 26 15 18 24 15 16 21 16 25 20
17 22 15 15 22 24 20 24 24 14 24 15 15 26 21 17 18 20 19 26 21 14 25 23 18 15 25 22 23 16 22 25 16 26 15 23 19 25 20 21 18 23 26 25 14 14 17 14 24 17 21 26 18 21 24 16 24 21 17 21 20 25 20 14
23 17 15 19 19 22 17 19 22 21 17 25 20 15 21 18 17 19 15 20 22 25 19 19 26 15 25 22 18 15 21 14 19 23 26 20 19 23 19 18 22 16 24 21 16 22 14 24 16 15 22 18 26 18 14 23 17 14 24 23 14 17 25 15
15 22 17 17 25 21 25 16 14 21 23 15 22 20 19 25 22 20 25 16 19 24 22 21 20 19 23 21 16 20 14 22 18 19 14 15 17 14 23 18 17 24 20 14 18 17 23 22 18 25 18 24 18 21 16 21 14 22 19 19 25 20 19 19
15 19 18 21 15 17 16 24 17 20 26 21 15 25 26 25 15 15 20 18 16 26 26 25 18 14 19 24 14 22 23 21 15 17 26 14 17 25 18 24 20 20 22 14 26 20 15 24 26 14 25 19 23 14 22 16 22 16 17 19 19 15 18 24
22 18 14 24 14 26 20 24 20 14 24 15 17 19 25 15 16 16 29 28 29 26 22 20 27 22 16 26 22 14 24 26 21 22 19 16 18 15 20 20 27 25 22 25 29 28 27 16 19 19 14 21 23 17 21 26 25 18 25 15 15 22 24 25
18 19 16 26 17 26 23 16 25 20 23 20 17 23 24 24 23 28 25 25 26 23 27 26 20 25 19 27 21 25 16 26 17 16 24 18 21 19 20 26 29 23 21 24 33 23 23 27 23 18 26 15 26 24 19 15 26 24 15 23 24 17 25 19
26 25 22 17 25 16 25 17 15 16 25 24 14 24 22 32 29 29 29 26 25 34 33 24 27 26 29 20 27 16 20 17 18 21 19 20 20 19 31 24 30 29 32 34 34 26 36 32 23 22 19 18 15 24 19 25 14 23 26 16 15 20 22 18
21 20 23 17 23 19 17 15 15 17 19 20 26 31 28 28 33 27 39 32 40 36 33 39 33 26 28 27 32 31 35 26 30 28 31 24 33 28 37 37 32 28 30 32 37 30 31 33 36 30 34 24 24 24 15 17 17 25 22 21 14 17 22 17
19 24 17 14 17 14 18 25 26 20 18 24 24 24 32 28 37 39 34 42 35 34 37 34 39 41 34 36 46 43 40 36 31 36 40 38 42 34 43 34 35 40 37 39 43 42 43 38 32 30 33 24 24 21 23 17 15 14 21 16 20 26 18 14
19 22 19 24 25 20 14 16 24 25 18 21 29 26 31 43 36 46 36 39 44 47 43 42 49 49 46 46 47 46 48 41 39 42 50 49 54 50 54 54 48 39 47 38 46 44 40 42 37 39 35 33 31 31 29 17 20 17 26 17 14 17 15 23
14 23 19 15 15 25 17 19 22 21 26 31 31 32 36 43 45 45 47 45 45 43 56 52 54 57 57 60 55 61 53 54 57 46 60 60 61 53 55 57 58 48 54 53 53 51 49 49 43 41 33 33 28 29 27 20 19 14 14 21 22 24 22 15
21 24 18 14 26 25 22 16 23 20 33 34 39 32 43 38 50 50 54 48 46 54 62 67 66 61 70 72 70 68 65 58 63 59 61 66 72 61 60 60 68 62 56 51 50 47 48 48 49 43 38 38 34 26 28 24 24 22 14 22 19 15 24 17
21 16 23 24 14 24 17 26 25 21 27 39 35 45 48 42 53 56 47 51 52 59 67 68 71 72 69 75 75 68 76 64 67 73 71 74 79 70 77 69 69 75 64 61 63 52 57 57 54 52 39 42 38 35 35 23 24 24 20 14 22 24 26 20
24 20 19 22 24 19 14 18 17 33 32 30 40 45 47 50 51 49 55 58 60 75 70 79 73 79 81 81 81 77 77 82 75 83 79 81 79 82 78 86 76 71 72 64 67 62 55 50 54 47 44 45 32 29 36 27 24 24 23 20 26 20 24 21
21 16 16 18 22 23 16 17 23 31 30 40 34 48 46 48 48 54 62 67 78 77 81 78 82 92 91 93 91 92 91 84 90 85 87 91 87 94 89 85 85 78 83 80 67 63 62 60 54 55 44 47 45 39 31 25 20 26 22 18 20 16 17 16
22 19 18 18 20 16 25 20 21 26 35 41 41 50 44 47 56 61 61 66 78 83 83 87 86 89 93 90 101 93 98 100 98 97 96 96 90 89 91 93 86 93 90 85 82 73 62 65 57 50 49 45 42 39 39 27 28 19 23 17 18 23 23 19
17 21 26 23 21 25 22 20 25 24 38 39 39 51 47 58 55 61 67 82 81 84 95 98 99 104 102 95 104 101 95 99 103 99 104 95 98 102 98 98 98 89 95 89 82 82 61 55 58 57 50 50 41 38 30 33 25 21 22 17 24 14 15 22
26 17 24 15 22 18 25 17 28 26 30 36 43 51 54 47 59 66 68 76 95 90 96 95 98 101 100 106 103 100 106 108 108 108 113 102 100 103 97 107 104 101 93 100 90 82 70 64 55 59 51 43 41 39 35 24 29 28 23 18 26 18 24 15
15 14 21 15 24 24 17 28 22 31 36 34 44 41 50 58 60 62 66 81 87 99 94 103 105 102 104 113 109 109 108 110 118 116 109 108 114 113 109 103 98 103 96 88 90 81 70 63 59 50 45 47 44 42 34 25 28 23 22 23 19 21 16 23
25 25 20 23 23 16 26 16 20 33 37 39 42 38 49 49 61 54 67 77 81 93 98 102 108 108 114 106 115 113 116 115 121 125 118 113 110 110 109 109 97 95 100 94 91 74 67 60 56 46 42 39 36 35 31 28 29 18 26 24 15 25 26 18
16 16 21 21 16 22 15 27 28 34 33 33 39 46 45 55 55 64 70 70 82 94 95 99 104 109 103 112 106 113 120 116 121 117 116 120 113 112 110 104 102 104 93 90 79 71 62 55 57 48 45 39 41 34 32 22 29 18 24 23 16 22 23 17
20 19 16 18 19 22 16 26 25 30 29 32 37 37 45 54 48 52 70 71 82 87 96 91 95 108 101 111 108 112 113 126 134 121 120 108 107 113 103 104 93 98 86 85 78 66 66 57 50 54 48 38 44 37 33 32 23 15 16 19 20 24 18 18
18 19 26 26 14 21 23 26 22 25 33 29 38 44 37 51 45 55 66 70 79 80 84 94 91 101 102 106 102 114 112 114 119 116 118 110 102 110 100 96 94 89 91 75 81 62 62 51 51 44 44 33 36 30 29 30 19 18 20 26 14 22 16 23
20 16 22 15 24 22 18 18 21 27 24 37 37 39 37 44 40 46 57 68 68 78 86 89 94 96 101 106 108 111 112 111 104 103 101 106 108 106 99 88 84 92 81 70 67 60 57 49 45 46 44 32 31 32 28 28 21 18 23 17 17 20 19 15
19 21 18 17 26 20 22 22 21 25 31 29 35 28 36 35 46 47 47 60 59 73 79 76 87 84 94 92 94 98 98 94 102 97 93 94 91 98 88 89 80 75 74 73 65 62 56 40 39 37 41 38 27 26 19 24 26 21 26 18 18 17 20 20
16 26 17 18 22 26 20 24 18 18 27 27 25 28 35 33 40 45 41 51 61 62 77 80 81 89 83 88 89 90 86 94 91 89 92 98 89 92 89 78 75 76 74 61 65 56 47 41 38 33 40 29 26 24 24 19 23 24 17 24 24 19 15 19
15 19 16 17 16 14 19 17 26 17 24 23 23 25 35 29 36 39 45 53 57 53 63 67 77 73 77 84 82 81 88 86 77 81 87 90 77 80 75 70 70 73 67 59 59 49 44 41 29 39 28 30 25 20 20 26 17 17 16 16 24 16 26 15
24 20 19 16 19 26 14 23 25 23 18 24 28 32 28 29 26 30 40 40 52 54 63 66 64 74 68 75 72 71 76 78 79 77 76 78 75 72 76 73 67 66 58 46 42 46 32 28 29 24 27 30 29 20 14 19 17 16 20 22 17 26 21 18
25 26 16 19 23 25 14 18 20 22 23 16 26 25 21 29 27 33 24 40 42 42 54 53 57 56 57 63 64 69 75 70 66 72 70 71 66 63 59 60 52 48 53 41 34 32 34 24 24 20 25 26 21 22 26 25 16 23 16 20 16 23 24 15
20 21 18 21 22 16 18 20 21 15 17 16 20 16 22 28 28 31 21 24 39 44 37 43 46 58 55 54 53 66 64 65 61 68 60 63 53 52 49 55 53 42 48 37 34 32 26 25 21 29 26 16 26 16 21 22 17 21 25 16 17 26 19 24
26 18 24 26 26 17 18 23 24 15 16 22 24 26 17 18 18 24 26 23 31 26 39 39 45 40 42 45 56 59 59 53 56 52 51 55 53 47 41 39 43 33 37 28 24 20 25 23 21 19 16 21 14 15 15 14 14 21 16 20 15 17 18 22
21 25 16 19 25 19 17 25 22 26 21 25 19 20 15 21 21 25 21 25 16 21 24 31 30 44 46 47 47 48 50 48 48 52 49 46 50 39 43 40 33 34 26 27 16 23 16 22 26 14 20 23 25 26 19 19 15 16 22 19 24 19 24 25
24 15 25 20 17 26 20 26 19 25 26 18 15 22 25 17 26 20 25 23 14 22 16 30 28 31 41 43 35 38 38 47 45 49 42 47 35 44 35 29 25 29 18 19 17 14 22 18 23 16 16 16 18 24 15 22 15 17 18 20 17 19 20 15
24 25 20 19 25 20 23 26 17 15 26 24 23 15 22 22 20 17 15 14 21 14 14 18 22 31 37 35 30 41 39 41 45 37 36 31 37 31 30 25 20 23 24 21 14 18 20 18 20 26 24 20 25 16 18 22 25 22 16 15 19 17 23 17
17 22 26 18 15 14 22 18 19 22 23 22 22 26 24 21 18 23 20 24 25 20 22 18 17 19 22 31 23 26 32 32 30 38 26 36 25 31 25 19 16 18 18 18 26 14 21 26 21 24 23 25 23 15 25 25 22 14 18 14 22 25 14 21
18 18 25 16 16 20 26 21 19 19 21 24 21 23 23 18 20 25 24 22 14 26 16 15 22 15 23 18 19 30 24 23 28 23 24 28 24 26 18 17 21 19 20 25 23 22 25 21 22 17 15 26 23 17 19 16 15 19 20 21 16 19 20 21
20 15 16 17 25 23 26 21 24 17 14 15 22 22 24 16 26 19 22 19 18 14 23 24 23 19 23 19 15 19 20 20 23 17 17 24 19 14 23 15 14 22 17 25 15 14 20 18 20 18 24 21 17 22 23 14 22 15 18 14 17 15 22 15
16 23 20 15 25 24 22 24 16 18 18 21 25 22 24 26 24 22 23 26 18 26 14 20 22 18 26 14 20 18 25 14 24 16 15 14 20 17 16 15 15 21 19 24 18 20 16 22 18 21 14 21 25 15 22 23 26 15 20 16 16 25 18 14
16 16 19 18 21 19 15 22 26 26 18 19 25 26 25 25 17 14 16 17 21 23 20 19 22 22 14 23 18 24 23 24 20 15 24 18 23 19 21 26 20 23 26 16 16 24 20 22 17 18 20 19 15 16 14 25 24 18 14 23 21 17 21 19
14 25 26 25 18 20 15 23 14 25 17 25 15 25 14 25 22 23 26 23 24 18 21 20 23 14 25 17 26 26 21 14 25 14 14 24 19 26 14 21 16 20 26 21 19 26 19 23 14 16 23 24 15 17 17 18 23 22 14 15 21 17 16 22
17 18 26 16 17 25 15 23 22 23 14 20 22 19 16 20 16 20 22 17 26 14 22 14 17 14 20 14 15 18 16 16 20 20 24 22 20 17 14 16 19 23 22 25 22 16 15 17 22 18 23 18 18 22 26 16 20 19 18 20 23 19 21 23
26 16 23 18 20 18 17 21 14 15 19 23 19 14 16 22 20 14 17 24 22 23 14 25 15 14 26 23 25 18 25 20 24 21 22 21 19 16 19 17 25 18 25 25 19 23 18 20 15 14 17 24 18 17 16 21 16 19 17 20 19 18 24 17
17 24 24 23 17 22 19 20 17 21 20 26 19 14 18 24 18 15 15 25 15 21 19 15 20 19 14 23 24 26 26 17 20 20 23 24 15 18 23 15 24 14 19 14 16 15 26 25 25 14 21 21 17 14 14 16 24 20 18 26 23 16 22 18
24 19 15 26 16 18 14 15 23 20 17 23 16 16 21 17 15 25 22 18 16 20 17 15 17 14 22 19 18 17 20 20 22 22 17 14 14 22 21 18 26 16 22 17 21 19 15 18 17 25 26 25 21 15 24 23 25 17 23 21 21 24 17 26
18 21 15 16 26 15 26 22 15 22 21 22 19 17 23 18 25 14 20 26 18 22 17 20 24 18 17 20 24 25 21 26 20 22 16 18 19 26 26 18 22 18 24 21 14 22 21 26 25 15 23 16 21 26 22 25 18 22 21 16 23 18 21 24
21 24 16 24 14 14 19 21 25 16 24 24 16 16 18 23 23 18 15 21 14 23 19 18 17 23 14 17 24 15 22 16 19 14 17 20 17 22 25 21 16 15 21 24 16 17 24 25 23 21 23 18 24 26 16 26 24 14 21 14 24 20 19 16
14 24 20 15 22 24 22 24 22 26 23 17 17 19 22 20 17 16 25 25 20 18 23 23 21 17 21 24 17 16 25 17 16 24 17 17 17 16 25 18 18 25 22 17 18 25 15 21 21 19 24 15 26 14 21 22 22 14 14 20 19 24 15 20
16 25 25 14 19 25 17 24 15 17 18 24 20 21 18 23 21 24 22 19 24 18 14 22 22 21 17 18 14 22 17 20 22 14 15 16 14 25 25 23 23 25 23 21 22 22 15 14 22 18 20 25 20 20 14 26 21 15 23 26 18 15 16 26
18 17 17 17 22 14 24 26 16 19 20 19 25 17 16 25 23 19 26 20 17 25 16 22 23 25 14 21 21 22 19 25 17 24 15 24 17 26 16 17 20 20 25 21 22 24 22 26 20 23 26 24 26 14 22 19 17 26 18 18 22 19 15 18
