P2
64 64
255
16 15 16 16 17 14 23 21 16 22 15 20 17 17 26 24 21 18 15 15 24 22 22 26 26 23 24 26 16 17 22 14 18 19 18 24 24 24 16 15 14 22 16 23 25 21 23 18 26 25 22 26 26 26 16 21 14 15 16 22 14 22 25 20
14 24 16 24 18 14 22 25 17 19 20 23 25 19 18 19 14 15 20 18 14 24 23 26 17 14 14 25 21 20 14 20 26 24 26 14 16 15 21 20 22 21 14 25 16 20 14 21 25 17 16 19 22 23 20 19 19 21 19 26 17 23 16 18
22 14 23 17 22 26 25 19 18 18 24 24 23 19 16 21 16 15 26 23 22 25 19 14 24 15 17 17 17 24 26 22 24 21 16 22 19 19 16 19 23 15 25 24 18 26 21 20 14 26 16 18 19 26 20 20 22 15 14 17 17 25 18 16
24 18 25 21 22 24 25 17 24 23 17 25 26 14 15 16 25 24 20 22 24 23 25 20 24 17 24 25 17 25 24 24 17 21 22 22 20 16 26 23 26 20 22 15 16 23 15 23 20 21 26 16 24 24 26 16 16 17 14 25 19 25 18 15
24 17 17 21 26 26 20 20 23 26 15 22 17 24 21 15 26 24 23 18 21 24 22 25 15 22 15 25 19 23 23 20 18 17 24 22 15 23 20 22 20 15 19 14 17 19 22 16 17 20 22 24 21 15 25 23 16 21 14 22 24 20 23 16
17 25 16 21 22 18 26 24 14 16 16 21 15 17 20 22 21 14 15 16 23 21 14 26 18 23 24 18 16 24 24 21 15 22 26 21 21 22 22 17 22 26 24 24 19 20 25 21 24 22 15 25 24 22 25 23 21 22 19 15 17 23 24 14
23 25 23 22 21 17 23 22 23 15 25 26 25 25 18 26 24 25 19 14 14 16 25 21 25 22 17 15 15 15 23 24 14 20 23 22 19 14 16 23 18 20 17 25 21 23 17 15 23 26 22 23 16 23 15 15 16 15 21 17 14 15 14 23
25 22 18 19 14 23 19 24 17 21 17 22 18 17 24 15 17 21 24 19 18 19 17 15 14 14 21 20 26 22 15 16 15 21 16 26 24 16 23 26 26 17 14 16 26 17 15 20 22 18 26 16 23 22 19 19 16 21 26 23 25 19 22 18
14 25 14 24 17 17 26 22 17 21 19 21 20 16 25 26 26 14 24 25 25 16 19 18 17 17 23 16 22 17 26 17 14 21 24 15 14 25 25 18 23 17 25 15 24 21 26 21 16 15 26 25 25 19 18 18 16 19 19 17 25 21 23 26
25 20 23 21 22 18 19 16 15 15 15 17 22 19 20 22 14 18 25 19 21 19 14 22 26 21 14 25 17 21 18 26 20 23 24 24 17 19 22 16 14 15 17 23 21 14 17 20 17 20 22 14 25 18 18 14 16 16 24 26 14 14 20 19
19 21 25 19 25 19 19 20 15 15 17 20 18 24 16 15 14 17 19 20 20 24 26 17 17 21 19 15 21 21 24 26 18 23 17 23 15 16 17 16 22 26 16 25 18 19 22 23 16 16 22 18 14 21 19 24 19 25 15 16 14 15 24 22
25 18 22 21 16 22 21 23 21 20 18 24 26 24 26 20 15 21 15 21 21 24 24 26 19 22 18 26 18 21 16 20 20 22 15 14 24 19 18 22 25 24 19 15 24 14 18 18 23 21 23 18 23 23 15 15 17 14 18 21 23 14 14 23
22 20 18 18 21 24 19 22 23 15 25 22 26 17 20 22 24 25 16 17 22 14 14 26 16 16 25 20 15 23 19 14 23 26 25 18 26 18 16 17 17 19 15 15 24 23 17 17 21 20 19 19 17 16 18 20 26 26 17 25 26 21 17 26
19 24 21 16 14 23 23 17 16 22 15 24 21 23 19 25 18 19 25 22 17 26 21 23 24 16 19 15 21 24 23 23 24 17 26 23 16 16 18 16 16 22 20 23 25 15 18 20 19 14 17 24 20 14 15 23 17 17 21 25 20 26 22 25
19 21 25 14 14 20 25 17 20 24 21 22 16 21 21 21 23 14 21 26 19 20 17 19 15 17 20 23 21 26 18 14 23 22 22 23 15 17 15 15 16 23 26 26 22 24 23 16 24 15 19 20 17 15 22 21 15 21 23 20 17 20 26 20
23 21 20 24 22 18 14 22 24 15 15 26 18 23 16 24 14 18 24 18 20 20 22 26 25 19 24 17 25 25 20 17 14 25 22 23 18 17 21 25 23 16 20 19 25 19 22 15 14 14 14 20 15 24 18 26 20 21 21 18 15 25 23 24
15 26 17 15 19 18 21 25 14 14 21 14 24 18 21 16 25 26 18 21 23 15 19 25 17 18 14 17 22 14 17 17 17 16 14 17 20 26 26 20 17 17 18 21 26 20 15 26 25 16 23 16 24 23 23 19 26 18 21 14 21 25 16 18
17 26 15 26 17 22 22 21 21 14 19 19 22 26 15 24 20 14 14 14 24 22 21 20 25 21 23 14 17 22 20 24 17 21 23 15 24 26 25 20 15 18 17 22 26 22 16 14 14 17 20 23 14 14 24 20 21 19 23 22 22 14 24 19
15 25 26 21 22 14 19 21 23 24 22 18 21 21 18 22 26 23 15 25 21 16 24 14 18 21 17 14 16 14 20 26 19 20 19 20 22 22 21 17 23 16 18 20 25 14 25 17 19 19 14 26 26 18 16 14 24 20 26 19 21 23 16 18
24 19 22 22 26 24 15 25 18 17 16 15 16 21 21 26 26 28 22 22 21 20 24 19 22 26 14 23 22 26 21 18 21 16 16 23 24 18 15 19 18 23 21 24 22 23 25 20 23 24 23 15 16 22 24 15 22 20 22 19 24 25 19 16
15 22 16 15 19 16 17 25 19 17 19 17 15 23 19 26 30 28 24 23 27 34 25 29 27 22 23 23 21 14 26 22 17 23 14 22 20 17 23 29 29 28 23 26 27 23 29 32 19 28 15 15 18 18 19 15 17 26 17 17 19 25 24 23
21 14 15 24 16 15 24 22 24 14 25 26 26 26 31 29 23 34 32 35 29 36 35 36 26 25 25 23 25 25 24 24 19 26 24 16 26 21 32 33 31 35 34 36 31 35 32 34 26 23 25 20 22 19 17 20 16 17 21 23 16 25 21 21
16 15 18 20 21 19 18 14 22 15 22 25 28 32 31 26 33 27 29 32 38 38 34 39 39 36 26 36 36 35 26 23 27 26 32 30 33 26 27 33 32 32 39 39 31 36 32 30 35 34 31 21 19 25 22 26 19 22 17 26 24 16 15 24
23 23 16 26 17 25 21 24 15 22 25 21 20 28 35 33 33 32 44 35 35 39 40 32 42 43 36 36 43 42 34 37 33 31 38 44 36 35 44 40 34 44 33 43 36 42 35 36 30 33 28 31 24 21 15 16 18 16 25 15 23 14 24 16
16 24 14 23 24 14 22 23 25 18 19 23 31 36 37 43 37 40 39 38 38 46 38 39 43 53 45 45 54 43 43 44 35 40 46 48 47 51 53 43 43 45 37 44 46 39 46 38 36 40 35 33 25 22 22 25 18 25 24 25 20 17 23 17
25 17 22 24 22 23 22 22 24 28 21 23 29 32 42 34 43 40 49 48 44 51 49 57 55 62 60 62 63 60 52 48 55 52 56 56 51 64 52 56 61 50 45 50 41 43 42 49 37 45 33 38 31 24 29 23 26 17 21 24 17 22 14 24
18 14 16 25 24 22 20 19 14 24 33 25 39 39 41 41 43 49 44 49 57 60 56 55 60 61 61 67 64 66 61 57 67 54 58 71 68 67 68 59 63 63 64 52 49 54 43 43 42 48 45 31 40 33 32 22 20 20 14 26 18 20 17 16
16 17 19 15 26 18 24 20 26 32 32 31 30 37 44 47 45 48 56 60 56 60 71 63 68 70 73 69 68 79 69 69 68 68 72 79 72 68 73 68 66 71 62 66 54 58 52 54 52 46 40 43 32 32 32 24 25 17 20 16 17 15 19 17
24 16 14 19 17 20 22 24 22 22 37 34 42 42 39 52 53 52 56 61 62 74 72 80 74 79 77 84 87 86 81 84 76 80 75 80 86 77 77 83 81 82 70 76 68 60 60 54 49 50 45 41 34 34 35 25 26 14 23 16 21 14 20 20
24 18 14 23 16 21 17 20 22 30 29 40 45 37 49 49 59 51 56 70 76 82 78 82 82 90 82 90 90 86 80 85 93 90 81 91 90 83 92 90 88 80 80 71 71 63 65 56 52 47 51 41 33 35 29 34 18 16 14 17 23 22 15 17
20 19 23 21 16 17 19 18 27 23 33 39 38 46 48 58 54 63 58 71 80 87 86 88 95 87 100 97 98 93 92 96 92 90 95 91 97 99 97 96 98 89 92 87 72 75 61 61 61 50 52 47 35 39 38 23 30 24 24 14 21 19 26 16
21 20 15 25 15 20 16 17 30 30 38 38 43 40 45 56 59 66 71 80 80 91 95 90 101 94 98 106 104 100 99 104 103 97 103 96 95 96 96 101 95 101 93 87 85 82 70 56 52 55 43 43 42 42 31 33 25 19 24 15 22 15 21 24
17 25 26 21 22 23 22 28 24 30 33 38 44 48 52 58 53 66 64 78 94 96 95 101 95 103 109 103 99 105 113 115 117 107 111 108 107 111 104 104 98 105 101 94 84 82 73 63 57 49 53 44 38 41 40 28 22 24 25 16 17 25 26 20
21 25 17 24 25 17 18 23 30 35 31 43 38 44 55 48 62 58 74 86 86 89 103 95 103 100 102 110 103 104 111 114 121 115 116 105 104 109 110 99 98 103 95 90 89 79 75 63 58 58 46 43 41 36 36 27 32 28 19 20 16 24 18 23
22 24 20 19 19 26 19 25 25 31 28 40 36 46 54 47 52 65 75 72 79 87 98 102 102 99 106 116 117 117 121 114 126 118 113 118 112 115 104 106 98 95 102 91 89 76 73 55 50 52 54 39 38 35 33 33 20 26 14 24 18 21 16 22
20 18 17 25 22 17 23 20 22 22 38 39 39 45 48 45 49 64 72 78 80 88 94 104 107 100 107 104 117 119 111 119 125 122 111 109 112 112 111 109 97 102 88 85 81 78 70 64 51 45 45 43 45 33 30 25 23 19 24 24 26 14 24 15
14 24 15 25 15 19 20 26 18 24 36 31 37 38 46 44 45 54 62 78 85 81 85 91 103 103 111 113 108 118 116 121 127 121 120 117 112 106 103 103 95 92 93 87 77 68 70 53 54 46 40 36 37 38 32 22 21 16 26 20 26 19 17 16
14 17 16 24 23 26 17 15 17 23 28 30 33 40 43 51 43 50 55 73 69 78 86 87 94 98 101 100 113 107 117 119 113 116 114 115 103 109 103 100 99 95 91 78 76 62 62 50 47 47 43 40 30 38 30 31 20 22 26 14 24 26 26 24
23 24 23 21 15 14 14 14 26 22 25 26 31 39 42 43 51 52 56 64 76 74 79 90 90 92 92 101 97 100 106 108 115 104 103 111 102 95 92 88 88 90 84 82 67 62 60 46 49 40 38 40 39 35 21 25 21 24 23 16 14 15 21 24
21 21 19 26 20 21 22 16 17 24 21 29 27 37 31 40 43 45 52 63 64 71 78 76 82 93 98 89 96 94 99 94 105 105 100 98 100 97 96 92 90 78 76 75 70 59 55 45 40 34 41 33 32 31 19 18 18 23 14 18 15 18 20 20
22 17 17 19 22 17 19 24 19 25 25 21 33 33 32 31 35 45 48 54 60 69 66 70 79 87 85 86 92 87 89 95 93 94 94 97 90 91 90 85 80 73 65 60 65 50 48 39 38 33 33 35 29 28 28 15 18 18 26 24 25 16 23 24
21 16 24 17 22 24 25 23 16 24 25 26 22 23 25 33 34 36 37 47 56 57 66 70 72 71 79 75 77 86 87 82 88 81 84 80 84 79 85 79 70 65 62 60 52 42 36 37 38 36 26 32 21 23 26 15 21 21 23 26 17 15 19 24
21 24 18 20 17 20 21 14 26 17 15 20 17 27 28 31 33 39 32 43 50 52 62 63 60 70 68 67 81 74 71 81 77 74 79 71 77 69 69 66 60 65 61 53 52 36 30 34 26 26 33 30 18 24 17 14 22 14 26 15 17 19 18 15
15 17 24 22 20 20 24 17 16 14 26 25 20 26 21 24 33 33 32 35 38 41 43 56 54 58 69 71 68 62 74 68 70 69 68 68 70 64 68 60 54 58 46 46 35 32 26 25 25 30 30 21 21 22 14 25 25 18 24 21 24 26 25 17
14 25 14 14 20 19 25 22 25 15 24 22 17 21 18 24 20 21 31 29 30 43 36 51 49 46 56 56 57 67 68 70 68 61 69 66 55 61 49 51 48 52 39 44 30 27 32 20 18 24 26 22 21 19 19 17 17 24 22 23 14 24 22 19
17 25 20 14 18 22 25 15 16 26 18 17 25 25 26 23 15 16 27 26 28 34 35 40 36 39 52 50 51 54 63 58 57 56 58 60 48 53 49 47 45 43 30 36 19 19 28 20 23 16 26 21 20 24 25 21 18 18 14 18 21 17 14 20
20 25 14 20 22 25 22 14 26 22 17 24 23 24 23 20 14 17 15 23 16 18 32 37 33 41 48 50 47 46 46 45 48 55 55 49 42 50 40 44 40 34 20 16 26 22 24 19 22 25 15 17 26 26 16 20 20 21 16 21 15 17 14 20
26 26 18 25 22 22 17 15 26 19 17 23 15 18 14 19 14 23 14 24 18 22 22 21 27 29 34 45 46 49 46 50 51 48 45 44 46 33 30 30 35 20 28 16 17 15 15 25 21 26 18 24 20 14 18 18 22 24 25 17 22 21 17 20
16 25 24 15 18 22 18 16 24 15 24 18 16 25 23 20 17 25 15 17 25 19 16 24 25 30 28 30 37 34 42 33 41 45 37 40 34 30 37 28 23 20 20 26 20 15 24 14 26 23 23 19 20 25 22 26 18 21 21 24 23 26 22 22
14 18 23 16 26 18 17 15 20 19 14 18 21 16 14 20 19 21 16 15 26 20 22 17 21 27 24 31 33 27 36 38 30 31 32 25 28 23 31 21 15 25 20 14 26 15 18 24 17 19 19 25 22 17 25 15 16 18 25 24 14 21 21 16
14 20 19 24 25 24 25 25 25 25 15 24 22 21 21 15 19 14 17 15 17 21 22 14 15 22 18 25 23 19 26 32 22 28 24 26 27 16 20 22 19 23 21 14 23 19 17 17 24 22 23 16 14 17 26 17 18 17 22 15 22 16 15 18
15 26 21 24 16 14 21 18 20 26 21 23 14 23 23 26 21 14 18 24 19 20 23 24 25 25 19 17 17 17 25 27 27 23 21 18 18 17 24 16 20 18 19 21 14 24 23 15 19 21 19 26 18 14 16 23 23 16 17 16 22 14 26 16
14 17 16 15 24 17 23 16 18 19 17 25 24 21 19 22 24 14 15 23 15 15 21 18 18 17 26 16 20 23 15 14 20 25 23 17 24 24 19 17 15 14 19 22 22 14 22 18 22 17 17 26 16 25 23 17 19 21 19 19 23 14 14 26
15 21 14 19 24 24 25 24 23 15 23 22 20 18 19 22 23 19 22 24 16 26 14 25 26 22 26 23 20 25 24 18 14 15 16 16 17 25 23 23 22 24 18 21 20 19 19 24 21 20 26 19 24 22 16 24 15 20 15 15 24 14 21 26
14 25 21 25 20 14 20 19 25 19 15 15 14 26 26 24 15 17 16 18 24 23 14 19 24 15 15 15 22 26 18 18 21 15 15 19 15 19 25 19 15 22 19 16 17 25 17 21 16 18 19 14 14 19 18 17 16 23 14 20 15 22 18 14
26 15 25 25 26 24 19 20 19 19 23 20 19 26 17 16 23 18 21 23 22 24 16 25 20 14 17 16 17 15 19 21 17 18 25 26 25 19 22 21 22 24 20 20 18 15 26 22 26 18 14 20 20 21 26 20 21 19 16 22 19 15 22 19
15 15 20 16 18 22 19 17 20 20 26 21 14 15 20 20 17 16 23 22 24 18 17 24 20 20 19 14 16 21 22 22 16 15 22 15 17 17 23 17 23 16 17 21 20 14 26 25 24 24 22 17 20 15 19 24 26 21 26 19 26 25 15 22
18 17 22 25 17 17 21 18 14 19 23 18 17 18 15 15 20 23 25 23 15 24 25 24 22 18 25 14 24 14 17 21 23 18 17 21 18 15 25 21 17 25 16 22 23 18 16 21 19 18 25 15 22 21 24 25 17 14 26 23 24 20 26 25
22 17 21 14 24 16 21 15 19 21 22 20 17 20 23 14 16 26 26 19 19 16 19 24 21 26 19 23 20 14 21 17 19 19 14 21 19 26 25 18 22 24 18 20 16 26 22 19 24 22 23 22 14 14 21 17 25 14 16 22 14 16 26 19
26 15 16 26 14 24 16 16 26 15 17 22 26 25 25 17 17 16 26 24 23 15 22 15 16 26 14 22 17 23 15 23 14 20 17 17 25 16 19 15 23 21 15 26 19 21 26 22 22 18 25 17 26 20 17 17 24 18 16 14 25 19 22 18
24 22 17 22 23 23 16 21 14 16 26 18 24 22 22 25 19 21 15 18 23 26 26 19 25 25 24 22 18 21 24 14 21 23 20 14 15 25 20 26 19 19 19 23 24 20 26 25 25 25 15 22 17 15 21 15 17 23 19 20 19 19 21 16
15 15 17 19 21 16 20 14 17 17 18 21 23 17 26 20 19 16 26 20 14 15 15 25 22 17 16 22 24 22 19 17 17 20 16 22 21 18 15 22 18 16 18 19 16 14 16 14 15 16 23 16 14 19 15 25 22 21 17 26 18 23 17 14
24 16 22 14 19 21 22 24 22 14 14 20 18 24 17 17 23 26 20 14 24 21 16 14 25 15 26 22 26 15 14 15 26 25 21 21 23 16 14 18 20 18 22 15 15 24 24 22 24 25 14 18 17 22 18 17 22 19 21 25 19 14 16 25
24 19 17 22 26 26 19 20 19 17 15 15 18 15 16 20 23 17 24 22 23 14 23 21 16 20 26 22 16 26 24 20 24 20 21 19 24 25 26 20 14 22 18 20 19 24 24 25 22 23 24 23 17 19 18 24 22 14 21 20 22 26 25 22
