P2
64 64
255
37 20 26 26 37 38 26 23 38 21 36 27 31 37 33 29 30 37 30 29 32 18 38 21 35 37 31 23 24 30 22 28 33 29 26 18 19 30 25 20 34 34 28 22 22 21 29 31 31 19 34 28 37 24 33 38 27 28 26 37 25 33 30 27
34 26 22 34 28 37 20 24 30 26 33 31 22 31 22 30 25 29 34 23 24 35 33 26 33 21 33 37 22 29 24 18 18 30 25 27 18 28 29 33 35 31 24 23 35 19 30 29 37 18 30 30 33 34 31 36 25 29 19 34 35 27 21 32
23 33 26 35 27 26 19 38 31 19 28 36 24 26 27 36 20 29 32 38 21 28 38 19 38 32 34 35 20 21 31 30 36 31 25 33 26 32 20 32 20 37 34 23 23 31 24 24 34 26 26 30 18 18 35 28 38 21 30 36 38 20 20 22
30 20 22 28 26 20 18 18 18 22 26 20 33 20 28 36 29 37 35 30 30 30 30 37 32 30 25 24 24 21 28 32 20 26 32 29 31 20 28 23 23 38 22 38 21 22 34 34 34 28 21 33 29 31 22 35 24 22 30 32 18 26 29 22
22 30 31 21 31 23 31 18 28 38 36 18 34 29 37 26 37 24 27 27 29 24 27 32 34 33 27 19 19 21 34 26 21 25 24 25 36 37 27 38 23 21 22 22 34 30 27 21 34 31 34 27 33 28 31 22 20 22 21 37 37 27 21 18
23 38 18 35 26 26 31 35 18 28 34 37 37 33 37 29 20 22 30 34 19 21 36 24 37 34 37 38 21 36 21 26 21 31 31 31 23 27 26 38 23 37 38 25 32 27 29 37 31 24 37 26 37 20 37 20 29 36 31 21 31 24 35 27
29 22 32 32 23 37 24 20 19 28 25 20 30 19 20 22 34 28 24 36 23 28 27 34 37 33 37 22 29 24 21 19 31 18 20 19 35 24 34 24 31 32 22 27 30 18 22 20 35 26 33 23 18 25 28 18 19 28 26 37 32 36 27 27
29 32 20 38 32 25 23 29 21 37 35 24 24 35 23 24 20 24 21 36 34 34 31 25 35 36 34 18 27 28 22 19 31 23 25 26 25 22 36 29 31 23 29 26 23 36 29 31 23 29 28 37 33 22 31 33 32 33 38 21 35 36 36 38
22 38 38 34 34 32 31 21 30 33 24 18 37 24 26 23 33 36 24 37 20 27 36 20 19 25 29 18 27 28 36 35 27 23 18 20 35 38 24 19 20 22 34 35 32 27 34 19 26 29 19 22 19 26 36 24 34 21 37 31 20 32 20 33
19 18 28 22 18 35 34 20 22 23 34 29 38 29 28 34 36 37 23 18 36 32 28 19 27 31 34 18 26 25 38 35 28 34 20 20 38 37 19 19 31 23 34 38 26 35 24 22 36 34 18 30 22 37 35 18 27 26 36 38 31 28 25 24
37 28 36 19 23 22 34 29 27 19 23 22 22 27 35 21 38 23 18 32 22 27 22 18 22 38 18 22 36 33 38 28 28 19 27 21 18 37 32 28 19 30 37 27 20 35 30 32 37 34 32 28 22 38 19 28 19 23 31 29 38 23 37 38
20 33 18 33 37 34 36 21 19 26 30 18 32 25 22 24 19 28 20 23 28 38 18 33 36 24 36 34 31 38 21 35 32 35 21 20 32 37 37 21 26 21 20 36 36 28 18 33 34 30 18 26 22 22 31 27 30 31 22 25 25 33 28 35
25 29 24 18 22 32 28 28 23 26 22 30 22 25 22 25 28 30 22 26 22 35 25 22 24 22 19 31 38 37 38 23 20 21 36 37 35 30 25 30 33 26 38 18 18 31 36 30 18 37 34 25 23 21 34 34 36 35 33 38 33 30 22 20
30 26 38 25 38 38 20 21 28 25 28 33 25 25 37 37 25 18 19 32 30 35 37 29 29 35 32 22 28 31 21 28 37 20 35 35 36 35 24 29 30 19 21 33 35 22 28 24 30 32 36 36 21 35 21 37 29 34 36 26 20 22 31 29
29 29 25 20 18 19 25 33 34 31 21 32 31 27 32 31 24 31 33 29 32 18 26 19 20 26 27 20 20 19 36 28 28 22 20 20 21 25 24 21 31 27 38 36 38 35 21 38 22 32 36 37 20 22 27 34 24 19 21 33 21 21 27 26
32 26 24 20 38 20 27 20 19 26 21 32 33 20 22 35 35 32 23 34 24 28 29 20 19 28 20 32 23 18 27 29 31 29 26 28 22 20 28 38 37 26 32 24 36 27 23 36 20 30 37 30 33 34 29 35 25 26 18 20 25 25 28 21
25 22 28 31 29 27 33 28 36 29 32 35 30 23 32 21 28 30 31 18 23 32 38 29 18 21 18 36 24 23 34 29 25 33 20 33 20 33 24 22 37 31 21 38 26 32 21 35 28 33 37 23 32 37 23 36 31 35 34 19 24 20 32 36
28 26 30 19 19 33 30 30 38 38 30 20 25 31 32 19 27 25 26 28 25 21 22 24 22 25 32 28 28 26 25 32 21 23 38 33 23 23 24 37 24 26 38 25 26 38 28 32 33 31 32 30 29 26 34 18 32 22 28 24 36 37 22 25
27 31 33 33 34 38 35 20 29 35 21 21 36 38 20 19 29 32 21 26 21 37 38 25 30 31 24 33 34 21 30 26 26 36 26 21 28 30 29 18 25 28 19 21 33 36 21 19 20 20 37 26 37 27 20 31 29 27 27 18 27 34 38 19
33 25 27 30 38 18 22 35 21 19 31 23 36 38 30 28 20 33 38 40 34 41 38 35 40 22 29 28 37 23 25 32 22 23 18 31 33 18 32 22 22 39 35 24 41 37 30 37 19 32 24 29 24 35 26 29 26 18 35 27 18 31 23 27
36 21 37 35 36 21 34 28 29 37 31 26 23 35 33 37 39 35 28 28 35 32 34 39 39 26 29 21 32 25 23 35 27 36 18 24 19 30 39 26 32 31 27 37 29 33 42 32 29 38 36 20 36 34 33 31 37 35 37 20 36 31 27 34
26 21 28 37 37 33 38 35 27 37 25 35 22 40 33 28 41 34 28 33 43 36 48 44 43 43 31 24 40 31 18 28 35 20 32 19 39 27 39 45 36 47 39 34 33 38 32 39 39 38 29 31 24 23 24 29 33 23 29 23 24 27 36 23
32 28 18 32 19 25 37 26 22 27 21 23 26 38 36 31 47 45 38 46 50 48 33 41 44 44 31 40 31 32 21 30 22 37 32 25 24 29 43 48 46 50 44 39 35 50 52 35 32 40 42 29 36 27 19 38 38 25 18 25 21 38 23 36
32 30 31 19 29 18 38 30 35 20 35 38 29 40 35 49 33 43 45 42 45 37 50 44 36 40 47 43 46 34 30 32 35 30 40 28 43 49 31 43 54 44 38 39 55 50 43 43 50 33 30 37 35 25 21 23 25 38 26 24 19 24 30 20
29 23 20 34 38 19 32 27 21 23 36 35 45 45 38 36 54 48 41 44 45 60 47 52 56 53 46 37 42 29 36 33 33 35 35 27 41 35 42 57 43 45 56 51 55 51 51 53 40 42 50 50 31 39 39 26 37 21 33 27 29 25 32 29
31 31 38 32 22 19 25 37 38 33 29 41 32 42 50 57 43 44 52 55 56 60 62 48 51 43 43 37 47 35 33 40 41 35 41 44 49 38 54 43 47 44 59 53 60 51 45 58 46 41 46 50 46 36 35 28 21 31 30 18 33 34 28 30
32 37 22 37 25 37 26 37 30 35 25 45 37 44 46 60 62 55 64 50 66 58 58 50 49 46 41 51 54 41 39 32 36 38 42 36 48 52 46 60 46 51 68 65 62 48 65 46 53 49 58 35 37 39 31 31 19 20 34 30 26 22 35 23
32 34 29 21 22 36 29 31 37 36 39 49 51 46 45 55 63 50 58 68 59 71 64 70 60 62 54 52 56 52 35 46 33 31 45 44 56 51 49 57 69 70 69 54 54 68 57 56 65 63 49 47 50 35 33 44 26 27 31 34 33 26 37 30
19 30 36 28 26 34 29 33 37 40 38 46 39 44 47 54 60 57 69 59 67 66 61 64 71 63 58 49 44 46 44 45 43 46 46 45 42 59 53 67 57 65 63 58 67 71 57 61 64 61 49 39 45 43 47 25 39 25 28 24 24 37 20 22
22 28 23 32 25 24 20 27 37 38 33 52 42 47 54 53 60 72 62 60 74 69 74 63 54 54 62 45 52 46 43 43 43 42 45 38 61 60 55 56 73 76 77 75 78 79 76 56 64 53 50 55 46 36 45 41 41 19 37 27 33 35 36 29
23 38 36 31 22 31 32 37 36 47 47 54 46 54 54 70 59 65 61 71 74 78 64 62 74 56 63 66 58 47 50 45 45 37 47 49 47 53 60 59 68 68 71 75 69 78 69 67 53 56 54 58 39 35 50 28 42 21 24 29 25 25 21 20
32 27 36 19 22 31 35 23 25 44 39 46 58 47 57 69 68 69 81 86 87 79 84 76 69 62 71 50 62 51 53 45 38 55 55 40 62 61 51 73 68 63 83 71 81 74 75 76 62 69 65 47 53 44 42 46 41 37 29 27 34 34 31 34
36 35 24 24 33 36 24 30 40 36 46 50 41 53 60 52 59 67 67 70 89 83 81 65 69 68 65 53 62 41 44 46 53 54 57 54 46 64 63 55 70 74 67 89 74 71 68 75 61 60 47 50 47 39 35 36 37 27 25 34 34 30 28 31
24 26 30 33 38 24 27 39 39 42 43 47 44 44 60 60 63 72 68 79 81 76 83 75 75 74 54 54 50 57 39 41 55 44 50 59 62 63 66 58 77 75 75 75 77 81 78 70 56 52 56 60 53 46 46 45 44 32 22 34 25 32 29 28
30 20 26 24 35 38 22 32 38 36 38 45 49 55 63 53 60 57 72 65 66 81 73 75 75 67 50 65 42 52 51 45 52 53 50 38 55 61 65 70 75 76 69 78 77 82 76 61 73 63 47 58 58 45 51 38 34 39 34 36 33 30 31 22
34 28 24 34 38 28 27 39 32 28 36 52 53 56 58 67 57 58 64 66 77 72 66 76 56 68 67 63 43 53 40 40 34 54 48 53 44 52 50 63 71 68 68 63 77 75 65 55 59 63 59 61 53 50 33 33 33 36 20 20 38 20 33 33
22 20 34 29 20 24 19 33 21 34 42 42 45 43 56 53 68 57 59 58 63 66 58 72 66 54 56 50 57 36 35 42 50 38 48 53 53 54 60 64 71 65 72 77 69 67 70 55 55 49 51 59 49 47 47 26 25 37 34 33 27 19 36 32
30 24 29 32 35 35 32 36 23 30 43 40 38 49 57 44 52 59 62 72 67 59 62 56 56 66 51 43 48 34 30 44 36 34 35 36 48 47 49 59 51 55 57 62 72 70 51 49 56 50 54 57 46 45 46 35 24 32 24 25 20 22 38 20
24 21 35 25 30 25 19 38 35 29 35 33 51 36 53 46 53 51 47 53 65 69 51 59 51 44 54 57 38 33 30 39 35 39 43 49 40 56 49 44 49 51 55 52 55 57 50 48 50 48 51 51 42 29 34 39 26 32 34 31 18 29 36 30
37 32 29 22 22 33 35 25 28 26 31 33 46 46 49 54 55 49 63 61 59 56 56 64 52 51 47 49 47 51 38 42 31 45 40 52 51 60 62 53 52 52 70 64 56 68 61 51 63 51 41 39 50 51 33 29 28 39 35 24 36 32 34 29
42 42 43 34 32 45 25 29 28 32 40 40 53 50 46 49 48 65 54 60 66 51 63 65 59 47 45 59 39 50 33 44 41 31 35 44 47 51 60 55 49 59 56 70 69 65 62 63 67 58 51 42 53 38 44 42 32 47 32 36 51 42 33 37
33 45 30 30 46 30 35 31 30 40 43 46 51 45 60 54 64 63 57 54 61 70 56 58 50 57 54 54 45 57 44 52 51 47 38 47 48 56 52 68 67 59 65 59 67 62 54 65 68 55 58 62 59 42 48 46 53 39 56 41 46 41 51 39
28 31 28 38 37 27 34 41 35 25 39 26 46 44 34 53 56 45 47 51 54 42 45 45 44 52 38 48 43 37 42 34 29 27 42 41 47 41 54 59 54 59 57 61 59 52 46 47 42 39 51 47 40 30 41 48 33 45 43 38 45 41 42 31
27 22 24 37 35 30 40 26 25 32 41 28 38 34 27 40 36 44 42 51 46 39 33 46 31 36 37 40 35 36 41 37 24 36 36 25 42 47 42 41 36 44 41 43 34 49 51 45 51 37 38 40 28 43 38 27 27 25 40 42 32 41 28 28
30 22 27 26 34 35 37 19 26 20 29 33 22 36 31 27 32 31 29 26 32 32 35 43 37 24 24 27 35 35 20 18 28 21 33 38 25 36 22 42 40 32 45 35 38 37 25 38 23 29 38 27 35 20 29 27 20 32 37 19 23 29 28 27
36 35 31 33 38 37 18 25 28 20 28 34 33 35 30 23 22 28 27 34 29 25 25 26 25 23 28 31 21 25 33 25 32 18 21 20 19 21 31 19 26 41 29 41 23 40 26 34 28 18 21 26 35 31 23 34 31 30 33 34 24 36 33 26
22 31 20 32 29 30 33 19 25 38 30 25 33 18 37 20 18 22 25 22 30 27 25 33 22 31 29 37 33 38 24 35 21 31 24 18 35 24 23 36 20 38 28 32 26 29 35 24 29 31 35 38 32 37 28 21 31 26 33 28 21 33 30 35
34 29 24 30 20 28 36 27 18 20 35 25 26 29 35 20 36 27 28 35 20 23 31 18 29 35 18 34 26 22 38 22 31 28 32 28 23 34 29 21 26 28 29 23 31 25 21 34 26 24 18 30 34 32 29 33 31 36 23 34 28 28 29 22
20 26 33 34 38 31 34 25 35 32 37 28 37 20 34 28 24 32 36 19 35 25 26 37 26 36 35 33 37 30 34 29 25 32 29 36 26 26 32 20 36 25 31 25 21 36 22 30 33 20 32 27 19 30 29 19 23 21 23 32 35 19 25 38
35 37 38 18 19 37 18 20 20 23 26 32 31 22 20 19 26 27 18 34 28 24 21 29 26 21 38 23 20 36 29 32 34 36 30 30 33 21 34 38 23 34 29 28 20 34 38 31 38 33 21 29 27 36 31 33 18 35 35 22 28 26 24 22
36 23 25 18 35 28 26 29 34 26 34 30 28 24 18 38 30 18 28 19 31 31 30 21 24 24 24 20 33 23 25 36 21 36 33 30 19 20 23 27 25 33 22 21 26 22 34 37 33 28 32 32 22 22 26 28 19 31 36 28 32 18 18 21
21 36 28 18 19 30 21 19 30 27 18 23 29 33 38 20 23 36 22 24 32 36 29 23 37 33 31 19 24 33 35 29 32 27 25 29 33 30 35 18 19 20 28 33 23 20 34 27 30 27 28 23 38 23 37 25 36 29 37 33 22 25 28 35
27 19 24 30 25 37 32 31 19 24 30 20 33 19 31 28 30 19 24 38 22 35 36 34 27 38 35 38 22 31 18 21 26 33 26 21 29 31 31 31 22 30 33 32 20 34 31 29 38 25 20 26 27 28 28 31 38 27 37 38 31 22 35 18
33 18 30 18 25 20 27 21 30 30 36 19 35 31 30 28 32 34 18 22 25 24 29 36 35 37 20 35 29 25 24 22 37 27 23 18 38 28 25 38 35 35 28 18 38 18 30 29 22 37 23 35 24 30 38 38 19 20 23 27 26 18 18 38
37 34 21 32 19 24 33 28 33 29 34 28 23 19 38 30 38 35 37 24 34 22 29 30 30 37 31 28 23 25 26 19 35 30 22 27 25 26 33 30 35 18 37 34 34 18 21 31 29 35 36 37 23 23 27 23 38 38 25 34 20 35 33 33
20 22 33 37 27 34 22 29 22 31 37 37 37 19 24 30 25 31 24 20 24 25 21 35 25 34 30 38 27 29 29 37 31 28 28 28 25 24 38 29 19 30 28 26 22 20 36 24 35 31 25 32 32 30 25 30 26 37 38 35 33 27 25 29
23 28 25 24 31 26 19 35 36 20 23 37 33 22 18 24 18 26 28 37 24 33 20 26 36 37 19 31 34 35 30 30 23 28 31 21 36 34 30 33 24 25 32 21 36 30 36 35 27 24 24 37 28 33 38 26 21 19 36 18 34 19 34 24
20 21 34 30 20 27 26 30 23 18 29 37 32 38 21 33 33 20 31 33 25 27 28 30 36 18 25 32 34 30 21 25 38 32 24 30 36 20 31 30 23 29 20 34 20 26 23 25 24 20 34 22 36 35 33 36 33 31 24 38 36 35 22 23
19 18 30 37 26 19 37 38 29 31 32 22 19 38 31 25 32 26 23 27 26 18 27 22 31 25 30 21 37 26 19 25 32 23 37 28 22 28 33 18 33 32 28 38 20 34 36 26 26 26 18 32 20 34 28 36 35 28 20 21 31 24 31 36
34 25 30 20 20 33 33 20 24 34 33 37 32 20 36 25 35 18 20 33 30 23 37 30 26 19 30 36 19 33 21 35 35 24 18 33 21 33 18 36 26 18 26 19 23 21 38 29 36 20 33 23 33 27 20 28 31 24 33 26 35 28 26 22
36 28 23 21 38 31 18 18 31 29 20 34 26 31 18 36 38 30 24 22 30 18 25 21 32 31 32 30 29 31 26 37 25 26 26 27 36 26 19 31 21 21 28 34 36 22 36 37 32 29 26 33 33 24 38 21 22 28 30 22 33 28 24 28
24 37 38 34 38 19 31 24 20 33 27 33 28 24 31 33 23 25 33 34 26 37 20 37 31 33 24 38 27 30 19 37 33 32 22 32 34 18 27 38 28 32 35 24 29 38 36 25 29 33 32 29 25 31 28 32 25 19 22 26 23 29 23 23
36 19 21 30 22 27 33 24 35 23 31 35 24 18 34 20 38 30 29 29 34 20 22 38 30 26 25 20 28 36 35 31 28 37 19 28 25 22 19 32 19 31 36 36 34 34 31 27 24 25 25 26 35 22 23 33 26 26 27 35 22 25 35 23
21 19 25 28 23 30 37 37 24 21 20 29 37 20 34 33 21 31 27 37 35 34 24 18 21 36 34 26 23 36 32 20 19 31 22 26 29 37 34 28 27 33 28 33 18 35 28 34 30 25 38 35 25 33 32 30 23 29 23 23 37 30 37 22
