P2
64 64
255
33 22 31 26 19 20 37 34 30 32 30 19 29 23 18 21 33 34 25 36 20 19 36 25 34 32 24 22 19 28 21 37 38 27 35 26 31 18 23 27 31 30 30 24 28 20 33 19 19 27 29 27 22 34 31 38 35 21 23 31 35 19 29 27
34 31 29 22 23 24 31 19 25 24 25 28 38 24 29 32 32 20 31 21 30 23 34 38 19 20 24 18 23 19 27 33 38 28 32 18 35 34 19 31 28 18 31 36 22 23 33 18 30 24 29 31 38 38 28 21 33 27 18 26 31 28 29 26
28 31 19 25 34 18 33 19 23 34 22 25 32 25 27 31 33 33 20 30 19 20 26 36 25 35 32 31 22 28 32 35 22 20 36 22 30 32 29 37 20 19 23 20 19 19 30 26 32 33 22 18 24 25 29 30 28 22 32 37 28 20 20 20
25 38 18 30 31 34 36 19 18 35 29 29 29 38 19 24 22 26 20 29 29 27 28 34 33 36 29 30 23 20 21 31 31 22 22 18 24 29 20 38 18 24 24 29 31 21 32 34 31 24 19 24 29 22 29 34 23 23 30 37 34 24 18 31
18 35 34 18 28 22 35 26 27 37 30 19 30 25 32 30 38 31 20 21 38 21 18 29 21 26 25 26 25 27 21 31 32 21 27 19 30 34 26 20 36 19 33 21 27 30 19 25 24 32 34 28 29 29 23 19 21 29 20 37 31 25 26 29
20 21 25 23 23 27 33 31 26 20 22 31 35 30 36 18 36 34 37 27 18 28 33 36 34 21 30 21 35 28 27 19 19 20 18 36 26 28 25 28 20 38 27 33 27 29 28 33 29 26 33 23 38 28 25 36 20 28 25 23 28 18 36 28
28 18 27 33 26 25 21 33 23 34 18 38 26 26 25 22 19 37 34 18 31 35 35 20 21 29 19 27 27 32 30 24 20 24 24 26 25 33 31 30 21 38 32 36 37 33 22 37 24 27 30 23 37 32 25 29 37 31 29 20 38 24 34 24
21 25 28 34 36 22 25 27 29 38 26 21 24 29 19 22 37 30 37 34 35 26 35 36 22 37 21 27 21 31 24 29 37 25 31 27 33 26 37 36 26 31 30 23 32 27 30 34 25 36 36 27 28 38 23 38 20 34 30 37 31 33 37 37
21 30 34 34 28 22 35 31 20 29 30 32 28 29 28 25 27 22 31 21 30 26 24 26 20 29 18 34 37 36 36 22 26 29 28 30 38 34 38 25 32 21 19 27 28 20 24 19 21 18 22 29 19 23 34 24 20 35 28 34 24 22 28 24
18 25 28 30 30 30 31 18 31 21 32 33 18 21 22 33 37 25 20 22 36 23 28 27 34 30 30 29 25 26 30 35 19 31 32 30 28 22 25 32 30 27 26 20 20 24 29 32 30 29 19 23 23 23 21 37 31 29 31 23 25 29 29 35
36 33 32 36 29 21 18 27 18 36 36 18 19 37 32 21 21 35 38 24 25 19 33 38 27 19 34 30 22 22 24 37 37 35 36 20 33 27 29 25 21 30 36 22 38 19 19 33 21 28 30 22 34 24 27 31 19 31 23 18 19 25 33 24
20 18 32 34 36 28 19 24 24 35 27 38 37 37 36 28 35 23 33 24 22 22 26 33 18 35 32 21 27 34 21 18 24 24 33 35 35 25 21 24 23 31 23 32 32 22 24 20 36 36 29 35 30 36 35 32 29 18 31 23 20 21 28 33
35 28 36 21 28 25 23 26 28 32 25 28 24 20 38 25 25 26 38 37 27 25 27 36 21 34 31 24 21 31 28 20 38 34 25 31 27 24 21 38 36 18 35 29 26 33 36 34 29 29 26 34 34 28 38 26 32 30 23 18 25 24 29 29
20 33 37 32 26 33 33 33 22 28 36 20 22 18 27 18 33 36 18 25 18 23 31 23 38 24 28 34 29 22 19 31 22 23 34 34 29 28 33 36 19 21 28 27 28 27 33 18 33 32 18 28 26 36 24 33 33 38 32 29 29 35 28 21
27 34 20 38 31 36 26 19 29 28 21 24 37 34 24 35 19 34 30 23 20 18 21 31 30 23 35 19 24 35 18 26 24 37 33 19 31 22 30 34 33 38 18 25 20 18 23 26 37 31 34 29 21 28 21 23 33 29 24 21 27 38 25 29
33 32 30 35 19 34 34 30 37 27 22 36 33 34 27 20 30 21 31 25 30 18 37 24 18 30 36 21 22 36 38 22 19 29 35 23 33 25 25 23 33 24 20 22 33 22 30 25 34 38 21 27 26 32 19 29 28 27 27 38 38 24 18 25
18 33 27 38 20 31 30 29 18 24 21 27 28 29 25 18 26 25 28 27 23 32 34 26 21 34 37 37 36 35 30 27 30 33 33 35 23 29 29 32 35 24 28 21 30 27 27 36 32 19 21 28 27 33 21 19 19 23 31 25 28 36 35 30
35 27 36 37 27 36 20 27 23 38 36 31 27 19 23 31 30 24 35 35 35 20 24 21 30 20 29 34 37 30 37 26 26 32 32 37 24 27 19 21 29 23 26 21 30 33 24 21 34 25 24 18 18 25 20 19 37 28 34 19 33 22 19 32
20 24 20 35 37 21 37 35 24 31 36 18 36 30 25 32 26 20 21 29 25 29 18 23 24 37 23 18 32 32 23 36 19 31 19 37 29 30 36 25 31 29 33 31 26 23 21 18 31 20 31 34 29 29 18 28 28 32 33 25 18 37 35 24
22 35 31 34 23 37 31 36 32 27 20 25 32 21 34 29 28 29 21 33 36 25 27 40 32 36 28 26 33 26 37 24 38 32 32 30 23 23 19 20 25 32 37 34 28 33 21 20 39 35 36 23 26 23 32 33 21 24 20 25 36 20 37 32
25 34 26 35 21 21 25 27 18 33 33 18 31 21 36 40 31 43 35 36 44 34 40 28 24 23 22 38 29 38 35 18 38 19 32 25 24 34 39 37 42 29 38 44 27 38 32 31 35 24 22 33 26 23 18 25 26 38 34 24 27 31 29 22
33 28 36 32 26 22 24 23 37 30 21 36 22 35 33 28 32 34 36 40 34 47 42 32 32 37 38 25 33 23 35 22 32 24 103 36 37 30 34 45 29 28 47 44 48 36 30 40 45 33 27 28 37 23 28 33 35 18 34 18 31 37 36 36
37 22 24 26 31 23 32 35 21 18 29 31 35 35 36 35 43 47 41 36 39 53 43 38 41 34 43 37 33 31 22 29 27 29 25 125 33 31 48 50 44 51 34 42 53 47 47 39 47 38 44 35 38 31 35 32 37 25 34 24 33 24 18 34
31 21 20 36 21 20 21 27 38 29 29 33 36 47 37 49 45 36 39 51 40 44 39 38 47 35 45 47 30 33 29 34 35 26 116 38 119 34 37 34 54 36 56 37 37 52 48 44 51 38 43 47 43 35 33 32 31 30 25 31 33 33 21 29
23 25 24 33 38 37 37 35 21 19 36 34 27 41 46 35 52 54 59 43 60 55 53 54 40 55 40 32 45 40 26 33 19 118 32 33 128 33 41 49 51 47 48 49 44 55 51 43 41 35 42 37 35 24 38 32 29 35 23 32 34 28 18 31
38 33 28 35 33 38 24 22 24 38 26 28 44 47 45 58 51 47 49 53 45 52 57 44 62 41 50 35 47 115 46 41 22 111 35 134 43 52 40 52 52 48 59 58 57 53 47 59 45 47 39 40 45 46 31 20 29 28 34 21 25 26 37 32
29 37 32 33 38 34 24 21 37 38 32 48 34 39 54 53 52 45 51 65 68 51 68 57 64 52 42 38 44 119 40 30 43 125 131 50 55 39 55 61 52 56 57 68 59 54 51 63 54 43 40 46 51 39 35 24 18 34 24 21 33 28 27 27
30 36 30 32 20 37 20 19 26 43 30 44 37 49 42 47 66 53 51 60 53 62 62 70 69 49 48 47 51 127 126 41 28 217 33 46 48 47 63 46 54 66 69 64 62 64 61 55 51 52 52 50 51 38 42 43 30 29 32 37 29 24 27 22
26 19 33 20 19 36 19 26 33 39 31 51 53 48 60 46 51 59 69 59 72 71 60 55 65 54 64 44 142 134 43 49 41 216 32 47 52 55 57 63 69 57 76 68 74 64 61 62 49 56 49 56 45 48 49 45 25 38 33 28 19 30 19 18
31 36 24 33 28 20 19 23 41 27 34 54 42 43 51 49 67 75 70 64 80 78 59 75 61 59 55 49 213 51 50 37 41 223 126 43 55 61 52 70 73 75 74 71 65 76 57 64 67 67 52 56 55 52 40 27 31 34 27 29 25 22 33 19
36 36 36 19 35 22 29 27 37 27 37 37 54 49 65 59 60 76 62 71 76 82 74 66 57 64 58 59 215 49 41 45 56 40 218 129 45 56 61 62 75 73 75 79 80 83 63 60 73 55 53 52 41 53 51 45 26 24 30 30 36 30 18 25
31 22 33 37 33 18 18 23 38 28 31 45 43 59 66 71 69 78 70 74 70 80 77 66 70 58 71 229 43 45 44 48 47 220 124 46 50 64 62 70 71 73 67 76 80 66 64 67 65 64 56 46 54 48 49 27 31 39 20 21 32 31 38 24
18 33 28 20 20 21 26 35 30 32 41 41 44 60 55 63 65 69 82 81 76 77 84 83 78 55 138 150 46 44 44 45 43 219 134 45 46 58 60 71 75 64 87 81 81 67 74 67 56 56 47 43 41 47 52 43 42 21 21 28 26 27 33 26
28 20 35 19 20 36 24 33 42 28 48 42 55 59 55 66 66 64 71 69 72 70 80 76 74 71 221 61 60 45 44 37 43 132 123 136 58 59 59 70 65 62 76 84 74 78 72 74 61 57 56 57 48 36 50 36 37 33 35 18 35 32 37 35
34 41 40 32 36 41 23 37 32 34 50 49 52 47 56 65 77 64 79 77 78 80 81 81 78 148 73 138 60 45 43 45 49 43 129 215 55 57 62 62 74 85 83 73 78 86 78 76 81 61 72 50 63 63 51 45 52 42 33 33 45 31 37 31
31 35 45 40 30 33 32 31 53 43 55 56 63 56 65 72 64 79 75 82 83 82 73 91 78 83 249 71 61 63 56 54 52 142 224 73 63 65 70 88 78 82 78 97 90 79 83 92 80 71 63 64 60 56 52 61 56 54 42 58 47 51 39 49
35 48 46 38 51 40 48 41 57 46 53 64 65 64 65 74 77 75 77 89 96 96 95 95 84 159 84 166 77 59 57 64 74 63 245 74 73 72 80 87 84 95 95 104 103 84 81 97 81 84 76 84 82 75 72 59 62 54 58 52 62 56 56 58
53 52 57 52 49 59 60 45 63 58 61 63 69 75 69 80 85 86 94 94 89 95 86 82 170 82 92 165 84 65 77 80 69 72 148 247 91 76 79 96 104 96 106 98 107 108 98 105 84 82 93 79 79 76 76 79 78 75 73 76 64 69 77 81
41 50 42 37 51 48 42 40 53 57 49 67 59 69 71 72 81 82 86 74 75 73 81 74 166 70 84 78 159 68 65 64 61 69 242 66 166 84 72 90 75 79 85 80 84 79 77 94 91 89 75 73 71 79 60 60 68 58 67 59 56 61 63 69
41 47 42 32 43 48 34 32 49 39 47 46 46 49 68 53 69 68 60 69 64 72 65 145 67 62 74 140 57 57 58 45 44 51 141 152 135 64 72 69 77 65 76 82 72 75 82 67 77 75 72 55 62 58 61 45 54 55 55 57 55 60 42 42
27 26 33 27 28 25 31 26 40 33 33 34 49 53 55 43 45 47 61 59 57 66 137 51 65 64 54 46 128 40 33 47 39 50 53 210 138 41 52 65 48 54 51 64 67 51 55 59 60 61 61 56 43 48 36 31 29 45 35 45 35 49 39 44
33 27 36 18 24 29 29 36 23 29 20 40 43 37 39 34 51 37 55 53 44 41 52 139 46 41 34 48 127 36 38 37 38 28 113 212 46 31 50 41 42 54 49 51 49 57 50 36 51 45 34 28 41 26 38 39 21 39 30 24 24 30 29 22
19 32 35 36 21 28 27 22 29 37 32 36 38 38 33 36 36 37 49 48 45 51 49 134 35 45 32 44 40 111 35 28 19 25 109 126 118 42 33 30 36 34 42 33 46 34 34 42 32 31 38 32 27 39 18 36 33 23 38 18 26 34 37 21
19 21 38 25 19 26 24 22 21 25 19 38 22 29 29 27 38 38 34 31 38 43 37 127 31 41 33 41 35 107 33 22 28 121 25 194 25 34 25 34 43 29 33 42 32 31 33 27 42 24 24 34 23 27 27 22 35 24 22 29 33 38 19 23
19 28 25 34 18 25 26 26 19 21 29 25 38 22 38 40 30 25 33 45 33 28 34 110 30 41 27 39 107 25 33 23 106 29 36 112 122 20 38 37 28 44 35 34 26 34 40 28 24 33 25 18 36 30 27 24 19 36 29 26 23 22 32 27
18 37 36 29 21 34 38 32 20 18 22 23 24 27 38 35 19 32 37 27 30 30 28 116 26 21 28 107 30 36 20 26 109 36 21 36 109 121 20 22 21 29 30 39 25 27 21 29 30 30 20 18 20 20 30 23 36 22 30 31 31 27 37 37
35 34 30 34 38 25 20 33 32 35 28 18 30 37 33 29 38 38 33 24 30 35 25 32 113 19 37 29 115 36 29 28 115 33 35 26 30 189 23 38 32 34 26 20 27 34 22 24 33 34 20 29 27 25 38 32 35 29 28 24 32 20 21 34
37 33 23 20 34 37 34 28 32 33 32 19 37 20 23 33 34 33 25 35 18 32 24 23 23 108 25 26 36 104 34 25 20 103 32 38 111 117 23 21 18 18 19 28 35 21 29 32 38 35 33 35 36 36 38 19 20 26 28 20 34 22 31 31
28 33 20 18 38 30 25 26 22 35 20 25 18 32 29 24 21 31 30 22 33 22 19 29 24 26 106 37 118 33 32 26 105 33 20 115 107 34 30 35 19 22 18 32 33 34 33 19 32 21 26 28 18 22 20 36 21 22 30 31 20 38 37 34
24 34 19 33 18 30 37 21 22 27 25 24 28 35 27 26 25 28 19 37 35 24 27 34 26 122 21 33 103 30 35 21 38 115 31 23 198 26 29 27 37 20 31 23 34 33 25 32 22 18 33 24 25 23 21 35 23 26 34 23 19 20 19 37
37 20 23 20 36 36 18 35 18 33 36 35 30 30 23 28 38 23 21 38 24 37 32 30 30 38 121 21 104 33 37 30 35 22 104 34 18 197 32 29 24 21 18 34 30 36 28 32 36 38 23 32 18 29 21 19 23 20 22 30 21 38 31 28
31 30 34 24 18 38 31 31 36 29 23 20 18 27 36 24 21 20 34 27 20 26 33 23 25 28 37 117 28 117 28 30 29 117 20 28 122 105 24 37 32 26 28 34 29 32 36 36 23 31 23 23 27 31 27 23 32 34 38 20 28 20 30 24
22 22 26 21 33 27 29 24 27 38 34 36 37 19 38 18 37 29 21 27 38 22 18 34 30 33 27 114 115 37 18 22 122 32 33 18 25 106 106 24 35 37 24 19 38 38 30 26 18 18 38 32 22 18 38 28 18 27 23 24 33 31 37 30
24 37 32 36 30 18 30 25 34 35 27 26 33 24 27 21 28 32 20 28 32 33 19 27 20 37 28 29 104 117 29 107 19 37 24 29 119 35 36 38 36 35 32 23 28 28 38 36 30 26 34 37 30 29 30 18 24 18 33 22 35 35 34 35
37 29 27 30 32 33 38 31 34 36 18 36 20 23 35 38 25 24 34 19 37 35 23 32 31 31 21 32 205 28 122 33 35 33 30 18 108 28 30 36 25 28 27 35 18 28 38 35 31 35 31 22 34 18 30 23 35 29 35 33 36 29 37 31
34 20 35 25 33 24 18 38 21 38 22 37 29 30 22 20 34 21 28 36 19 33 18 19 24 18 20 104 115 29 35 122 18 38 35 24 31 21 21 19 20 25 22 20 34 26 20 30 23 34 21 37 32 29 31 38 24 32 28 21 27 20 28 26
24 23 35 18 30 20 21 23 35 33 23 21 22 28 32 26 27 30 32 26 25 25 18 26 33 24 28 36 119 115 108 32 27 22 24 37 23 22 34 25 24 21 35 29 31 31 34 30 33 37 23 32 22 21 20 30 36 27 25 28 36 36 29 18
20 29 27 22 20 19 21 31 27 25 25 26 34 32 37 34 26 22 36 28 37 30 22 33 20 29 37 109 33 107 27 38 37 36 29 34 25 29 29 29 20 33 36 24 29 24 36 29 20 25 36 23 23 31 38 32 30 22 23 25 28 23 36 23
31 28 35 37 25 22 32 35 28 21 31 23 20 31 21 19 21 31 30 38 21 24 30 30 25 29 121 28 19 23 110 32 23 29 33 38 22 26 36 22 36 19 20 36 27 30 25 23 23 36 19 24 19 31 31 33 19 30 18 38 36 26 26 24
25 36 26 29 30 27 30 27 19 29 36 32 18 35 27 23 28 29 36 30 38 22 19 26 25 24 21 35 38 103 27 29 19 38 21 36 20 30 24 28 18 23 35 34 35 24 26 34 19 30 31 24 35 38 30 31 32 18 36 35 35 36 19 27
18 20 19 29 34 36 20 35 36 35 29 37 20 26 19 30 26 32 32 18 26 30 37 23 34 22 20 21 106 28 32 23 34 18 34 27 37 33 24 27 35 29 36 27 35 22 29 25 18 21 22 22 21 26 18 21 32 35 30 32 34 31 32 27
20 27 21 26 32 33 20 24 25 37 30 22 33 22 37 27 31 32 35 20 28 37 34 38 20 20 38 24 22 26 29 27 30 29 31 28 20 19 35 21 38 18 34 38 34 30 28 32 38 30 30 18 34 34 19 30 32 31 34 30 37 24 27 26
27 35 37 23 34 37 18 36 30 36 38 28 27 38 21 20 37 35 35 37 28 26 34 38 36 36 23 20 36 24 27 28 26 24 23 29 25 29 19 30 31 24 33 19 34 35 28 24 28 36 31 31 18 29 38 20 29 25 35 20 20 18 19 19
36 27 32 36 21 32 31 34 21 29 29 31 19 36 30 29 34 30 25 19 34 22 26 24 23 23 22 27 18 19 20 19 29 28 29 23 34 30 20 36 21 20 22 34 36 19 36 27 32 38 18 20 36 20 20 34 38 36 24 19 37 23 30 18
