P2
64 64
255
29 34 26 19 18 29 28 26 18 38 29 37 18 22 31 33 34 32 35 22 20 32 24 35 19 21 18 29 24 25 28 35 30 23 29 26 22 35 32 27 20 30 18 24 18 36 34 35 35 34 23 35 19 26 26 38 33 33 31 21 36 21 28 27
20 22 33 21 28 24 35 29 21 34 29 35 20 19 28 37 23 31 36 21 23 37 36 36 18 38 37 26 35 26 27 31 28 23 31 35 30 23 19 18 24 18 38 20 24 18 32 26 26 21 30 24 35 23 26 23 29 33 23 23 28 18 26 29
30 35 22 23 23 21 30 25 24 34 31 30 37 28 19 19 21 21 36 33 21 27 22 32 37 34 25 23 23 27 30 24 35 33 29 23 33 29 23 34 27 32 25 19 37 20 29 25 20 22 25 35 27 19 27 38 34 33 21 35 25 28 22 21
35 38 23 20 35 27 20 20 23 20 37 37 27 34 24 35 20 21 30 31 23 38 18 18 36 34 21 25 30 23 38 27 26 30 30 31 18 31 24 28 31 22 22 29 27 20 23 27 26 21 24 20 19 21 36 30 18 21 28 31 35 35 26 32
24 28 20 21 30 18 35 18 20 24 34 35 19 18 26 19 28 34 26 31 19 18 30 28 37 19 23 31 31 28 21 37 38 24 20 18 29 28 37 38 38 38 28 31 28 24 18 32 33 31 32 21 28 26 30 35 28 35 38 19 25 30 19 23
35 22 38 34 33 20 19 23 31 20 20 35 24 31 37 34 32 26 37 21 23 35 36 30 35 28 23 20 36 24 26 22 22 25 19 21 34 28 26 19 20 34 33 34 30 34 33 20 19 24 21 35 38 27 26 21 24 38 34 20 22 34 20 20
27 29 36 28 27 38 36 21 20 24 38 27 36 36 18 30 22 24 29 30 23 23 34 33 28 26 21 36 25 33 37 28 25 18 35 21 24 32 20 32 22 32 29 37 31 37 25 31 20 22 19 18 36 26 36 25 36 33 32 28 20 37 38 34
31 18 23 38 28 20 21 21 24 18 31 20 29 18 38 30 21 27 36 26 37 21 29 38 38 26 38 30 20 34 29 24 27 29 28 37 33 27 22 37 18 19 31 36 33 37 36 31 21 34 21 25 35 29 37 26 31 35 21 25 27 20 31 19
35 33 24 24 23 38 30 37 26 26 27 24 18 29 21 32 33 32 25 36 22 23 28 24 18 37 33 31 34 26 19 22 34 38 35 29 21 25 21 35 24 32 38 24 24 21 31 21 38 25 31 22 31 28 25 27 26 35 19 31 24 38 30 23
18 37 32 35 18 38 22 35 29 19 20 31 25 36 37 32 21 29 25 30 36 38 27 31 20 31 18 18 23 24 23 30 37 18 29 25 20 22 32 20 24 25 28 34 32 18 26 38 35 26 34 21 32 25 21 34 28 28 22 23 19 26 28 18
37 22 25 23 28 31 28 18 29 24 34 33 26 36 26 19 35 20 20 36 19 37 32 33 29 28 27 23 33 32 22 34 29 23 27 18 21 24 25 31 22 31 37 32 33 25 29 19 27 23 21 24 27 21 36 38 34 31 27 20 33 27 26 31
24 26 18 35 26 20 36 26 25 29 22 24 26 24 18 23 24 35 33 32 32 27 33 23 20 29 21 38 21 22 22 33 38 24 19 28 19 24 26 38 38 28 29 28 38 37 38 24 33 31 33 19 21 31 20 24 26 32 32 27 25 37 35 34
38 27 33 31 35 31 24 22 28 35 34 23 24 29 28 30 22 36 28 24 33 22 18 27 26 37 32 26 26 35 33 21 21 22 29 18 23 19 31 38 38 20 28 23 37 37 21 22 25 19 34 21 23 29 28 32 30 36 33 25 20 28 26 24
37 26 26 32 22 37 35 26 36 20 27 28 24 30 19 20 37 29 35 30 19 33 20 37 25 29 26 19 33 35 29 32 37 25 29 36 25 22 25 38 33 34 21 20 28 36 24 28 18 37 37 18 33 23 38 18 31 36 38 24 33 26 38 20
19 37 25 18 26 28 31 31 24 38 27 19 35 31 23 26 32 29 29 25 34 19 22 26 28 29 24 24 25 19 20 33 33 37 33 38 26 32 18 33 22 28 25 38 36 27 21 18 20 22 32 27 20 27 36 35 27 30 38 19 27 25 37 26
38 32 36 24 33 27 34 23 19 19 22 28 24 34 21 22 29 26 34 33 21 22 22 27 27 19 37 21 24 29 20 18 23 34 38 31 38 34 31 29 30 19 38 26 22 18 31 28 24 34 32 22 36 23 27 32 23 19 22 34 29 21 21 29
37 23 38 27 21 21 19 30 30 35 30 30 23 35 28 23 22 35 38 24 24 37 25 19 34 26 32 28 38 24 19 25 20 34 35 28 29 26 29 20 24 23 28 24 32 37 37 24 33 18 37 25 36 29 32 36 18 25 29 26 33 36 20 22
20 19 31 21 32 28 26 21 30 21 28 28 37 18 29 32 18 21 37 20 31 23 37 29 36 22 32 19 28 18 25 33 34 21 35 29 31 18 29 37 31 32 26 20 31 19 19 21 27 19 28 18 33 35 32 38 27 36 19 26 24 32 28 22
32 37 28 34 19 22 36 30 24 25 32 20 30 34 22 22 27 24 32 36 25 21 26 30 33 27 24 28 18 33 37 22 36 20 33 28 36 36 32 25 26 26 24 33 30 26 33 33 35 32 20 20 22 27 38 34 35 35 25 28 21 29 34 29
30 29 23 38 32 27 23 30 31 26 32 23 18 30 37 28 21 21 40 36 41 32 29 38 29 37 23 29 33 21 30 25 23 23 29 28 37 21 37 37 38 23 39 41 36 41 26 25 32 26 37 26 30 18 21 30 32 32 26 32 33 29 33 30
19 23 33 31 32 36 19 32 18 19 36 33 37 20 37 27 31 35 26 45 35 37 39 27 36 25 31 27 37 18 37 22 28 28 32 33 31 33 33 23 28 34 34 39 29 26 29 35 28 37 19 36 26 35 23 18 20 34 31 22 37 21 18 22
25 34 38 30 19 18 30 23 27 18 27 26 36 24 26 31 37 41 38 34 38 46 30 34 37 42 42 23 25 36 36 22 22 36 36 104 38 31 26 46 43 37 31 47 48 32 35 44 38 25 27 41 34 20 19 34 28 29 22 22 28 26 25 37
28 33 26 18 23 24 28 27 27 29 30 20 32 26 31 33 48 49 47 46 38 46 38 35 48 48 38 39 42 21 34 26 32 34 25 116 42 32 38 50 39 45 48 46 44 39 47 34 30 36 28 35 32 29 37 24 28 20 35 32 18 23 30 31
27 32 26 25 22 35 35 18 25 29 33 35 31 43 48 37 41 50 42 44 44 39 47 36 35 33 35 47 32 33 108 37 23 24 38 125 37 34 32 50 41 47 41 42 38 40 55 41 36 51 36 41 33 24 38 21 36 20 35 21 35 18 22 35
22 37 28 34 36 19 30 21 23 34 22 33 45 41 50 49 54 52 50 56 56 43 55 56 47 43 39 41 32 40 35 109 25 35 120 35 44 47 46 57 41 51 52 60 53 41 46 40 43 53 50 37 39 43 32 19 38 32 27 37 38 35 18 38
33 38 20 32 27 23 22 29 19 20 30 39 36 45 38 50 59 61 54 50 63 59 65 58 46 40 58 38 37 36 38 32 206 110 41 34 51 35 42 55 56 46 58 58 47 57 43 49 43 46 42 44 39 27 43 35 37 37 36 30 19 24 35 32
18 26 35 37 37 23 26 26 35 28 37 45 36 40 42 43 59 53 67 64 57 68 50 62 45 45 42 51 50 39 48 114 125 28 118 34 54 57 44 49 60 61 60 54 67 63 62 58 62 50 43 45 39 39 31 37 30 37 18 21 36 26 27 25
25 38 38 19 26 28 26 30 26 40 27 47 45 52 49 56 62 49 56 69 66 55 63 53 62 48 46 41 55 46 127 125 48 124 39 128 48 59 46 52 51 65 71 64 56 67 55 50 47 58 55 41 54 36 31 24 24 21 26 24 38 19 25 20
34 26 36 30 31 29 22 21 22 29 42 51 36 47 53 64 56 69 59 62 77 67 69 72 67 59 57 50 50 124 32 48 120 131 50 128 44 57 49 68 56 67 69 71 71 64 74 67 61 50 58 48 38 48 38 25 24 26 33 27 34 24 20 29
23 25 28 30 19 26 25 21 40 42 33 41 56 59 61 63 55 64 75 78 79 70 71 61 72 64 62 54 41 55 137 47 121 128 37 218 53 57 61 62 60 76 61 77 79 71 72 58 62 49 51 60 49 51 46 43 40 38 34 30 29 30 23 30
20 25 30 34 25 37 34 33 36 38 39 48 50 61 53 61 67 71 65 77 66 67 81 62 58 55 61 59 56 39 56 123 133 49 217 139 58 61 50 73 74 69 75 71 68 78 61 61 63 52 56 60 46 53 31 46 37 20 35 21 28 38 22 22
25 32 38 21 28 19 30 20 30 41 51 46 51 52 57 52 72 70 64 78 78 70 66 67 77 71 51 48 54 41 131 53 50 250 47 43 142 53 52 55 65 79 80 78 69 69 78 78 71 55 49 46 52 42 42 43 40 24 30 18 22 26 23 19
26 24 34 28 38 28 33 25 42 38 52 48 44 60 67 59 62 78 80 80 74 86 85 72 73 60 55 64 61 46 124 52 38 217 137 52 137 51 61 63 77 67 79 76 81 68 73 65 70 56 54 59 41 50 42 32 31 36 28 32 33 28 31 18
21 33 22 25 20 32 36 24 28 29 33 36 59 55 66 68 56 78 71 76 86 73 84 82 64 64 59 66 47 50 51 131 37 126 225 124 61 65 71 59 78 62 80 82 71 73 67 59 69 70 53 62 42 37 44 29 35 28 36 30 34 24 32 29
40 38 38 28 42 34 40 37 36 40 38 60 45 61 63 64 64 64 67 86 87 70 70 73 73 59 65 59 65 52 62 129 62 129 221 57 138 63 73 63 67 82 73 82 86 82 75 81 81 76 69 54 65 56 46 37 48 30 40 38 27 37 43 35
31 47 47 35 41 41 39 31 50 52 58 63 61 69 75 64 66 76 88 81 74 77 74 86 88 80 75 65 61 72 64 63 223 55 225 149 60 60 77 70 75 80 94 95 95 80 89 80 87 79 82 70 76 57 50 47 52 53 50 56 53 54 46 45
44 53 43 52 43 39 52 35 48 49 50 59 59 69 68 83 87 74 91 92 79 93 90 77 77 88 86 74 77 62 61 146 142 71 160 231 66 83 82 82 81 84 98 95 101 99 88 82 80 79 75 78 84 79 78 66 62 58 60 66 57 67 58 60
50 57 42 54 60 52 49 62 46 63 70 60 66 77 68 70 84 85 81 82 85 95 92 100 94 95 93 84 70 78 62 163 160 71 63 168 242 78 94 91 99 94 104 99 93 98 94 92 97 83 84 78 93 70 84 66 73 61 71 61 60 69 74 75
40 44 42 54 45 38 45 39 54 57 58 61 68 70 59 76 76 73 71 89 87 77 74 82 74 85 80 62 77 68 72 67 149 148 72 160 162 152 78 72 89 81 89 97 81 78 92 93 79 78 72 73 68 76 75 55 60 54 53 70 67 57 57 62
32 31 44 46 30 37 39 50 47 47 51 50 47 61 55 71 68 65 78 60 77 75 67 68 58 68 59 56 68 54 43 143 130 48 47 53 230 149 73 69 78 72 77 71 74 75 74 65 66 79 57 72 63 54 57 62 60 54 57 58 50 61 42 61
30 29 38 25 28 31 25 37 28 45 36 45 54 45 55 50 61 58 52 52 51 60 65 65 52 58 49 55 54 47 120 32 29 133 38 133 130 126 51 47 65 51 51 62 63 56 54 65 62 48 60 42 42 38 49 41 35 49 46 36 34 47 41 39
19 29 25 20 21 34 33 23 32 24 19 23 27 32 48 39 46 55 38 56 54 50 46 36 55 49 40 34 28 25 27 111 26 39 111 128 115 133 37 36 54 50 48 41 53 55 55 45 51 43 46 43 28 30 20 27 22 26 33 33 37 29 20 29
33 26 26 19 28 27 38 36 23 20 38 37 36 36 38 28 45 35 50 38 42 48 49 42 33 30 43 32 37 39 20 111 37 33 123 205 29 38 123 47 44 49 51 43 34 47 43 38 35 32 44 40 38 20 23 32 34 37 30 35 21 21 34 23
29 21 35 20 19 36 21 21 35 29 18 28 24 29 36 26 40 36 47 49 35 44 35 41 40 36 38 35 21 23 27 38 115 37 105 114 114 33 120 40 32 42 42 47 44 47 47 39 37 33 28 36 23 22 33 21 18 37 29 37 36 27 37 20
37 32 26 25 18 34 36 29 36 21 38 31 30 26 32 38 33 42 26 28 30 27 35 35 33 22 40 29 34 38 25 21 34 110 108 118 23 112 41 127 30 27 29 36 36 43 29 33 37 39 19 36 38 19 24 26 32 36 28 38 30 37 29 33
32 31 19 29 33 21 27 19 24 24 31 29 37 27 28 28 39 36 40 38 26 29 25 26 39 35 38 31 33 33 27 32 109 22 112 22 190 22 24 27 119 24 35 39 23 27 30 30 31 29 22 30 35 18 26 36 26 20 37 30 33 33 38 35
34 25 23 28 27 23 21 26 26 25 35 21 27 30 21 26 24 32 32 33 36 36 38 18 18 18 28 29 30 24 32 123 22 31 36 199 118 25 18 114 21 24 18 25 32 36 18 24 32 38 33 22 35 35 23 19 18 18 26 32 23 22 33 31
26 27 20 22 24 28 24 38 28 32 34 38 19 23 28 21 27 36 28 36 26 19 26 35 19 29 32 24 34 27 28 109 28 32 206 27 109 21 108 31 38 27 35 34 38 30 25 33 27 38 33 25 38 20 19 34 27 32 20 26 32 36 31 19
30 25 37 26 31 21 31 29 19 22 27 26 26 33 28 19 25 20 19 27 19 25 27 28 31 24 18 35 30 19 25 106 27 104 118 21 115 21 29 117 24 37 36 19 22 32 26 27 38 37 36 23 23 24 21 20 32 34 34 18 19 32 19 27
26 35 20 21 20 33 18 36 19 19 32 25 36 22 18 38 31 28 24 36 27 36 28 32 28 21 19 38 22 28 106 28 31 205 36 104 32 34 20 119 25 28 32 36 26 35 38 33 29 31 32 20 30 18 38 32 30 24 38 18 32 38 38 37
21 33 27 33 26 25 24 38 21 36 35 31 22 18 30 33 29 29 37 36 28 37 37 19 38 18 37 30 35 22 27 116 121 32 118 22 112 19 117 31 25 34 22 22 19 35 18 25 31 21 27 23 18 36 26 37 21 25 18 38 23 34 23 28
22 36 37 30 21 35 29 20 30 37 20 27 19 37 28 19 30 31 34 23 18 19 25 26 30 18 33 20 37 37 122 31 118 29 104 21 30 193 37 32 28 23 37 36 36 33 23 36 24 34 29 35 28 31 29 32 21 28 21 25 34 25 33 21
25 28 21 29 18 36 30 33 26 24 23 19 25 21 21 24 38 22 38 37 23 18 19 32 33 26 22 26 25 23 107 27 36 191 22 34 120 113 27 36 33 35 38 27 27 32 34 28 37 26 29 35 31 23 25 20 21 30 18 37 19 34 27 33
27 26 30 27 34 30 35 30 23 32 33 32 22 33 29 38 24 23 31 25 38 33 18 36 23 25 28 38 38 36 27 30 117 20 116 105 20 28 105 30 29 35 38 38 33 22 23 23 33 24 24 24 29 35 19 20 26 28 27 33 32 23 21 27
25 33 32 37 21 38 29 23 31 26 33 31 27 18 32 18 26 19 38 36 29 22 23 30 31 34 35 19 28 36 35 122 22 38 116 109 29 34 116 32 24 30 29 21 32 38 27 22 38 29 23 20 27 22 33 34 30 28 34 26 23 32 34 34
24 34 18 19 25 22 27 30 33 23 37 36 34 37 37 37 18 35 30 28 38 28 23 19 31 37 38 34 23 32 19 20 32 37 123 108 31 31 37 114 36 26 35 22 26 33 33 31 30 33 18 22 24 31 27 37 26 30 26 29 22 37 38 25
20 23 32 33 35 24 29 23 26 32 25 22 21 30 30 20 34 23 27 26 35 34 24 18 32 23 26 28 27 24 23 24 34 31 25 200 20 21 25 103 33 23 35 30 25 22 31 20 31 25 32 27 34 35 21 20 35 35 20 21 38 25 27 29
24 29 18 36 24 21 20 25 23 31 34 31 30 35 26 23 28 31 27 35 31 35 37 24 26 31 24 25 20 22 37 26 34 35 38 22 106 23 35 122 30 26 30 20 31 19 36 31 24 20 19 22 34 22 29 30 27 33 35 22 35 33 28 19
23 25 38 20 23 23 30 20 33 35 23 29 21 37 34 33 27 35 28 25 22 27 38 18 27 31 35 32 22 19 18 23 18 29 25 115 20 34 107 30 37 26 21 28 20 28 18 36 28 25 38 19 36 21 27 32 33 23 27 32 38 35 20 19
36 30 33 29 21 27 20 36 38 36 29 20 36 29 37 38 37 32 21 25 25 18 27 25 36 26 21 36 34 35 34 27 18 38 20 25 120 30 30 20 38 18 27 34 22 27 29 37 21 32 22 26 31 25 20 38 38 31 18 24 30 26 29 24
24 19 21 22 18 34 30 24 21 35 35 25 32 24 27 31 37 26 35 29 37 24 26 36 18 31 25 36 23 22 32 26 21 30 35 22 109 38 18 37 36 25 23 26 18 19 38 20 18 25 21 23 37 31 36 32 32 24 29 33 20 22 38 31
25 22 18 19 28 29 27 19 36 29 29 25 21 30 19 36 35 33 22 24 18 27 30 18 38 38 33 38 27 37 34 31 25 22 36 32 31 18 37 22 29 32 18 29 28 35 31 21 38 20 32 35 38 37 18 27 23 18 20 32 36 21 22 37
33 36 32 20 28 23 32 21 29 20 30 37 35 37 19 23 24 36 38 31 23 38 21 36 22 38 29 31 23 26 29 22 37 22 21 18 26 23 20 18 25 25 31 27 19 22 29 25 23 26 33 38 21 19 37 37 22 38 31 34 37 22 37 18
19 32 19 32 29 38 24 28 29 36 24 27 38 27 35 33 20 31 23 34 21 20 33 34 34 18 36 26 36 32 30 24 35 32 38 24 21 25 37 22 32 22 29 22 21 34 18 30 35 31 37 33 29 18 35 25 25 24 36 20 18 22 23 27
