P2
64 64
255
24 14 23 20 19 15 15 18 26 18 15 18 24 21 26 19 18 24 16 23 20 21 14 17 23 21 24 25 25 17 20 24 26 20 20 15 15 16 23 14 16 25 26 14 17 17 20 26 22 25 18 20 14 26 20 15 19 25 17 24 19 24 20 17
17 18 16 15 19 21 24 16 24 23 22 24 20 16 14 17 18 17 18 22 19 24 15 18 21 20 20 25 17 17 26 25 20 16 14 15 14 26 24 22 26 21 20 23 18 17 15 23 18 21 18 21 15 26 20 17 17 24 25 15 24 23 21 25
14 24 19 26 26 16 14 20 22 24 19 18 14 16 23 17 20 23 21 25 25 23 26 18 18 23 16 24 25 26 18 19 16 26 23 19 17 21 25 20 18 16 21 15 20 20 25 22 26 20 19 21 24 22 23 22 24 24 15 21 21 18 16 26
20 24 24 24 15 20 25 14 23 22 17 24 19 25 18 18 26 22 18 18 18 21 20 14 19 24 15 17 22 20 24 22 17 15 26 22 21 17 15 25 24 19 23 18 16 19 15 22 19 23 19 14 21 19 21 24 25 18 20 16 26 19 18 16
26 23 24 25 16 22 22 25 16 22 16 16 20 22 25 26 22 25 24 14 21 22 26 21 15 17 23 20 23 24 22 26 26 16 18 22 17 26 22 19 16 26 15 23 25 15 20 24 21 14 17 22 19 25 24 21 23 22 23 16 26 15 26 16
23 22 16 23 14 19 18 18 24 19 17 23 17 18 16 22 22 24 25 19 17 21 18 22 15 24 22 22 22 16 23 26 14 25 21 25 20 22 17 18 22 26 24 15 25 26 23 17 25 16 23 21 26 24 23 25 20 25 23 14 20 24 14 20
20 24 18 19 15 19 22 19 20 24 23 14 25 26 23 15 24 20 17 24 18 23 21 24 15 20 19 24 23 18 24 15 26 24 19 22 25 22 26 16 18 18 15 19 15 25 16 18 16 17 26 17 25 21 23 23 20 21 23 17 22 24 26 21
16 14 17 21 14 21 21 18 17 24 14 25 25 22 14 25 20 26 23 24 23 19 14 25 22 15 25 15 18 18 25 14 22 25 20 23 26 14 26 21 25 21 23 25 21 22 21 21 24 19 17 18 26 14 25 16 20 14 16 22 17 18 25 14
20 26 17 20 25 26 22 14 17 25 14 24 26 23 21 15 23 25 18 23 22 20 26 14 23 22 22 25 15 16 26 23 20 18 14 16 14 21 14 23 19 17 26 24 23 22 20 16 21 23 24 24 21 22 19 14 18 19 26 19 19 17 18 15
26 22 14 26 20 16 15 24 14 15 24 19 23 23 24 17 26 21 14 24 15 22 21 26 16 26 22 23 20 14 18 21 25 15 18 15 22 23 17 23 24 22 20 18 20 18 17 20 26 24 25 21 24 16 19 21 26 21 16 19 18 24 20 24
16 18 23 19 19 22 21 21 20 17 26 20 15 26 21 14 22 18 19 24 26 26 20 16 16 22 19 21 19 16 20 19 16 22 17 19 23 15 24 26 20 21 23 17 16 16 17 23 26 25 15 26 16 24 18 22 21 20 22 17 23 22 24 20
19 25 23 25 19 18 23 25 15 24 23 26 17 20 20 25 21 21 25 19 24 14 17 14 14 18 19 16 14 23 14 26 24 15 15 24 16 26 16 24 24 21 15 26 18 20 17 14 23 22 19 22 23 20 14 25 25 24 18 15 20 16 20 24
14 25 21 18 20 19 26 22 24 23 23 15 19 25 22 14 15 17 25 20 25 18 19 26 20 19 26 17 22 19 23 16 15 21 24 14 23 20 26 24 18 14 17 21 23 17 21 25 20 24 21 21 22 17 25 15 19 26 14 17 14 16 20 24
20 25 20 17 22 20 14 22 21 18 17 19 17 16 21 14 20 16 15 25 17 20 18 24 16 21 14 24 24 24 14 20 15 25 26 16 18 22 21 18 25 21 20 20 17 20 21 23 24 16 21 19 23 16 21 22 20 20 22 26 23 24 18 14
16 26 19 23 21 15 21 14 22 21 22 14 16 25 14 17 25 14 17 18 23 22 24 16 22 16 20 26 19 17 19 25 26 21 20 23 22 22 25 22 23 21 17 20 22 26 24 20 15 26 23 21 22 16 21 26 25 15 22 17 25 20 22 18
14 14 20 26 23 21 16 21 19 23 14 22 17 20 16 20 14 20 17 17 21 25 23 18 14 23 18 26 23 17 24 17 18 22 21 15 22 19 16 26 24 18 22 26 24 16 20 18 24 24 16 22 20 24 23 25 21 22 15 20 21 22 14 15
23 22 21 26 18 17 16 21 22 21 21 24 15 18 18 16 17 23 16 17 20 20 25 14 25 18 16 16 15 20 20 20 15 20 25 21 22 22 18 17 21 23 17 24 17 15 14 26 24 14 18 15 14 26 21 17 24 23 14 25 26 14 19 16
14 19 22 23 18 19 18 23 16 22 15 25 19 23 15 19 18 17 17 21 17 25 20 15 24 17 14 24 25 16 22 22 23 23 22 19 18 16 22 23 23 16 19 25 17 20 16 22 18 20 24 18 20 25 24 16 21 15 18 23 19 14 19 22
21 19 21 15 18 18 16 25 23 17 24 25 17 24 19 23 19 24 17 26 25 14 25 23 16 19 20 21 22 18 16 24 22 25 16 21 21 14 19 19 19 22 20 21 26 20 21 23 19 15 14 24 25 20 19 16 23 16 20 23 26 20 15 26
24 21 26 15 20 15 19 24 15 25 15 14 21 24 18 24 15 23 21 23 19 28 19 25 19 21 19 18 19 24 17 25 21 16 23 22 14 23 25 26 27 24 18 24 23 19 26 26 27 17 23 20 24 22 18 16 17 17 20 26 24 24 22 22
19 22 17 18 14 23 18 17 14 19 21 23 18 22 18 26 27 27 28 22 29 24 32 25 27 18 18 15 15 17 16 17 20 22 25 14 24 20 29 20 29 28 32 30 29 22 23 24 27 29 17 23 18 20 14 19 24 20 26 25 14 19 26 23
23 14 25 21 21 21 23 18 16 22 19 16 22 18 24 27 31 31 32 33 33 26 34 25 33 26 24 19 19 16 20 18 24 20 16 26 28 26 26 33 26 28 30 32 33 30 28 28 26 23 24 28 22 16 19 19 21 16 17 22 20 26 15 19
14 16 15 16 19 18 19 17 15 18 15 15 29 24 23 30 27 30 33 38 40 34 40 31 38 29 33 28 28 17 21 23 22 26 18 22 20 34 27 38 28 37 38 34 33 32 40 31 30 24 25 26 27 23 21 21 20 20 15 21 16 26 15 23
23 14 16 19 22 23 15 21 17 17 16 25 30 30 37 29 40 43 36 41 36 35 39 32 37 32 36 31 26 27 19 21 14 19 21 25 28 28 38 32 43 41 43 34 45 34 35 35 34 39 25 24 30 18 19 16 15 21 21 16 22 24 23 19
14 16 18 24 17 17 14 25 24 22 18 30 32 35 33 32 40 45 43 43 44 47 47 36 37 43 38 37 27 25 27 24 23 21 21 31 27 35 33 41 46 44 37 42 42 45 46 41 34 43 28 35 35 24 17 22 19 18 14 16 18 15 14 26
21 25 19 22 26 14 15 14 16 16 24 23 38 29 40 46 43 40 47 47 42 45 52 41 48 37 34 36 34 25 27 31 21 28 26 32 29 40 34 43 50 48 52 45 48 48 45 45 39 44 40 34 28 26 22 16 19 15 23 19 21 26 26 14
20 26 19 25 24 21 20 20 22 19 25 26 38 36 38 39 50 46 50 47 50 57 47 46 53 46 45 41 36 36 27 23 32 23 32 34 38 36 43 44 48 47 51 54 50 55 54 46 43 39 44 34 35 31 23 26 24 18 15 18 20 26 14 24
14 23 22 19 26 14 26 23 19 31 24 27 36 42 49 40 50 57 54 54 51 59 52 49 45 49 49 46 44 34 27 30 29 32 30 30 43 39 43 54 55 50 51 49 57 58 56 46 44 48 37 39 30 39 34 22 26 22 21 23 15 24 25 19
23 24 19 15 18 14 20 20 26 31 33 29 32 36 39 52 54 58 53 62 54 53 52 62 49 50 44 50 41 37 38 32 33 39 39 34 45 44 42 46 56 52 59 63 54 54 58 56 53 48 50 42 39 36 35 32 27 21 21 20 17 17 19 18
19 18 15 16 21 20 25 18 23 23 36 34 34 40 45 51 55 56 59 60 60 69 67 56 58 50 52 41 44 42 42 31 31 30 38 43 37 46 55 59 51 56 63 67 66 67 63 52 58 55 51 38 41 30 36 31 20 24 23 20 20 18 24 20
17 15 14 14 21 14 19 27 20 27 28 32 39 47 47 46 50 61 64 65 66 70 61 68 58 51 55 46 42 46 38 33 41 44 40 41 47 47 50 57 53 58 71 64 63 67 62 53 54 48 44 39 43 35 33 35 28 27 16 15 16 26 23 19
15 24 21 23 25 25 16 21 28 26 36 36 43 42 53 49 51 60 68 63 73 70 61 70 66 56 51 54 47 38 34 38 43 35 40 43 40 46 47 52 64 59 62 66 67 70 58 61 57 56 51 45 40 33 35 28 21 17 16 26 21 18 17 19
15 24 16 20 25 23 19 21 31 29 35 38 39 50 52 52 54 63 66 70 74 70 68 66 60 62 59 44 42 44 37 43 41 40 41 42 46 44 59 56 59 64 75 66 79 75 62 57 54 49 53 41 40 34 29 26 24 18 17 24 15 26 15 23
20 18 22 22 26 16 14 26 29 33 28 43 45 44 52 47 51 55 58 71 67 64 73 62 58 51 52 44 47 41 44 44 36 35 44 36 44 45 47 54 54 62 64 70 71 67 58 57 54 53 54 43 46 33 39 32 30 18 15 17 17 25 18 17
18 22 14 24 18 18 25 24 29 29 34 37 34 50 52 58 54 56 67 71 69 63 67 60 57 51 51 50 46 35 44 44 42 43 34 43 49 43 46 60 63 63 66 72 63 64 66 63 57 50 42 50 45 41 37 24 20 22 20 18 19 18 22 17
17 19 21 17 22 25 17 20 27 28 31 38 34 43 44 56 59 51 60 63 69 63 59 58 60 57 45 41 40 42 40 38 37 34 30 41 46 49 46 56 50 58 65 61 67 55 56 52 58 52 43 47 43 40 31 29 29 26 14 24 23 20 26 25
25 17 18 16 15 23 20 14 19 30 27 32 38 47 42 54 55 49 58 57 58 58 57 58 51 47 51 46 35 43 39 28 38 29 37 39 41 49 43 45 52 50 63 62 56 54 56 54 54 44 39 46 38 33 27 23 23 25 21 20 22 20 14 16
18 17 15 22 22 18 16 24 20 29 24 38 32 36 44 41 50 45 59 49 55 54 59 47 46 49 51 42 41 34 38 25 24 25 32 42 38 36 40 45 52 48 53 50 56 59 55 46 53 45 40 45 41 34 23 29 18 26 24 24 24 24 18 21
15 18 21 23 14 21 19 17 18 30 31 33 37 36 38 49 49 49 45 51 49 49 45 50 47 41 48 39 35 28 34 32 23 30 31 38 31 43 47 50 53 49 52 55 55 53 54 50 51 40 44 31 37 29 23 30 22 14 17 20 24 16 14 16
18 24 27 24 26 21 25 21 22 22 29 37 35 43 42 43 52 43 52 46 45 56 47 45 51 43 39 46 38 33 27 27 30 30 27 39 34 47 46 48 49 56 49 52 51 52 51 48 42 47 40 42 42 29 30 33 22 28 28 21 26 30 24 32
22 29 25 31 25 31 33 29 24 28 24 39 34 43 45 43 45 54 52 49 53 57 49 48 47 54 43 38 41 32 40 28 33 31 39 35 38 38 47 44 49 58 52 50 53 51 57 46 45 47 44 42 42 41 41 38 26 33 29 38 36 39 33 38
27 36 31 26 25 26 36 27 25 32 32 32 37 38 47 49 44 45 52 52 46 54 54 46 56 46 47 49 38 40 40 37 34 34 39 42 45 43 52 54 48 58 58 49 54 60 48 58 53 54 46 43 46 44 43 33 37 44 43 32 42 41 39 36
25 32 26 24 32 27 27 22 22 23 32 29 33 39 29 39 43 42 41 39 40 43 49 38 44 39 38 40 35 33 26 31 31 24 34 37 33 33 41 43 44 49 46 39 40 50 45 46 42 40 36 32 37 37 29 36 38 27 31 32 30 31 34 34
23 23 17 20 25 24 24 19 27 22 17 22 23 24 32 34 26 32 29 41 40 40 41 33 34 38 32 26 32 19 18 20 30 25 18 27 26 35 36 36 35 37 34 40 31 34 33 28 35 30 35 34 25 22 29 21 21 26 22 28 20 21 20 31
26 16 20 26 16 22 16 23 24 16 22 26 24 14 19 17 20 32 23 29 29 27 31 32 28 25 26 18 26 18 20 15 21 19 14 18 23 17 21 20 32 22 30 23 26 29 24 25 24 17 19 18 23 21 16 20 25 21 15 21 21 18 18 18
24 24 19 25 20 22 23 26 18 24 14 18 20 19 19 17 15 24 20 20 27 21 23 27 19 27 19 14 23 26 22 23 17 18 23 18 16 21 14 15 23 28 26 27 29 26 22 20 24 26 14 21 19 15 21 18 18 17 25 16 23 25 21 22
14 18 17 22 21 19 19 25 14 14 23 15 22 14 25 20 22 20 15 21 26 20 16 15 26 21 15 17 21 17 19 26 26 15 16 21 17 17 19 22 14 18 24 24 26 17 23 20 14 24 21 25 14 24 26 21 19 26 21 17 16 18 21 20
25 17 17 20 15 26 26 15 25 14 16 26 20 18 23 15 23 14 26 14 24 14 22 15 26 16 18 18 19 18 26 17 26 18 21 24 16 23 19 16 22 17 17 20 22 18 24 18 17 24 16 19 16 19 26 24 19 14 17 24 19 18 26 19
26 25 18 18 23 14 26 22 22 15 21 26 15 16 15 22 23 17 26 20 16 17 25 17 26 18 14 24 22 17 18 16 15 23 16 20 26 18 14 17 22 23 16 19 21 14 24 15 18 26 20 21 15 18 20 23 25 17 18 24 19 22 20 19
15 16 19 20 16 26 22 15 21 17 23 25 22 22 16 17 14 22 20 17 24 14 21 18 16 20 23 25 23 22 14 19 15 26 20 24 26 17 22 24 18 20 16 20 21 20 21 16 14 15 25 17 19 14 19 19 20 14 26 16 23 17 19 18
22 18 17 21 16 18 22 14 17 22 26 15 14 17 19 20 22 14 26 16 14 15 23 21 22 16 18 26 25 25 22 14 23 14 14 20 23 25 25 20 14 16 22 19 14 18 18 26 20 25 18 17 17 24 19 16 19 22 26 14 23 24 20 15
17 20 19 15 25 16 18 19 21 17 21 26 16 22 23 21 14 19 22 25 19 25 20 24 22 20 20 23 17 22 14 18 20 18 21 18 26 25 17 22 15 17 17 23 24 20 15 18 21 24 23 26 23 15 22 25 14 22 14 16 17 24 15 23
17 14 22 15 15 17 23 20 17 22 14 15 16 16 20 19 23 22 23 25 20 26 14 19 26 26 14 23 21 15 20 22 26 22 14 23 19 21 21 18 15 14 22 23 23 21 24 26 19 16 20 14 21 14 21 14 26 16 25 15 26 15 16 15
25 17 24 14 15 14 24 19 21 22 26 21 20 25 23 20 20 20 26 19 18 24 21 15 25 22 25 21 20 21 15 23 18 16 15 20 26 18 18 21 19 18 26 21 15 20 23 23 22 18 24 24 14 24 24 21 20 16 21 17 22 16 21 19
26 26 26 20 25 17 15 22 24 18 22 24 19 20 25 22 26 15 22 15 14 25 17 18 17 20 15 15 23 20 22 23 26 20 22 16 19 22 15 17 14 15 26 16 24 23 24 20 16 23 18 17 22 20 22 21 16 17 14 20 18 20 20 16
17 14 17 14 22 17 22 17 23 18 20 25 26 20 25 23 16 26 21 23 20 18 14 26 20 25 24 15 20 16 15 14 25 20 14 17 14 26 14 16 16 25 22 21 20 18 15 25 23 24 19 15 14 19 16 14 19 21 16 26 19 24 25 15
23 15 22 22 25 25 21 24 18 22 25 17 23 20 19 22 16 21 21 19 25 18 26 22 19 24 18 16 19 18 19 20 21 26 15 20 22 24 25 22 24 24 26 14 15 26 24 19 22 18 19 16 18 23 16 21 25 21 15 23 20 14 26 23
14 25 16 14 23 14 19 20 17 16 17 26 23 14 24 25 18 22 22 17 18 14 23 25 21 17 21 17 17 21 18 22 25 18 23 26 14 19 24 16 17 23 17 14 17 17 16 19 14 25 26 19 17 16 15 22 22 14 26 26 14 26 23 20
17 22 18 23 18 19 19 18 26 17 18 22 19 19 18 23 14 22 20 19 18 26 14 15 24 19 19 18 14 22 20 21 15 18 24 21 24 26 21 14 24 18 26 20 24 24 20 18 21 14 15 23 22 23 24 14 17 21 21 24 20 19 22 14
20 17 18 15 19 21 21 24 20 17 14 23 16 21 25 25 19 24 19 23 25 23 14 18 14 23 25 25 24 21 15 21 16 16 20 19 14 16 14 19 26 23 17 17 25 16 18 17 18 21 22 18 15 25 24 17 16 15 20 23 26 24 23 15
18 21 22 14 21 21 25 18 26 24 25 21 16 24 15 20 19 21 26 17 16 26 25 24 24 21 24 16 18 17 18 16 18 25 14 14 21 26 16 14 19 21 24 15 19 23 14 19 26 16 23 15 25 25 22 22 19 19 26 25 14 14 19 19
26 24 14 18 20 22 19 18 22 23 18 20 17 21 26 16 20 19 16 19 14 22 16 22 22 22 21 25 19 20 16 19 25 15 15 22 16 20 19 16 24 26 26 26 14 19 26 18 19 17 22 15 16 26 26 14 17 25 23 22 20 22 17 21
14 17 24 22 25 24 25 24 25 17 15 14 16 21 21 25 25 26 26 18 21 21 25 20 18 22 24 24 15 22 20 22 22 20 24 14 19 15 25 25 21 22 15 25 19 26 19 18 18 17 23 16 26 25 26 21 16 25 19 14 14 18 17 24
26 19 22 26 15 16 17 15 16 22 22 23 16 23 24 19 18 19 23 23 18 19 22 16 17 23 19 22 14 16 15 17 25 15 16 15 26 14 22 22 15 26 17 20 15 26 26 17 21 19 23 26 24 24 15 19 14 14 25 16 26 25 15 22
