P2
64 64
255
23 26 38 38 31 35 38 18 36 18 37 25 21 28 20 35 31 38 25 23 25 19 20 31 29 38 23 35 30 32 35 29 25 25 21 26 20 23 31 25 19 24 27 18 31 34 25 29 33 30 37 21 35 34 18 38 38 35 23 24 26 35 26 23
27 27 38 35 29 37 27 35 26 33 18 32 31 20 22 25 22 31 19 18 23 25 24 23 22 33 38 33 22 38 20 20 29 26 32 31 31 27 37 30 28 18 32 24 22 20 38 26 34 38 34 20 30 34 27 25 27 38 35 19 31 25 22 21
33 28 20 32 18 38 27 22 32 21 32 31 28 29 30 31 21 32 36 32 27 25 28 27 34 36 23 19 23 37 25 27 37 23 33 34 36 35 37 27 37 26 36 31 22 35 20 20 28 34 26 22 37 29 26 33 25 20 26 23 22 25 22 33
23 28 21 28 26 20 36 21 20 28 22 19 36 36 35 36 29 30 22 38 24 36 19 31 25 23 24 18 25 33 32 34 27 36 24 32 28 37 38 19 20 35 18 34 21 35 22 28 20 26 28 22 29 34 20 24 36 29 19 38 20 27 34 32
23 32 33 30 21 37 32 25 22 34 27 37 19 21 37 37 30 36 37 22 22 25 26 35 33 27 25 20 28 36 38 21 23 24 20 37 37 29 33 27 30 21 37 38 20 36 25 33 30 37 18 31 19 22 29 38 38 25 37 34 18 23 32 34
30 33 24 38 34 22 28 35 19 37 36 24 37 37 21 33 22 36 24 33 34 19 31 32 21 23 36 31 30 28 18 36 18 27 37 23 20 31 34 19 29 27 22 21 25 36 28 18 26 22 21 37 38 37 28 32 30 26 18 21 24 33 24 35
37 32 35 22 21 37 26 33 27 23 33 28 29 25 28 30 31 26 33 24 38 20 27 19 35 31 29 24 20 32 29 21 32 30 21 24 35 32 24 25 33 26 23 21 25 24 23 23 18 31 38 38 19 22 31 22 37 37 28 25 38 32 37 27
37 23 30 22 24 37 37 23 35 36 35 27 18 25 18 37 36 22 34 30 21 38 31 20 31 33 29 24 34 30 35 30 29 30 22 29 20 31 38 28 38 19 33 22 20 19 25 38 22 30 20 24 23 27 18 32 35 29 23 37 29 32 30 33
35 27 36 33 38 38 33 27 27 19 32 31 32 38 22 22 31 38 24 27 30 30 35 28 34 27 20 32 22 26 28 32 20 33 34 36 36 24 29 32 23 23 25 30 32 23 25 23 28 29 32 37 19 35 25 25 24 35 20 22 38 28 31 38
32 36 18 34 32 32 32 34 28 27 24 21 35 32 18 21 38 20 37 29 19 19 36 27 38 23 21 19 37 28 21 20 33 34 23 21 20 22 38 18 22 30 32 34 27 25 21 34 24 38 32 28 24 23 22 29 33 25 20 23 28 30 35 33
34 24 29 34 26 25 22 38 20 32 30 27 21 32 18 35 18 30 25 35 22 20 32 35 27 30 20 23 29 31 26 28 34 23 35 35 32 23 22 33 18 20 32 30 32 28 21 23 36 38 37 22 36 27 33 31 22 38 34 25 34 30 29 30
21 24 25 38 31 35 30 22 31 38 36 29 31 38 22 35 24 28 19 25 21 37 28 22 31 32 25 23 34 36 19 31 29 36 22 20 24 20 31 33 38 38 36 26 37 24 21 24 35 32 18 22 31 27 37 32 38 35 23 28 26 22 26 35
37 35 23 20 29 34 18 28 18 32 36 25 35 23 24 27 25 33 33 28 33 36 20 29 21 21 20 33 22 27 33 36 22 34 32 33 27 19 35 31 36 23 38 27 26 34 38 38 34 25 23 34 26 23 23 34 18 25 37 19 30 18 29 22
27 31 19 29 33 20 18 32 28 38 33 21 19 33 29 24 22 19 22 21 23 18 29 25 19 34 22 29 33 37 29 22 35 26 19 35 30 26 28 31 24 33 36 19 27 22 30 24 25 38 33 25 21 24 30 26 35 31 34 27 28 21 22 24
22 34 27 22 22 28 24 32 30 33 22 28 38 19 25 33 22 32 33 21 29 25 29 22 20 35 31 37 33 27 35 26 37 38 19 20 26 31 32 37 32 32 33 37 19 23 23 20 31 37 23 28 27 27 32 27 33 19 31 37 30 19 38 33
29 33 18 23 23 33 29 37 28 31 23 24 22 30 24 35 24 22 22 31 25 29 23 19 22 21 33 27 25 25 35 34 38 23 33 38 33 26 20 34 18 18 27 24 18 20 19 24 24 28 25 33 20 31 37 18 22 33 35 27 32 22 38 29
30 31 21 21 38 38 25 20 32 27 26 28 30 30 34 26 20 21 37 30 30 31 38 25 25 30 25 27 35 20 19 30 19 32 28 32 19 37 21 26 28 18 21 22 31 37 21 18 24 22 18 25 22 26 33 36 28 38 37 21 19 31 22 38
18 31 37 31 23 28 23 24 18 21 29 37 19 31 30 21 34 23 24 38 29 20 23 29 34 34 21 20 37 31 31 22 38 25 25 23 30 28 25 37 29 28 21 32 25 22 20 23 35 31 35 26 29 19 37 33 22 24 23 23 30 27 30 31
35 24 21 27 26 19 29 38 33 32 21 22 18 22 33 29 37 20 27 37 26 25 22 26 19 28 32 35 36 38 33 38 22 20 38 20 21 26 34 20 20 26 19 32 35 30 30 33 18 27 34 32 31 29 19 33 37 31 24 28 37 23 23 22
36 23 24 27 25 22 26 25 27 26 36 26 20 35 36 29 29 23 22 23 25 32 39 33 22 39 18 23 27 32 28 19 18 25 30 34 19 30 22 39 39 34 23 36 29 29 24 27 37 32 25 31 26 23 23 22 23 19 38 24 29 29 37 30
21 20 20 20 32 31 23 25 28 31 21 26 29 31 25 24 36 28 34 33 33 45 39 26 27 22 22 39 36 18 23 27 31 38 19 32 24 28 34 28 31 36 29 39 40 39 44 30 38 30 22 34 21 34 33 31 31 22 38 27 23 30 20 29
27 21 26 28 20 18 19 25 18 29 19 19 30 28 29 33 28 41 36 39 30 35 33 46 45 42 24 30 26 32 26 27 115 35 31 20 30 31 34 33 45 40 42 32 45 46 43 38 39 24 31 34 26 19 34 25 23 23 22 38 38 33 19 23
20 23 25 28 31 30 23 22 36 37 29 34 36 34 38 41 35 46 32 45 48 41 46 37 33 47 34 44 37 27 27 21 107 28 38 30 42 29 43 45 41 50 39 35 41 39 35 41 48 48 43 38 22 38 21 36 25 32 22 28 27 18 33 38
26 30 35 26 34 20 26 21 29 35 27 37 35 34 29 44 33 55 51 56 44 50 53 47 48 40 35 39 30 33 39 27 19 109 110 41 41 48 38 40 38 41 48 43 57 40 55 51 41 50 45 38 37 35 21 34 20 37 22 21 20 18 23 20
20 29 35 27 24 19 23 37 22 20 38 36 32 36 39 53 41 51 48 53 51 44 44 53 40 49 49 36 30 39 32 37 19 198 28 38 43 35 39 50 41 41 46 59 53 61 55 46 54 43 52 49 45 39 23 25 27 34 30 24 37 33 23 36
21 34 38 25 23 21 38 18 25 34 38 33 34 38 47 50 43 61 63 61 65 65 52 53 52 41 38 54 44 126 35 32 122 43 113 43 35 50 53 57 49 48 53 48 58 54 45 58 42 51 38 49 44 35 36 34 22 36 31 20 38 24 23 34
22 34 38 36 28 23 34 38 31 27 45 44 33 38 44 43 47 60 67 54 50 57 63 47 63 45 47 48 51 49 122 129 44 44 124 44 40 49 52 58 58 62 54 51 66 48 49 53 50 51 53 43 33 46 43 36 37 36 25 20 18 38 37 26
18 23 18 38 25 19 29 19 27 40 43 36 50 43 45 49 61 57 56 59 61 60 54 51 59 65 61 48 46 128 126 43 114 34 122 35 47 44 43 59 64 59 63 55 68 69 58 60 52 47 51 41 47 37 46 24 20 21 31 38 20 33 34 33
20 20 33 20 28 19 24 22 28 44 36 35 37 47 55 46 64 72 57 72 59 67 72 62 65 69 65 62 46 47 215 44 36 120 124 39 59 50 55 53 56 73 60 71 69 74 71 70 59 54 56 55 54 46 45 45 24 37 38 27 37 32 21 37
37 23 21 36 19 34 31 33 37 28 50 41 41 59 49 58 55 75 60 71 63 68 66 62 62 70 59 52 51 46 38 215 129 43 35 216 58 59 65 62 55 57 78 71 63 64 75 73 59 61 60 50 52 46 48 30 33 22 22 18 33 28 28 23
30 34 25 20 37 33 21 32 39 42 48 44 44 61 47 70 64 58 62 76 75 71 73 74 69 72 54 63 59 54 56 125 208 51 52 227 59 47 53 55 76 61 65 72 75 80 80 71 60 51 65 61 49 51 39 44 30 36 34 28 38 24 27 38
28 21 34 32 21 26 30 39 36 44 49 39 57 60 49 55 60 66 78 75 84 82 84 69 67 67 71 53 43 59 135 124 46 121 216 49 56 65 70 73 64 62 83 75 73 79 63 73 71 59 56 61 59 40 34 44 43 26 24 18 24 35 33 31
22 32 21 33 33 26 18 32 42 32 37 37 44 46 62 68 72 72 83 76 81 70 85 83 61 66 66 57 60 41 38 223 46 125 140 125 61 63 53 56 70 77 85 70 84 70 77 76 66 71 64 47 44 52 50 28 44 22 20 28 20 34 30 30
35 28 25 33 27 19 35 27 35 28 40 45 42 59 61 58 58 66 81 81 86 82 85 65 67 56 51 53 44 45 126 129 51 121 47 221 46 55 58 67 77 79 72 75 81 76 74 73 58 62 62 46 54 42 50 33 27 33 33 37 38 36 30 26
27 27 36 36 33 31 32 31 41 52 38 40 47 48 69 66 59 75 84 74 70 82 84 85 65 70 72 54 63 46 47 132 133 128 217 59 51 69 68 66 71 70 86 80 86 74 70 81 77 60 63 63 63 45 40 40 46 47 47 32 39 45 32 27
48 39 43 34 44 49 43 41 51 58 43 62 49 53 66 64 84 70 78 86 81 84 88 78 88 75 63 71 76 70 152 147 51 139 240 69 76 75 78 83 73 90 96 80 85 78 92 85 74 86 68 61 76 64 68 65 56 58 39 44 50 43 42 52
35 35 54 52 40 55 54 49 44 63 47 55 67 67 76 65 71 79 78 85 96 83 82 77 74 75 68 74 65 159 57 63 159 153 148 163 78 83 89 85 98 94 84 99 104 93 92 89 91 82 88 72 82 71 59 75 58 57 68 61 64 49 67 69
42 48 45 43 48 43 61 62 53 48 68 69 67 69 74 79 74 76 88 98 89 82 82 92 93 80 81 82 169 69 70 76 145 161 70 154 174 82 77 94 100 87 108 90 95 91 94 87 95 98 99 78 82 83 82 78 69 64 71 67 74 64 60 67
45 40 47 49 45 48 38 47 44 61 60 68 53 70 75 79 70 78 83 89 77 91 83 80 80 78 67 74 66 151 59 144 71 71 154 161 158 76 84 84 80 93 97 97 86 95 81 89 75 81 89 68 67 76 71 61 62 69 54 53 59 58 56 61
46 47 50 47 45 49 50 34 49 51 56 40 55 66 61 57 66 66 62 72 79 74 76 73 61 68 66 55 68 136 52 128 49 146 140 150 70 72 75 68 66 68 79 72 83 79 78 69 73 64 65 66 59 60 47 48 55 42 50 40 54 58 58 44
41 44 41 32 44 42 33 44 37 33 47 48 34 41 42 57 50 60 49 59 58 51 58 56 55 50 45 52 139 38 44 35 130 129 125 46 141 46 48 54 48 70 57 59 51 60 50 51 49 51 48 53 43 36 47 43 35 42 37 49 35 46 43 38
34 38 38 30 35 37 29 35 35 18 34 39 25 32 38 36 35 40 53 48 52 43 46 56 43 48 46 120 31 28 38 22 113 106 39 213 36 43 46 35 41 41 55 49 46 55 46 46 49 42 35 28 26 27 20 32 19 19 24 24 34 24 33 21
18 27 31 29 20 21 19 38 32 18 24 30 39 39 33 34 33 39 50 33 41 37 52 50 44 36 34 118 26 34 20 122 37 24 119 106 110 32 31 33 47 32 47 53 44 47 36 38 31 41 37 33 28 39 29 35 24 19 19 37 36 36 33 24
19 37 22 26 33 35 27 21 21 36 25 37 25 21 27 24 42 33 28 29 41 48 32 31 44 32 112 29 24 26 109 20 20 28 115 28 199 34 25 29 33 28 29 31 43 41 42 41 39 37 24 37 31 32 35 24 31 26 35 19 22 28 28 27
18 32 31 24 24 18 36 23 22 22 32 38 31 36 29 30 29 31 35 39 29 44 31 28 42 126 23 20 28 23 38 115 33 26 107 109 35 121 35 37 34 38 28 35 45 35 28 33 34 32 24 35 24 18 30 34 38 34 36 35 37 33 36 36
30 30 34 19 34 18 35 27 35 28 29 33 21 35 36 26 33 25 33 28 28 31 41 37 35 120 30 33 32 32 111 32 24 20 26 105 113 18 118 31 39 30 22 34 38 27 39 33 39 36 29 35 18 18 29 28 19 30 26 27 18 35 29 36
36 19 25 24 25 23 27 18 24 37 37 18 34 19 22 26 22 27 35 32 21 19 18 33 29 37 104 36 33 117 23 18 38 23 109 24 104 24 114 19 38 37 28 33 33 34 38 25 29 28 24 18 30 26 28 23 37 34 20 18 34 31 30 20
19 19 28 31 32 31 30 27 23 29 31 30 25 28 21 31 36 33 29 36 34 21 25 29 26 18 18 121 26 24 116 18 18 107 33 36 111 34 116 31 21 35 23 18 38 28 29 35 25 29 23 33 21 27 36 26 18 30 22 28 19 21 27 20
27 31 24 26 33 18 26 32 35 27 37 32 28 32 32 35 26 21 27 31 36 27 25 33 37 18 111 30 34 24 115 21 23 27 106 32 25 116 111 30 23 31 23 18 38 31 37 33 31 32 29 37 21 27 27 22 35 36 18 26 35 25 34 22
38 30 30 27 25 23 26 27 24 28 27 26 32 18 29 20 36 38 20 23 34 21 26 32 28 23 114 29 22 36 31 114 25 22 32 110 106 36 106 23 20 38 30 36 37 33 37 25 28 32 36 18 31 32 35 27 21 24 26 23 28 32 32 18
31 38 36 21 27 34 26 19 27 20 28 19 26 30 21 19 35 18 20 27 19 21 18 19 23 36 29 120 21 30 36 38 112 24 21 105 20 117 35 115 34 29 33 34 24 31 22 19 25 32 37 38 35 27 37 18 36 19 21 28 19 23 21 31
24 31 32 24 32 35 28 22 18 26 36 29 22 28 33 31 33 38 37 35 18 33 29 32 38 21 26 32 107 19 21 28 33 119 28 33 113 110 29 35 123 34 18 30 26 37 27 29 36 38 31 33 24 27 22 30 35 20 23 29 32 19 29 36
22 22 38 28 34 27 32 21 37 26 19 19 28 34 29 19 26 21 36 37 27 21 18 23 18 25 29 31 107 22 32 25 118 35 26 20 38 207 22 116 27 34 18 35 38 23 30 24 25 34 32 31 27 30 19 25 23 37 32 23 26 26 32 19
27 25 37 31 32 28 38 26 35 20 24 22 29 24 20 35 28 21 18 33 23 21 18 21 28 19 33 120 24 38 22 32 37 25 18 30 107 114 18 121 18 23 27 27 37 38 18 19 27 23 27 38 35 37 30 36 21 31 29 18 28 22 36 33
31 31 25 22 19 36 18 23 25 36 28 23 38 38 37 21 19 24 38 19 26 22 31 36 19 21 35 21 122 27 18 21 36 26 20 18 36 106 189 19 23 27 26 23 38 35 19 32 26 22 29 28 38 38 20 38 29 36 35 22 34 37 19 34
20 37 19 27 27 24 23 34 30 28 29 29 35 21 24 32 29 34 36 27 28 18 19 34 34 19 37 19 113 28 32 27 29 37 28 35 110 22 20 105 24 32 30 19 20 34 20 37 30 25 29 38 28 26 35 31 20 34 25 21 18 38 20 33
23 36 18 32 28 37 23 37 19 19 37 36 21 28 26 28 37 34 37 21 20 26 29 37 27 22 33 32 30 119 32 24 19 36 29 33 24 107 23 118 30 30 25 37 25 21 23 32 26 29 19 18 35 38 29 20 25 29 32 34 21 38 26 28
19 35 30 36 27 27 34 28 35 21 24 34 19 36 27 28 26 28 36 33 34 21 25 37 20 18 26 23 32 105 30 20 35 25 26 24 27 32 29 18 122 35 31 35 27 33 27 18 24 26 25 28 25 37 28 25 32 22 30 38 34 22 28 34
25 22 26 38 28 29 23 18 36 19 21 36 37 35 38 37 30 21 34 38 34 38 29 21 26 38 25 26 31 33 105 21 33 32 31 36 23 19 27 19 119 18 35 29 25 31 21 26 23 20 33 27 22 20 21 20 31 32 27 23 38 36 28 32
27 24 25 33 36 24 29 32 34 35 26 19 28 18 33 21 23 33 34 37 26 25 22 28 23 35 20 24 35 35 32 30 24 37 28 30 33 25 29 110 33 37 32 31 26 37 29 38 32 24 33 19 35 18 26 25 35 18 37 25 29 32 18 20
36 26 20 37 35 25 30 30 29 23 38 37 23 19 22 28 38 21 24 25 26 33 27 37 30 20 29 33 37 27 36 34 21 37 19 20 37 34 31 29 108 27 30 37 32 26 36 21 33 33 35 30 19 25 37 22 31 35 36 31 19 26 26 27
33 29 36 33 36 31 22 23 23 28 37 27 19 22 24 33 29 36 26 21 21 20 34 30 31 30 19 30 32 21 19 23 19 20 21 36 34 20 36 21 18 28 30 37 26 22 33 18 29 37 33 36 31 28 38 29 24 25 24 21 21 32 22 33
31 27 25 26 37 26 25 31 21 29 20 25 18 29 19 34 28 35 26 30 21 23 24 28 19 22 32 20 36 25 38 19 28 30 28 37 24 34 23 25 22 31 34 32 25 25 25 36 33 20 26 38 30 20 28 37 22 34 18 21 36 18 33 29
33 34 30 21 24 31 33 36 35 38 22 24 29 25 20 29 32 29 34 35 29 38 27 29 21 24 33 29 18 19 20 38 23 31 27 37 28 36 25 29 30 25 27 29 24 36 22 36 32 24 22 20 37 22 22 32 27 33 26 31 38 29 26 19
