P2
64 64
255
20 27 36 32 20 25 37 18 19 27 23 22 35 21 38 37 35 28 18 23 23 30 26 32 19 34 33 32 25 31 27 28 22 37 34 34 27 30 27 28 34 25 28 29 25 32 21 19 34 24 34 26 38 28 30 27 28 23 20 33 21 20 24 35
27 18 29 32 21 27 20 24 35 20 36 37 22 35 28 24 23 23 21 30 22 36 31 33 35 31 36 34 36 38 29 24 18 24 18 19 38 32 29 38 19 22 31 32 37 28 22 37 28 28 27 28 31 29 21 35 35 27 27 19 29 27 32 33
22 35 37 27 35 28 37 36 25 34 29 29 28 23 29 38 29 31 35 21 24 19 37 19 36 38 20 23 32 28 36 22 18 24 38 27 20 36 35 37 18 21 30 22 19 28 37 36 22 28 29 29 24 19 29 21 32 35 37 32 28 32 31 22
36 22 36 19 22 30 22 20 30 29 30 34 37 37 20 29 19 30 30 22 30 31 24 25 30 37 18 32 26 22 19 26 33 27 32 20 29 23 29 21 23 36 23 37 30 34 32 24 34 25 25 29 31 37 37 27 33 37 37 23 19 35 27 19
34 35 28 20 30 26 34 25 24 21 24 38 22 31 34 28 33 28 18 29 37 27 21 36 31 29 26 20 21 20 31 32 29 33 31 19 29 38 30 34 28 33 29 26 26 34 23 18 29 30 31 28 26 30 30 35 30 24 38 21 19 26 27 38
30 33 19 26 24 38 28 18 36 25 27 28 37 33 22 25 29 31 29 38 21 31 38 26 21 28 20 29 36 36 19 22 33 20 38 23 21 31 35 33 25 32 28 18 21 32 30 21 37 29 26 23 35 35 24 37 23 37 30 36 21 25 29 18
27 26 30 22 32 24 22 21 20 23 38 34 19 34 19 26 38 28 26 21 33 20 26 25 20 37 37 31 34 23 25 23 26 24 24 37 36 28 25 27 33 22 25 27 37 36 25 35 35 35 20 29 19 29 18 18 23 38 23 27 29 26 30 30
33 33 25 38 34 33 36 32 37 19 32 28 22 38 34 18 25 33 31 34 28 23 29 26 33 25 34 35 27 32 20 33 36 19 35 33 34 19 24 19 27 24 37 37 21 28 25 37 38 35 19 31 24 28 23 20 35 37 24 34 25 23 36 22
28 27 36 32 20 24 19 36 25 26 29 37 29 38 35 33 27 20 27 27 27 22 22 30 38 34 36 19 22 32 22 36 34 28 23 25 19 20 31 24 32 28 23 27 28 22 26 36 30 26 25 34 26 28 29 32 24 19 33 32 20 26 22 23
29 30 25 30 24 19 27 27 33 34 38 26 33 35 24 35 38 27 38 23 27 20 25 24 30 28 37 37 27 23 22 37 32 29 20 37 18 27 32 35 21 20 23 32 34 35 33 22 30 35 26 30 35 23 29 24 25 26 18 21 33 29 35 24
27 26 32 20 27 37 23 26 38 23 38 20 30 29 36 38 36 20 20 30 36 20 34 37 19 29 30 38 21 18 33 28 33 33 34 25 31 22 35 20 29 32 22 31 32 35 33 34 34 35 19 32 31 29 18 37 25 31 21 27 37 37 38 34
38 27 24 21 32 23 38 27 20 24 19 20 26 20 19 25 31 25 36 30 26 32 19 20 31 25 28 26 33 27 23 21 27 38 30 25 37 21 31 32 38 26 22 38 30 38 20 29 31 21 30 18 38 19 30 29 25 26 22 36 19 38 30 37
30 25 25 31 20 34 24 18 38 25 20 24 30 33 24 30 33 24 33 25 26 26 30 36 27 33 35 28 23 35 27 21 25 38 38 31 20 27 21 21 27 22 36 24 22 38 20 26 31 22 35 31 33 32 20 28 28 37 37 30 21 31 25 34
18 24 36 22 34 23 22 22 37 21 31 38 36 36 19 31 25 20 20 18 37 20 20 26 21 30 24 36 33 31 26 29 34 23 33 26 38 21 28 20 18 20 28 36 36 26 36 18 31 36 34 27 29 30 29 28 19 37 35 23 26 31 19 35
21 32 28 29 23 20 23 37 28 25 27 37 31 31 35 19 20 33 36 33 30 37 30 24 22 34 19 28 25 36 38 19 36 31 32 19 37 33 26 37 33 21 38 31 27 18 35 27 22 38 29 34 19 18 31 36 23 31 23 24 33 24 25 24
18 28 25 21 24 38 28 37 24 24 38 32 29 24 22 30 30 18 32 20 36 26 22 32 23 22 31 23 22 32 21 26 33 27 38 18 28 37 28 20 18 20 24 36 35 30 24 24 18 37 18 32 18 38 37 31 25 33 18 37 19 23 38 28
32 34 35 34 30 24 21 34 26 19 27 33 33 29 34 21 18 35 28 21 28 38 22 38 22 33 30 27 18 32 23 28 18 19 26 28 38 20 30 20 28 31 19 25 27 37 23 23 21 22 19 38 29 20 31 19 28 22 37 19 31 24 37 29
33 32 29 23 18 28 20 23 34 24 31 37 36 36 32 30 29 29 18 22 33 25 25 31 38 24 29 29 37 29 38 34 19 25 26 23 37 28 27 20 20 27 32 24 24 21 34 24 27 34 33 28 30 28 37 20 31 32 25 21 30 37 27 33
22 20 28 38 21 24 29 26 24 20 26 30 21 30 30 29 34 37 22 24 18 28 29 37 20 30 33 28 30 23 33 18 33 22 34 32 27 34 23 26 29 23 30 32 35 28 37 20 31 24 30 38 18 22 24 37 20 34 20 33 20 33 30 31
24 27 37 36 28 37 23 22 18 38 20 25 29 32 37 18 22 23 27 24 39 24 23 24 28 33 35 33 24 29 35 18 38 26 22 36 37 24 20 21 20 23 24 42 41 34 37 33 36 19 25 37 27 32 22 30 20 30 24 30 33 19 30 23
30 28 21 36 30 20 19 23 29 38 38 30 18 23 20 26 41 26 44 25 34 41 32 31 36 37 40 37 26 31 35 21 38 38 22 20 35 26 24 26 40 36 43 44 44 37 29 31 42 39 22 25 22 27 26 33 25 26 27 28 19 37 23 26
29 29 21 33 37 32 19 27 30 23 31 27 32 38 23 28 33 46 32 41 34 34 49 28 36 41 33 25 29 30 23 25 38 23 37 34 33 35 40 46 39 30 43 40 45 29 31 41 44 31 36 23 34 21 18 37 29 32 23 19 38 29 27 38
32 25 21 26 24 29 35 24 27 21 27 35 40 25 28 33 46 51 39 34 37 47 41 48 36 35 30 29 36 47 37 47 29 31 41 33 33 33 31 42 41 40 39 36 48 42 39 51 49 43 36 32 33 35 19 23 35 33 24 29 20 18 28 34
18 33 21 19 31 25 24 23 32 31 34 29 41 39 37 31 43 42 46 49 51 47 41 47 46 56 45 56 53 48 37 49 42 41 47 47 50 52 53 56 39 36 43 45 42 42 47 45 41 49 29 35 33 30 25 23 26 31 29 22 20 24 34 28
30 29 25 23 27 23 19 35 32 31 22 37 33 37 46 49 40 45 48 55 46 43 60 44 62 47 53 67 48 63 62 57 43 48 53 64 48 60 53 65 52 55 45 48 43 46 40 51 53 52 38 47 42 26 35 23 30 34 25 38 29 18 30 24
37 29 21 32 38 27 19 20 35 33 29 35 37 43 50 57 51 48 56 51 51 53 55 58 65 57 67 63 57 55 64 51 62 66 69 58 73 75 75 59 64 63 54 49 54 63 54 60 58 54 41 49 36 44 33 23 35 38 18 22 23 25 18 25
21 20 19 38 27 31 18 32 35 35 37 39 44 37 38 53 55 59 61 58 64 54 60 67 68 66 67 84 84 73 65 71 64 74 77 74 66 68 70 65 81 73 59 60 61 51 57 60 44 58 39 47 39 42 32 35 21 22 31 22 25 20 33 19
38 29 22 26 36 21 20 37 34 25 35 37 46 48 59 61 53 50 51 53 74 63 83 74 85 87 71 80 77 78 83 85 82 87 87 83 72 92 71 86 87 84 66 74 71 72 64 59 48 57 43 38 41 38 47 39 26 38 23 33 24 28 35 36
28 36 30 31 34 25 33 34 22 26 35 38 44 40 44 46 53 69 69 59 69 84 92 84 94 82 86 98 98 96 77 92 88 87 84 89 91 87 99 92 83 84 88 83 68 74 61 66 64 56 48 53 39 45 41 38 34 29 38 29 25 30 38 31
30 22 34 23 26 34 36 21 27 45 33 45 43 43 54 59 66 68 63 77 78 76 94 102 86 94 104 90 106 100 87 103 106 98 93 96 101 91 101 97 84 86 98 91 84 69 68 70 71 58 50 46 47 36 38 27 25 23 38 35 21 18 34 35
36 21 32 26 25 38 36 37 28 29 49 55 52 62 48 50 65 68 64 86 90 90 103 100 95 98 108 102 101 110 94 98 114 108 96 92 98 107 110 92 107 100 90 91 86 71 77 77 72 63 46 50 47 43 48 28 25 29 36 33 32 34 18 25
31 21 27 29 22 25 18 38 36 36 42 45 50 51 63 60 62 58 65 77 88 107 92 102 104 103 100 115 112 105 100 100 114 104 104 98 117 99 115 97 106 101 92 103 94 82 70 74 63 54 58 58 44 46 35 43 43 24 20 31 28 35 26 27
26 27 38 34 28 24 22 27 40 41 42 40 47 43 52 56 57 77 80 80 104 108 100 110 111 120 106 104 114 106 119 121 112 122 109 103 115 123 119 107 105 103 103 108 89 82 75 74 69 70 57 47 40 44 36 45 40 22 36 28 33 18 32 33
36 18 34 25 34 38 33 22 36 27 36 37 43 50 67 54 62 67 82 79 91 95 100 116 102 104 115 123 119 115 111 120 130 122 122 122 119 114 112 117 102 100 110 107 86 79 81 59 67 56 64 49 46 39 32 27 30 20 19 22 37 27 35 20
32 22 26 31 23 29 36 34 31 30 48 39 52 56 66 68 57 68 78 83 103 107 110 100 116 117 121 120 124 127 131 132 126 132 130 126 123 125 112 118 113 106 100 93 100 94 76 64 55 51 55 61 40 52 49 40 42 33 25 28 20 28 27 30
33 34 30 21 35 29 20 37 28 39 46 40 45 45 49 61 52 64 79 81 86 95 104 108 119 118 117 107 121 114 132 135 138 128 124 124 125 122 122 110 119 110 100 105 82 83 65 69 68 62 64 41 39 34 40 28 24 32 19 38 22 33 31 18
34 30 29 29 23 20 27 18 32 38 35 51 37 44 53 53 69 64 64 90 77 97 106 101 117 119 118 117 119 118 125 126 140 125 132 122 119 121 115 119 116 94 102 84 95 74 82 70 60 49 58 46 45 35 34 29 41 20 33 23 32 25 36 31
38 18 26 24 23 32 31 35 33 32 28 36 54 44 56 60 46 59 74 71 92 95 92 106 97 101 108 108 121 114 126 115 132 125 123 128 113 104 108 101 108 90 89 95 77 76 63 60 64 50 61 43 38 40 30 26 31 33 19 29 20 33 18 38
28 28 20 26 24 36 30 36 37 23 35 41 52 42 52 41 45 48 61 80 75 85 87 96 101 104 106 104 106 110 106 105 126 110 124 113 120 99 97 92 95 92 97 86 71 81 56 58 53 43 39 42 49 42 45 22 30 22 22 23 24 26 26 28
35 32 24 36 30 22 26 27 33 29 37 44 39 48 51 46 50 61 63 73 83 75 85 81 83 97 100 102 97 97 102 115 112 101 112 110 100 108 99 96 101 97 82 82 68 76 64 59 41 57 55 33 48 36 23 25 27 36 24 19 37 23 32 37
18 29 35 34 20 28 23 19 33 36 23 35 33 31 40 44 39 51 47 56 60 64 79 90 91 85 96 99 98 109 104 95 89 105 93 101 89 98 91 92 89 91 74 83 57 53 55 50 50 53 48 32 45 43 29 30 24 31 18 24 34 27 38 18
33 19 21 30 25 32 34 23 26 24 28 26 31 36 37 51 52 50 43 54 52 73 73 80 90 90 90 99 85 84 99 87 81 85 95 89 101 98 83 84 71 68 72 57 54 52 40 42 41 41 33 43 37 23 21 21 23 24 30 18 22 20 36 38
30 34 20 19 33 37 24 38 22 33 34 21 30 30 32 34 31 46 34 58 54 65 61 66 81 86 75 78 76 77 81 80 77 85 80 75 91 82 82 74 79 78 72 68 63 59 40 39 37 32 39 41 28 29 22 38 19 30 27 20 21 25 20 25
29 25 34 29 29 26 32 20 33 29 18 29 18 31 31 29 28 31 34 47 52 54 61 65 62 71 67 77 64 75 67 73 83 88 79 75 84 68 69 65 56 57 51 59 42 42 33 33 31 31 40 26 36 34 23 29 36 18 21 28 23 19 31 36
21 20 18 20 29 24 24 38 23 24 21 30 23 23 26 36 40 41 34 31 40 55 47 58 61 66 54 71 74 77 77 82 80 70 65 79 64 66 62 67 57 50 50 52 36 33 39 37 41 34 27 27 35 28 21 26 19 25 19 20 30 29 31 28
21 32 24 23 24 32 21 38 23 18 33 19 36 29 26 23 38 24 31 38 42 30 37 55 41 43 64 50 51 73 62 67 66 64 75 62 67 55 45 56 50 43 35 29 39 21 38 25 22 21 21 19 23 31 34 34 37 24 36 37 33 27 31 22
29 20 19 22 35 22 19 18 34 27 34 24 22 21 31 24 18 22 38 24 37 34 37 45 53 49 47 47 53 67 50 54 50 68 65 65 47 45 47 39 50 34 44 21 34 24 37 32 37 38 26 34 30 22 25 18 38 32 35 37 37 36 38 25
36 19 32 30 37 29 27 29 37 34 31 38 23 20 34 18 35 21 29 27 18 29 29 38 34 45 44 49 52 47 54 57 46 60 58 60 45 39 49 32 37 37 35 22 38 28 20 31 20 26 21 36 24 27 28 36 19 37 37 36 34 27 30 24
33 29 21 38 25 24 31 36 18 32 37 38 35 18 19 22 36 27 26 37 35 25 19 21 30 34 38 47 45 46 50 40 48 56 43 36 39 32 29 27 28 27 33 25 35 33 19 28 20 36 38 37 31 34 33 38 26 25 24 28 23 36 25 37
22 36 20 25 33 26 25 33 35 26 22 21 26 23 25 28 35 32 20 23 24 33 27 22 25 38 33 26 27 44 49 31 34 49 31 49 45 25 40 20 27 33 23 27 19 32 31 22 26 31 38 18 29 33 29 34 36 29 20 19 18 25 24 32
19 33 23 19 35 30 29 34 24 29 21 34 26 35 25 27 29 25 25 29 19 37 29 31 35 27 19 40 37 33 24 34 38 25 25 23 31 25 27 35 31 30 32 38 19 30 29 19 38 36 24 28 26 21 35 38 19 36 29 25 32 30 24 21
28 31 26 31 20 24 24 25 20 21 25 19 30 25 31 26 25 26 34 37 30 35 30 24 22 32 23 37 25 31 28 38 23 24 38 20 25 21 38 37 38 30 21 34 19 25 20 19 36 30 36 19 30 37 33 19 24 26 29 26 21 25 23 34
30 26 19 38 30 27 31 35 34 37 23 32 30 38 19 30 22 23 28 34 21 35 37 33 19 19 37 18 19 31 20 21 19 18 33 29 25 25 28 24 24 34 28 20 35 21 35 30 34 32 36 32 21 19 27 33 22 21 28 21 22 22 24 28
38 28 26 22 19 26 31 25 37 33 18 33 28 31 29 23 30 30 38 30 19 30 23 19 27 26 27 36 23 26 26 30 31 23 38 31 38 28 25 38 26 26 25 29 28 22 37 36 32 33 19 35 29 28 31 31 38 30 18 29 31 25 33 29
27 35 24 30 36 23 27 31 25 34 21 31 19 31 22 23 23 37 29 30 29 29 35 34 36 29 32 33 19 20 37 33 18 26 30 28 21 26 22 26 35 36 29 24 37 19 19 34 36 38 32 29 20 36 20 20 38 35 23 23 24 29 22 30
33 33 22 31 31 27 36 29 31 31 37 22 30 22 34 27 34 37 21 35 34 28 25 28 30 34 23 32 26 25 28 38 38 20 20 27 18 35 36 30 18 35 21 22 30 33 22 28 26 37 19 24 32 35 24 23 19 33 21 31 25 29 35 19
35 24 28 26 29 23 19 33 37 37 26 33 20 25 27 20 38 37 32 33 18 19 30 35 27 36 31 19 34 29 22 20 31 35 22 34 29 37 32 21 33 33 25 30 34 23 24 30 23 27 20 27 35 28 37 36 33 20 18 22 27 26 36 37
19 36 27 28 28 37 25 21 31 23 26 27 36 26 37 28 26 25 24 28 30 38 19 32 28 24 33 20 24 18 23 33 24 29 23 27 21 36 23 18 18 27 31 27 36 22 18 33 35 38 30 25 30 34 37 34 29 27 30 27 25 23 28 29
29 31 36 37 26 27 26 36 36 33 29 29 30 18 27 22 23 32 20 19 21 27 22 23 26 27 24 38 20 20 27 21 20 36 23 32 27 29 29 36 31 20 23 27 32 31 24 28 34 24 31 38 27 30 18 37 37 24 27 37 24 19 37 31
28 37 32 25 33 34 22 24 23 26 31 30 26 20 33 18 23 23 35 36 25 28 20 18 33 27 33 22 23 18 34 36 23 18 23 25 36 37 31 23 28 25 37 21 37 18 21 33 31 34 25 31 30 38 28 29 38 29 35 38 25 31 19 22
33 21 31 28 22 30 25 30 21 28 18 34 22 24 20 35 34 33 21 30 19 34 36 20 32 22 19 30 38 33 33 35 32 28 19 21 37 26 28 30 19 34 31 35 32 37 23 18 38 31 24 23 28 30 36 20 29 33 18 34 33 30 37 23
18 26 20 28 24 19 26 37 25 37 38 20 32 24 29 18 38 18 22 19 27 34 36 30 28 35 27 28 38 25 18 35 25 24 24 34 26 25 33 38 33 28 19 29 31 18 28 22 21 22 31 34 23 30 30 18 35 32 34 34 23 38 36 30
38 38 24 19 23 20 20 21 22 31 19 23 25 23 38 35 21 35 24 31 26 27 32 21 35 20 23 27 21 26 28 23 36 36 33 38 25 34 26 21 30 18 33 35 37 36 27 37 23 34 26 24 21 32 33 20 25 23 33 23 21 18 33 26
37 34 34 32 25 26 36 38 34 23 31 32 22 26 31 32 23 30 36 32 30 29 31 36 20 37 30 30 31 22 37 24 22 20 24 34 32 35 31 19 25 19 30 28 35 36 34 30 31 27 28 34 29 23 26 21 20 30 18 19 24 28 36 34
