P2
64 64
255
21 17 16 26 20 26 14 24 18 20 14 14 19 19 24 26 17 21 18 18 21 15 24 14 14 18 25 17 25 24 25 23 18 25 16 24 23 18 16 20 21 23 19 22 15 21 21 14 16 21 17 22 15 14 22 26 15 26 26 16 20 17 25 18
25 24 16 14 21 19 25 17 24 19 24 22 24 14 15 23 22 19 17 17 23 16 26 20 18 19 19 19 18 25 19 23 17 22 25 23 20 18 18 15 26 22 21 20 17 14 22 23 19 16 26 17 22 17 22 17 14 21 15 18 15 20 23 24
20 14 22 14 25 15 15 14 17 18 16 14 20 23 18 22 22 18 16 25 19 26 18 24 19 17 16 19 18 26 26 15 24 23 14 23 26 24 15 19 18 24 18 22 21 20 16 23 18 20 21 17 23 17 14 26 16 23 14 23 19 16 20 18
15 18 21 25 21 25 14 18 19 16 21 20 15 25 26 24 23 14 15 21 20 18 26 19 25 14 21 19 23 16 16 24 20 24 25 24 20 24 22 18 23 18 17 24 21 20 15 23 15 15 25 24 20 15 19 21 16 26 16 22 21 21 21 26
17 26 17 24 15 23 22 25 22 16 23 20 26 17 15 16 16 22 14 18 23 14 17 18 23 22 21 17 14 19 15 25 17 14 19 17 25 20 26 26 18 22 22 24 26 15 20 24 25 16 20 21 25 20 21 18 26 17 18 25 25 15 24 26
24 15 18 23 24 18 19 18 15 25 15 20 18 21 17 20 16 22 17 24 16 19 22 18 20 25 15 21 23 17 20 21 23 21 16 19 26 14 15 20 19 15 15 24 19 14 24 23 21 24 15 20 20 25 18 21 26 25 24 25 17 22 20 22
15 15 19 26 19 15 25 22 19 24 18 21 19 23 25 14 21 16 25 15 15 16 24 18 15 15 26 14 19 20 18 23 26 15 20 14 17 22 22 17 23 24 26 15 25 21 15 21 17 22 19 16 17 22 18 16 26 16 16 18 17 17 26 21
24 21 17 14 19 17 15 21 22 16 26 15 19 21 22 26 21 19 18 19 25 18 14 19 25 18 15 22 18 14 16 19 16 26 15 17 23 23 18 16 21 26 21 16 19 18 22 25 18 23 20 22 22 22 14 14 20 23 21 15 19 26 21 26
20 25 14 16 19 23 19 24 24 19 15 20 15 25 22 19 24 24 15 18 23 23 18 21 20 14 18 17 23 16 14 26 21 15 17 17 14 17 23 22 14 20 19 25 24 26 23 26 15 20 17 16 21 26 23 15 15 23 16 22 17 21 24 25
22 22 20 17 19 25 16 21 19 15 25 14 17 19 15 24 26 18 17 24 22 26 25 26 14 22 19 21 23 26 17 22 15 14 15 18 22 25 16 22 18 23 25 21 24 26 14 17 15 19 23 25 21 18 26 25 14 23 17 25 23 22 23 24
21 15 16 17 21 17 22 21 18 17 14 24 24 15 19 18 22 18 24 22 17 15 15 23 20 17 21 25 19 18 19 17 23 16 19 23 24 20 22 20 19 21 24 24 24 21 15 16 21 23 21 15 23 20 20 23 14 25 16 20 25 15 25 17
23 19 21 22 16 17 19 24 15 15 22 17 19 19 17 16 23 16 16 15 25 21 14 15 18 16 25 14 15 24 20 17 25 22 16 24 18 18 23 24 17 20 14 20 24 15 14 17 26 20 19 15 19 20 21 25 15 24 18 19 25 18 25 24
17 19 16 16 26 20 18 25 19 26 22 16 15 15 17 16 16 15 24 26 14 15 17 23 26 17 26 17 14 15 26 17 16 25 24 18 15 24 16 23 22 26 21 18 22 20 16 24 17 14 17 26 23 16 23 15 26 14 21 18 24 18 18 18
21 20 18 25 14 15 23 20 26 20 25 22 26 26 24 23 21 14 15 24 24 16 15 22 20 25 21 24 19 22 20 25 18 16 26 16 22 14 14 25 26 22 23 20 17 15 21 14 15 20 16 14 14 20 15 24 20 18 25 20 23 15 20 20
16 18 20 25 20 26 26 20 16 17 15 14 25 15 22 20 22 23 18 15 19 16 19 22 16 22 24 16 20 15 14 26 16 15 18 20 24 25 25 15 18 24 16 20 26 16 19 22 22 26 24 19 15 18 19 21 15 25 16 20 19 19 21 26
15 22 25 14 14 20 14 15 15 25 18 25 14 20 22 17 26 24 23 22 17 14 23 20 17 22 15 16 18 20 18 18 23 23 17 19 14 20 22 22 20 21 25 16 19 18 22 16 18 19 15 18 24 16 17 25 18 23 26 21 17 21 25 22
17 25 26 16 16 18 22 16 25 20 20 23 20 23 19 23 24 20 22 25 15 26 22 25 26 17 19 25 25 16 16 22 14 26 19 20 20 14 25 20 20 14 19 24 19 25 26 18 24 14 18 23 22 24 23 16 21 20 24 22 14 20 17 22
19 25 23 25 16 16 18 24 26 19 19 18 21 23 16 24 16 25 15 26 21 25 20 17 20 24 14 14 18 24 23 23 23 24 18 21 16 22 18 16 22 17 20 16 26 24 15 14 18 25 18 23 26 23 15 25 20 22 20 23 21 15 24 21
23 25 14 20 14 17 25 21 18 24 23 23 22 17 23 18 20 15 23 18 23 21 21 19 26 20 21 18 18 26 21 14 16 22 18 14 23 14 18 17 20 20 15 14 24 18 17 19 17 24 22 14 16 21 17 18 19 23 20 19 25 23 20 20
14 25 24 17 20 25 25 18 16 14 18 14 25 25 21 16 21 21 24 27 30 19 25 24 24 23 22 20 19 21 25 21 18 14 19 24 25 17 14 23 17 23 26 26 24 22 21 27 15 15 14 18 16 16 24 15 25 26 14 19 20 23 22 25
16 19 26 18 26 18 19 14 20 23 25 20 17 17 20 25 22 22 24 30 29 27 24 31 26 26 21 18 20 22 14 25 19 23 22 25 21 27 29 30 21 27 28 23 27 28 31 23 27 26 20 16 21 21 24 14 26 19 18 15 25 25 15 21
24 22 14 25 15 26 18 25 24 19 16 15 18 27 26 32 32 33 27 32 26 26 30 27 30 29 29 30 18 18 23 29 18 22 24 26 28 30 29 23 24 30 37 37 34 25 35 29 33 26 29 18 20 22 25 24 25 25 26 19 19 22 23 14
14 25 24 23 26 21 17 15 15 25 16 26 18 31 29 33 27 37 32 35 31 31 35 32 32 36 29 32 37 24 23 27 29 32 31 36 26 27 32 35 31 40 30 33 37 32 29 30 36 30 27 28 28 19 20 25 23 20 17 25 20 17 19 22
19 17 16 24 17 26 23 16 25 16 26 17 22 28 34 28 39 33 41 38 41 45 45 42 40 42 42 42 41 42 38 32 41 29 34 40 36 42 39 39 34 37 43 33 42 41 41 31 41 33 30 26 29 17 16 24 19 16 20 23 16 24 19 18
23 17 21 17 20 19 18 26 25 16 20 27 30 28 34 32 33 36 41 49 49 42 47 40 45 50 47 44 48 46 48 49 47 47 50 54 55 50 55 54 43 42 43 46 49 44 36 39 44 40 29 38 25 28 26 25 24 21 17 24 23 17 22 26
21 21 26 14 16 25 19 14 18 28 23 29 38 31 32 44 37 42 47 46 41 42 56 52 52 61 58 64 55 61 60 56 48 51 55 52 61 59 55 61 61 56 55 45 53 41 39 46 47 37 36 39 34 26 24 20 24 21 24 23 16 14 17 15
18 18 17 19 24 23 16 23 17 20 26 27 39 37 40 43 46 43 50 48 46 54 53 63 65 68 61 67 60 64 69 64 60 65 58 71 68 61 61 71 63 64 58 51 53 55 52 41 51 38 37 34 31 35 27 23 14 25 15 18 24 26 18 17
21 24 24 17 16 24 24 23 24 27 33 33 41 36 48 41 54 49 52 58 62 65 62 66 70 71 72 73 77 77 68 70 76 72 75 77 79 79 73 69 75 68 67 61 51 59 51 51 54 50 46 40 42 27 32 27 27 24 21 23 25 18 21 20
24 22 18 22 22 15 25 22 18 27 30 40 35 45 45 52 47 54 55 53 62 71 71 83 83 82 80 81 83 83 81 74 79 82 74 75 81 80 85 74 81 76 69 73 71 56 59 48 48 53 43 38 34 32 25 33 24 18 26 14 21 15 24 25
22 21 17 15 14 17 14 19 23 26 36 34 36 46 47 48 57 63 62 63 73 81 76 86 82 90 91 84 91 88 90 93 82 89 82 92 92 94 84 84 79 87 84 73 68 64 61 58 47 48 47 38 34 38 35 29 25 26 25 23 15 15 19 17
20 23 22 22 21 21 18 15 31 32 32 32 41 39 52 54 54 59 61 67 83 89 92 85 87 87 93 98 97 88 90 93 102 90 95 94 99 94 92 98 95 84 87 86 77 65 67 56 53 58 44 44 37 31 28 31 19 18 16 16 16 16 25 17
26 20 22 17 19 26 24 16 27 24 29 42 40 42 54 53 54 66 64 72 84 91 93 93 98 94 103 99 101 97 106 103 103 96 95 104 105 98 99 104 93 95 87 86 86 73 64 61 62 58 45 44 35 39 27 29 27 16 26 23 21 14 24 25
25 21 19 23 15 17 25 26 24 34 31 34 47 46 43 59 56 67 64 75 95 94 103 105 105 100 97 108 106 101 101 114 107 113 113 103 107 111 98 105 106 99 94 91 90 83 75 66 61 52 49 50 43 41 34 29 20 26 16 15 23 22 21 16
19 23 14 17 22 18 16 25 32 26 32 36 39 42 49 51 58 64 71 76 82 94 91 103 108 109 108 108 112 114 107 113 121 115 118 110 110 108 102 110 103 100 101 95 86 82 73 54 61 53 53 47 44 40 34 30 23 19 23 17 23 23 22 16
26 20 21 20 18 15 14 22 19 30 37 34 45 47 52 54 60 59 71 77 90 95 96 98 97 108 102 109 114 111 113 116 127 121 120 114 115 113 106 106 108 97 95 88 88 80 74 60 58 58 43 42 42 40 38 35 24 15 15 19 18 17 26 15
17 14 24 25 21 26 24 21 26 26 31 31 38 37 42 45 55 53 69 70 86 92 98 100 103 103 101 105 107 109 111 121 122 117 118 119 109 114 105 106 105 94 94 91 87 74 65 59 49 52 53 47 44 31 32 31 30 26 16 23 15 18 21 16
24 23 21 14 15 15 23 18 26 22 25 36 40 45 41 45 47 51 59 66 79 82 89 99 105 100 107 105 106 119 113 116 134 126 110 109 116 111 99 101 104 99 94 88 79 77 67 53 55 49 41 46 35 39 35 27 23 18 22 23 23 24 17 20
25 14 25 14 20 19 24 14 25 29 33 32 34 40 49 45 47 51 58 72 69 86 88 93 90 98 98 101 112 115 106 111 119 112 117 107 102 105 100 99 99 85 92 80 71 66 60 53 45 46 39 39 41 31 27 28 26 24 15 17 17 24 26 20
16 25 22 19 24 15 25 20 15 22 21 28 37 41 36 41 48 49 61 59 71 73 85 82 90 96 94 103 100 111 113 109 115 109 101 106 105 98 103 95 95 85 77 80 76 59 62 43 42 44 45 31 38 37 30 19 19 19 22 23 25 20 22 17
17 19 23 14 14 14 24 24 26 18 31 24 36 40 34 45 46 50 57 56 71 74 79 75 85 87 93 89 103 100 96 96 93 105 96 104 100 89 89 91 89 79 73 75 69 58 45 47 39 44 41 38 35 23 27 17 20 25 18 25 26 16 14 20
16 18 21 24 20 17 24 25 25 22 29 20 32 29 30 42 33 42 44 54 56 63 70 77 80 89 84 83 87 94 87 89 90 97 93 89 96 90 92 78 78 76 76 63 58 54 41 40 34 41 35 36 27 31 19 24 14 25 26 15 24 14 21 19
26 16 26 21 19 23 22 22 25 21 26 29 25 34 34 30 37 39 36 48 53 53 68 67 67 77 74 86 83 81 78 82 78 79 84 78 84 80 75 75 79 72 58 64 47 47 34 43 34 33 32 25 20 26 24 21 15 21 15 25 21 19 21 26
16 18 14 14 22 24 25 23 24 14 23 19 19 32 26 34 31 29 38 47 52 58 58 56 65 63 68 71 72 75 81 75 76 79 73 78 72 68 65 66 63 56 51 55 45 36 40 39 32 25 34 29 28 16 22 14 20 21 22 24 25 18 17 15
17 25 18 25 23 23 16 19 25 14 14 19 18 18 26 31 23 28 31 31 41 49 48 47 53 65 60 66 62 71 75 64 75 71 64 69 68 71 62 57 58 49 43 47 39 38 28 33 30 24 19 23 14 15 14 22 23 14 17 14 14 14 18 16
16 26 14 21 17 21 19 23 22 26 18 22 20 25 20 29 20 22 23 21 28 42 47 50 56 51 52 52 59 60 62 63 64 63 58 62 55 58 55 57 44 52 47 41 33 24 30 25 20 17 23 17 24 24 15 22 18 16 15 21 18 18 25 25
23 24 19 21 26 18 18 17 21 18 24 20 24 23 19 16 26 28 21 21 25 33 36 37 47 46 44 52 53 52 61 62 58 58 61 58 58 54 51 42 35 37 38 27 20 20 27 28 25 26 20 14 24 25 17 18 22 17 16 24 20 14 26 16
20 18 14 20 18 26 15 18 20 21 25 18 19 16 25 19 24 15 22 18 26 24 28 27 33 36 46 39 53 55 50 48 52 56 46 46 45 42 45 35 41 31 31 18 18 25 15 20 15 14 14 16 22 19 14 26 16 24 15 26 17 20 21 17
16 21 21 20 24 19 26 16 25 24 24 25 15 20 17 24 14 16 16 19 16 19 16 21 31 27 40 37 35 41 40 46 44 44 44 44 39 44 30 34 29 23 19 23 21 15 17 19 15 25 14 23 16 24 24 22 26 24 16 22 26 17 17 18
22 20 20 17 18 18 26 17 21 16 20 21 15 22 23 14 24 14 18 14 17 20 18 20 26 28 29 31 38 40 39 38 40 43 41 36 39 27 30 31 19 22 19 19 22 22 21 23 23 24 19 20 18 16 25 17 14 18 14 22 14 22 23 18
17 19 20 16 24 20 20 19 26 14 15 19 14 20 15 21 14 15 14 23 16 23 26 14 17 24 24 32 26 32 26 29 31 38 31 30 23 28 28 24 24 21 14 22 15 24 23 15 20 19 25 15 15 21 20 21 21 24 15 15 14 23 20 17
24 19 24 16 23 16 22 16 21 20 16 20 26 19 17 24 21 22 15 26 19 24 25 16 22 22 19 20 29 25 32 25 22 23 27 25 27 27 22 15 26 15 24 17 21 16 20 21 24 16 21 14 20 15 15 20 20 20 21 21 21 20 16 16
14 19 19 21 23 23 17 16 14 19 15 23 22 25 24 18 14 26 16 19 25 20 21 23 21 14 23 19 19 19 25 23 24 16 16 16 24 26 23 25 21 21 24 20 20 20 25 19 25 20 26 14 22 20 23 17 19 26 20 21 17 24 26 25
19 16 18 19 25 22 26 16 17 16 23 14 17 24 22 21 21 16 21 26 25 18 19 15 19 25 17 25 20 14 16 15 17 23 20 20 17 17 24 17 21 22 21 26 18 19 21 19 16 26 16 21 19 15 25 17 21 24 20 25 16 24 22 17
20 25 24 15 25 22 17 24 25 17 24 25 14 17 15 15 17 14 25 20 25 14 26 26 18 25 15 17 21 18 24 22 23 21 19 15 24 26 23 21 22 17 18 21 22 18 18 14 23 20 20 18 21 25 17 24 21 22 24 25 26 20 21 16
24 17 19 21 19 21 19 22 19 23 22 19 16 14 22 21 22 25 24 19 14 16 21 15 25 19 14 19 21 20 15 14 17 23 18 25 18 14 14 26 16 14 22 22 24 26 19 23 26 26 26 18 14 16 14 24 16 17 14 17 17 16 15 16
24 19 22 14 18 14 16 19 21 25 16 21 19 14 22 19 15 16 26 21 17 15 23 21 14 15 20 26 23 21 24 19 15 16 25 26 21 25 26 19 14 16 19 26 15 18 19 26 16 23 20 16 16 14 25 20 20 15 21 26 15 22 25 15
14 16 14 24 20 23 24 21 14 25 16 24 18 22 15 22 17 21 17 23 17 16 17 26 25 14 16 16 24 24 21 22 24 25 24 15 15 22 22 25 20 23 23 19 22 22 15 16 24 20 20 25 23 16 17 17 18 15 15 18 20 26 14 18
16 14 21 21 25 22 21 14 23 21 21 17 16 15 22 15 19 19 21 25 16 19 19 25 20 18 26 20 20 18 26 14 16 20 24 21 16 26 22 26 22 15 15 16 17 16 23 25 22 16 18 23 14 26 15 16 20 22 22 26 22 15 25 23
24 21 24 14 19 22 15 18 25 20 23 20 14 21 22 16 19 17 15 19 20 14 22 14 14 22 24 26 24 24 18 25 19 18 18 18 22 24 23 19 25 18 19 17 16 21 17 21 25 15 21 22 17 24 20 17 24 20 22 14 15 25 15 20
18 24 15 26 25 25 16 25 24 25 23 24 17 14 26 22 14 16 22 14 21 26 25 26 19 23 21 20 18 17 17 20 19 20 26 26 23 18 21 23 21 23 17 26 24 21 14 16 21 23 23 23 16 17 24 23 15 22 14 25 23 19 24 21
19 15 18 16 15 21 17 22 14 17 14 20 25 24 18 21 18 18 18 19 23 18 24 18 26 22 23 21 22 16 24 15 24 20 16 25 19 18 14 19 24 14 14 25 22 24 24 25 20 18 16 23 19 16 26 20 23 16 25 24 14 23 16 24
24 21 24 14 16 17 18 22 15 16 19 21 24 25 19 26 23 14 24 22 26 18 21 22 23 18 23 14 16 26 24 26 21 16 22 26 17 24 21 23 25 26 18 14 26 14 14 15 18 16 23 26 19 23 24 20 22 19 20 23 15 15 21 26
22 22 18 20 18 23 25 25 14 19 25 21 14 23 14 16 26 24 19 21 18 26 21 14 26 16 20 14 20 18 15 16 26 22 16 26 16 14 14 16 18 20 19 20 21 14 25 17 23 25 18 18 26 16 25 15 19 20 24 21 18 26 25 20
16 14 14 22 25 24 17 24 16 16 18 21 26 17 18 21 21 16 20 26 23 24 25 17 15 22 25 16 14 17 14 24 23 17 23 20 26 15 23 15 22 16 17 18 18 24 17 18 19 21 23 16 20 20 14 26 15 14 26 21 26 14 16 21
