P2
64 64
255
26 38 26 35 24 19 33 23 38 33 26 26 18 23 24 27 34 24 31 35 38 33 30 36 29 29 33 21 35 18 28 26 19 37 37 19 18 33 20 20 25 22 22 22 20 31 33 20 19 33 38 35 38 23 38 28 23 23 32 21 20 32 38 32
19 33 25 36 25 20 31 31 22 28 19 38 31 26 36 19 25 18 22 34 24 29 26 35 31 25 38 28 36 24 27 33 21 19 33 32 36 38 26 26 33 33 29 25 28 35 25 37 19 31 30 32 22 37 21 25 21 23 37 32 28 34 24 27
18 25 19 25 33 22 26 29 19 31 37 25 23 25 20 19 18 30 20 28 38 36 29 34 38 33 33 21 21 27 25 21 25 18 36 19 32 33 29 36 23 38 18 18 36 35 30 18 30 25 27 24 33 29 23 27 27 27 27 18 27 20 27 24
34 28 24 25 24 27 29 18 26 34 37 19 29 21 22 36 27 25 30 38 29 25 20 25 21 29 27 22 35 34 31 19 36 24 36 36 30 32 26 27 18 37 30 31 37 27 30 32 23 19 24 23 20 32 24 34 26 35 31 18 32 32 37 18
38 36 22 27 25 27 35 28 18 20 36 22 35 35 35 20 27 24 25 26 28 27 26 18 36 37 35 33 36 27 28 20 27 31 20 31 21 38 35 30 38 38 19 22 28 33 32 20 25 32 36 34 29 31 21 19 32 37 24 28 36 22 24 34
23 25 21 37 31 22 21 38 35 29 30 18 28 31 22 18 33 24 30 36 23 27 30 35 25 18 31 28 26 33 20 37 22 23 31 19 31 38 19 36 35 35 27 22 37 23 22 26 37 19 20 36 34 34 34 32 18 29 18 22 34 35 32 35
33 22 22 22 35 18 20 31 35 26 25 24 24 25 19 33 18 38 22 23 27 24 19 32 18 21 29 33 37 19 26 22 20 24 31 22 36 20 18 32 31 35 31 18 32 19 23 29 24 31 37 37 26 33 29 31 33 32 24 36 21 33 30 38
22 38 18 24 24 33 38 34 30 25 23 22 28 21 23 32 33 20 33 24 31 27 37 25 35 27 23 21 37 34 26 33 28 31 30 21 26 24 30 31 24 27 35 22 32 23 31 27 37 34 28 18 18 35 30 29 18 30 35 20 30 35 24 31
27 23 38 30 29 30 36 26 30 34 25 31 21 28 18 20 28 20 32 35 34 27 23 24 36 36 22 18 21 23 25 36 37 30 35 21 22 23 30 32 25 24 28 30 34 33 36 20 35 18 21 22 31 27 27 26 27 25 19 32 31 29 31 30
31 36 18 26 31 34 20 21 35 19 34 20 18 31 19 29 38 29 23 34 31 19 24 33 27 18 26 22 24 36 20 28 38 35 19 24 27 22 24 20 34 38 35 31 31 27 23 36 35 35 27 22 27 26 34 37 36 18 24 30 28 34 23 32
26 28 31 24 28 34 19 31 33 28 25 28 23 18 18 38 38 22 23 29 32 31 38 29 31 34 33 31 24 25 24 31 35 24 26 36 33 33 35 38 25 24 31 21 31 32 18 32 32 21 20 23 34 37 37 18 21 25 26 24 32 28 25 26
32 24 29 22 32 33 35 36 30 35 23 37 25 19 26 31 34 26 31 33 26 23 23 23 20 21 35 26 35 24 28 28 29 24 27 32 37 18 38 36 26 23 37 23 22 21 36 29 32 29 23 35 33 36 27 38 32 25 18 20 34 24 19 18
19 36 33 33 23 33 24 29 27 28 25 19 31 34 21 20 31 37 35 21 38 32 25 33 33 35 29 18 29 35 32 33 36 18 25 29 26 35 31 33 26 31 18 20 34 24 38 29 38 30 33 32 19 30 28 38 38 28 19 27 33 27 37 35
27 22 31 36 20 38 34 34 25 29 29 26 26 38 35 18 20 34 22 38 31 24 28 38 35 25 27 30 36 23 27 25 23 29 29 27 31 32 26 22 36 29 28 29 31 36 21 19 19 36 32 24 31 21 35 21 26 36 24 21 18 18 30 22
19 31 19 32 22 36 35 33 21 18 23 18 38 19 19 31 27 36 37 23 20 19 23 33 18 34 25 21 33 24 31 26 35 36 37 22 21 22 32 36 28 35 26 19 18 36 20 37 19 20 18 25 22 30 27 27 33 29 22 33 35 35 36 31
27 31 29 25 25 26 24 36 25 20 21 22 28 33 29 32 31 28 21 32 33 28 23 18 19 38 27 22 30 21 35 30 21 30 38 30 19 21 28 21 19 34 23 22 23 21 28 36 23 27 36 18 19 29 20 26 28 30 25 22 36 29 33 33
29 30 23 34 29 22 34 32 26 33 37 24 31 38 30 33 37 27 27 22 32 35 25 36 20 20 38 35 34 26 38 27 36 23 22 32 27 27 28 20 22 37 20 29 33 27 37 20 22 25 32 34 32 33 31 18 21 26 33 21 22 18 21 36
20 22 21 26 31 22 24 23 33 27 30 18 32 30 35 37 19 21 25 18 31 19 25 26 28 25 20 38 36 36 22 24 23 26 29 25 19 33 35 18 32 29 27 20 37 31 36 26 22 33 27 31 34 23 24 24 22 18 29 36 31 33 33 34
36 29 24 26 31 21 23 28 19 36 20 33 36 27 25 27 33 24 19 38 37 38 29 35 31 38 24 26 33 36 24 36 18 25 38 26 29 22 22 37 18 32 25 31 30 18 29 33 38 32 28 31 26 31 32 28 37 33 27 26 29 27 34 22
27 29 26 18 37 18 20 38 20 36 33 24 20 32 37 37 30 21 30 24 42 34 34 31 27 39 35 34 22 37 35 23 23 32 18 25 23 23 27 35 24 39 35 38 39 41 28 24 37 31 22 26 22 29 36 38 18 26 32 33 25 33 26 23
18 35 33 34 28 38 22 25 38 33 27 30 19 38 35 25 35 40 40 43 38 36 27 36 31 22 36 34 25 23 21 35 35 18 35 18 37 31 30 31 35 28 38 42 32 40 39 29 22 25 19 23 24 28 18 36 36 29 25 31 34 38 27 36
32 23 22 31 33 31 33 38 37 34 22 23 20 33 37 25 37 32 42 48 31 36 47 42 38 41 26 38 26 26 29 34 38 28 22 25 35 34 27 34 42 39 49 45 44 49 30 46 33 28 27 33 35 34 19 35 25 28 31 37 22 29 36 31
25 36 21 21 29 36 26 31 32 21 37 31 40 28 44 47 50 42 44 35 43 50 48 43 34 31 30 32 27 40 26 36 35 38 37 21 30 40 48 47 43 42 44 44 38 33 36 38 43 37 34 38 34 25 18 20 27 20 28 38 25 33 31 29
28 34 25 19 27 28 19 18 32 19 19 23 43 37 30 35 53 49 37 40 53 49 55 36 47 52 50 40 31 27 41 27 34 24 39 36 47 42 50 35 52 53 43 37 56 56 41 47 33 43 29 27 32 30 21 26 24 35 21 32 24 24 36 27
37 22 38 20 32 28 27 36 21 27 33 25 39 37 37 44 39 56 46 50 54 60 44 42 40 42 42 38 37 28 34 32 24 25 38 41 39 39 39 56 38 48 43 59 60 43 51 58 54 49 35 36 31 29 25 37 36 33 26 26 33 27 23 35
34 32 30 35 21 37 23 20 25 29 35 32 46 44 49 50 60 58 47 54 59 51 65 58 60 45 50 52 36 48 42 26 23 28 31 47 36 51 58 44 59 60 57 45 61 57 55 54 49 47 52 46 48 27 40 38 33 21 30 30 35 32 28 28
18 23 23 19 28 32 22 32 25 38 35 31 48 38 53 55 56 65 65 53 55 49 50 50 51 57 55 45 38 34 45 41 46 41 36 49 45 47 55 44 50 54 62 67 60 68 51 63 58 42 39 49 36 42 31 29 20 23 37 36 31 31 25 36
25 23 29 23 29 18 37 32 22 29 32 33 35 55 45 47 50 65 60 70 59 67 72 65 51 57 53 44 40 45 34 44 44 35 31 43 40 40 47 54 58 55 63 72 72 65 59 58 56 49 53 49 35 43 30 33 39 29 25 31 20 23 22 28
25 19 34 25 21 28 18 26 34 44 48 33 54 57 58 46 65 69 54 71 59 73 63 61 67 54 49 50 53 51 41 52 51 43 50 54 39 49 59 49 69 57 72 66 60 57 64 53 50 46 46 51 49 40 35 42 40 19 18 38 20 34 21 27
27 23 26 34 34 29 32 27 30 38 46 42 37 50 63 62 54 65 75 62 71 73 71 74 70 61 54 50 49 39 50 40 39 35 38 47 50 61 54 65 72 58 63 75 64 79 57 59 61 60 60 53 55 54 30 40 27 22 36 32 30 19 24 33
24 19 23 26 34 29 25 26 39 42 40 38 45 52 63 50 56 74 65 69 71 64 67 75 60 53 59 64 47 57 47 53 47 54 39 57 60 65 66 59 61 73 77 83 82 78 75 73 54 70 48 42 54 44 39 37 26 36 38 21 27 35 19 30
37 26 32 29 21 26 20 25 27 44 37 37 49 54 60 55 66 77 67 72 68 70 77 72 62 56 71 65 55 40 37 43 45 51 43 45 61 62 51 73 73 70 75 88 80 74 62 78 66 58 50 62 39 54 47 42 41 21 36 19 32 18 25 33
24 26 36 28 19 36 38 23 33 43 36 45 39 46 61 56 73 59 81 83 81 77 74 72 66 65 56 55 54 43 50 53 53 41 44 54 51 63 62 62 74 75 74 77 81 82 75 72 62 55 52 50 47 52 43 47 35 34 26 28 33 23 24 25
37 36 21 38 20 33 26 29 43 47 38 43 57 45 58 69 56 61 62 66 78 79 84 65 78 62 51 50 48 55 42 38 55 47 42 43 50 57 55 67 72 65 82 77 73 77 75 72 68 58 56 59 47 40 37 42 38 20 38 21 18 20 23 26
24 18 30 18 28 32 19 39 43 36 35 37 47 57 46 52 55 59 61 80 82 64 66 72 72 72 58 46 46 42 56 40 56 37 41 52 48 57 62 71 58 63 68 76 74 80 61 58 66 70 57 55 55 39 46 45 31 33 18 30 30 35 19 25
19 21 38 22 19 32 19 28 37 30 35 38 45 58 51 66 55 61 77 64 63 73 75 77 70 51 53 63 41 49 34 51 43 44 46 41 42 62 54 67 54 59 78 73 79 69 62 71 62 48 47 57 55 50 31 45 31 34 28 33 24 30 32 22
23 38 25 22 33 37 34 19 40 39 34 37 49 56 55 59 62 56 64 70 60 68 69 66 63 55 47 45 57 36 45 34 48 34 43 38 57 49 61 49 57 71 76 63 57 73 66 64 68 52 55 46 36 50 45 29 30 30 19 27 38 36 37 20
36 38 29 22 18 20 26 23 37 43 38 43 40 47 47 54 59 67 63 53 56 59 58 52 51 61 56 51 55 43 42 30 35 47 43 36 48 49 43 61 55 61 67 64 68 65 65 67 59 44 59 46 42 32 36 29 33 37 31 36 37 29 24 24
35 28 18 18 30 33 34 22 31 31 37 32 40 49 54 42 50 49 49 64 61 55 48 47 58 46 49 47 50 49 33 28 38 36 41 46 38 39 43 50 60 55 60 62 64 65 52 58 63 57 51 36 35 48 33 34 21 29 31 21 38 27 22 21
21 22 32 25 41 21 41 39 34 37 28 35 47 41 54 57 48 48 54 64 63 69 59 53 59 50 55 40 50 36 50 35 35 29 41 37 39 55 54 50 48 57 50 51 65 63 65 66 58 44 49 40 40 33 40 38 29 40 31 27 40 33 35 44
34 32 25 36 36 37 42 45 44 28 44 50 44 39 45 51 53 48 61 53 49 58 70 56 59 65 47 56 55 39 35 37 29 38 51 55 50 57 58 49 59 68 61 55 72 63 67 63 57 61 48 61 58 41 49 36 46 35 50 32 38 44 43 38
37 29 34 48 33 47 35 46 44 31 39 51 45 42 55 53 52 55 62 54 64 69 59 49 49 50 46 63 42 43 53 32 32 52 55 50 49 50 46 55 60 70 66 58 55 53 57 67 52 63 53 53 56 47 51 52 42 46 55 51 55 40 54 38
33 31 43 31 42 45 44 34 28 36 26 30 37 35 43 51 40 42 40 57 47 41 43 41 53 58 52 39 45 39 35 34 35 44 37 37 38 38 44 58 49 47 55 49 45 55 50 61 45 43 50 54 33 42 30 39 42 46 30 47 45 37 48 40
40 29 37 36 35 40 40 26 41 27 37 33 28 42 46 30 35 36 44 34 34 38 49 40 51 37 43 37 35 38 32 41 27 25 40 24 28 32 31 51 32 48 53 46 42 35 53 51 34 36 41 28 27 26 28 30 29 43 40 38 44 43 40 27
30 28 33 27 20 35 25 30 32 31 24 37 31 37 25 33 38 30 41 30 36 32 25 28 26 23 32 21 19 30 37 31 19 32 31 34 18 36 24 27 24 26 43 46 40 35 41 42 28 30 34 28 19 23 27 38 25 22 22 28 24 32 25 21
37 38 38 32 34 25 25 31 28 28 25 18 25 28 26 38 25 30 22 39 34 26 25 24 37 21 26 38 29 29 29 33 33 25 29 20 26 23 33 31 25 28 31 23 40 32 23 39 27 18 21 30 28 33 27 35 18 26 22 32 25 36 22 31
23 28 20 22 37 35 18 24 21 27 20 18 38 30 18 34 22 20 25 31 33 34 36 25 28 36 20 25 29 37 31 34 31 18 29 25 34 24 24 38 18 31 20 25 38 27 27 27 21 25 19 28 29 32 24 23 18 31 37 36 30 35 18 25
30 25 30 24 22 31 32 34 21 23 38 37 37 32 30 34 18 31 36 19 27 22 24 24 37 23 32 24 36 22 31 32 25 29 30 30 31 25 30 37 19 28 36 38 33 36 28 34 33 32 37 35 24 26 30 29 35 34 21 21 23 31 26 30
31 23 27 30 26 29 20 19 18 35 20 20 22 19 34 30 21 36 33 25 26 30 28 22 29 31 25 22 23 27 38 38 25 21 22 25 38 27 19 24 21 26 31 34 25 36 21 27 19 26 37 34 18 33 33 38 38 34 26 19 24 21 20 21
25 38 32 30 30 24 28 22 27 21 26 31 30 27 23 32 26 19 23 37 34 29 29 33 24 18 30 19 24 26 28 21 31 34 26 36 32 26 22 32 30 21 35 24 26 22 38 22 37 35 33 36 37 22 30 37 24 20 23 29 19 26 20 28
38 36 25 33 22 18 33 29 23 25 31 27 23 24 27 22 37 27 20 28 23 21 30 22 36 31 25 36 33 27 24 29 30 36 36 30 20 19 21 38 21 25 25 33 20 38 33 19 37 33 33 22 36 31 33 19 23 32 31 18 36 32 18 36
20 20 23 31 26 23 23 23 22 31 38 18 35 22 26 26 24 31 38 20 23 33 18 33 22 34 29 37 27 31 25 26 30 31 36 32 26 18 36 26 30 21 32 29 33 18 33 31 28 29 19 33 33 33 32 26 23 32 30 32 36 21 38 29
36 38 29 26 26 31 25 35 33 21 22 18 36 34 26 37 22 35 37 25 35 30 22 29 24 22 29 35 21 30 18 24 38 34 27 20 18 24 31 32 23 23 37 29 19 38 26 21 24 22 20 19 23 29 35 35 33 23 32 30 38 24 31 24
18 36 28 33 19 25 21 38 18 35 28 38 27 22 29 25 28 21 29 18 35 23 37 23 26 18 29 28 26 19 25 27 27 37 30 23 22 19 32 26 33 22 30 35 36 18 30 32 31 33 18 22 31 18 37 37 18 20 27 18 23 24 32 29
32 36 30 37 21 38 32 35 36 30 18 18 37 20 28 33 28 23 33 21 34 32 33 22 21 28 34 25 25 23 26 31 34 25 36 22 27 33 38 33 35 28 32 29 19 26 37 30 35 30 29 33 19 36 38 20 31 34 33 37 30 18 18 28
28 35 32 29 26 34 22 32 26 20 37 38 18 24 28 23 29 26 34 18 31 24 20 33 19 31 33 33 19 26 38 20 20 36 19 32 28 30 34 35 22 37 33 27 37 36 38 21 26 34 26 21 35 23 34 35 37 31 23 34 19 36 27 30
37 21 22 32 37 21 28 18 30 23 37 37 24 34 37 33 26 26 20 21 22 38 34 20 29 27 26 21 22 37 18 25 30 30 25 20 34 32 28 36 24 35 26 37 34 29 20 25 37 24 31 29 20 24 29 29 29 22 30 37 20 38 32 18
31 30 27 22 33 30 31 20 25 29 32 29 24 36 20 18 21 23 26 36 20 22 30 23 25 26 30 18 32 29 24 34 29 24 31 33 36 21 25 34 36 35 35 29 26 25 29 32 37 35 32 27 21 19 26 32 34 27 31 27 27 21 27 33
26 35 22 30 21 21 27 27 22 24 35 32 23 33 19 18 35 25 18 25 22 36 33 27 25 34 19 37 24 27 31 35 32 36 26 35 30 27 24 37 27 29 23 37 35 30 32 18 28 36 24 27 24 36 21 34 18 38 27 22 38 26 37 21
27 20 18 30 29 28 38 19 21 29 18 28 38 27 23 35 31 25 26 22 26 34 24 29 22 33 26 35 25 35 24 37 37 28 34 33 38 24 30 18 21 38 30 27 31 30 34 28 22 25 18 22 34 38 31 34 28 34 20 19 20 36 19 25
31 27 35 19 31 19 32 30 36 18 22 28 35 31 25 38 19 33 20 32 31 27 29 27 36 20 24 23 29 24 18 33 38 18 36 33 32 35 27 22 26 31 32 35 21 23 33 28 38 29 37 31 25 34 26 24 22 25 23 37 37 21 30 24
20 34 22 31 31 27 35 36 23 27 34 31 26 19 37 24 20 30 36 19 27 18 26 30 27 31 37 23 19 23 31 37 33 30 36 37 33 35 22 19 18 24 34 24 38 24 19 38 24 30 36 32 19 38 21 30 38 25 27 25 21 36 28 25
31 36 21 30 33 23 24 27 34 28 38 28 19 29 29 38 21 38 36 22 29 30 36 38 21 23 30 28 31 33 19 38 23 30 24 25 20 37 33 31 31 26 26 35 19 33 20 24 21 31 20 35 21 26 36 29 33 23 38 27 29 35 25 29
22 30 31 32 31 20 35 20 23 18 27 37 26 29 24 22 34 24 27 34 32 25 24 31 35 23 37 29 21 33 25 33 28 22 21 23 37 22 31 29 21 27 36 33 22 19 32 21 30 21 30 34 33 36 19 27 18 34 20 26 30 36 36 27
