P2
64 64
255
21 34 23 38 31 34 25 29 35 35 36 24 29 22 25 30 20 31 18 25 30 34 23 31 20 22 19 35 37 18 21 22 25 28 23 38 20 33 24 24 23 20 34 27 21 38 29 30 18 31 35 31 23 21 21 36 38 22 26 32 33 20 38 36
18 23 29 37 31 23 31 24 37 30 22 36 27 23 19 32 23 23 33 30 33 26 36 26 31 19 34 23 28 30 28 31 33 30 36 36 26 33 30 38 19 34 19 24 18 26 36 31 23 35 32 35 34 22 33 18 38 38 18 21 37 25 35 38
24 33 25 38 25 21 36 22 25 18 27 36 33 33 37 29 22 34 27 38 32 24 36 21 30 20 34 20 28 38 25 31 26 24 20 28 37 22 24 35 27 35 27 38 33 21 38 20 24 21 26 20 34 32 38 18 33 21 23 28 22 34 20 23
31 24 22 30 26 35 34 18 29 38 19 31 33 19 18 33 37 19 27 27 30 22 30 19 20 29 21 31 21 37 30 29 29 26 24 29 24 33 20 23 24 25 23 25 36 33 24 18 33 38 34 38 34 30 33 25 20 31 26 27 33 36 23 27
20 36 36 38 28 19 34 21 19 36 20 22 34 36 24 23 34 37 38 35 30 33 32 24 32 22 30 36 25 27 26 35 23 28 32 37 33 32 27 28 25 33 28 30 33 24 24 18 20 29 33 20 35 21 33 30 23 26 36 38 22 27 30 20
28 36 32 24 22 31 33 37 31 21 25 29 38 22 34 26 22 27 23 31 18 35 30 22 18 31 37 31 24 25 38 27 34 29 18 26 23 22 21 33 33 29 24 34 29 33 22 37 23 19 29 19 36 32 25 37 36 30 25 37 27 19 37 31
35 32 19 35 27 38 21 34 36 23 29 25 23 28 31 30 29 24 23 25 30 38 35 35 31 33 21 36 35 26 27 38 21 21 33 26 37 20 37 27 25 21 30 37 32 27 37 33 30 24 34 30 20 30 33 19 28 34 23 27 28 33 34 22
31 37 25 26 20 19 24 21 30 25 28 37 21 24 37 38 25 25 34 29 21 30 22 24 33 34 36 23 27 24 36 23 38 24 28 19 35 19 23 28 31 33 30 34 31 29 32 34 32 26 32 27 34 32 36 31 25 24 18 38 32 38 28 19
33 32 23 23 29 35 28 25 32 31 21 25 20 37 32 38 24 27 35 18 36 22 25 21 38 28 22 18 27 38 21 20 23 36 25 31 20 20 26 25 20 33 38 30 24 20 36 18 31 18 25 26 19 36 31 19 28 30 18 26 32 37 35 25
25 25 31 29 23 35 36 33 23 20 30 33 26 26 29 34 29 19 19 27 18 21 36 34 31 26 24 18 20 28 32 18 35 30 22 23 32 31 35 28 33 27 26 30 33 38 37 27 27 28 33 37 27 32 36 35 27 30 35 27 30 34 33 25
30 31 32 22 27 38 21 19 25 29 32 30 19 38 36 27 19 21 35 29 27 21 22 19 33 32 21 30 21 34 31 36 20 25 28 38 18 38 20 25 36 34 18 24 35 20 29 35 21 26 24 25 21 37 36 23 32 31 34 33 25 32 34 29
25 28 21 34 37 19 26 34 26 38 34 34 28 26 31 38 31 28 35 18 37 28 30 36 35 18 28 19 26 19 34 33 22 36 22 35 24 22 18 19 21 26 32 24 31 27 37 35 18 19 27 38 25 36 26 35 30 37 18 33 25 38 36 22
25 19 32 38 28 27 36 36 29 20 34 30 27 18 25 31 25 21 20 31 34 31 34 27 38 30 18 27 38 33 22 24 21 19 27 36 30 18 28 22 36 18 35 26 34 25 38 23 18 31 22 28 29 24 18 24 31 18 34 28 26 18 20 19
31 24 19 20 29 36 21 19 19 20 23 18 35 31 32 18 26 31 23 25 25 36 35 24 32 25 21 35 34 23 35 32 37 21 21 31 26 20 18 38 33 24 33 38 28 37 26 27 22 38 18 34 22 25 28 21 22 37 24 32 32 22 28 34
36 28 18 25 20 34 37 27 18 33 37 30 20 26 19 28 37 25 27 25 27 37 22 26 31 37 33 31 19 36 36 30 21 22 31 29 36 32 28 27 26 36 33 19 31 23 31 24 30 22 35 30 18 18 35 19 18 27 29 34 25 25 21 37
24 31 29 20 20 18 30 20 20 34 34 35 33 18 30 35 22 18 24 38 34 22 37 35 32 28 32 18 28 24 23 26 20 23 34 18 30 23 32 22 32 22 26 36 25 33 20 20 36 21 23 34 27 34 19 24 20 38 34 37 35 18 19 26
37 18 27 21 33 27 38 25 18 23 19 25 31 18 23 36 32 19 30 37 38 22 37 29 21 18 34 32 22 21 21 30 28 22 35 31 19 30 30 23 26 20 19 32 23 32 28 27 25 26 34 36 31 29 30 21 29 27 35 27 32 26 20 19
33 30 33 34 28 25 33 25 22 21 32 26 30 29 26 26 27 34 36 37 20 23 29 19 31 35 28 29 22 37 36 32 21 23 32 26 31 32 24 22 31 32 32 37 20 24 20 37 25 35 23 36 35 36 18 24 37 19 27 19 18 22 18 19
28 21 24 34 35 19 26 23 29 31 32 32 35 20 20 38 38 19 19 30 38 20 25 25 29 30 22 30 36 38 38 24 36 28 23 21 37 24 27 18 19 19 32 20 23 37 35 28 22 29 27 36 32 33 21 19 22 19 32 24 33 26 34 24
30 37 35 35 35 22 19 35 28 30 27 37 27 33 34 23 34 23 33 21 26 31 38 30 36 29 19 22 22 34 36 35 38 18 29 34 23 19 31 27 35 37 31 22 31 25 32 23 39 31 21 35 31 36 37 22 30 36 19 21 21 25 28 36
22 29 28 36 27 38 25 28 19 35 37 29 23 27 30 32 34 31 44 27 36 40 45 28 39 40 28 19 21 25 34 29 25 35 18 20 36 30 34 33 30 32 37 27 30 42 34 24 31 39 22 29 35 32 23 29 30 32 31 18 21 34 22 26
32 25 23 33 32 32 20 37 19 26 20 21 28 27 35 40 36 30 40 33 47 32 48 34 40 36 37 41 23 26 39 22 23 24 22 24 35 29 43 29 40 41 49 49 46 48 34 35 27 42 23 34 27 29 27 21 34 19 29 38 24 24 30 32
25 18 29 20 20 35 25 35 38 25 28 36 29 35 43 35 30 35 45 53 43 37 39 37 43 36 29 46 42 34 47 28 40 27 32 28 45 43 42 34 49 52 46 35 35 36 49 39 45 38 35 30 33 28 25 26 36 22 25 18 22 37 28 36
20 25 31 18 20 37 28 25 25 35 22 33 31 41 35 36 35 48 39 37 38 48 53 54 42 57 47 39 49 43 52 50 46 39 51 57 44 44 39 55 54 38 41 54 57 57 37 41 52 33 46 44 34 27 21 23 37 33 28 27 24 27 24 27
31 26 25 26 32 26 26 34 25 37 25 28 38 31 52 38 54 53 56 43 51 54 50 63 49 54 48 65 48 59 48 52 54 45 57 60 65 60 63 49 60 59 54 56 42 47 52 39 46 41 43 43 30 36 32 18 22 31 36 31 19 22 31 34
31 26 38 36 20 35 29 26 18 29 38 43 32 50 42 45 50 47 57 63 45 60 54 65 61 63 61 75 63 61 59 50 49 70 58 70 71 71 58 56 68 60 65 46 64 64 53 54 42 58 36 51 30 28 39 32 27 22 18 22 30 23 29 26
35 34 24 36 24 19 18 25 28 29 44 40 40 49 40 43 44 56 53 52 59 63 70 63 80 71 79 67 67 83 63 68 64 64 67 75 66 72 75 79 64 72 75 72 59 66 53 54 62 61 57 55 40 36 29 40 31 33 38 38 30 35 24 36
33 33 33 20 19 21 21 34 31 43 39 38 41 50 48 55 51 66 63 53 73 70 72 77 76 74 84 78 78 79 78 73 81 84 79 75 80 86 81 80 82 76 66 77 63 60 70 57 52 58 56 47 40 49 33 35 36 31 33 21 37 38 38 19
29 35 19 21 33 35 24 37 33 32 31 51 56 52 61 51 60 67 59 69 63 73 73 89 85 96 83 81 87 93 76 89 92 96 93 92 84 91 92 78 89 80 87 72 76 68 60 53 67 63 53 46 37 51 42 35 40 28 27 28 37 19 24 29
32 33 26 27 38 33 37 38 28 46 41 45 55 41 56 68 57 71 73 73 89 76 99 96 91 104 88 88 90 92 91 102 96 98 85 105 100 98 100 99 99 82 85 75 76 79 72 63 59 62 64 51 48 42 30 35 27 29 34 35 34 37 38 28
32 30 23 18 37 35 27 27 32 47 32 39 49 44 52 54 63 68 62 73 78 97 89 106 108 92 112 108 106 99 111 102 100 114 108 109 103 98 106 94 98 106 93 89 76 69 65 64 54 53 58 44 44 50 35 29 26 23 30 33 33 22 37 31
25 30 19 18 18 23 22 40 40 47 44 53 51 52 50 64 73 78 72 83 96 89 100 103 112 113 98 118 110 111 110 109 115 110 102 107 119 100 104 101 101 108 101 101 84 75 66 69 68 54 64 53 39 52 37 37 26 30 37 20 18 19 27 35
32 37 23 18 35 32 22 38 42 41 44 47 40 44 58 70 75 79 73 79 108 96 103 107 113 112 115 104 117 121 120 126 118 115 108 113 121 113 110 118 113 116 111 111 103 83 71 75 69 63 58 61 50 35 46 38 32 34 38 21 24 20 30 20
33 18 32 19 25 29 29 28 40 44 51 54 41 45 56 67 72 73 87 83 89 100 104 106 111 120 114 123 116 120 119 123 128 131 121 112 112 110 124 109 115 108 115 92 86 95 70 58 69 70 58 57 53 37 42 41 26 26 33 32 19 32 35 18
24 28 35 24 28 30 28 31 38 34 50 36 56 59 64 56 71 61 82 95 86 103 107 112 118 120 110 128 119 117 121 131 134 121 116 111 109 126 119 116 109 113 113 109 87 76 79 76 72 65 48 52 44 52 32 28 40 30 19 30 33 35 28 24
35 31 31 28 31 19 25 27 22 39 46 41 41 55 56 48 61 64 71 91 97 88 93 101 119 102 110 126 122 123 118 134 123 127 130 129 121 112 114 115 119 106 108 97 89 86 68 60 65 67 47 55 47 37 39 42 27 29 27 20 24 33 31 24
23 37 20 24 28 37 25 34 32 42 30 50 50 51 61 65 66 72 79 80 94 94 95 98 113 117 121 118 126 118 120 132 134 126 127 127 109 125 110 119 113 103 90 89 79 74 81 73 66 56 43 40 38 36 42 29 28 19 32 35 28 22 29 36
28 37 23 19 30 28 35 35 22 38 33 42 44 46 54 63 58 66 76 85 73 84 87 109 107 107 103 120 121 119 112 119 123 116 122 128 110 110 107 112 113 91 93 96 87 66 75 53 56 64 55 48 53 43 29 30 32 36 20 22 21 36 31 20
38 37 34 22 29 30 18 26 20 39 40 35 42 35 44 55 44 61 60 71 82 92 80 85 106 106 112 101 110 116 116 109 119 124 120 123 118 100 112 93 98 91 85 89 70 80 74 63 60 49 57 55 32 29 27 39 24 25 31 35 26 28 32 38
29 30 28 22 26 32 21 30 18 20 41 33 49 42 44 46 55 46 61 75 63 82 75 81 85 97 104 103 100 97 112 116 109 112 110 116 108 105 105 97 83 85 84 74 64 68 54 58 54 47 43 38 30 37 36 32 27 37 33 31 34 37 32 27
33 33 34 25 31 33 31 21 25 36 24 44 33 50 37 43 43 42 47 58 61 69 75 75 84 89 87 99 104 101 103 90 103 102 96 91 94 89 84 101 87 74 85 72 57 54 50 48 55 42 46 37 37 36 22 24 36 21 35 29 23 32 28 36
23 35 25 30 29 31 31 23 24 18 22 23 32 33 32 50 34 46 47 51 58 74 63 84 80 91 85 88 87 96 81 99 99 82 91 99 100 96 91 84 77 74 70 57 69 61 38 43 38 35 45 41 24 41 25 33 21 23 29 28 21 34 25 29
23 37 23 23 19 21 32 37 18 29 25 29 40 36 42 48 43 31 35 46 47 59 69 65 80 74 79 86 83 79 87 85 74 80 82 79 87 74 82 85 65 64 63 67 60 40 51 40 31 43 29 33 26 30 20 29 24 37 21 30 23 36 27 32
32 34 29 29 24 33 37 20 31 35 22 21 36 38 32 41 29 39 31 37 44 55 60 60 59 63 70 79 66 80 77 85 79 72 85 68 73 72 63 62 62 69 47 54 37 44 48 42 31 43 37 38 22 20 36 28 32 23 18 37 32 28 32 33
21 19 33 24 34 26 21 34 27 33 33 30 32 24 20 21 25 39 31 42 45 46 56 44 67 50 60 56 64 61 64 80 79 65 69 64 63 56 70 56 58 49 40 50 51 33 30 35 40 30 20 33 32 18 37 32 20 31 18 21 25 19 31 27
26 18 21 37 29 23 38 30 20 36 25 18 24 31 25 29 30 40 30 31 38 41 51 41 44 61 47 55 51 73 75 57 71 64 71 63 58 53 57 52 41 38 37 48 30 32 22 28 30 27 19 30 35 37 25 26 30 30 19 31 26 33 18 36
37 25 34 38 30 31 32 34 38 37 29 22 37 19 32 27 26 31 36 37 27 26 44 37 41 55 40 56 58 48 51 53 59 59 64 60 59 60 42 43 34 29 38 22 21 36 31 28 32 25 34 22 18 28 24 37 32 20 30 35 19 27 23 37
27 37 38 35 31 37 20 26 27 21 21 38 27 27 33 23 18 26 36 20 20 38 32 40 41 43 40 45 40 52 46 55 62 45 49 53 58 41 37 35 40 28 30 23 37 32 25 31 21 24 31 28 28 24 27 28 36 32 35 38 19 21 25 38
36 22 35 31 18 31 33 18 29 21 35 30 30 24 20 21 28 33 31 26 37 26 34 31 22 46 31 42 33 38 37 47 49 44 55 47 46 33 41 26 24 24 32 37 36 37 38 34 18 29 32 34 23 23 20 35 25 30 34 29 24 31 22 31
26 22 31 34 23 21 32 37 22 34 37 26 26 24 24 24 27 29 20 18 24 30 18 22 23 29 29 41 45 34 31 45 42 48 49 38 38 43 42 31 20 25 37 27 19 25 31 38 19 36 25 34 32 21 23 33 22 29 34 25 22 34 31 21
19 37 28 31 18 31 31 21 25 19 38 22 22 29 29 37 27 18 36 26 29 29 34 24 32 18 37 29 21 32 43 27 28 33 30 37 33 26 29 29 20 33 29 29 21 30 38 31 18 33 36 35 33 35 20 20 24 34 23 25 33 26 35 24
32 26 36 22 20 38 32 38 19 36 28 29 38 21 31 19 20 29 27 38 27 25 31 20 34 22 33 29 36 32 20 23 23 26 24 19 34 31 21 37 18 23 31 28 23 32 26 31 32 24 24 36 29 32 37 18 37 33 34 33 23 21 35 37
26 22 38 24 30 22 36 34 29 22 27 23 35 25 26 19 35 22 30 26 28 20 28 26 34 30 36 32 23 37 25 34 25 21 26 37 27 27 35 31 32 18 19 38 31 37 30 31 26 36 24 18 19 37 36 24 19 22 22 33 28 31 30 25
22 35 30 35 23 33 20 23 38 37 38 31 18 38 23 37 24 30 24 31 37 24 20 34 29 32 30 35 37 23 30 23 35 26 29 27 19 25 34 23 22 25 26 26 29 38 24 22 27 26 35 31 18 19 20 32 34 29 25 36 29 22 37 36
35 37 24 21 37 36 22 21 25 21 37 22 33 25 24 32 18 33 25 22 22 30 20 28 30 24 26 28 27 32 26 20 31 37 35 26 37 31 35 21 27 23 27 38 32 30 30 30 29 36 31 38 26 29 33 32 19 28 34 30 25 35 34 26
32 18 18 26 26 26 29 18 23 31 30 38 35 21 29 19 29 25 38 29 26 23 27 19 33 37 20 23 33 24 32 21 20 38 33 37 28 20 18 25 34 22 38 26 27 23 36 36 28 18 33 22 33 30 38 33 19 26 18 24 21 38 27 32
26 30 24 37 34 23 29 26 20 29 38 22 34 38 33 36 32 31 34 36 36 29 31 34 20 25 26 29 27 21 35 24 28 25 26 18 35 26 35 38 18 31 36 27 31 30 18 33 27 33 24 36 20 38 29 20 30 27 23 28 37 34 23 18
35 36 31 23 35 25 25 24 21 37 31 21 18 26 24 33 24 22 34 36 37 33 23 24 32 36 36 33 35 27 36 33 23 21 33 27 18 34 23 20 34 32 20 28 31 34 27 19 38 36 36 18 33 29 28 23 25 29 18 32 19 27 36 22
18 32 25 26 26 36 34 30 23 23 21 30 31 28 22 20 31 32 30 30 24 36 18 32 20 21 34 26 27 34 33 32 36 24 23 30 27 34 30 25 32 30 34 33 36 20 22 32 26 36 18 19 21 23 38 36 36 38 24 37 32 35 37 26
18 31 36 37 30 20 23 20 32 21 24 31 30 31 24 32 20 38 27 35 22 28 18 20 30 32 38 24 34 33 31 33 36 30 19 35 33 34 31 35 21 21 35 29 35 26 38 33 32 29 26 18 35 34 34 20 28 25 23 21 19 33 34 35
27 27 30 19 20 36 29 22 33 22 38 36 22 33 32 21 37 24 38 21 32 25 38 33 32 34 30 35 28 25 37 24 30 36 27 36 34 24 37 36 29 38 37 27 31 32 30 31 26 30 37 34 21 23 26 31 37 19 30 25 33 23 23 27
24 27 38 27 32 23 18 28 25 30 36 30 38 37 29 33 31 37 37 21 26 34 18 30 35 24 25 36 35 26 38 22 30 37 30 22 33 22 25 37 32 23 38 24 33 34 28 18 29 27 37 28 26 27 25 18 23 37 33 33 25 26 26 19
22 27 18 33 28 24 30 27 29 27 34 28 21 26 29 21 19 33 23 36 21 23 26 20 27 18 20 25 29 24 27 34 32 22 35 21 25 34 38 37 33 35 20 25 35 19 30 19 24 35 19 22 23 27 26 31 30 26 34 23 21 34 20 22
24 26 20 25 23 21 38 23 28 22 19 23 28 33 18 36 20 20 21 30 23 37 34 35 18 25 30 27 36 22 25 20 21 22 37 22 36 19 30 31 32 23 27 25 20 22 26 31 31 22 31 19 36 24 23 35 37 29 35 25 18 30 36 33
