P2
64 64
255
26 18 20 25 15 18 24 17 26 20 15 15 25 17 21 16 23 15 25 17 17 24 16 15 22 26 16 24 26 15 24 26 17 21 17 25 20 17 24 25 16 22 24 25 20 22 18 23 19 21 14 17 18 25 15 15 21 19 15 21 17 24 24 23
25 14 24 18 15 14 14 15 26 22 17 23 17 23 19 16 24 25 17 19 22 22 20 18 26 14 19 24 14 19 23 14 23 26 14 16 20 19 25 19 15 16 21 19 15 15 23 24 25 21 19 26 17 19 23 25 18 19 26 16 17 23 26 23
25 23 23 18 24 14 21 19 25 19 15 17 14 23 16 23 19 18 19 19 23 25 23 16 14 15 21 14 23 18 23 17 20 14 24 21 15 22 14 16 20 18 19 17 26 19 17 26 19 18 21 22 25 22 19 15 20 24 23 19 24 14 19 24
22 25 23 15 22 19 19 17 18 19 24 25 20 16 24 16 23 26 17 17 21 15 26 21 25 21 22 23 25 20 22 15 15 26 16 16 25 23 16 22 26 20 26 16 24 23 23 22 22 17 14 17 19 16 18 22 25 23 21 25 20 16 21 26
19 16 18 16 23 25 14 19 14 26 26 16 18 24 18 24 18 22 20 15 24 19 20 15 14 21 16 25 17 25 22 15 20 16 22 15 18 15 22 24 20 22 15 20 21 20 15 23 23 24 16 24 20 24 26 20 16 21 22 26 15 21 17 24
23 20 24 25 17 17 20 16 23 18 22 18 20 19 19 25 14 19 24 26 26 19 20 26 21 25 17 16 22 20 23 18 26 18 26 15 21 15 24 19 25 15 16 17 23 14 18 17 14 16 22 23 19 19 19 24 23 16 18 21 26 21 18 23
21 14 24 26 22 23 16 25 25 24 14 19 23 22 22 18 21 20 22 23 21 21 18 14 22 18 24 17 17 17 21 19 14 19 20 18 18 18 23 15 20 24 20 26 20 24 23 14 19 24 18 16 19 14 14 18 19 24 26 24 25 20 25 15
19 19 22 19 21 15 16 21 17 23 16 23 25 20 19 25 14 22 23 15 20 23 14 24 21 19 14 25 20 16 17 18 21 17 23 26 21 20 23 17 17 20 24 16 22 17 17 22 24 26 21 23 20 24 16 24 21 21 17 18 19 17 16 17
25 26 19 18 24 16 14 14 23 20 16 22 15 22 22 24 21 15 26 25 24 16 15 26 21 15 17 23 14 24 22 15 24 24 18 21 15 16 21 18 19 20 15 25 26 14 24 22 20 15 15 25 26 15 21 24 14 23 19 26 14 24 18 23
22 16 15 23 19 23 25 16 17 22 24 15 25 24 17 23 20 19 18 25 20 26 18 18 19 21 26 22 24 15 24 24 20 16 15 22 20 25 17 15 21 14 21 22 22 18 14 22 14 23 19 24 17 16 25 18 26 19 22 16 17 25 24 21
19 22 24 14 17 23 14 19 22 21 22 26 24 17 16 26 14 26 23 25 22 19 15 15 25 20 24 14 26 21 21 23 22 20 25 22 18 24 14 15 17 14 22 19 15 24 22 18 20 23 19 22 24 23 14 15 17 15 14 21 22 19 26 17
25 20 24 25 20 21 23 14 26 14 21 24 17 20 16 14 23 25 25 24 15 20 26 16 21 25 25 23 26 18 20 19 16 19 16 20 23 16 17 24 22 20 21 14 15 21 25 26 15 26 23 18 21 22 22 21 19 24 17 21 20 14 16 16
14 20 17 24 19 14 18 24 17 23 24 15 18 25 23 17 15 18 24 18 17 26 19 14 24 24 16 23 22 15 18 22 24 19 21 26 20 24 21 23 24 20 15 14 26 16 20 16 22 18 24 18 15 22 26 25 24 16 21 17 22 22 18 19
18 15 19 23 15 15 22 15 26 18 16 18 22 16 23 17 14 16 20 22 19 21 16 22 21 23 14 19 14 16 17 22 16 16 17 23 16 26 16 23 16 21 21 17 25 14 25 19 25 25 22 15 22 16 17 19 23 25 21 15 15 17 24 24
26 21 22 18 18 16 18 20 26 20 25 16 20 24 26 22 17 24 15 26 21 23 15 18 24 15 21 25 16 14 19 25 25 24 17 23 15 17 23 16 21 15 25 19 19 26 17 19 14 18 26 20 21 21 25 22 18 17 22 25 17 26 21 16
23 22 21 20 16 14 22 26 26 24 25 25 26 26 24 25 16 23 20 16 15 23 21 21 26 17 26 18 18 22 20 16 14 22 22 24 20 18 14 20 18 22 22 20 23 18 25 17 22 26 25 26 14 18 15 15 15 24 16 17 22 20 18 15
15 21 25 16 25 20 16 26 24 20 14 18 16 15 26 16 17 19 18 21 17 18 15 19 22 25 14 25 26 20 19 25 26 16 25 16 19 22 14 17 20 24 16 17 14 21 23 18 17 16 15 14 16 21 16 25 25 20 23 22 20 25 20 18
22 24 21 24 23 20 15 15 25 26 24 20 15 26 22 19 22 26 19 22 26 24 17 18 19 25 19 26 26 18 18 16 16 17 26 16 17 21 16 26 23 16 22 25 18 26 19 16 24 19 15 14 15 24 21 14 23 24 21 22 21 14 24 14
21 18 23 24 21 15 18 16 14 18 14 14 20 23 17 19 21 19 22 23 19 18 20 16 24 17 18 26 24 25 26 14 20 20 18 19 26 17 16 20 26 20 25 17 25 17 23 17 23 23 17 20 23 16 17 14 24 15 23 14 22 24 16 22
24 16 24 17 26 14 26 16 16 16 23 26 20 24 17 25 15 28 28 20 22 18 25 22 17 24 17 16 17 17 15 18 20 21 16 23 19 19 15 27 25 22 18 25 28 24 17 27 23 17 23 22 26 14 14 25 18 15 22 18 26 16 25 21
19 17 22 23 24 23 15 26 15 23 17 16 24 25 15 21 29 27 32 21 28 27 29 21 29 19 24 26 17 19 17 24 23 20 26 14 23 18 24 22 24 31 27 31 26 33 26 23 18 17 23 15 19 15 20 18 23 15 20 24 21 14 24 18
16 14 22 14 21 15 16 17 16 15 15 22 16 26 25 20 24 24 35 37 26 35 31 27 32 22 30 31 17 25 21 26 22 20 24 19 20 20 29 31 35 36 26 37 36 36 29 27 31 30 23 18 24 22 19 26 14 21 17 15 15 26 25 23
21 19 18 17 24 19 18 24 14 20 24 27 29 24 30 29 26 28 30 29 38 34 37 40 37 28 37 33 30 32 27 26 35 27 33 34 25 25 25 29 39 33 32 33 30 32 29 37 26 34 28 20 19 19 16 17 16 17 18 14 16 23 19 17
23 14 19 17 24 14 19 17 15 26 23 27 32 35 35 32 30 41 33 39 34 42 33 41 33 36 38 37 42 42 38 40 35 29 31 33 39 34 36 42 43 40 33 40 36 45 33 35 33 31 28 28 22 29 20 21 16 16 20 16 21 15 16 23
14 19 15 22 14 16 25 25 20 23 24 25 30 35 35 43 44 42 40 45 48 46 49 40 50 44 55 49 54 54 41 48 45 42 50 49 43 45 43 50 48 42 42 44 38 48 39 34 34 32 30 30 31 23 25 15 24 26 24 16 23 23 22 22
26 22 20 17 20 14 24 24 16 20 29 34 33 38 39 37 44 43 50 47 53 49 47 52 54 61 63 53 58 61 49 48 46 48 55 59 54 60 60 55 59 52 48 43 45 51 44 38 36 34 32 32 28 24 30 22 26 17 26 16 26 15 22 16
25 23 16 22 21 22 15 24 14 30 23 35 34 42 37 43 45 51 43 53 57 48 64 62 65 61 71 70 72 68 67 59 59 59 62 66 70 63 65 60 62 57 60 58 53 55 44 50 44 41 40 39 31 30 29 20 14 24 21 18 23 19 20 25
20 19 26 25 19 25 26 15 26 22 25 30 31 45 37 47 54 46 48 58 51 64 63 70 72 69 68 74 69 79 68 64 68 75 65 74 70 69 71 73 66 73 71 57 59 52 58 53 49 50 49 40 32 31 34 27 23 25 19 21 22 22 22 16
15 22 23 24 19 21 16 22 21 25 33 39 41 46 47 52 48 54 55 55 61 67 71 74 82 84 85 78 79 77 79 75 83 75 83 76 85 84 77 74 84 74 71 64 67 63 53 60 49 46 48 46 33 36 35 25 27 21 15 14 17 17 22 22
22 22 18 15 21 14 19 22 28 22 30 34 36 42 50 55 53 60 53 65 69 77 80 85 85 81 92 84 91 84 82 82 88 82 84 87 87 92 87 89 89 88 77 77 77 59 64 63 47 48 47 42 33 41 29 27 24 24 15 15 23 22 15 22
16 25 20 17 25 15 19 21 27 31 35 31 37 38 45 55 55 53 58 67 76 88 82 88 89 96 92 94 96 89 96 95 96 96 95 89 96 99 101 97 91 95 83 87 72 66 63 56 56 58 50 39 38 34 30 26 24 16 24 24 19 17 21 21
26 22 19 18 25 15 24 22 31 27 37 35 38 43 44 53 51 56 63 75 85 85 98 101 91 94 106 96 95 97 104 103 108 105 99 103 98 103 101 97 94 95 97 91 83 77 65 59 57 57 52 49 47 37 35 34 29 20 25 19 19 17 26 26
21 20 23 26 23 14 24 21 23 29 35 31 45 46 49 50 61 66 66 76 92 93 97 98 97 103 109 102 107 107 105 114 110 109 104 111 99 107 105 98 104 104 95 100 85 80 66 67 57 57 46 42 47 31 33 30 25 17 14 23 23 19 14 22
15 24 25 18 15 15 18 20 25 24 30 43 43 49 52 59 63 62 69 85 93 96 101 101 97 109 108 114 110 107 115 112 111 110 110 111 111 111 112 101 96 97 96 90 84 84 70 62 57 52 49 45 45 41 36 29 25 20 21 16 20 21 23 26
20 24 24 25 18 16 15 26 29 26 34 36 39 44 42 56 49 56 69 79 85 92 95 100 108 105 102 109 114 111 120 118 115 120 115 110 111 106 106 101 100 97 100 95 80 81 68 58 61 56 51 42 35 38 34 25 28 25 26 15 21 26 18 15
25 14 16 18 20 26 15 22 29 30 28 38 35 46 47 53 53 63 61 75 85 94 89 95 106 107 111 112 115 118 115 120 131 120 117 119 108 103 108 99 107 99 99 94 78 79 67 60 47 52 41 41 35 39 26 33 18 25 20 16 15 15 14 24
26 26 25 18 16 18 15 17 18 28 27 30 35 39 42 42 57 60 58 66 73 90 96 97 104 99 106 103 108 120 120 125 123 128 121 114 112 106 102 103 93 91 86 88 84 76 59 56 51 45 44 38 34 36 28 29 26 26 14 23 25 19 21 15
15 19 26 24 22 20 24 16 27 23 33 34 38 41 48 45 52 58 62 70 77 84 81 95 98 99 104 105 111 106 108 121 121 110 116 109 113 104 108 94 98 92 89 75 69 63 55 48 46 46 48 33 36 28 26 21 16 16 23 21 26 18 22 14
21 22 24 16 18 20 17 21 17 29 29 31 31 32 39 44 49 53 57 64 72 71 84 91 87 97 98 100 100 100 102 103 112 110 112 103 104 95 99 96 90 83 76 80 76 57 59 45 41 44 36 31 29 35 27 22 26 23 24 20 21 26 17 19
15 22 22 15 19 14 16 16 21 17 23 33 37 40 41 40 46 42 53 53 62 73 77 83 81 89 93 92 100 103 96 98 98 98 105 93 93 90 94 88 88 83 71 69 67 53 49 46 41 39 32 37 29 28 28 23 26 23 15 19 24 23 18 19
20 17 25 26 22 14 20 26 15 26 28 31 24 35 32 33 45 36 47 49 60 69 71 81 79 83 81 85 94 90 96 94 88 87 95 97 87 94 86 84 78 78 70 62 61 57 44 46 41 40 40 33 25 27 22 23 14 16 22 15 16 24 17 14
26 15 26 26 25 17 26 21 22 18 18 23 26 27 32 27 36 38 36 53 57 58 70 65 68 74 85 86 85 83 78 76 80 81 79 85 80 79 85 74 75 69 68 55 51 48 35 36 37 34 31 28 24 24 25 18 26 26 20 17 15 25 22 20
21 22 19 18 18 16 26 24 26 14 15 18 25 26 31 33 36 38 37 46 41 50 54 58 68 73 69 74 73 75 75 79 73 78 74 69 75 68 72 72 60 60 51 49 42 41 33 30 31 26 26 25 18 26 18 24 23 17 17 17 14 22 20 24
15 20 15 15 20 23 23 23 23 18 22 16 23 20 19 23 34 34 30 28 35 48 48 49 59 64 68 67 68 66 67 66 65 74 65 68 60 69 58 62 60 49 54 43 43 37 32 24 25 20 31 20 19 22 15 15 21 16 23 21 21 26 19 22
18 23 22 22 14 23 24 14 23 22 22 20 26 14 16 23 29 29 21 23 37 43 40 50 50 47 49 54 63 67 64 62 70 69 63 57 56 59 50 50 50 42 38 42 28 28 31 21 28 20 27 19 16 21 20 20 17 25 20 26 16 22 24 22
16 23 16 26 21 20 14 21 25 17 26 15 14 19 15 18 22 17 24 23 25 26 38 35 46 47 47 46 48 51 57 60 52 55 57 53 50 54 43 47 37 34 40 29 27 26 25 23 18 22 23 24 20 17 24 18 16 25 22 18 20 14 25 23
17 20 14 17 21 18 23 14 25 23 18 26 26 17 24 15 21 20 21 26 21 25 31 33 37 33 44 47 49 51 52 55 49 49 48 53 46 50 46 43 30 35 28 28 25 17 21 16 20 22 23 17 19 16 20 17 22 26 15 22 15 25 22 16
17 16 18 24 16 26 26 25 20 19 17 21 15 18 18 20 25 26 17 21 22 22 23 20 35 33 33 34 37 41 47 45 48 51 40 39 39 36 39 30 36 26 18 21 26 25 23 22 26 16 19 14 21 14 23 26 14 18 18 14 26 17 17 18
24 16 18 25 18 21 23 21 22 25 23 20 21 22 22 15 23 25 26 24 15 20 20 24 24 34 29 37 33 43 42 38 38 38 43 38 37 27 36 28 30 26 26 21 25 19 22 18 22 18 26 26 20 21 19 26 20 24 22 14 19 21 22 25
20 18 23 25 25 23 22 17 15 15 25 14 21 24 19 17 23 19 16 25 22 20 15 18 16 22 30 32 28 34 36 31 34 29 29 28 35 24 30 22 23 24 16 22 18 20 14 23 19 18 14 21 22 21 25 16 21 15 16 21 16 19 23 20
14 22 19 15 25 19 14 26 14 18 15 18 24 14 24 20 25 15 17 21 23 16 17 26 21 21 14 24 28 31 31 33 23 29 20 28 24 27 22 25 14 22 23 17 24 25 14 15 19 25 14 19 25 25 16 20 22 17 16 23 18 25 24 21
16 17 15 17 16 20 21 17 22 22 14 21 18 17 26 15 15 25 21 14 17 20 22 18 18 26 18 21 16 23 18 21 21 16 24 15 16 19 18 18 15 24 26 19 19 25 16 19 26 23 16 24 17 19 17 17 17 19 25 20 20 20 22 21
23 23 26 20 21 19 17 15 15 25 14 26 22 15 21 16 20 26 26 26 20 15 17 23 24 26 17 17 23 26 24 18 26 23 20 15 18 25 24 22 26 21 14 26 24 26 22 21 17 15 18 19 15 22 19 24 23 14 17 25 25 18 14 21
19 15 16 15 20 20 23 14 19 22 15 24 16 24 18 15 18 14 25 20 14 23 20 21 18 26 24 15 16 21 20 14 17 14 17 20 18 24 18 22 21 16 14 15 21 17 19 25 26 23 22 20 24 18 21 24 21 19 26 20 20 22 17 21
23 15 16 16 20 16 15 24 15 23 15 17 19 16 15 20 19 24 17 18 21 14 22 20 25 17 22 23 16 23 16 23 21 17 16 19 24 17 26 26 19 22 23 18 22 16 17 24 18 26 17 18 16 22 15 16 25 15 19 24 20 15 18 16
26 24 25 16 17 18 21 23 16 19 24 22 15 15 15 17 23 19 14 24 26 15 14 14 21 21 14 23 15 24 25 20 24 22 20 26 22 24 25 25 17 22 18 26 15 20 23 15 25 24 20 15 15 19 20 18 25 18 19 15 19 18 24 17
24 20 21 16 17 20 26 14 16 23 19 22 24 14 24 16 15 19 18 18 25 24 15 16 16 25 18 14 14 15 16 15 22 16 21 25 19 24 25 19 18 17 25 21 15 21 22 25 17 17 17 26 18 20 20 18 18 16 18 22 18 23 19 22
19 20 25 17 20 20 14 26 21 15 18 18 20 22 22 15 19 14 17 24 20 23 25 16 17 19 18 16 20 14 23 26 20 19 20 19 14 25 23 16 16 25 21 16 15 14 17 23 24 18 15 23 17 24 23 14 19 22 26 20 26 19 23 20
26 19 21 14 25 20 16 15 22 22 15 25 26 18 23 24 21 24 18 22 20 26 19 14 24 17 15 17 25 23 16 14 24 14 17 19 21 25 16 26 19 15 20 20 20 16 23 23 22 25 15 22 14 16 17 21 25 22 22 16 24 23 18 17
20 26 25 15 22 19 23 25 20 22 23 24 23 20 14 17 18 16 16 24 16 26 17 26 18 20 16 19 18 25 18 25 17 18 17 19 25 25 24 15 25 17 16 22 18 15 26 22 19 21 19 15 26 20 16 21 26 17 26 16 23 20 23 19
21 21 22 15 16 18 25 17 16 22 26 25 24 23 26 24 22 26 26 21 20 24 15 21 15 25 15 14 24 23 24 20 25 24 18 23 25 14 24 18 22 14 23 26 21 25 18 22 23 14 18 20 20 15 25 19 24 19 24 20 25 24 26 19
23 23 20 16 18 19 14 16 23 21 16 18 17 15 18 16 17 25 25 16 19 20 20 15 21 25 21 24 17 20 19 16 17 16 14 19 19 21 14 19 26 18 21 16 19 14 25 16 21 16 21 25 16 21 19 18 15 26 23 21 16 14 15 23
18 23 20 17 14 20 25 17 25 24 20 26 22 23 21 22 20 23 23 23 22 24 15 15 19 25 26 16 23 20 21 18 25 26 14 19 17 21 25 23 16 23 16 23 21 24 22 15 17 21 16 14 22 17 15 18 24 17 24 20 25 21 19 23
20 22 14 23 21 21 20 17 23 17 16 14 17 22 19 26 21 22 23 25 16 25 17 26 26 24 21 17 16 19 23 14 24 25 20 14 17 22 24 26 24 24 25 26 20 25 26 20 18 20 19 17 26 20 17 24 21 26 25 15 21 19 22 19
