P2
64 64
255
20 29 21 29 37 22 31 38 38 22 32 32 33 25 29 29 31 38 32 36 23 34 26 31 36 30 37 20 21 31 32 18 28 19 24 27 19 21 23 28 19 38 20 32 24 23 20 22 29 30 31 36 38 23 32 33 19 20 35 19 37 35 20 35
19 37 31 18 21 27 35 35 25 32 35 31 26 35 27 36 32 30 32 27 25 38 24 38 38 38 31 25 24 21 38 29 34 23 36 23 18 23 25 32 29 36 36 18 24 33 35 34 35 32 18 33 34 36 26 21 29 22 36 38 18 34 23 22
30 26 19 21 23 30 24 31 37 29 23 38 22 26 25 21 28 22 35 26 29 29 34 26 23 37 23 37 27 26 28 32 20 33 29 28 20 30 32 30 36 37 33 24 33 24 28 35 36 21 35 27 32 28 27 34 23 27 28 20 34 37 20 29
27 24 35 25 35 38 34 22 34 30 37 33 21 21 21 34 37 29 38 31 33 18 32 24 30 23 31 20 35 23 35 37 18 22 23 33 36 21 20 34 20 32 36 18 24 32 32 29 19 24 20 23 25 26 35 35 22 23 32 31 20 29 23 26
19 22 32 21 22 24 33 24 33 24 19 22 27 20 30 36 38 38 35 19 33 34 38 36 34 19 38 38 21 18 19 32 21 22 28 29 19 26 37 37 33 34 23 29 19 36 28 18 27 35 22 34 31 18 33 37 21 35 22 36 34 36 37 33
23 30 24 30 28 32 19 38 25 19 18 33 31 24 30 29 36 33 25 18 20 34 33 26 38 19 28 21 33 38 21 31 23 25 33 21 33 29 27 20 18 32 24 19 19 30 30 20 22 22 38 18 19 27 36 29 35 35 38 19 23 38 29 30
33 28 35 36 22 28 25 21 22 30 23 37 30 23 28 26 30 21 25 33 31 29 36 22 26 33 19 35 28 31 22 21 22 30 19 25 31 20 25 24 27 21 20 33 34 21 23 33 29 29 30 20 28 26 29 29 22 29 21 33 28 34 38 18
18 38 38 33 18 25 24 18 35 25 32 19 38 35 35 25 18 20 38 24 30 18 25 23 34 36 26 22 24 28 33 34 21 31 18 23 20 31 26 25 20 31 25 31 27 30 28 38 25 21 21 24 24 24 21 19 28 33 38 33 33 25 34 36
26 24 34 30 36 26 22 25 23 34 37 33 19 26 25 32 32 37 32 28 26 31 22 25 20 35 33 33 26 24 20 34 32 38 38 31 35 34 23 23 21 24 23 38 28 35 25 38 35 24 30 34 24 28 20 23 31 21 20 18 26 20 38 38
28 26 23 28 34 37 30 27 27 38 23 30 34 37 35 35 32 25 37 22 22 37 36 23 21 28 23 34 33 18 36 29 23 27 31 29 28 36 33 33 28 24 19 19 31 29 29 28 29 18 29 37 25 28 37 31 27 30 25 27 30 34 32 30
25 28 27 38 20 34 25 23 30 19 35 18 34 21 38 34 28 23 18 34 20 20 34 36 25 33 30 24 20 23 36 37 28 34 25 26 24 34 37 24 30 25 36 22 24 30 32 38 36 18 28 35 33 32 26 22 22 29 23 27 36 36 23 24
32 25 28 34 19 29 31 19 37 38 35 36 20 35 30 24 34 30 28 38 33 23 32 19 21 37 24 32 32 32 35 35 21 26 18 36 29 23 28 25 21 25 33 29 28 23 23 24 19 25 21 27 34 20 31 22 30 36 30 23 18 19 30 18
35 38 28 36 18 37 29 34 32 23 24 18 30 31 27 32 36 28 23 34 21 28 29 30 30 18 37 25 34 30 36 34 25 31 34 28 29 25 30 36 29 35 31 27 23 19 23 24 26 36 18 34 28 31 27 25 25 37 32 18 27 24 35 24
28 34 34 36 22 37 31 33 31 24 30 24 37 34 35 22 33 27 29 24 22 22 31 32 24 19 25 34 25 38 20 34 23 29 38 35 29 22 34 26 21 23 25 19 21 23 26 31 37 30 38 31 34 35 18 34 37 22 20 19 22 21 30 30
18 27 25 19 25 26 25 29 37 18 31 18 27 18 37 37 37 22 27 32 35 30 26 34 32 24 34 35 26 26 32 25 28 25 32 34 35 33 37 23 34 28 20 35 33 38 24 38 30 35 38 33 34 29 35 38 22 30 21 29 37 36 27 28
27 19 18 31 25 28 36 27 27 18 30 36 25 35 18 28 27 29 36 21 34 38 38 28 20 27 28 34 38 37 24 28 24 37 27 25 31 28 33 31 24 29 30 18 26 37 23 33 32 23 38 26 29 31 28 19 22 21 25 37 24 19 31 38
19 21 34 32 37 36 35 36 38 18 25 28 30 29 38 29 27 18 20 30 20 30 29 22 32 23 25 33 36 33 28 20 19 29 26 36 35 20 22 21 38 24 27 31 23 22 36 36 21 36 23 24 27 20 34 18 34 23 30 35 19 38 18 26
18 28 21 31 26 29 34 36 29 26 38 21 26 31 35 21 26 21 37 30 36 20 38 26 24 33 32 34 34 29 25 33 28 33 30 18 36 30 21 30 29 19 35 36 38 37 25 36 26 29 19 19 37 24 25 28 30 30 36 28 38 38 31 32
35 21 31 35 22 30 27 20 38 26 35 38 18 37 22 37 22 20 18 18 23 37 19 27 25 33 21 18 35 27 34 36 21 36 25 35 18 23 27 32 32 23 22 38 32 27 23 38 25 38 36 18 33 28 32 33 20 24 25 24 26 32 18 27
38 20 23 36 32 25 34 25 30 35 27 33 29 31 27 32 23 40 34 34 24 26 27 22 38 35 23 29 20 20 21 30 28 31 34 42 44 46 31 26 26 35 38 30 26 33 41 40 20 36 19 20 37 37 37 26 37 37 22 32 21 35 27 24
28 37 33 21 36 21 25 20 34 23 24 30 36 22 31 24 28 42 40 27 29 30 25 34 30 33 36 27 18 20 23 21 27 32 32 41 38 40 49 46 54 39 45 33 44 32 29 34 25 31 22 27 33 31 18 33 23 19 20 24 18 32 22 26
37 33 28 33 31 34 32 31 34 33 20 35 33 28 36 32 41 39 46 40 40 35 29 33 42 31 33 43 33 18 25 37 44 48 49 51 66 71 63 56 66 52 44 47 43 31 29 27 31 30 33 21 27 35 22 35 29 18 31 28 22 28 37 24
37 34 37 26 33 33 34 27 28 22 33 20 30 36 35 42 39 33 46 40 48 48 46 50 50 30 36 43 29 40 23 46 50 53 60 72 85 89 87 80 65 68 68 42 52 48 40 35 31 41 33 34 26 37 27 18 28 28 20 35 34 34 20 27
18 28 37 31 23 32 28 27 20 22 29 26 42 33 31 48 34 55 45 50 44 44 55 40 45 48 49 32 44 24 27 45 51 65 77 71 81 89 96 92 90 71 71 71 50 54 37 53 52 31 31 35 42 28 22 26 29 32 26 36 28 27 28 20
19 25 23 27 38 31 38 28 24 24 40 42 39 49 47 43 56 57 41 44 49 43 44 49 49 49 41 42 41 43 33 59 60 69 74 97 93 101 102 97 87 88 85 68 64 42 55 58 44 38 48 43 37 28 39 31 34 22 26 19 21 37 21 38
35 32 34 29 19 21 21 34 24 28 31 33 48 40 44 52 58 58 45 57 65 61 55 53 45 42 44 48 32 34 56 57 64 76 97 106 111 119 109 121 114 88 90 82 73 63 59 60 49 40 45 45 33 35 31 27 37 35 33 37 35 22 25 21
20 26 22 33 30 21 28 32 28 30 44 32 34 53 49 45 49 54 66 51 55 59 58 63 45 55 50 55 46 52 44 56 72 71 95 116 123 143 119 126 116 106 86 87 67 62 64 64 53 56 54 48 38 45 36 37 28 33 36 25 37 34 28 35
27 28 20 35 31 30 34 26 24 29 43 49 51 55 49 60 56 60 65 59 56 59 69 54 69 53 63 46 55 50 50 53 74 79 85 109 110 130 115 108 115 113 89 89 76 72 57 69 49 45 54 53 40 41 44 27 39 25 26 19 24 29 23 29
38 20 32 27 27 30 23 28 26 36 33 51 50 42 45 51 63 64 58 74 58 68 76 64 70 62 62 54 39 44 52 57 66 72 82 107 112 117 121 123 110 101 85 95 74 60 67 58 50 54 44 56 56 49 37 43 31 35 25 33 25 24 22 21
26 23 31 21 30 33 20 33 39 44 50 39 38 56 52 64 65 56 64 64 66 70 75 60 69 54 65 50 55 43 55 62 62 68 75 95 107 99 118 99 105 104 99 85 80 79 69 57 53 63 46 41 57 54 44 40 40 39 32 33 37 35 29 29
22 35 34 19 24 28 37 38 32 37 37 46 42 51 64 51 71 64 60 73 74 66 67 73 74 56 63 53 44 49 52 64 71 70 79 86 92 94 107 97 106 85 95 80 74 63 62 76 67 68 63 53 38 38 32 45 23 27 20 24 19 35 33 30
19 37 32 29 32 26 33 24 24 30 39 55 55 52 62 61 68 64 81 66 88 85 72 79 77 65 71 47 55 56 44 60 61 82 89 93 100 103 90 90 95 99 81 88 82 70 81 75 59 54 58 55 53 53 32 40 36 20 31 27 30 31 18 28
28 30 30 30 28 36 35 34 37 31 36 41 56 55 50 64 57 69 70 84 74 87 72 78 62 71 69 53 43 58 65 75 73 89 106 105 104 92 95 92 85 77 78 87 82 72 67 75 67 71 63 54 45 35 41 34 33 22 27 37 18 21 29 23
33 24 34 36 33 25 27 29 28 34 48 47 47 55 59 66 60 72 71 73 82 86 83 68 71 58 64 52 61 73 81 84 92 105 113 118 116 108 91 97 74 64 84 74 69 73 73 62 58 54 56 51 39 48 45 37 43 35 34 30 31 37 20 22
30 26 29 29 31 23 19 37 40 40 51 53 50 50 53 60 61 77 66 70 81 67 78 72 70 67 59 55 78 81 105 112 114 137 132 120 131 130 107 87 80 65 73 75 72 66 75 64 62 57 66 46 41 38 43 31 37 27 19 35 25 33 32 24
32 26 26 31 25 36 32 24 32 46 37 38 43 58 60 68 70 69 59 79 68 72 72 58 68 51 57 60 82 103 110 134 138 141 144 153 146 140 130 107 99 86 59 66 65 61 68 75 69 59 53 51 40 37 41 41 26 23 21 30 34 36 24 24
28 26 22 20 27 26 21 31 36 35 46 32 41 59 61 53 61 52 71 63 74 62 76 61 60 52 55 66 83 117 117 136 162 164 178 169 167 150 138 129 108 87 70 67 64 76 63 60 68 60 47 47 54 32 34 26 36 18 36 33 21 23 35 22
23 25 23 30 29 27 19 25 39 32 30 44 51 40 56 64 46 61 64 52 67 69 69 60 49 46 62 75 108 122 130 156 170 186 199 188 190 171 151 137 114 91 64 61 56 68 56 51 61 62 46 45 39 36 27 42 39 31 26 29 36 34 31 20
26 31 29 23 20 28 32 22 28 37 31 49 45 48 55 59 50 61 47 64 55 65 53 56 57 51 56 75 103 125 153 160 188 201 215 204 191 184 159 125 123 95 74 64 59 68 50 55 55 55 43 42 50 45 31 35 24 30 33 35 34 27 18 36
21 33 29 31 35 20 36 28 24 22 31 46 50 52 39 41 42 44 53 56 49 61 49 49 43 54 58 81 102 127 151 166 193 207 249 215 191 188 166 142 111 96 58 58 48 45 63 53 47 57 51 47 35 26 23 32 28 34 30 29 32 27 30 35
32 38 19 38 33 37 36 31 19 23 31 32 39 40 38 43 55 52 51 46 57 49 56 46 49 52 48 71 92 118 131 160 180 193 208 215 185 178 149 125 110 89 67 54 55 45 43 53 53 43 37 30 43 25 23 18 26 27 30 23 29 19 21 38
37 33 25 18 33 29 20 27 29 34 28 25 43 31 45 34 48 52 48 56 54 41 41 55 40 33 49 75 83 112 136 140 168 188 181 181 182 155 132 109 104 74 65 53 51 40 42 47 41 34 49 38 33 22 39 32 22 25 25 34 27 21 29 28
27 29 27 23 28 27 29 32 36 18 37 22 26 43 42 42 49 31 36 52 43 49 40 33 35 47 34 64 72 103 113 130 136 153 171 167 148 129 128 107 86 72 49 45 51 35 32 34 47 31 27 26 34 38 18 25 20 20 33 25 37 30 30 37
21 18 37 30 20 34 27 37 27 25 19 32 34 30 39 33 39 32 32 48 33 47 31 30 43 28 28 44 54 82 103 122 121 133 137 139 136 127 110 89 70 59 47 49 48 32 31 31 40 38 26 33 34 34 29 24 23 18 19 32 31 30 29 27
37 34 24 27 21 29 20 21 19 24 21 34 28 18 34 34 35 38 34 32 26 38 40 33 39 40 31 25 41 65 85 90 103 103 122 101 108 102 80 62 42 29 42 44 45 33 39 24 28 38 37 29 32 31 20 19 26 31 36 26 22 32 35 19
25 19 33 28 19 28 21 38 37 27 37 31 29 27 32 28 20 34 27 39 22 32 39 39 32 30 24 27 32 38 48 80 83 80 92 85 74 68 60 47 33 39 26 40 32 39 29 33 35 34 23 22 22 34 30 19 18 24 28 23 28 31 30 21
22 30 20 28 31 25 20 28 19 24 23 31 23 37 18 35 19 30 25 24 21 35 30 28 33 35 26 37 36 38 39 58 53 59 67 54 47 52 44 25 28 37 25 29 24 18 25 26 28 34 24 36 26 36 32 18 19 38 19 28 27 28 33 21
36 22 38 31 26 28 28 18 28 22 32 29 19 37 33 26 34 26 32 24 23 18 30 35 33 20 34 20 18 29 33 36 28 49 37 40 28 29 22 28 28 21 34 29 38 32 30 35 30 21 30 38 26 20 23 37 38 36 29 27 38 19 24 29
37 29 18 23 25 37 22 27 29 20 19 29 27 33 21 27 29 38 29 20 29 19 23 31 30 20 28 35 20 33 29 33 33 33 21 26 24 32 37 29 37 34 27 35 33 35 19 33 24 25 27 30 24 28 32 29 18 20 23 35 34 34 22 22
35 35 19 31 30 37 29 27 28 36 35 19 32 24 32 33 19 35 35 28 23 37 30 19 24 29 24 18 31 26 23 26 34 27 30 24 32 30 35 30 27 34 21 21 32 20 34 29 26 28 19 20 21 27 21 28 19 21 23 34 33 25 25 34
26 29 26 23 34 18 26 24 22 32 30 28 26 32 19 28 19 23 20 18 30 36 24 36 31 29 31 18 31 36 27 24 22 20 36 19 30 23 27 28 20 22 20 28 23 27 26 28 22 33 18 30 21 34 29 18 25 37 35 18 26 19 37 32
20 24 29 24 37 23 23 31 27 30 29 29 19 36 38 26 33 31 27 22 37 20 22 20 35 35 32 33 35 18 22 32 23 24 29 31 31 33 26 19 23 25 35 19 30 24 29 37 36 26 37 32 23 33 33 32 28 23 33 30 36 35 30 29
31 23 37 36 27 37 29 33 27 27 35 31 18 27 23 37 26 31 26 18 28 29 20 30 31 20 23 26 30 25 31 33 22 20 37 34 21 20 33 23 24 18 26 18 34 23 28 19 26 18 28 20 25 32 35 28 23 38 18 20 34 18 27 30
20 23 31 18 18 35 34 24 33 32 26 30 32 34 18 29 33 32 38 35 25 18 37 23 38 18 25 20 32 29 32 19 21 25 24 23 32 26 18 35 29 21 37 29 33 25 22 36 21 18 30 35 32 30 24 36 27 31 31 27 23 24 36 24
31 21 32 29 33 38 22 32 28 27 29 20 18 36 36 28 23 23 24 24 20 27 24 31 37 28 18 28 25 31 25 26 19 20 22 28 37 30 22 35 26 20 31 36 21 37 23 19 23 28 38 22 26 19 18 26 29 18 38 23 24 33 21 31
20 36 37 30 30 22 36 24 30 19 27 34 28 28 18 20 18 19 22 33 31 29 19 32 24 29 20 30 37 29 38 25 37 37 38 20 35 27 20 24 28 31 20 18 21 23 25 33 32 34 34 30 28 26 35 25 30 26 31 31 38 20 24 18
22 27 35 33 31 23 27 23 22 31 21 18 34 23 23 24 23 31 20 24 25 30 29 30 23 31 29 30 34 30 32 27 35 35 35 30 30 29 19 27 35 33 27 26 34 25 32 34 31 32 30 23 21 19 19 32 21 18 23 32 27 31 22 27
33 27 19 36 31 38 22 35 19 19 24 35 31 29 20 33 28 29 23 24 24 28 30 32 20 22 28 36 24 34 20 36 22 35 33 34 21 22 37 19 38 25 21 29 22 22 34 28 36 27 24 27 23 31 27 37 36 30 24 18 18 25 34 27
21 29 30 19 33 28 19 34 19 23 18 26 18 18 21 31 29 26 18 20 37 23 38 32 22 20 25 31 37 22 18 20 32 35 22 37 24 38 25 32 36 30 30 19 22 35 33 24 21 28 21 18 26 31 31 36 22 23 21 34 30 26 34 37
24 19 31 24 36 26 27 20 26 36 36 21 38 38 19 26 24 28 33 29 28 24 26 22 24 32 19 36 27 19 26 36 31 35 33 36 24 24 34 18 18 27 24 36 36 34 20 24 28 32 35 24 22 31 23 20 38 32 20 18 22 20 23 26
33 29 29 32 28 21 34 32 30 18 37 35 35 38 26 18 20 28 30 29 19 27 23 37 21 24 19 33 27 22 35 37 33 18 22 21 37 32 24 20 22 30 27 31 22 36 32 32 34 24 24 38 27 27 34 38 30 25 36 23 22 29 27 32
33 36 22 18 29 24 33 30 25 21 19 35 36 36 33 19 33 27 20 36 22 27 32 25 26 24 24 21 28 33 24 37 27 25 23 19 31 36 36 28 36 38 35 33 26 31 18 21 24 37 25 24 31 23 25 27 28 24 22 21 23 19 27 19
22 35 32 33 18 23 38 29 20 25 20 35 38 27 32 22 34 37 36 24 26 30 22 22 37 19 33 31 38 26 22 21 24 19 29 19 22 22 28 37 33 20 19 37 24 26 25 23 36 31 28 32 19 22 28 22 33 34 37 35 24 25 32 33
20 30 32 26 24 24 23 24 27 36 18 18 18 31 35 25 28 22 28 29 26 35 31 23 20 33 33 38 35 22 21 30 31 37 34 35 25 23 26 37 35 30 37 25 34 21 26 21 23 37 31 28 28 18 23 20 18 18 19 23 33 34 32 25
