P2
64 64
255
23 18 18 21 29 23 25 22 24 36 31 24 29 30 19 32 25 37 28 26 31 21 32 21 20 31 25 29 37 31 24 18 26 30 23 21 34 18 23 28 38 19 28 30 22 34 21 23 36 23 19 28 25 37 32 33 22 33 20 33 21 37 23 24
22 37 28 35 33 37 37 28 36 38 38 38 30 29 27 20 33 37 33 32 25 32 26 22 22 25 27 28 26 22 26 34 19 29 18 19 32 34 36 24 32 33 18 35 30 38 30 21 22 27 35 21 24 19 36 32 25 21 20 30 26 32 21 25
27 38 27 36 26 26 33 19 26 19 21 26 35 32 31 18 33 29 35 29 26 30 19 20 37 36 18 27 32 35 18 32 21 30 33 38 36 36 23 30 33 38 21 21 20 18 18 18 35 36 21 37 25 38 23 29 36 21 29 31 31 25 28 27
20 35 19 19 29 26 34 37 19 18 21 26 38 30 34 19 18 19 25 37 23 23 35 34 28 30 35 19 28 19 28 21 21 34 33 18 33 26 29 38 22 31 22 27 19 19 38 32 30 33 23 29 26 33 35 19 28 36 23 38 18 30 24 24
18 24 22 36 21 19 34 31 35 34 25 26 26 24 23 27 26 23 33 27 20 34 37 21 22 32 36 20 21 27 35 20 37 28 20 19 21 31 25 21 22 23 24 30 25 22 21 32 38 38 26 34 28 28 24 18 26 20 37 34 32 26 18 24
25 22 27 31 33 36 33 32 30 36 28 35 27 38 30 25 34 29 22 18 31 27 18 31 27 32 28 35 25 23 32 28 23 22 29 27 20 31 23 26 18 20 32 30 28 29 38 30 21 34 35 23 19 18 27 24 25 25 34 22 18 22 21 26
28 34 21 35 32 26 26 19 19 21 21 38 33 27 28 30 32 28 19 25 18 28 27 29 35 25 29 32 21 27 31 36 38 22 29 19 30 33 24 32 37 25 21 25 36 29 23 20 36 28 30 23 19 24 19 28 32 31 19 36 18 25 30 29
30 29 22 32 22 38 35 37 22 20 27 28 20 27 33 38 24 23 19 36 20 18 27 24 31 38 32 19 35 38 35 36 31 29 36 26 18 23 32 23 38 22 26 22 35 37 22 25 38 25 37 19 20 29 36 31 29 30 25 23 20 21 38 36
36 21 29 38 35 30 26 29 21 35 37 19 19 33 34 37 27 31 25 22 31 35 31 26 22 19 22 35 34 23 19 32 37 31 38 30 25 18 28 26 30 19 38 29 36 34 34 33 21 21 38 22 38 25 34 33 20 36 25 28 23 26 26 27
24 35 35 25 37 18 28 35 23 30 22 28 33 33 38 35 37 26 29 21 38 35 25 23 37 33 24 32 27 24 28 27 27 27 21 34 21 23 20 22 38 18 22 32 36 32 26 19 27 35 32 18 30 34 20 35 18 29 33 29 21 27 35 26
35 38 35 35 30 37 28 28 32 29 19 38 28 23 18 38 30 24 38 23 29 25 37 27 34 35 22 23 20 20 24 27 36 24 32 37 33 34 20 27 26 32 30 36 30 33 19 25 26 22 32 27 25 21 18 36 27 34 28 37 26 36 38 31
33 28 21 26 23 34 19 23 37 18 21 22 34 23 27 31 22 31 35 28 22 21 20 28 35 38 26 29 24 32 38 38 33 37 28 24 22 23 35 31 18 21 25 28 33 24 19 34 21 19 18 35 19 25 23 33 24 20 34 29 36 38 32 20
19 34 20 34 38 37 29 23 37 32 38 22 31 23 36 19 20 30 24 34 37 31 28 30 30 36 32 18 37 38 29 36 29 33 30 24 19 31 38 33 18 20 23 30 21 32 18 19 31 34 23 25 35 21 22 22 27 19 33 35 27 18 31 37
36 27 30 23 33 19 32 38 18 34 18 18 30 22 18 32 32 20 25 32 32 33 37 37 21 24 32 24 28 34 29 36 23 38 24 31 38 33 18 29 36 28 34 38 38 24 31 24 27 32 30 30 22 18 34 31 27 21 29 27 37 24 34 25
31 29 22 33 25 21 32 32 24 28 37 18 35 22 32 24 27 32 19 26 32 33 27 36 37 28 32 20 34 18 21 18 20 22 38 37 35 30 33 33 30 19 27 34 23 26 37 20 34 30 35 32 33 30 26 23 18 28 18 36 28 34 31 31
19 29 36 24 29 24 33 29 20 28 25 18 34 30 18 22 35 34 19 28 23 34 30 30 24 34 19 30 30 19 24 30 24 23 23 31 20 29 36 29 25 21 37 37 26 27 28 37 19 18 24 23 21 32 28 29 36 33 19 37 19 31 30 33
29 33 35 23 33 24 36 31 19 19 27 30 24 32 36 38 36 22 34 27 23 28 38 36 38 26 20 25 34 19 31 38 38 25 27 21 25 34 38 31 18 30 33 37 37 26 20 27 24 35 36 34 36 19 38 29 28 21 22 19 20 31 25 19
23 22 27 25 33 35 20 34 25 37 31 33 32 22 29 28 25 29 30 27 35 21 37 19 20 28 34 38 38 33 30 29 37 22 37 34 36 22 26 36 25 23 33 38 32 21 29 31 24 36 37 31 26 23 30 32 18 19 31 29 38 30 19 29
34 32 31 32 36 20 18 32 30 29 33 32 22 26 38 22 31 34 30 26 37 38 33 22 27 19 18 25 26 21 21 30 35 29 25 36 38 27 33 28 38 19 24 19 32 24 32 22 29 37 23 25 33 25 24 37 38 35 35 34 26 23 27 27
19 28 32 34 18 29 23 19 31 22 36 21 22 34 34 19 39 27 38 26 42 33 33 40 27 38 18 23 18 29 29 22 33 28 19 30 27 38 28 32 33 38 36 25 33 37 26 28 21 26 24 18 34 38 22 20 22 29 19 25 29 29 33 35
26 25 32 37 23 19 24 35 23 22 34 22 18 33 25 31 41 40 42 37 44 33 41 37 45 42 44 42 38 24 37 19 36 26 23 23 35 27 27 41 37 45 25 31 31 33 30 32 38 29 29 29 38 37 24 29 29 27 37 29 28 32 25 27
19 29 20 33 19 29 34 31 20 38 27 29 35 23 38 41 37 42 38 42 34 42 51 59 55 45 52 59 49 66 45 43 40 38 25 26 29 31 43 28 38 32 30 38 47 42 34 45 36 35 26 23 31 38 31 18 34 27 36 34 28 35 27 25
32 38 25 26 26 35 27 23 25 37 27 26 39 35 28 38 47 46 49 52 53 45 46 59 71 69 80 80 91 90 83 77 55 51 40 29 34 26 38 39 33 49 41 36 33 50 36 33 38 36 44 32 21 22 26 29 26 32 25 34 26 18 31 20
31 37 26 37 34 29 27 19 32 34 36 27 38 37 43 34 50 54 46 54 53 56 57 69 76 82 100 112 117 107 100 99 68 69 52 32 39 34 45 48 53 44 45 51 53 46 43 49 43 34 45 39 42 38 22 23 26 35 36 33 27 32 24 18
18 35 19 33 19 25 22 23 19 35 26 29 35 36 49 44 51 54 41 50 65 75 82 86 88 113 121 144 139 146 123 117 95 68 59 42 34 52 37 53 47 41 48 53 61 46 44 38 57 50 46 47 47 33 21 31 25 18 20 27 20 18 22 29
28 35 36 30 20 22 34 37 24 29 25 36 34 48 49 47 42 59 55 63 58 83 79 94 91 118 141 160 168 164 157 130 115 78 74 64 50 38 48 46 44 45 50 47 55 53 48 51 53 52 48 33 40 45 39 27 37 27 38 33 18 33 34 18
19 25 20 25 32 23 38 21 28 36 29 39 46 55 44 54 63 47 47 56 78 75 88 93 98 129 151 166 177 163 183 155 110 95 75 61 45 52 53 45 46 56 53 58 68 66 67 47 63 49 50 53 38 48 27 23 31 33 31 29 34 36 38 27
26 27 24 34 27 35 19 37 40 31 44 43 52 37 53 62 52 63 52 59 73 89 87 98 107 132 143 148 165 165 154 132 112 81 77 58 37 42 50 58 64 52 70 60 53 53 62 69 62 47 49 48 41 41 46 41 32 25 32 38 29 25 28 38
23 24 24 38 22 33 21 19 33 30 35 33 51 46 45 49 59 69 62 63 66 91 93 107 104 127 136 139 154 157 133 129 109 94 69 60 44 60 53 60 71 63 74 66 67 72 66 66 57 63 49 41 46 52 36 30 41 26 28 37 19 20 27 21
37 34 34 27 26 22 26 37 27 44 43 53 41 46 51 57 66 63 76 71 74 97 97 103 107 115 107 119 129 134 121 114 90 85 56 55 53 50 62 71 66 57 65 70 80 66 74 73 68 52 51 55 47 49 49 40 39 26 26 28 33 26 37 32
36 23 22 35 29 24 22 25 38 42 40 52 43 61 55 57 69 57 83 95 87 107 123 116 116 99 103 105 108 95 105 92 79 67 57 47 61 55 70 62 61 75 68 81 80 75 79 66 70 70 58 53 55 35 34 47 34 36 25 37 33 22 38 31
23 18 37 20 26 29 22 36 34 29 41 38 50 56 65 68 73 80 93 97 106 114 137 121 124 112 89 78 90 67 81 65 54 47 49 59 46 58 71 74 68 69 79 80 69 82 78 72 59 64 51 50 46 49 33 36 25 34 33 34 38 36 35 33
19 38 32 38 20 38 35 40 36 32 36 42 59 49 65 62 61 68 92 110 132 145 135 131 129 113 96 84 60 52 52 42 54 42 40 59 48 48 59 58 79 81 86 84 80 77 72 68 59 58 60 44 48 50 42 43 29 33 37 25 30 30 18 28
38 38 19 28 27 34 20 20 28 40 50 39 39 50 64 62 63 90 90 125 136 158 147 140 129 103 85 69 51 47 41 47 41 39 55 50 62 50 65 57 62 77 76 68 83 84 76 73 68 51 60 62 51 44 48 36 40 25 33 26 26 32 33 28
30 28 28 20 38 37 36 32 27 46 41 54 56 53 58 61 60 81 103 109 143 159 155 141 118 117 94 81 50 56 40 36 56 37 50 42 62 51 60 65 65 71 67 81 79 66 60 75 54 50 57 42 56 50 48 38 39 34 35 23 22 38 38 32
32 35 38 28 27 28 34 22 37 36 48 37 43 54 60 57 54 78 105 117 118 150 154 140 115 99 79 67 47 53 48 43 39 39 38 52 42 62 50 59 69 68 65 73 64 61 66 65 64 50 51 57 50 42 46 40 29 33 37 29 22 36 34 21
24 35 35 24 28 26 32 30 26 25 41 46 43 44 52 57 51 67 82 99 124 117 122 120 114 102 81 54 45 51 39 39 39 32 52 39 50 63 61 59 54 63 64 75 74 70 74 69 55 53 53 52 56 38 44 42 29 24 19 27 38 29 19 35
33 26 27 32 22 21 29 38 29 39 28 39 51 56 50 64 47 53 77 80 93 114 112 102 95 86 78 42 55 50 43 35 36 29 40 40 42 42 57 52 61 54 64 60 71 57 61 56 50 64 52 56 44 46 29 28 23 30 20 27 19 33 24 27
26 18 32 21 37 28 35 22 35 28 28 33 40 51 49 46 44 46 62 63 82 88 83 84 72 67 46 55 54 45 47 29 26 33 40 41 36 50 41 44 48 62 61 58 66 66 63 47 54 45 57 39 39 39 32 24 25 30 37 31 25 34 35 18
25 27 25 18 18 26 21 30 22 20 34 46 41 34 49 38 52 44 43 56 55 58 76 75 51 57 50 40 44 42 26 25 30 27 38 44 38 53 52 48 56 62 62 65 63 56 57 54 41 50 44 50 49 31 27 23 35 35 30 23 33 30 30 27
23 21 32 37 25 24 19 22 27 30 22 31 46 50 45 54 50 52 57 58 49 44 49 58 51 40 55 35 46 33 25 41 27 38 27 39 45 43 41 40 52 41 60 45 60 54 59 39 41 42 43 36 37 25 40 29 38 26 23 34 21 23 22 32
36 21 26 28 34 25 24 37 36 20 25 26 43 42 41 40 34 54 38 41 57 39 45 43 41 52 44 41 31 32 33 22 34 25 27 43 33 40 42 52 36 52 42 54 40 56 43 46 40 35 44 35 38 23 19 21 35 30 22 35 35 32 31 22
20 27 26 26 31 35 36 31 34 22 31 37 23 34 43 48 42 34 50 46 43 34 44 47 46 30 33 34 35 36 23 36 23 19 26 36 24 32 28 40 31 37 45 52 47 49 33 33 40 44 42 27 39 25 31 32 24 18 23 23 36 25 20 21
26 33 25 36 32 36 33 38 35 32 27 28 20 21 37 27 36 36 38 47 36 30 37 46 47 43 24 39 21 28 32 33 32 25 23 30 32 28 32 33 36 41 44 32 42 37 29 40 32 32 24 39 35 34 25 28 34 25 36 25 27 23 38 36
24 23 30 20 18 32 29 25 24 32 23 32 20 31 32 25 30 36 37 44 38 33 31 25 25 40 29 25 32 20 33 34 35 35 37 26 20 22 27 39 29 43 40 44 30 31 36 28 28 35 29 34 23 24 30 38 23 35 30 19 27 27 25 31
31 35 36 38 30 29 35 36 32 21 36 30 27 29 24 30 33 36 23 32 38 37 26 31 40 21 28 36 23 22 23 28 27 33 35 18 32 26 18 29 29 33 38 26 35 41 31 37 33 18 27 27 34 22 18 26 37 30 26 29 27 19 28 27
21 19 37 33 25 30 22 25 24 18 34 19 23 23 37 32 34 23 19 29 34 29 35 29 31 28 29 22 29 23 37 32 20 33 31 28 20 33 21 36 24 37 35 20 30 23 27 31 18 29 35 27 36 32 31 27 23 37 38 38 21 26 22 28
21 23 26 18 28 37 35 29 21 33 22 37 30 25 27 28 35 25 27 28 34 38 28 36 28 33 22 38 18 38 18 23 32 25 30 25 19 26 35 37 24 38 23 34 37 34 18 37 34 36 30 18 35 37 32 36 32 20 33 31 31 25 34 31
29 22 25 27 26 18 22 28 20 33 34 21 21 27 19 30 26 30 28 26 27 23 29 28 29 22 29 38 19 28 37 34 27 33 30 28 18 28 22 28 31 22 33 32 28 19 36 27 35 28 36 31 21 21 20 20 31 38 18 36 29 38 29 37
20 38 38 32 30 21 37 18 30 24 27 27 32 31 31 36 33 28 22 29 32 22 22 18 31 33 36 31 29 19 37 30 18 26 26 38 22 26 34 19 37 26 32 27 24 22 26 33 38 33 33 37 36 22 20 19 37 33 26 30 29 26 24 30
23 30 20 35 30 34 25 28 34 38 38 35 29 32 33 27 22 20 22 26 23 19 25 31 33 18 35 20 31 21 35 20 33 30 38 21 21 37 25 22 28 38 32 38 32 23 31 36 35 27 20 18 29 20 37 23 34 33 27 28 38 30 25 23
25 29 36 28 35 32 33 18 28 25 32 29 37 30 38 19 31 24 29 38 21 30 29 36 25 28 28 34 38 25 36 31 37 18 20 35 24 19 20 18 38 19 29 18 29 34 21 24 30 20 19 33 18 25 38 20 30 23 37 20 22 23 32 33
36 31 22 27 31 30 31 23 27 20 29 37 25 20 22 36 38 21 32 20 31 18 27 33 31 20 21 23 19 29 25 34 22 29 23 38 22 37 24 30 36 18 38 24 33 35 22 20 38 27 19 24 33 23 19 32 37 21 38 19 21 25 22 21
18 21 28 21 27 37 22 27 19 27 19 38 28 21 32 29 26 31 32 27 19 33 24 32 31 26 23 19 35 30 25 22 24 20 24 33 33 26 24 22 37 31 31 28 21 36 31 20 31 37 34 29 32 21 23 26 23 21 30 26 25 21 26 18
36 25 28 18 21 31 21 26 30 35 34 28 26 36 31 34 21 27 24 21 31 22 32 21 35 37 37 36 34 27 32 22 29 22 32 23 26 25 22 28 21 29 32 23 19 37 27 18 18 32 37 19 20 19 34 35 35 23 24 19 35 29 18 31
34 27 37 35 21 30 35 28 36 29 19 34 32 29 34 38 22 29 19 36 38 18 36 28 27 26 25 37 20 37 33 35 21 29 33 25 37 22 27 29 30 34 24 34 33 35 36 36 26 26 35 20 21 23 33 21 29 19 25 24 24 27 19 27
25 22 28 29 24 37 29 28 33 33 29 38 20 37 27 22 26 21 29 31 28 29 36 24 23 21 23 33 30 27 24 31 37 26 26 32 35 36 32 35 21 20 22 26 19 28 23 21 27 36 30 29 35 31 20 28 33 25 30 26 35 19 34 27
24 25 28 29 31 25 29 20 22 33 29 38 28 18 33 34 35 34 24 30 33 34 35 22 20 29 18 21 31 20 25 19 28 19 28 38 33 36 37 26 19 29 22 18 33 37 37 26 36 18 22 35 19 26 30 29 19 23 24 24 29 38 33 34
22 38 36 30 26 36 35 32 25 37 19 37 37 29 25 31 29 25 29 25 31 22 20 34 18 22 26 19 26 18 36 38 32 22 19 30 23 27 32 26 21 38 33 30 26 21 25 26 23 37 23 26 37 20 19 36 23 28 30 25 27 27 27 27
38 22 24 30 20 24 28 32 30 35 36 31 32 19 26 32 33 19 31 32 23 18 38 28 27 21 21 21 19 18 23 35 36 32 38 19 21 19 34 27 26 36 18 28 37 26 27 19 27 19 28 24 24 19 38 38 31 25 31 21 34 24 37 25
30 31 33 27 25 38 23 23 29 18 28 30 26 22 28 20 30 31 20 18 33 22 18 34 26 27 37 25 24 21 35 20 20 32 19 27 34 25 18 31 19 22 19 22 31 19 25 36 32 28 30 18 31 35 18 33 23 26 29 32 30 35 30 29
30 20 24 23 31 24 18 31 29 25 21 23 36 18 19 31 35 23 30 32 35 32 24 31 24 36 27 28 20 37 36 34 24 25 30 38 22 25 35 24 24 37 32 33 38 22 28 19 25 27 29 25 20 30 19 31 26 23 31 32 34 24 31 38
32 36 35 25 36 34 25 31 24 23 19 24 29 31 36 38 23 20 20 22 30 22 37 28 35 20 36 21 29 32 24 22 26 20 32 34 19 27 28 18 37 30 37 18 19 27 34 18 36 34 27 18 23 18 23 28 33 32 23 27 19 31 38 23
28 27 29 27 35 32 38 30 23 33 32 20 37 26 37 38 37 28 33 20 32 27 25 38 21 35 35 18 36 23 31 31 36 22 20 31 21 18 26 25 34 35 29 35 29 22 24 21 34 22 32 30 26 25 30 27 31 32 30 36 31 34 22 23
