P2
64 64
255
34 34 29 37 37 33 33 23 20 29 25 26 22 36 21 35 33 35 34 34 33 26 33 18 38 20 25 23 36 22 18 36 35 24 22 32 26 32 33 22 33 34 35 32 23 20 36 26 31 26 29 24 32 30 23 19 21 32 19 26 22 18 21 21
20 33 18 27 20 29 19 19 25 32 18 37 30 27 34 26 28 30 30 36 22 38 22 25 24 19 37 37 36 18 22 34 35 31 30 33 34 34 26 33 35 21 19 21 23 24 32 22 36 31 19 25 31 29 18 29 33 21 31 23 25 28 38 32
23 31 23 24 28 33 38 22 32 24 24 35 27 37 28 19 28 29 19 23 23 26 21 37 19 36 37 29 21 26 23 37 21 31 22 37 18 19 32 35 19 29 38 29 28 32 22 34 31 37 37 33 19 28 23 33 19 33 34 25 25 24 19 18
29 21 21 33 28 30 25 27 28 26 36 31 26 32 23 37 24 29 32 35 20 18 32 18 30 22 38 38 31 28 33 37 33 34 20 20 35 34 21 32 34 33 37 21 30 18 28 29 20 34 32 35 23 28 33 36 29 24 32 30 31 31 27 36
25 34 29 29 19 27 34 38 31 35 18 37 34 37 31 37 29 33 35 26 20 27 27 29 38 21 18 30 36 36 29 28 26 26 31 31 33 22 27 31 32 32 22 26 37 34 25 29 28 29 28 27 22 37 22 27 29 37 32 27 35 26 31 24
29 33 28 19 31 31 21 25 33 34 23 32 21 33 28 20 19 31 24 35 35 27 25 18 36 34 28 33 28 22 18 19 36 26 34 37 18 34 35 31 20 29 20 37 22 28 21 30 21 29 27 31 37 24 18 20 35 26 37 21 34 29 29 35
35 36 37 31 32 37 23 25 23 35 32 19 23 34 32 35 26 22 23 27 35 21 35 25 24 30 22 29 38 21 22 38 34 36 29 20 19 27 38 32 23 23 33 19 27 33 32 26 31 33 24 30 22 21 18 19 24 22 36 27 35 18 24 31
35 24 26 32 33 23 25 29 35 21 31 24 36 18 24 36 35 38 38 35 31 26 36 29 28 28 20 28 21 21 30 32 22 18 18 23 21 19 35 21 37 21 25 19 28 36 34 19 21 25 21 35 34 35 20 20 27 27 31 35 21 18 37 36
22 35 30 31 24 30 19 35 36 34 26 30 21 37 36 27 26 22 37 34 25 38 20 21 30 30 33 27 28 27 29 22 19 18 19 20 27 26 19 27 33 23 22 19 21 21 27 25 23 27 19 35 32 25 30 37 19 24 32 26 25 27 29 35
29 27 19 25 31 30 18 32 24 27 22 31 26 27 27 30 22 27 20 26 38 26 26 19 33 33 36 35 21 31 23 37 34 25 18 36 18 28 20 38 18 20 32 32 34 24 27 34 33 19 19 24 30 33 19 21 35 30 23 31 22 19 31 19
24 18 34 24 30 18 24 29 18 27 30 23 34 24 26 29 30 28 18 31 21 20 22 21 21 21 22 31 29 37 34 19 35 35 23 35 21 18 37 34 28 37 32 26 23 22 18 29 24 32 18 32 27 24 29 35 25 22 32 21 27 24 19 19
34 34 30 36 36 20 32 26 18 23 27 29 25 38 37 36 22 34 23 18 33 28 25 29 36 29 29 27 18 28 25 38 24 33 27 33 32 33 35 19 30 26 21 25 22 29 34 28 22 22 27 33 28 31 22 35 31 37 30 30 25 26 20 24
23 37 20 37 29 21 31 35 24 34 20 27 32 31 32 29 32 26 27 19 27 21 28 37 26 23 34 34 38 20 35 38 23 23 32 35 24 23 23 33 30 35 20 23 31 20 26 29 29 19 34 35 19 26 27 25 30 38 31 36 24 33 38 19
23 24 38 32 19 38 28 24 37 36 32 28 22 25 22 18 37 25 30 24 36 37 19 18 36 26 37 25 30 34 21 36 28 23 22 26 23 33 18 18 37 18 20 26 35 27 20 36 34 35 38 38 33 24 32 34 38 25 27 18 34 29 24 38
23 20 35 37 30 34 34 24 31 18 35 23 20 29 29 25 38 30 25 33 28 31 33 30 23 33 30 22 38 20 23 34 27 30 22 19 21 21 25 24 36 28 18 24 18 19 38 33 30 23 34 28 35 37 30 24 28 21 36 28 32 28 23 30
18 37 37 35 21 35 37 27 35 31 22 37 37 35 20 36 20 28 19 24 28 21 19 27 19 36 21 36 26 26 37 20 22 20 36 35 27 18 23 18 31 33 19 33 30 29 28 18 26 23 18 33 34 31 19 24 19 24 25 23 29 26 32 22
35 36 20 36 20 34 34 30 38 31 29 23 22 36 29 31 28 32 19 27 21 27 19 27 37 34 35 29 31 33 23 38 33 19 38 25 20 20 27 28 24 27 38 28 28 33 30 22 24 23 24 20 29 25 27 23 24 23 34 31 38 20 32 18
30 37 18 19 36 31 23 21 25 20 35 20 25 29 25 18 31 25 36 32 38 23 32 32 27 30 37 20 27 27 23 38 32 38 22 18 23 23 21 18 25 21 30 38 34 23 21 35 22 26 25 32 37 34 18 25 29 25 22 18 37 33 35 36
34 18 27 18 29 18 20 23 29 35 23 38 34 30 23 25 36 37 37 34 24 30 20 21 24 29 19 32 33 21 36 28 21 22 34 32 38 34 33 26 32 27 26 21 27 35 26 28 38 37 29 18 29 28 21 26 24 29 32 37 18 34 20 38
21 37 36 25 26 28 27 34 35 21 31 28 21 32 22 18 39 31 36 39 37 46 47 53 36 24 18 20 18 38 28 22 33 25 25 21 30 35 31 26 34 23 31 35 33 41 26 36 26 27 32 31 22 26 30 33 22 34 18 28 28 32 23 31
35 27 37 29 30 20 20 35 18 36 30 26 37 20 33 41 32 24 36 46 58 70 73 74 69 55 32 22 22 33 18 38 32 26 32 28 20 38 37 24 38 36 38 44 36 29 31 27 24 30 24 20 36 36 37 34 37 21 19 28 30 33 37 24
32 30 37 22 31 18 19 38 32 21 35 33 34 29 31 33 35 29 51 77 81 80 89 95 71 65 57 41 34 21 23 19 36 35 24 26 21 43 37 38 46 44 39 47 48 49 42 28 36 41 41 37 31 28 36 24 25 21 32 27 28 23 25 33
21 18 20 38 24 19 37 18 19 23 25 34 32 28 38 34 43 51 68 83 98 97 118 96 86 76 54 48 28 34 25 33 29 20 23 37 26 40 36 32 32 40 38 50 44 41 34 42 49 29 42 43 36 36 33 37 23 20 37 29 32 21 21 22
34 25 24 18 38 36 21 24 22 21 25 27 40 40 35 35 53 66 84 103 103 116 125 126 103 86 64 54 42 39 24 19 27 20 27 26 46 40 48 51 45 36 38 56 37 50 39 50 52 36 34 36 27 38 28 29 29 28 23 21 36 22 23 22
37 28 27 35 26 28 27 26 34 28 22 40 32 37 32 51 38 57 80 104 123 146 158 143 115 106 73 58 44 32 26 28 29 29 35 46 42 37 42 37 38 59 53 52 55 49 42 42 42 46 48 47 46 26 28 38 35 35 31 33 23 31 33 32
26 31 24 38 20 37 35 37 32 33 39 41 37 44 36 56 43 69 78 95 117 124 130 126 107 104 70 70 51 31 26 24 37 41 43 45 32 53 57 42 62 57 46 65 65 62 51 50 57 45 43 34 36 35 39 26 35 38 20 34 27 22 35 20
36 30 34 19 21 26 20 25 20 35 42 34 32 45 43 45 49 70 84 92 114 121 135 127 104 101 76 66 49 48 40 45 36 44 48 36 35 52 45 50 56 64 58 53 66 66 64 47 57 56 48 44 33 29 27 37 37 32 37 21 28 19 21 21
21 22 18 37 33 23 28 20 29 40 27 33 53 40 54 56 64 61 71 88 102 107 105 104 95 93 69 60 52 39 40 35 48 31 40 36 38 58 62 61 52 67 66 62 57 61 68 69 46 62 49 41 53 37 28 44 39 32 28 24 33 23 18 19
19 19 28 22 29 23 32 36 34 32 37 41 46 39 45 64 69 72 60 86 102 104 101 96 80 74 64 44 52 53 47 36 42 48 36 53 52 52 49 49 70 63 57 64 71 58 55 63 69 54 63 48 53 40 42 25 22 28 36 38 34 32 23 24
26 18 24 21 34 36 34 29 24 34 45 48 49 54 55 68 59 75 77 66 72 92 76 72 74 70 51 56 57 39 51 52 50 39 40 56 58 62 67 56 68 70 68 77 70 72 67 64 52 61 46 50 44 40 38 43 39 33 23 23 36 25 29 32
21 31 35 30 38 19 30 24 35 46 40 36 42 43 63 54 72 64 69 83 82 67 77 80 66 70 54 66 45 52 38 48 42 45 44 50 47 51 70 66 75 62 76 65 70 66 78 77 73 53 51 58 52 49 33 45 23 32 19 31 25 22 29 36
27 30 26 20 20 18 37 38 38 29 33 46 48 47 64 59 67 68 71 83 73 82 79 71 72 63 56 57 59 44 38 46 39 46 45 52 50 47 62 74 61 73 71 87 85 77 67 68 73 58 53 45 39 49 43 33 27 22 33 38 37 28 25 35
30 24 21 29 24 34 37 36 29 47 52 42 58 47 56 70 73 60 66 75 84 71 71 79 78 64 52 52 46 58 47 57 49 52 43 39 63 67 66 56 62 66 77 90 89 87 68 78 75 68 56 48 50 50 52 35 27 34 22 35 30 22 32 30
36 31 37 32 28 26 38 27 44 45 51 39 50 53 49 67 63 64 80 76 74 87 84 69 77 59 63 56 49 47 53 52 48 52 57 42 57 59 69 80 64 81 74 88 82 67 66 76 66 70 54 51 47 37 40 30 34 34 36 19 21 31 19 29
19 31 23 20 28 31 37 36 23 30 47 44 38 45 61 61 67 76 80 63 65 82 72 78 67 69 57 61 56 43 45 44 52 52 63 51 72 60 76 70 80 86 79 77 75 82 70 67 73 64 50 54 46 48 37 38 29 36 29 31 28 18 31 21
31 37 34 22 21 32 29 32 33 40 36 39 56 60 59 55 69 72 59 59 67 75 59 61 57 58 65 53 51 57 54 35 49 45 63 57 68 82 88 78 84 80 88 88 71 76 74 64 70 51 65 46 52 49 43 35 26 30 32 30 18 26 30 35
21 30 19 32 26 23 26 30 28 39 45 32 52 41 52 66 61 72 67 76 63 70 80 65 66 62 69 44 48 48 35 47 49 56 61 61 71 78 88 79 95 78 85 79 84 78 73 54 60 63 54 58 43 50 42 25 36 38 31 22 34 25 20 38
34 22 18 34 19 24 19 21 34 35 47 45 47 42 52 55 50 55 68 74 78 70 71 87 87 74 60 60 44 51 49 53 44 61 72 79 81 87 88 99 88 97 84 94 75 62 69 60 49 59 51 52 44 35 36 25 30 36 23 27 38 30 23 32
32 33 19 35 36 18 26 33 20 22 34 49 50 35 58 56 49 62 73 81 78 95 91 95 94 78 77 67 53 44 43 39 49 67 80 79 87 99 88 95 99 84 98 76 88 71 62 56 54 45 48 40 34 43 36 32 24 28 35 37 31 32 19 32
19 35 27 25 34 19 37 37 37 20 41 34 45 48 47 41 46 60 73 76 84 88 99 104 96 75 82 56 62 51 36 40 46 65 66 88 97 103 90 100 105 97 92 96 82 74 72 56 49 45 50 52 36 26 43 22 22 31 21 23 24 24 27 27
24 26 26 19 30 32 36 38 31 33 30 44 34 47 41 47 54 62 72 71 92 87 96 92 89 98 87 77 61 50 50 50 46 68 70 77 94 102 112 110 111 97 86 90 85 72 54 50 44 40 38 32 32 36 28 31 31 24 23 20 29 29 29 26
23 25 22 28 27 37 31 38 33 23 37 27 27 28 49 33 43 51 71 86 79 91 96 109 110 94 76 78 57 40 49 40 48 59 70 83 101 110 108 108 106 99 101 90 77 66 53 58 35 34 30 45 36 28 30 36 35 20 19 38 38 36 30 20
30 27 29 26 23 29 33 19 26 31 20 33 33 40 35 29 44 44 56 77 78 84 94 124 105 101 82 67 62 44 46 47 65 60 82 80 87 105 105 109 111 94 90 86 78 60 49 53 50 48 32 44 37 39 23 35 32 25 27 18 37 25 25 28
21 38 20 25 18 28 33 27 29 36 37 28 29 36 33 25 37 55 51 61 82 84 102 104 89 86 83 60 51 48 48 45 54 72 74 69 92 104 91 90 95 88 86 84 77 65 53 48 42 39 24 25 35 35 29 19 22 19 23 27 29 21 33 30
29 28 28 28 25 21 29 22 22 38 25 38 21 33 36 24 38 44 54 68 74 77 82 86 90 81 68 63 47 38 47 48 54 68 70 70 73 85 85 95 93 79 77 70 65 51 38 43 30 24 39 35 38 21 20 32 35 22 38 34 33 19 28 21
31 36 30 32 34 38 22 20 19 29 34 23 35 22 21 18 39 33 43 54 65 70 76 78 63 63 66 41 38 41 38 36 53 49 62 70 72 87 70 76 72 75 76 57 52 49 41 36 19 38 32 18 31 19 24 18 28 35 30 37 30 31 29 35
23 34 36 36 20 28 33 26 24 38 34 29 24 25 25 29 31 30 39 45 56 45 49 61 62 45 57 46 37 22 44 44 49 52 70 60 60 67 75 69 66 75 57 55 51 37 44 35 32 34 36 35 19 35 35 21 26 28 24 36 20 21 28 33
21 27 34 23 22 22 19 33 32 35 23 36 18 29 35 23 22 26 36 30 45 48 46 56 38 44 38 37 23 21 26 32 44 43 62 64 70 69 65 54 71 49 60 43 42 28 42 37 20 37 31 27 35 26 29 29 18 34 18 24 38 34 19 27
33 33 35 20 18 38 38 30 25 28 22 34 19 19 24 21 23 38 29 26 29 41 41 33 46 35 25 38 33 25 25 32 32 44 45 52 65 64 50 59 46 51 47 39 41 38 22 23 27 35 30 20 30 27 20 29 33 26 26 36 29 21 25 26
38 31 37 20 38 24 36 27 37 20 34 25 25 24 26 25 38 24 20 37 29 32 27 32 38 20 23 28 35 34 28 20 30 30 49 49 52 55 50 42 50 40 37 33 34 19 36 33 32 29 26 35 24 24 18 25 31 26 35 24 34 38 26 30
37 24 19 19 20 26 29 29 28 36 21 26 22 19 27 23 21 20 20 22 35 23 23 31 35 32 34 26 34 37 31 28 38 24 25 38 39 38 50 37 42 42 42 32 25 36 32 24 33 25 26 34 21 30 18 24 27 25 24 37 34 23 21 25
29 23 21 38 32 28 22 24 37 37 22 34 24 29 38 37 35 18 23 30 36 26 18 27 37 25 36 22 25 32 24 34 30 21 34 21 25 45 32 33 37 27 32 27 19 29 25 26 29 18 37 33 33 23 26 34 20 36 32 28 35 24 29 20
28 35 36 30 26 19 26 30 36 25 22 22 18 35 20 18 27 18 32 38 38 35 25 21 34 32 31 19 31 32 23 20 23 28 25 34 20 30 26 32 35 28 21 18 38 35 21 28 20 21 20 36 25 23 23 24 38 21 30 27 22 19 18 26
24 28 30 28 20 25 30 33 21 34 31 22 29 35 29 22 34 18 27 33 20 32 27 30 29 36 32 19 25 26 37 30 24 26 31 31 37 18 19 31 23 32 27 18 35 23 32 32 32 34 34 37 30 21 20 24 29 37 34 22 28 30 36 18
20 27 27 28 18 18 35 32 35 31 18 28 26 23 26 28 19 19 19 21 32 23 29 22 35 31 23 35 31 30 20 22 22 29 24 33 20 25 33 20 38 22 22 31 37 21 35 36 32 29 26 36 35 24 32 28 19 28 23 31 34 36 20 29
25 37 32 24 28 32 20 25 31 20 30 32 38 18 26 38 18 25 24 32 34 29 36 24 22 31 19 18 26 25 21 27 28 37 18 26 31 27 20 36 20 24 35 27 32 18 34 35 31 36 24 30 22 38 27 34 30 32 37 28 25 32 19 29
22 22 30 23 31 25 29 25 35 34 23 21 24 33 22 37 28 27 38 19 23 23 36 36 21 28 25 24 26 23 33 20 20 29 36 34 32 37 30 18 38 18 35 35 18 25 38 21 35 33 28 38 38 29 36 36 35 27 27 19 19 31 37 37
20 23 34 21 22 38 25 26 32 37 38 38 27 25 23 35 33 20 18 26 38 22 22 32 36 24 31 22 22 19 36 34 18 36 36 37 19 37 32 35 30 37 22 33 19 18 36 29 38 30 22 24 22 18 25 34 30 25 20 36 24 22 27 36
38 32 35 36 38 30 20 30 37 31 25 27 25 24 30 34 37 29 20 37 33 29 38 36 36 26 37 24 35 25 18 35 28 34 29 20 22 33 26 35 25 23 24 18 27 23 30 24 27 34 19 36 37 27 33 37 28 35 30 24 20 20 38 33
22 21 22 23 35 37 18 30 28 22 21 26 25 30 29 35 38 34 23 20 18 32 37 35 19 38 37 24 21 37 37 22 20 30 19 22 25 20 36 34 34 20 34 21 31 28 31 31 36 37 35 24 28 30 32 27 30 19 27 20 36 32 31 18
32 37 35 22 32 30 34 23 28 22 38 31 20 23 27 37 25 22 28 18 35 34 23 23 19 25 20 33 36 18 30 21 32 27 19 31 36 19 18 32 28 32 18 31 22 24 25 24 36 25 18 31 20 28 29 36 19 26 37 18 19 19 30 38
28 22 21 37 20 30 37 25 29 22 27 23 34 29 20 25 22 21 29 21 27 36 38 22 36 23 26 27 18 21 32 18 24 28 20 18 27 21 36 24 37 27 30 37 24 29 29 37 32 23 24 26 29 28 19 19 24 25 24 18 35 24 33 18
26 32 23 29 32 22 18 20 30 30 30 25 28 36 21 18 38 28 33 20 22 20 30 25 18 34 27 38 35 18 27 26 37 24 36 38 27 35 27 34 29 27 32 27 22 30 31 19 34 18 33 33 36 34 36 29 22 21 30 27 36 27 34 34
19 38 18 30 29 24 20 18 19 23 24 35 30 31 28 32 27 36 20 36 21 34 31 26 33 23 28 23 20 31 22 22 34 25 38 20 21 32 38 31 25 38 31 22 22 24 21 34 33 25 37 31 20 34 21 25 23 24 35 21 34 38 27 24
