P2
64 64
255
19 21 23 19 26 17 19 20 15 22 24 14 23 16 20 22 25 26 21 16 18 18 26 14 24 16 25 23 24 17 26 23 15 14 19 14 24 21 16 24 17 23 24 23 26 23 16 17 17 26 20 19 19 16 17 18 21 23 15 24 24 23 25 24
18 25 24 22 17 23 22 19 24 23 22 25 23 18 19 21 20 20 16 20 15 16 14 21 26 15 15 15 15 20 24 20 17 24 17 23 20 25 22 25 21 25 22 24 16 16 18 25 25 14 25 18 17 21 15 18 17 16 16 18 26 16 26 24
17 17 24 20 24 23 15 20 20 25 25 16 21 18 25 23 15 17 14 20 18 25 16 24 20 24 15 24 16 15 18 25 19 15 15 18 19 23 16 16 26 18 25 20 23 16 23 23 19 23 21 26 25 25 15 14 18 16 24 19 15 23 22 17
25 15 20 17 22 15 15 26 26 26 23 15 15 15 20 23 21 25 15 23 24 16 19 23 25 22 25 22 22 25 26 20 18 21 16 14 18 26 21 15 24 20 15 16 22 22 26 18 15 21 22 22 17 20 23 26 18 19 21 20 23 17 19 14
24 24 26 23 21 24 25 19 22 22 16 26 18 23 21 19 16 15 15 16 16 22 19 15 25 15 15 19 22 17 22 20 18 26 16 23 22 21 23 24 21 24 16 21 17 16 17 15 23 14 16 16 18 26 19 21 25 24 18 20 15 15 20 21
15 23 15 21 21 23 19 23 26 16 19 25 16 23 18 23 17 14 22 14 22 15 17 14 16 18 24 26 16 14 19 26 22 24 23 17 20 24 25 21 24 23 22 22 26 17 22 26 22 14 24 25 25 20 14 19 23 23 26 16 17 14 18 24
17 19 21 18 26 20 24 26 15 16 15 15 18 16 21 24 20 19 15 21 17 23 23 18 20 16 20 17 25 24 16 22 14 24 20 15 25 25 21 24 17 14 26 16 21 18 26 26 24 20 25 17 17 25 15 18 19 15 17 17 18 18 26 16
15 26 25 15 22 16 17 22 17 20 19 25 14 21 24 24 21 17 19 18 24 14 23 24 19 19 21 18 16 22 25 22 18 14 15 19 16 16 21 14 24 20 22 16 16 18 19 19 26 18 18 22 26 14 14 25 14 21 17 20 23 15 16 20
25 18 26 24 19 15 20 24 16 17 19 20 14 23 19 19 26 14 16 14 20 14 14 16 19 14 26 20 21 25 15 15 22 18 16 23 22 20 21 26 18 15 18 23 14 14 20 16 17 21 26 23 20 18 18 17 16 22 20 14 21 19 21 20
19 17 18 20 19 23 14 24 17 17 25 18 21 18 21 26 18 14 15 15 17 18 26 22 21 15 15 21 16 26 20 23 20 14 21 26 26 19 16 17 20 20 14 14 19 26 21 15 20 18 21 19 26 17 19 22 19 17 16 15 15 15 17 21
18 21 15 16 21 22 26 20 19 25 21 18 17 20 19 19 23 20 19 26 15 25 18 21 23 20 24 20 17 19 17 21 18 17 19 15 25 19 15 16 20 25 19 19 20 23 23 14 21 17 25 15 14 16 20 15 22 24 25 14 25 23 17 18
20 24 19 23 14 18 20 23 16 16 23 25 17 17 14 18 15 16 19 15 24 25 25 14 26 16 24 22 19 24 17 15 23 15 14 24 23 23 24 23 24 16 24 22 23 14 16 15 15 17 20 16 18 22 23 22 25 21 18 26 22 24 19 19
24 21 22 25 19 24 26 22 17 15 21 21 18 14 24 17 23 15 17 14 22 26 25 26 14 17 14 19 23 23 24 17 18 25 24 21 21 14 19 16 21 16 17 24 22 18 26 26 19 17 22 24 26 19 25 14 26 22 24 23 14 16 15 23
23 24 17 16 25 24 22 24 21 16 21 17 24 14 25 22 26 19 22 17 14 20 25 26 15 23 20 22 14 21 15 24 26 20 15 14 24 18 18 24 23 25 26 24 14 19 19 21 19 24 18 19 24 19 24 22 18 18 20 19 14 21 26 20
19 26 23 22 14 26 25 24 17 14 26 16 19 26 20 20 14 14 18 17 18 23 26 26 16 19 16 16 14 26 23 14 18 22 25 26 23 21 18 17 24 18 14 22 19 25 26 19 19 17 15 16 16 19 14 15 26 19 15 16 16 15 20 16
20 21 18 15 17 22 17 14 22 15 19 16 24 14 14 20 26 16 15 21 18 20 23 20 21 23 20 23 21 26 17 18 17 14 22 20 18 19 21 20 21 16 18 21 16 16 19 17 19 22 16 24 23 16 22 26 26 23 18 15 17 21 20 25
20 18 19 24 14 22 15 21 14 24 16 21 16 22 20 25 17 17 23 17 17 23 15 23 19 18 17 26 26 15 15 21 16 25 15 20 26 22 23 21 20 18 17 26 24 26 14 23 20 14 14 18 14 22 26 25 26 19 15 17 19 19 17 24
19 19 16 23 24 16 14 23 17 16 25 15 16 15 26 18 25 24 22 22 17 22 22 21 21 22 18 23 19 22 26 16 14 22 21 20 22 21 26 21 23 17 23 15 22 16 24 25 20 25 20 17 16 24 17 14 17 18 17 25 18 18 24 15
17 19 24 26 21 23 23 25 24 18 23 17 20 18 21 15 16 16 15 25 14 26 25 18 20 17 16 24 26 21 16 25 25 14 19 24 20 19 15 17 17 17 16 22 15 23 23 17 22 16 15 17 23 15 19 16 21 15 24 21 16 26 15 26
25 17 16 22 17 24 19 22 16 19 22 16 18 25 24 24 23 22 21 24 25 25 28 28 16 27 25 23 17 16 14 26 16 18 16 15 16 14 18 26 22 29 28 20 27 19 20 24 16 19 24 17 23 20 21 19 26 24 24 15 25 14 23 18
19 14 21 21 18 14 25 14 21 15 20 16 14 19 18 18 19 20 27 21 28 34 28 33 24 23 25 19 23 24 21 21 17 26 26 26 25 26 26 29 31 21 30 32 28 32 26 20 24 21 20 14 19 21 22 17 16 24 24 22 14 24 22 17
15 25 14 21 20 24 26 17 17 18 19 20 23 21 23 29 27 33 31 37 37 31 36 25 29 22 27 31 25 23 26 18 25 22 16 15 27 19 25 22 24 27 31 37 27 25 27 26 34 27 23 26 24 20 16 22 25 26 16 19 26 26 25 17
19 16 20 17 19 17 26 26 25 21 19 25 20 28 29 34 26 32 30 37 40 39 38 33 31 36 36 27 23 22 23 22 17 22 15 19 20 32 33 32 35 32 36 29 40 39 33 36 31 30 33 32 19 27 16 20 25 17 25 18 23 15 14 16
22 23 14 20 23 17 15 25 21 14 26 27 27 24 29 30 34 36 32 45 41 33 34 44 41 31 31 26 27 29 18 15 15 25 20 31 31 34 31 32 33 43 38 38 42 42 33 38 32 37 34 26 22 22 15 24 21 25 25 16 15 19 22 20
18 24 15 15 19 14 23 19 14 21 21 31 31 35 40 33 38 41 37 41 49 48 43 45 35 41 33 37 32 31 30 18 14 23 27 24 29 36 43 38 41 37 45 48 38 38 38 44 45 39 38 31 31 32 23 24 17 23 21 24 25 18 22 19
22 22 26 14 14 17 24 21 21 25 30 25 34 32 38 43 38 45 50 51 49 49 53 51 48 40 40 35 39 32 29 29 23 31 34 33 32 36 42 45 50 42 48 51 51 44 42 44 36 37 42 40 28 23 21 24 19 14 25 14 14 26 19 16
17 25 23 24 15 18 26 19 17 22 26 34 38 32 45 43 51 46 51 53 57 46 54 47 42 44 39 44 31 39 34 27 26 28 35 39 36 36 41 45 48 49 51 51 45 50 46 52 49 44 34 35 31 29 28 28 26 14 23 17 16 19 22 19
14 23 18 17 22 14 18 23 18 32 23 35 35 44 49 50 51 48 49 57 54 61 49 58 53 51 41 48 44 30 32 34 31 32 28 31 39 46 39 42 54 55 52 49 54 55 51 48 46 45 38 41 35 39 30 27 24 21 14 17 24 25 24 19
22 23 23 23 18 17 23 23 29 30 25 35 43 42 50 50 54 57 50 58 62 58 59 56 55 54 42 44 35 40 35 36 34 37 38 35 42 44 43 49 55 52 55 54 62 55 59 53 55 46 39 42 42 40 31 21 24 20 17 17 23 25 21 24
23 14 19 15 17 24 19 24 18 27 27 42 42 44 46 49 50 51 63 64 57 64 57 59 52 58 52 49 41 34 33 30 35 30 31 35 43 51 46 50 57 55 67 63 59 62 59 53 51 48 46 42 44 31 28 25 30 16 14 18 24 14 19 24
24 25 19 15 14 24 17 26 26 35 31 42 41 48 51 46 57 61 56 62 66 69 64 62 57 58 57 54 50 40 42 36 32 40 33 41 41 47 48 51 61 59 60 71 67 60 67 53 55 46 45 45 36 39 35 33 24 20 24 25 20 23 18 20
22 20 22 14 14 16 23 24 30 33 30 38 44 44 43 56 58 62 61 64 72 65 72 70 63 55 50 48 44 45 34 43 42 38 43 40 48 47 54 53 62 62 64 65 70 72 61 65 51 53 53 43 45 35 28 29 23 16 23 17 14 20 16 25
15 26 26 26 18 20 25 21 31 25 36 37 44 46 55 57 53 59 63 68 79 76 74 67 65 54 57 46 43 38 36 37 43 37 34 41 42 55 48 60 56 64 69 76 79 64 66 67 57 47 48 42 47 34 37 31 21 22 20 20 16 15 25 18
22 24 21 22 20 21 17 18 22 31 38 43 44 47 44 47 57 63 63 68 75 74 71 67 60 56 54 44 39 36 33 34 44 36 33 38 44 48 57 60 62 65 65 72 65 74 69 65 51 48 47 46 38 33 27 29 30 23 20 20 21 20 21 15
26 26 25 25 17 25 19 16 29 29 37 42 41 41 54 57 57 54 66 68 71 60 63 57 57 61 52 51 39 46 35 38 40 43 44 42 43 44 46 51 54 63 68 69 66 65 60 63 61 55 47 44 45 36 36 30 20 15 20 18 14 20 15 23
23 20 16 21 21 18 21 20 28 34 38 35 43 47 46 45 59 52 61 64 57 66 66 53 53 51 44 52 48 41 37 33 39 37 42 34 48 45 46 51 59 53 60 60 62 61 53 60 47 55 50 48 43 30 35 33 22 18 17 24 24 23 15 22
22 19 19 17 21 25 26 17 25 27 28 40 32 38 42 44 45 58 50 53 59 57 63 52 59 52 50 45 46 38 36 29 30 31 32 39 40 40 44 56 56 51 64 54 54 54 57 52 50 54 50 45 42 35 34 32 26 14 16 23 17 16 19 24
19 21 20 16 21 14 21 21 21 23 29 28 41 42 44 41 52 54 55 58 59 53 51 54 48 54 42 46 35 37 26 27 36 36 28 41 40 42 40 49 45 49 49 56 52 50 47 53 52 47 44 44 33 39 34 24 16 22 24 16 15 21 25 16
23 24 14 22 20 14 23 17 14 28 26 37 33 42 39 40 47 48 48 54 46 48 49 51 44 43 43 42 31 39 26 27 27 23 32 40 33 40 47 51 46 51 51 52 45 50 43 48 47 45 43 43 36 34 31 18 25 26 24 26 15 21 18 14
23 22 24 17 21 21 18 26 26 21 29 27 39 43 36 42 42 54 43 56 55 57 57 49 44 42 50 44 43 40 30 36 31 25 32 35 33 46 43 42 52 54 58 52 50 51 50 49 45 40 37 36 32 35 33 24 28 29 31 32 32 32 25 22
26 21 21 24 21 24 31 27 24 23 32 32 33 36 36 48 53 49 48 57 53 54 55 56 44 52 41 46 38 36 33 29 32 38 33 36 36 49 44 45 45 56 52 57 58 49 59 53 48 50 46 46 47 41 39 32 29 32 26 30 36 39 28 32
32 27 36 32 31 26 31 32 35 31 34 29 35 41 48 45 41 44 53 45 54 55 47 53 44 49 45 39 37 35 40 33 34 31 44 45 41 52 50 48 53 50 59 53 56 60 53 48 50 47 45 45 40 35 33 43 35 37 40 34 34 42 35 35
23 21 20 25 28 22 31 22 29 27 24 24 33 31 30 44 44 35 39 41 43 37 37 37 36 46 45 42 38 31 30 28 28 29 36 38 35 33 43 48 39 43 40 42 42 49 40 39 41 42 35 37 39 26 38 36 34 35 29 35 28 34 29 36
18 28 19 23 25 19 19 26 23 24 27 22 19 31 30 29 36 27 31 41 30 39 33 32 32 38 29 25 29 22 20 23 27 24 26 18 32 27 36 37 38 36 36 39 31 40 34 29 29 33 31 33 23 24 22 20 22 30 30 20 26 30 28 29
25 23 19 15 17 20 25 24 24 16 21 15 15 21 18 27 18 23 29 27 32 29 25 32 26 23 24 26 23 24 24 20 24 26 15 23 22 27 26 18 24 24 29 32 33 24 24 27 30 17 20 22 15 15 26 15 19 17 22 17 21 16 20 16
22 15 24 22 21 18 14 16 26 26 17 22 25 23 15 17 25 25 26 20 28 20 21 25 25 25 17 26 21 22 22 19 23 22 20 15 21 19 20 25 20 20 19 30 25 25 17 23 23 16 21 15 21 20 24 15 15 23 15 24 22 16 25 25
23 21 26 24 14 16 18 25 18 22 20 18 17 24 16 18 16 18 23 14 23 18 24 19 23 17 15 23 17 19 25 22 17 18 22 18 16 19 20 26 22 19 14 17 18 23 23 21 25 25 24 24 22 24 21 18 18 20 15 25 14 18 16 22
14 20 20 18 17 20 26 20 23 16 26 14 21 18 14 18 26 24 23 22 14 25 21 17 24 14 26 22 16 16 17 19 21 20 25 25 21 17 25 23 24 23 18 16 21 26 18 14 21 22 18 15 18 22 24 14 18 24 23 22 23 22 20 17
14 16 17 24 21 21 20 18 22 26 22 24 17 23 25 23 17 26 21 26 24 16 20 20 22 21 16 17 20 16 24 24 19 21 25 22 15 15 24 25 18 23 22 18 20 26 20 15 23 15 18 22 17 16 20 17 22 18 18 25 17 23 18 19
22 24 23 17 15 18 14 21 21 26 15 26 16 19 17 15 15 24 23 17 23 26 24 26 20 20 16 24 20 22 23 16 15 25 26 19 14 19 19 25 16 24 19 24 14 23 17 26 18 21 25 14 26 20 16 18 25 17 20 20 15 22 16 25
21 26 22 16 17 17 21 25 26 16 25 16 26 20 20 24 26 14 24 26 17 24 21 23 23 18 14 23 18 17 18 24 18 20 21 15 23 22 24 23 23 18 19 26 21 18 24 24 16 18 15 25 26 16 23 17 20 26 25 21 15 20 14 17
16 18 15 23 23 19 16 17 23 18 24 26 21 17 14 25 15 17 20 26 24 24 23 21 23 19 14 24 26 17 20 26 18 24 22 16 25 19 20 19 20 24 20 22 23 14 17 25 20 23 14 21 17 24 16 24 14 25 16 24 22 22 22 24
17 19 14 23 23 20 17 16 24 25 21 25 24 16 18 22 16 23 16 16 25 20 22 15 22 20 18 26 21 19 22 25 24 19 20 23 18 22 18 17 19 21 25 14 19 26 14 20 25 17 18 26 26 17 14 25 26 17 22 24 20 21 14 20
24 23 19 16 21 18 20 18 20 19 25 18 19 17 19 15 16 16 15 16 24 26 18 23 17 22 22 15 26 17 19 22 14 19 14 20 19 23 17 25 23 19 25 26 23 16 23 22 16 22 23 19 22 15 25 14 24 19 15 15 17 20 24 26
20 16 21 19 16 25 21 26 14 17 16 22 18 23 22 18 19 20 26 18 14 20 20 25 18 25 17 16 20 26 20 23 22 25 18 25 19 18 19 19 16 23 24 17 21 26 22 20 15 19 18 26 26 21 19 25 14 23 22 23 21 16 17 15
19 25 16 16 23 20 23 21 16 24 16 21 15 22 25 22 22 23 20 20 14 20 17 21 25 14 20 22 26 25 22 20 14 24 20 19 17 23 15 25 17 20 18 21 25 17 15 22 16 23 24 23 17 17 18 22 23 19 14 15 26 24 18 18
23 25 17 26 14 21 16 23 24 26 23 23 26 16 22 19 21 19 17 18 26 19 22 14 14 22 25 25 23 20 17 25 19 23 20 21 25 21 17 22 15 22 14 25 23 21 26 22 24 14 16 17 22 26 19 15 14 26 18 14 20 17 19 18
16 19 20 20 25 20 21 25 25 14 21 16 26 16 20 19 25 22 17 20 26 22 20 16 23 16 18 22 24 20 23 16 22 19 22 17 23 25 19 22 23 20 24 23 14 17 22 22 15 15 24 15 14 25 22 21 14 24 22 24 22 20 16 22
16 24 25 17 15 19 22 20 23 14 18 14 20 15 20 21 26 20 21 22 17 21 23 18 20 17 25 22 20 14 18 17 20 18 21 23 18 16 14 16 26 14 22 15 17 17 15 20 14 20 25 14 22 20 18 22 17 22 25 26 16 21 25 15
22 22 26 17 15 20 20 15 25 23 16 21 22 26 24 15 25 20 14 14 19 25 23 26 26 24 22 19 26 20 21 21 23 25 18 17 19 16 20 15 23 26 25 15 15 23 16 22 23 24 16 22 25 23 22 25 17 15 19 24 19 26 18 26
25 25 19 26 21 22 18 24 21 17 21 17 22 21 15 19 21 15 25 21 24 20 23 25 25 19 26 24 14 25 24 15 14 16 25 14 19 19 16 14 23 22 18 21 17 26 17 15 20 20 22 22 22 21 21 19 26 15 26 23 22 20 17 23
15 21 20 14 15 21 24 16 21 26 18 16 15 24 25 25 15 21 21 16 24 19 17 15 15 16 20 15 16 24 26 18 15 25 24 16 20 22 21 25 24 24 19 19 19 15 17 25 25 17 23 19 23 25 14 24 23 21 26 16 26 18 14 25
25 17 17 25 17 22 16 16 16 26 18 14 17 22 15 19 24 26 18 25 14 19 22 20 24 25 20 26 14 21 24 20 24 20 26 19 18 19 14 22 19 21 15 26 15 23 25 25 26 22 17 20 14 25 20 24 16 14 21 24 25 22 15 26
18 18 24 16 19 25 20 19 19 21 18 17 21 24 22 15 26 22 18 14 14 16 26 22 26 23 21 15 15 15 24 26 15 21 16 25 24 22 23 16 26 19 15 21 24 25 23 17 19 23 14 26 23 26 23 20 23 16 21 26 15 24 26 24
