P2
64 64
255
19 35 23 18 27 29 21 32 26 25 32 28 22 37 27 31 25 35 38 24 24 38 35 33 33 38 27 28 21 23 29 29 38 36 28 34 20 28 32 37 38 32 21 35 27 25 31 27 22 29 20 33 28 20 27 28 25 26 24 34 33 34 25 26
30 38 26 19 38 30 24 33 25 31 30 22 27 24 33 32 23 26 32 23 21 32 25 36 24 24 24 36 22 21 18 22 26 33 24 37 25 19 33 29 33 20 21 32 19 36 19 30 26 37 33 24 30 29 35 34 36 29 38 33 19 34 23 22
18 38 35 30 21 35 29 22 26 28 24 27 23 19 34 21 27 37 38 25 19 21 28 35 35 18 34 32 21 30 18 31 31 27 20 38 34 32 31 29 31 21 19 34 24 34 22 37 32 27 21 28 37 23 31 27 30 31 28 26 29 22 38 38
27 22 25 32 26 29 35 31 33 33 35 34 19 38 36 20 23 26 23 33 24 34 22 20 20 20 20 32 31 25 29 31 19 27 26 22 37 19 20 35 29 34 22 24 30 20 34 26 35 32 18 19 24 35 35 38 21 28 23 24 21 35 33 33
34 29 36 33 37 35 38 19 31 35 19 18 19 22 34 18 34 25 34 24 37 38 22 19 34 23 22 30 30 37 19 26 28 30 25 34 25 36 35 28 25 36 30 37 38 32 37 34 30 29 37 21 38 29 25 23 37 36 26 18 19 20 18 35
36 34 24 19 34 23 24 34 38 33 21 38 28 22 23 22 30 38 24 32 22 24 34 29 28 34 19 28 28 29 26 37 36 27 26 26 19 24 32 24 22 33 32 37 18 31 23 19 36 28 35 31 33 20 24 18 22 23 38 38 24 28 18 23
31 30 25 27 35 26 34 20 32 18 26 28 21 31 25 22 34 31 33 33 31 30 33 22 27 26 29 18 22 32 22 30 38 25 23 35 33 27 21 18 33 22 18 29 21 32 20 25 36 33 35 37 33 18 25 22 27 34 31 26 24 32 20 25
27 38 31 35 31 35 23 27 18 18 34 21 38 33 22 24 33 18 19 20 37 34 28 33 25 22 38 20 23 26 32 21 20 27 20 38 35 28 26 28 29 22 23 21 25 19 22 37 26 31 25 37 28 19 34 28 30 28 33 25 28 30 30 33
29 27 26 34 21 36 37 19 21 19 26 18 27 36 29 33 38 22 37 24 24 24 19 18 22 23 33 27 23 23 24 22 28 29 28 37 18 31 19 30 23 27 35 29 35 26 29 21 35 29 32 25 34 31 28 28 23 30 18 25 37 35 32 29
38 37 34 31 22 21 26 20 23 18 37 36 26 35 35 37 31 25 26 21 25 35 33 35 22 38 34 24 27 37 18 20 31 21 28 18 24 18 22 27 31 19 24 38 25 25 36 20 32 35 29 36 28 38 30 23 19 33 22 35 35 18 38 19
33 22 22 35 33 19 26 32 29 33 27 32 30 36 21 32 22 34 22 23 36 32 20 32 19 22 22 38 20 21 24 28 27 25 32 26 37 38 30 28 31 29 27 29 21 19 18 18 20 36 31 35 21 19 33 22 24 18 22 30 20 18 31 19
21 31 38 34 19 38 28 21 34 30 34 20 35 29 35 37 18 26 34 19 23 28 23 35 38 24 36 18 29 31 31 31 18 28 23 36 23 37 21 38 27 22 38 28 33 18 30 31 25 26 22 23 28 22 28 20 20 22 19 30 36 29 18 35
38 35 35 22 27 27 36 19 38 20 37 21 30 22 22 37 28 21 31 35 30 19 18 18 18 27 23 34 18 35 32 25 18 31 34 21 31 23 38 23 37 25 20 36 37 38 26 38 26 35 19 23 25 23 35 29 18 30 26 25 29 32 21 32
34 27 37 29 27 23 30 25 36 32 29 37 22 27 26 22 37 22 29 28 25 35 21 26 28 21 33 34 37 37 24 25 29 22 31 21 33 25 29 22 34 25 23 36 36 37 38 31 20 31 31 18 33 20 29 30 19 27 28 21 38 32 37 23
29 35 28 24 38 19 23 32 18 20 19 35 27 34 32 35 30 22 23 35 28 22 21 19 36 30 31 27 21 36 36 24 29 23 30 35 30 20 20 24 29 34 18 32 20 18 30 18 38 34 36 19 37 24 34 38 28 21 38 18 30 27 24 33
26 19 21 37 23 22 31 31 34 38 20 37 26 31 28 29 38 32 31 35 23 19 34 19 33 24 37 35 32 25 26 28 28 36 27 27 25 22 23 22 30 26 31 19 25 29 21 29 38 20 30 26 26 30 22 27 38 20 19 22 30 27 22 29
36 21 30 19 38 24 27 34 24 33 38 30 21 32 26 31 38 22 32 27 20 19 35 33 25 32 21 31 35 31 33 24 20 32 33 31 33 29 38 25 37 35 31 35 34 33 38 33 19 34 21 34 25 25 24 37 36 29 21 24 30 33 33 19
35 21 28 20 19 18 24 27 36 21 37 32 19 19 18 36 32 38 37 34 36 36 36 38 32 24 22 27 35 18 30 29 24 27 28 31 27 37 21 27 34 21 27 27 23 30 34 23 35 19 31 29 30 25 32 26 28 25 37 18 37 23 18 35
37 23 23 22 29 37 24 25 33 30 28 32 26 32 21 22 31 19 36 30 29 33 34 27 27 21 34 23 32 19 30 36 20 35 30 34 35 36 24 28 34 19 32 38 34 24 36 31 38 29 26 38 33 30 28 19 22 27 28 37 18 21 20 22
37 30 32 31 25 19 38 29 33 37 18 31 35 33 27 18 22 28 29 40 25 34 31 23 33 39 21 28 23 26 29 28 31 29 30 21 22 34 24 28 32 39 29 41 34 38 40 27 28 36 23 34 20 35 37 31 27 27 23 31 29 18 34 24
21 37 27 29 38 26 20 32 35 29 24 29 24 34 27 35 26 27 27 32 41 43 40 36 26 34 38 23 33 30 20 18 26 24 23 20 27 28 27 37 32 45 38 35 32 44 32 44 32 33 33 37 31 20 34 27 37 27 23 28 24 38 24 35
23 33 25 21 19 36 37 31 20 25 25 32 32 33 39 43 27 35 42 38 36 36 36 35 44 36 26 30 37 33 27 25 21 40 29 23 38 37 25 38 39 31 38 29 46 49 46 38 38 24 37 30 36 21 31 18 33 33 22 19 25 32 35 25
38 34 28 35 36 26 33 38 36 26 37 29 31 41 44 44 47 42 48 51 41 49 43 32 33 49 29 48 36 44 45 32 31 33 34 32 47 38 49 42 42 43 47 39 51 36 44 37 36 28 33 38 40 36 29 24 34 26 25 35 26 18 30 32
34 36 37 26 36 23 38 31 36 35 29 37 28 28 29 31 34 54 51 52 53 45 53 51 53 43 43 42 50 38 51 33 40 36 44 53 45 42 57 48 50 37 48 49 47 38 53 44 47 43 39 42 37 22 39 18 19 35 20 34 33 33 32 21
19 30 27 18 34 32 35 36 29 19 33 34 45 40 36 50 41 44 47 41 59 46 56 54 63 61 47 57 56 47 50 52 57 50 63 57 54 54 47 46 53 53 44 59 51 54 49 42 54 37 36 50 29 33 37 38 37 21 36 31 35 20 29 29
18 31 37 33 37 30 25 34 25 24 41 27 46 44 52 40 58 57 51 46 57 64 58 55 62 70 64 60 74 74 70 57 60 64 63 68 69 63 71 72 55 52 61 59 52 46 63 62 59 51 42 40 35 42 28 24 29 28 31 18 21 38 25 24
29 24 22 31 21 22 27 30 35 29 43 45 34 37 49 53 51 50 48 48 57 52 66 70 81 83 65 64 71 70 72 69 76 77 78 66 77 82 82 81 75 69 62 56 50 58 49 56 54 52 41 49 40 35 25 39 20 20 35 36 29 30 24 34
38 23 33 31 20 19 34 33 22 33 37 33 52 56 49 62 58 68 62 60 65 76 83 82 82 91 72 92 73 90 70 84 71 70 87 78 71 74 77 79 70 86 72 60 61 54 56 55 59 54 59 54 36 49 31 43 27 32 25 23 18 32 35 25
33 36 27 31 23 29 22 35 23 43 43 33 39 39 58 65 57 63 72 69 82 81 80 86 91 82 82 92 98 95 81 85 80 82 93 94 80 91 85 89 87 83 73 82 79 60 54 68 52 57 55 50 53 47 32 41 41 22 35 26 29 18 38 38
37 37 21 28 32 37 23 32 39 31 50 54 46 56 53 64 56 62 64 80 84 85 85 89 90 96 98 102 90 88 87 93 98 91 95 100 102 95 103 105 88 100 87 75 74 65 59 75 66 68 46 58 47 46 48 45 24 31 28 25 19 30 19 31
20 28 24 29 34 36 33 26 24 40 37 51 58 44 62 69 68 67 79 81 93 93 105 88 107 110 99 93 99 97 111 112 107 98 105 92 95 109 112 105 99 94 92 88 80 81 73 67 55 57 49 47 56 35 35 27 26 34 27 34 24 28 33 26
38 33 24 18 21 25 28 23 32 33 37 37 57 55 57 70 68 58 70 78 90 96 99 113 99 116 106 113 117 103 104 103 115 115 102 117 99 101 103 106 96 94 99 91 83 77 75 66 66 64 51 59 49 43 41 35 34 21 33 31 38 30 35 33
32 23 35 28 27 22 30 35 38 35 37 39 45 55 56 56 71 70 82 85 105 106 110 108 102 106 114 108 121 117 105 111 117 110 125 111 111 109 121 109 99 99 109 102 104 87 82 62 59 70 64 44 48 47 47 39 43 21 28 21 23 27 37 27
27 23 37 22 25 27 21 35 38 27 50 43 56 56 50 63 72 66 87 97 96 92 98 100 120 107 118 124 124 111 113 112 116 112 120 111 114 120 117 102 112 99 98 109 102 89 82 66 61 69 63 57 47 36 37 37 28 37 19 26 18 35 31 38
31 28 30 20 31 21 38 31 31 31 35 45 52 58 53 64 69 61 79 83 91 101 111 116 115 115 111 127 117 115 133 129 138 121 118 111 121 120 112 106 113 118 114 101 84 83 70 66 71 69 58 61 45 55 31 47 25 36 31 33 36 21 19 35
20 28 37 22 20 31 27 30 26 34 32 35 44 41 51 48 62 77 82 87 87 102 102 115 105 108 116 122 124 126 117 131 131 139 132 128 124 126 109 108 103 104 93 96 89 78 67 77 60 58 51 48 47 37 35 43 31 33 32 24 34 23 22 25
38 36 26 22 35 19 32 31 23 42 45 38 42 59 49 63 67 71 82 88 93 99 92 95 107 104 110 112 128 114 117 130 129 139 124 113 118 111 104 112 109 103 89 89 84 88 75 54 64 59 44 52 48 47 40 44 25 20 35 36 23 32 37 38
35 21 31 29 25 33 38 26 26 33 40 48 36 49 61 48 47 70 71 69 80 98 98 109 97 97 114 103 107 109 130 129 133 131 120 128 113 113 100 98 114 99 84 86 90 67 65 50 65 52 49 45 50 41 35 32 26 29 38 27 23 33 37 36
21 27 19 21 28 33 29 34 28 40 35 49 50 43 44 50 48 63 58 65 79 89 91 101 103 104 110 113 111 123 107 117 125 107 112 106 107 114 107 96 93 91 81 94 75 78 69 56 45 58 44 49 43 45 33 29 35 27 27 22 21 21 22 25
24 23 30 32 25 26 38 38 34 32 41 41 42 47 55 43 40 51 64 68 75 76 89 85 103 106 111 103 110 114 108 117 103 98 113 103 96 104 91 102 87 96 78 76 70 74 61 50 47 43 38 51 50 36 27 37 27 28 20 18 27 26 26 38
28 23 19 37 36 18 22 29 33 35 31 41 45 39 39 44 50 40 54 57 62 64 71 81 78 95 92 106 102 106 100 99 93 92 95 105 100 86 104 100 87 75 83 69 74 69 63 46 38 49 49 38 36 42 39 33 18 34 36 36 21 19 29 34
30 25 37 20 23 25 35 35 31 38 36 30 42 37 34 50 42 48 54 63 61 74 82 76 87 78 85 99 94 93 99 84 94 100 95 88 97 82 97 81 87 86 82 72 61 63 56 52 44 49 35 33 40 29 27 36 38 36 36 22 33 27 33 25
18 26 35 21 21 36 33 25 22 26 32 21 34 38 26 37 30 37 40 46 45 56 70 60 67 86 81 79 86 78 90 74 84 82 82 82 83 80 86 85 78 72 56 51 46 57 50 36 44 34 29 28 31 38 37 22 18 18 30 22 31 23 31 28
34 35 33 23 29 34 26 22 21 28 25 28 36 21 34 33 29 38 48 43 37 55 59 52 74 65 78 73 75 71 83 70 73 76 82 81 64 68 71 61 67 52 64 57 38 44 45 37 26 41 38 31 30 29 21 30 20 34 36 27 25 21 27 23
24 37 23 22 20 35 18 37 18 31 35 38 22 27 23 37 30 29 32 43 41 40 54 53 67 61 57 55 69 79 66 73 77 75 71 71 63 62 62 70 68 46 57 52 37 45 43 28 26 32 21 24 36 38 38 30 18 27 34 31 38 34 29 18
19 18 23 31 19 30 35 28 26 21 31 28 25 29 25 18 19 26 35 39 41 37 48 42 50 43 60 62 68 53 58 74 72 70 62 71 63 52 49 61 57 56 39 34 28 36 27 21 24 20 23 32 22 20 19 19 19 22 37 24 18 26 31 20
27 29 20 26 26 19 36 19 21 30 20 32 18 23 38 21 26 38 37 22 32 38 44 35 46 56 52 51 45 50 51 55 70 60 56 61 53 62 53 47 35 47 36 23 38 28 31 20 31 27 36 34 38 26 28 35 33 29 38 18 33 24 29 18
27 24 18 35 21 34 35 18 33 38 19 18 19 36 26 19 25 29 34 30 30 26 36 25 39 32 39 45 54 46 57 57 57 63 47 44 59 48 43 35 45 27 37 29 26 18 26 21 29 20 23 37 21 36 19 18 24 22 33 33 25 21 36 38
25 30 33 34 34 29 29 38 33 24 23 36 35 33 20 33 37 30 34 35 33 30 19 31 29 42 35 48 37 50 48 45 52 51 42 49 35 37 29 46 30 33 21 36 36 34 32 29 20 23 36 19 26 20 23 18 25 37 25 37 38 25 18 23
27 23 33 24 22 29 31 32 31 34 22 35 33 29 37 23 21 29 19 34 18 38 35 31 31 37 41 26 46 36 32 34 42 34 47 42 40 43 28 26 23 20 36 36 30 32 34 22 18 25 35 38 36 37 22 18 28 20 38 31 33 26 34 18
32 33 22 32 37 18 33 31 26 32 36 34 28 28 31 25 20 34 18 18 35 28 37 31 23 31 26 35 41 36 26 27 42 25 31 37 39 39 36 29 19 30 32 26 28 22 36 24 37 26 23 34 26 35 25 34 34 38 23 19 37 30 34 24
29 23 25 27 29 35 27 20 29 25 28 30 21 31 24 22 34 35 29 28 23 24 24 33 35 38 32 37 35 37 26 37 26 20 23 28 29 32 33 25 23 25 25 21 20 26 36 33 19 24 23 27 26 24 29 27 31 33 24 18 22 31 29 33
27 36 21 37 20 27 28 18 34 36 18 21 31 37 20 18 31 38 28 34 24 26 37 34 32 38 36 32 28 38 31 25 24 29 29 24 36 31 38 37 32 24 37 23 21 29 37 38 21 32 33 35 37 20 24 29 34 35 20 20 33 18 23 19
22 31 25 20 29 33 37 18 26 32 20 33 24 31 18 19 32 21 36 23 25 20 27 27 24 21 22 24 18 37 37 36 36 25 37 31 25 21 29 26 19 26 32 30 27 29 34 19 31 35 19 35 37 36 35 24 24 18 26 34 33 25 31 19
35 27 27 37 31 33 28 36 30 22 19 21 25 29 27 37 29 26 29 22 24 25 22 22 19 37 23 24 23 36 38 26 36 18 19 38 19 37 29 30 22 24 29 28 31 25 31 21 24 28 35 33 21 22 30 33 35 25 21 24 28 26 21 19
31 26 31 38 33 28 25 28 25 31 32 36 38 30 25 34 31 33 35 23 21 23 38 32 18 18 22 26 37 18 30 35 23 31 33 37 28 26 27 29 19 24 36 35 27 21 30 27 24 29 37 36 38 37 24 36 29 18 27 27 28 38 26 32
33 29 26 31 24 19 27 30 36 34 27 27 35 30 26 24 19 28 20 26 37 25 20 38 37 23 29 21 37 31 21 20 33 26 27 21 29 29 33 19 27 23 19 33 19 19 21 23 30 23 19 23 22 38 38 38 23 30 33 38 36 36 32 29
31 20 36 32 33 23 18 19 25 38 24 34 38 24 23 32 27 26 35 20 24 32 32 21 35 34 36 29 38 18 21 32 28 34 21 20 28 37 36 30 27 38 22 18 22 29 32 19 29 19 27 38 34 30 37 31 22 31 20 31 35 27 34 37
35 18 20 27 31 37 37 21 24 37 36 38 31 36 23 31 19 25 33 38 34 29 36 37 38 36 21 29 36 21 23 30 33 28 28 23 31 26 26 33 25 36 36 36 38 19 23 30 26 38 31 20 27 31 23 32 21 34 24 32 18 31 27 21
19 23 22 34 35 34 21 29 31 30 20 29 23 18 31 35 23 19 20 35 19 35 36 34 38 30 31 18 34 21 33 35 28 31 38 38 26 35 21 18 18 19 28 20 26 19 36 28 38 29 23 27 36 28 24 34 19 20 36 30 18 19 22 32
29 34 30 20 32 35 33 23 19 27 31 28 18 22 32 28 20 27 20 19 31 31 29 38 27 25 25 31 35 19 36 30 31 18 28 24 18 32 38 22 35 35 21 18 36 22 26 23 36 26 27 35 34 34 23 27 33 34 29 23 23 29 22 23
20 23 33 29 38 22 36 38 25 30 35 38 36 26 37 30 21 25 19 21 25 30 21 20 23 38 34 35 27 25 37 21 26 27 34 23 28 35 25 27 29 23 20 33 31 37 22 22 32 21 37 22 37 35 34 29 18 22 31 22 23 37 18 37
23 37 26 19 26 28 27 32 32 34 20 30 38 37 26 38 21 20 30 26 23 20 29 24 21 31 26 32 22 31 20 18 18 34 29 26 27 25 23 27 18 19 32 22 23 21 22 27 34 22 27 30 21 30 21 20 20 38 31 27 23 21 19 19
20 29 35 26 32 18 20 33 22 23 32 31 36 36 32 33 33 32 21 38 27 35 36 24 33 18 36 37 33 20 36 30 28 25 31 20 29 32 18 28 28 22 34 19 22 38 24 30 18 22 33 24 35 30 30 37 34 24 29 34 19 35 22 26
