P2
64 64
255
22 18 25 26 24 26 21 16 16 19 20 23 25 18 17 14 25 25 25 24 16 20 15 16 18 26 15 19 22 19 21 15 15 20 16 26 16 16 14 24 15 20 24 20 16 23 23 23 20 17 15 14 15 23 14 21 20 17 20 16 20 18 14 23
22 16 25 17 16 18 18 22 21 22 17 21 24 19 21 16 19 18 17 22 23 25 24 20 24 18 24 19 21 26 15 26 25 25 26 14 19 23 14 16 24 19 26 24 14 20 20 23 14 26 18 18 15 15 25 15 26 15 20 25 19 17 22 26
25 19 23 14 21 23 17 15 16 14 25 22 20 17 23 20 20 17 19 20 18 16 18 23 22 21 18 26 22 22 26 21 23 17 16 15 18 20 25 15 21 14 25 18 15 14 14 24 25 19 15 20 23 24 21 26 24 20 16 17 20 26 20 14
23 20 17 16 18 15 16 26 23 18 16 14 20 25 25 22 25 19 19 26 17 23 19 19 19 16 25 15 24 20 23 22 21 19 15 22 16 15 19 15 20 20 14 24 16 24 21 20 15 18 17 21 23 20 21 26 15 16 16 15 24 22 18 16
14 16 16 17 16 20 21 18 22 21 26 16 22 17 16 17 15 25 23 26 15 23 25 26 22 26 18 17 23 25 20 26 23 26 16 22 20 18 26 26 21 26 15 20 18 22 14 15 22 22 16 17 23 17 17 26 16 25 24 20 23 18 14 22
14 19 18 24 26 14 21 22 18 18 20 21 20 22 25 22 18 19 20 25 19 15 22 15 14 22 23 25 20 14 22 21 14 16 16 21 15 21 21 26 18 23 14 19 15 22 22 26 18 26 17 26 16 17 15 26 17 21 25 16 19 17 15 19
15 21 21 19 24 24 24 21 18 24 14 25 15 23 14 19 14 24 18 21 20 17 22 14 19 25 23 23 25 15 20 14 20 20 20 22 14 17 25 16 25 25 20 14 20 18 15 23 20 17 20 19 22 20 14 20 14 19 26 18 22 24 15 21
21 18 21 26 21 26 15 15 17 20 23 14 16 23 17 19 26 17 22 22 26 26 23 15 26 20 19 16 18 15 19 15 17 20 17 24 23 20 16 25 19 19 21 23 16 25 18 21 17 22 14 16 25 26 21 14 15 17 22 23 21 26 18 21
15 15 21 18 20 20 26 16 25 22 19 19 21 20 14 20 20 20 18 17 22 21 15 19 20 20 20 24 16 26 17 17 24 15 17 18 14 21 24 26 19 21 26 24 15 24 21 26 20 24 23 19 17 19 25 25 22 17 25 14 18 14 21 17
21 18 18 20 26 14 15 17 16 20 15 20 14 26 24 25 15 16 16 26 20 15 16 23 22 25 19 14 21 17 26 25 16 23 26 16 14 21 21 18 17 22 16 21 20 25 26 15 17 19 21 22 26 26 22 14 25 14 22 24 17 23 24 20
21 24 15 19 17 14 25 19 19 21 24 25 21 25 25 16 21 26 19 14 19 18 25 17 21 18 14 20 22 24 20 16 24 22 18 21 23 23 19 18 15 23 22 18 26 16 24 20 22 19 18 22 14 26 22 18 22 20 23 23 14 20 20 25
22 20 26 17 15 17 16 15 26 23 20 14 26 19 19 18 23 17 17 26 21 16 18 20 16 23 24 24 26 24 23 23 22 25 14 26 21 19 17 14 15 16 15 21 18 25 20 17 18 21 18 26 17 14 20 23 26 18 20 23 20 24 15 25
18 25 16 15 14 24 17 17 25 24 17 22 14 22 19 25 16 22 15 16 23 23 15 15 17 17 23 18 15 22 18 17 23 15 24 16 20 24 15 15 26 21 26 24 25 18 22 22 15 17 25 23 18 21 17 15 16 18 24 16 21 21 24 23
14 22 21 21 22 22 24 17 22 18 21 14 15 26 16 24 26 21 26 17 19 22 17 22 14 19 22 19 15 19 20 16 22 18 26 18 18 19 20 19 16 15 14 17 18 20 16 20 24 20 14 26 16 26 25 17 17 14 26 16 24 21 21 14
21 20 21 18 20 18 23 17 25 19 17 26 23 14 22 25 15 21 19 24 24 25 23 15 17 18 23 14 23 14 19 18 21 16 22 14 18 15 20 16 23 26 20 17 25 17 17 15 26 25 22 15 25 23 25 19 24 23 19 19 20 24 25 14
15 24 19 21 20 22 18 23 21 25 19 26 26 21 15 24 23 22 14 22 23 16 14 23 25 14 18 20 14 19 18 25 17 25 15 18 24 26 16 15 25 21 23 16 14 26 26 18 15 20 21 24 16 24 20 25 19 15 25 19 15 19 18 16
20 23 14 20 24 20 21 24 21 14 19 22 14 19 23 20 14 14 23 17 20 16 21 18 25 17 26 26 16 25 26 18 22 19 18 20 15 26 25 23 18 18 21 19 23 14 16 16 21 20 18 24 19 16 22 15 22 22 20 22 23 15 14 26
26 18 23 22 24 22 24 19 20 20 25 19 24 26 25 26 14 25 22 25 17 22 23 22 14 25 18 17 26 20 18 23 24 15 16 20 19 21 19 14 20 25 15 14 16 18 21 23 26 23 15 19 21 18 20 17 19 19 14 14 22 22 24 20
14 24 18 20 20 20 17 17 22 21 24 17 20 23 21 21 26 20 21 17 26 14 24 25 17 24 15 21 25 22 21 23 17 15 25 26 14 16 23 17 16 18 21 22 17 15 21 23 14 14 18 16 19 22 14 22 25 20 19 23 24 15 17 18
21 14 19 16 26 17 16 22 24 18 25 21 24 17 17 24 27 20 24 24 24 21 23 18 16 21 14 16 18 21 22 22 25 16 20 25 18 21 19 27 26 24 19 29 28 28 18 20 20 20 15 16 17 16 20 21 21 19 21 26 14 22 18 26
19 18 24 23 14 17 20 14 19 25 22 23 16 26 23 17 20 26 22 23 27 31 26 27 23 28 22 16 22 22 21 17 14 20 17 19 19 22 25 28 21 26 30 31 22 29 29 22 23 28 27 19 21 14 21 17 18 20 26 19 18 24 16 18
15 18 24 24 25 21 24 19 17 21 16 14 22 25 27 32 33 27 25 30 30 29 30 25 30 29 29 21 22 27 23 25 29 19 16 23 20 21 26 33 31 36 26 32 27 34 25 34 24 31 27 23 24 16 18 21 19 15 24 18 22 25 24 23
25 18 21 23 19 23 25 25 17 25 26 23 27 30 30 34 30 34 34 39 33 32 37 40 35 29 31 35 36 31 23 28 24 28 34 33 34 35 35 38 39 37 41 37 39 37 38 37 29 36 27 20 17 18 20 25 20 25 20 16 23 25 24 14
25 20 21 20 14 15 15 26 26 15 21 28 27 32 30 33 31 35 37 44 37 44 42 33 38 42 36 45 43 40 34 35 32 38 36 35 43 36 40 38 37 42 36 41 41 39 43 37 32 38 27 31 20 22 24 23 15 23 17 26 25 26 22 15
20 25 14 14 25 18 23 19 19 25 24 25 29 37 40 38 38 37 38 46 45 41 46 42 47 52 50 50 46 48 49 44 45 40 40 46 46 54 47 42 46 44 43 39 49 38 43 36 42 43 31 31 35 22 22 15 23 16 16 16 19 25 26 16
19 26 23 22 18 16 20 22 20 27 22 30 37 35 34 39 45 48 51 42 47 41 44 52 52 57 63 61 58 60 57 55 48 48 59 62 54 58 56 61 57 58 56 53 48 47 47 47 45 42 40 30 37 25 25 17 20 17 22 18 16 15 24 21
16 14 23 15 23 23 22 23 20 21 30 34 29 36 39 40 45 50 51 48 56 59 62 62 68 65 70 61 72 70 59 63 64 63 61 71 68 64 62 67 60 60 63 59 47 46 46 47 47 38 40 41 33 26 24 21 17 20 20 19 19 20 21 19
15 18 22 15 14 18 17 24 17 27 26 34 41 35 48 44 50 50 51 53 62 67 68 75 72 74 68 70 69 73 75 70 76 68 68 72 68 69 79 79 74 71 65 57 54 51 51 47 48 46 41 43 37 38 27 25 19 20 15 19 18 23 19 14
24 18 21 17 19 15 25 18 20 33 30 36 42 46 49 49 49 51 52 60 70 75 78 80 79 80 85 81 82 83 79 80 84 76 72 84 81 84 75 84 75 79 70 65 71 53 61 54 52 51 43 46 42 39 27 31 19 18 26 20 25 17 23 15
23 26 20 16 22 20 25 19 18 34 37 32 34 47 45 46 56 60 62 60 74 78 82 84 90 92 94 86 83 84 92 86 82 92 81 93 92 83 90 83 88 87 81 83 71 62 53 52 50 51 41 46 33 39 30 29 29 21 19 21 23 24 15 19
21 16 21 21 21 17 21 23 21 23 27 34 42 46 47 50 54 58 65 71 84 80 84 92 96 92 99 100 92 91 97 94 93 100 88 95 92 89 98 93 86 86 87 79 77 75 64 54 55 56 52 42 34 37 37 35 29 15 22 19 16 19 19 26
19 17 26 23 22 18 21 26 24 31 28 34 43 39 49 54 63 66 72 81 89 84 94 92 102 92 101 98 105 95 102 101 104 105 102 102 98 95 99 103 92 90 90 96 89 78 66 66 54 50 52 39 41 31 36 26 23 26 26 21 18 20 22 25
22 18 22 16 25 24 24 28 28 33 38 40 41 44 46 51 62 55 74 82 85 98 93 96 101 98 100 104 103 109 110 104 113 108 110 99 111 104 106 103 96 98 94 93 92 74 64 67 55 52 52 39 47 42 36 28 23 19 22 22 24 14 19 19
21 20 16 26 16 22 21 17 21 32 31 37 39 51 55 52 59 62 76 79 85 100 97 106 96 100 112 108 115 113 108 112 116 110 115 115 103 102 109 98 108 105 103 95 88 82 76 61 60 55 55 43 43 34 29 33 32 22 22 22 20 17 15 16
20 26 26 14 26 20 24 19 22 31 36 31 39 39 44 52 53 56 71 78 81 97 91 100 108 109 102 106 110 115 120 124 115 124 113 119 107 116 113 102 97 100 93 95 87 83 65 54 56 56 48 38 34 42 31 35 20 25 25 15 14 21 19 17
23 18 25 14 19 24 21 16 22 32 34 37 42 48 45 50 56 62 69 78 80 86 98 93 104 106 113 104 118 110 113 120 119 126 112 120 108 105 103 109 95 104 94 86 80 75 65 60 50 46 44 37 39 41 28 25 23 23 19 20 14 22 17 14
14 24 25 16 23 21 16 25 22 32 29 31 43 47 44 53 48 50 63 71 80 80 95 94 101 104 100 112 117 118 115 117 132 122 113 120 112 106 108 107 97 95 86 80 74 78 70 60 48 46 43 47 34 32 29 23 19 15 22 16 21 19 22 23
16 26 18 14 24 21 14 26 21 32 24 29 31 38 46 49 54 47 56 71 72 81 85 88 99 102 108 101 102 109 108 115 113 120 111 109 103 106 108 96 102 88 82 78 78 72 65 52 52 40 49 45 41 33 31 21 19 25 23 20 17 21 22 14
23 18 25 19 21 25 17 14 16 28 30 27 29 32 38 48 47 45 60 67 65 82 87 81 84 88 104 97 101 106 103 113 112 105 106 105 97 105 100 99 86 82 78 79 71 63 51 43 47 48 37 34 32 36 28 21 22 25 15 21 25 22 25 20
24 20 22 20 19 26 17 25 17 17 22 32 33 28 32 41 46 48 46 64 61 77 79 77 87 91 91 94 103 104 94 94 102 93 94 95 103 95 89 90 82 86 75 71 68 55 53 47 37 39 38 28 26 31 22 28 26 19 21 15 24 14 16 15
20 19 18 25 15 16 19 19 22 19 25 20 24 26 40 38 36 39 43 58 54 66 75 77 82 87 80 83 90 96 91 86 88 92 89 94 90 93 92 84 83 77 73 70 63 51 45 38 43 43 39 34 28 26 27 21 16 16 17 17 19 22 24 15
15 22 20 26 14 25 18 16 22 14 24 25 32 25 25 28 32 37 43 51 49 55 65 65 68 76 73 77 83 78 86 77 78 85 86 79 82 78 75 74 67 69 61 61 55 48 42 41 41 29 37 23 29 23 25 25 26 26 19 22 22 19 19 20
18 17 22 20 20 26 22 20 14 14 14 20 20 32 31 35 35 29 36 39 50 53 57 65 68 66 71 73 74 69 80 70 73 75 69 74 69 73 75 74 67 61 57 54 48 41 31 30 33 27 29 23 24 21 16 24 15 24 15 24 24 24 18 18
21 25 26 19 16 14 24 19 20 22 26 24 24 21 27 32 33 33 34 40 43 42 51 52 51 67 60 61 68 69 65 70 64 64 63 71 63 68 66 56 54 59 45 46 44 32 36 25 25 24 22 28 16 23 26 14 21 25 24 25 24 23 20 18
15 25 24 16 14 15 19 17 16 23 18 14 20 17 26 25 26 20 24 22 35 40 36 50 55 48 57 59 53 56 65 62 65 69 61 64 63 61 54 49 46 52 47 38 31 33 25 29 30 29 21 24 17 21 25 26 17 23 25 23 23 16 18 18
24 14 23 16 16 24 22 26 26 23 22 18 26 18 26 16 22 20 29 25 28 36 39 40 36 38 45 46 52 60 58 56 58 58 52 58 55 49 51 48 39 38 33 26 25 17 23 22 19 25 20 24 19 16 18 25 24 14 20 15 25 17 14 21
19 17 15 26 16 23 15 21 16 25 23 17 25 23 16 21 18 23 18 16 15 26 25 27 36 39 44 38 50 46 44 50 46 52 46 49 51 43 38 39 33 37 31 16 21 24 17 17 23 16 24 17 23 21 19 17 16 16 22 19 24 21 19 25
15 17 16 22 16 22 24 15 18 16 25 18 24 18 25 26 20 17 23 21 19 25 17 25 29 38 33 43 38 39 42 42 49 47 38 39 41 37 39 33 25 26 20 25 19 23 24 17 24 18 18 15 16 18 17 16 17 25 19 24 16 25 24 20
25 18 23 19 14 26 18 15 18 15 19 15 21 22 17 14 21 15 15 20 26 20 24 23 30 30 37 35 40 37 40 34 33 36 44 43 40 35 33 22 29 26 21 24 18 21 24 15 17 16 19 14 20 23 14 21 21 20 14 18 18 16 20 14
19 17 25 19 15 19 24 26 15 22 17 18 26 26 15 16 18 21 19 14 25 14 16 24 25 24 23 27 29 36 28 32 39 30 35 30 30 30 23 27 22 22 22 15 20 24 17 19 17 15 22 18 21 22 22 25 18 17 20 22 20 17 23 25
17 25 20 24 16 25 17 14 24 19 17 15 22 14 15 19 14 14 26 24 26 26 17 19 26 19 16 22 25 26 31 22 28 29 30 22 21 16 24 17 18 16 20 17 23 14 15 18 24 21 22 21 19 20 24 19 14 26 16 25 19 19 15 22
23 16 20 21 14 16 22 19 16 19 20 18 15 26 18 14 23 21 25 25 20 19 20 16 19 25 19 25 18 22 18 15 20 21 14 19 21 26 22 25 18 20 25 20 20 17 25 17 18 15 24 17 26 23 15 20 25 20 24 22 16 23 14 25
22 19 17 22 21 22 15 15 20 20 18 21 19 18 24 22 25 15 14 26 20 23 24 25 17 26 20 15 22 20 14 15 19 23 26 19 26 17 24 25 16 17 19 26 23 23 16 17 19 22 24 16 22 14 14 17 14 22 20 17 22 15 16 26
20 24 14 22 26 26 20 14 16 25 21 19 23 24 23 22 19 15 17 19 19 14 22 15 14 14 26 15 26 18 23 20 18 25 26 22 23 20 14 22 25 26 26 14 22 15 26 14 21 21 22 26 17 25 19 18 24 24 18 16 18 17 14 25
15 19 19 15 24 23 15 14 21 18 24 14 21 15 21 18 22 18 19 19 18 21 15 18 21 25 26 20 18 18 24 16 20 15 24 16 19 15 26 17 25 21 24 18 26 25 21 17 19 14 14 18 22 26 14 18 23 19 21 18 21 26 19 15
15 25 17 25 26 25 22 19 15 20 16 18 18 23 25 17 22 25 18 26 14 22 25 24 26 25 23 18 17 24 17 20 24 20 26 25 25 19 25 19 22 14 23 23 14 21 18 25 18 16 18 19 15 15 21 22 22 17 16 17 17 21 17 22
21 14 24 24 16 22 20 16 15 24 22 24 16 25 20 18 25 24 26 20 19 24 23 26 26 22 16 22 23 25 17 22 15 19 26 17 14 23 21 22 15 14 17 18 17 18 14 14 14 19 24 20 21 26 20 17 22 15 21 14 16 16 18 24
19 20 26 17 18 23 15 24 25 15 23 22 14 25 16 24 16 16 23 25 16 25 25 24 18 23 17 24 16 21 14 15 26 22 22 18 14 19 23 24 21 22 26 23 21 25 26 19 15 21 16 14 22 14 14 26 16 14 21 23 25 20 25 22
26 17 21 15 14 21 14 20 23 25 17 15 26 26 25 23 15 23 23 18 20 23 19 24 20 26 26 15 23 18 15 24 15 19 25 24 14 22 26 14 16 24 14 23 20 25 17 25 18 19 21 19 24 25 18 24 21 14 25 23 24 26 15 17
16 23 18 22 15 25 17 16 15 17 22 14 26 18 14 14 21 18 17 22 23 23 18 25 14 15 26 15 15 23 19 22 19 24 24 26 20 22 22 20 15 18 16 14 15 25 22 20 17 18 18 20 15 21 21 23 15 14 24 18 22 18 26 15
20 21 25 23 24 16 20 25 25 18 24 21 24 24 25 26 26 16 22 17 15 25 24 15 25 21 20 14 17 24 14 22 20 23 15 20 15 21 20 22 26 24 26 18 19 17 16 16 22 21 22 14 14 23 22 19 23 22 24 19 18 20 18 26
16 16 19 25 25 25 21 25 14 14 26 15 15 20 21 26 22 18 26 26 21 20 25 17 24 22 17 25 23 17 18 16 24 15 24 20 24 16 23 25 17 23 25 20 15 17 14 24 15 19 15 23 17 23 16 16 20 24 23 19 20 21 20 25
18 22 24 16 18 23 16 15 20 23 26 26 20 14 20 16 20 20 19 26 20 20 20 18 19 17 21 14 22 16 18 15 18 22 26 20 20 14 26 23 19 23 18 23 19 21 23 23 25 20 20 19 18 23 25 16 15 26 17 20 25 17 24 23
17 14 18 16 20 19 26 15 21 25 26 22 14 18 19 24 20 21 19 24 21 26 16 23 24 26 24 14 23 21 16 20 18 25 26 16 15 14 17 23 23 25 22 26 15 15 14 17 23 14 24 26 26 21 17 19 16 17 16 15 14 18 18 16
