P2
64 64
255
23 14 16 21 26 21 24 19 23 16 18 21 23 18 18 23 24 25 15 21 25 18 23 18 24 15 20 26 23 14 22 20 25 25 25 25 26 20 20 20 17 19 23 21 20 25 18 15 26 22 15 20 19 20 18 15 23 23 15 14 22 17 25 20
25 17 19 16 14 18 19 20 15 21 26 17 21 17 18 15 21 24 19 21 18 24 23 25 19 26 23 21 14 15 20 20 21 20 15 17 20 17 14 21 18 17 16 19 19 24 23 20 16 26 24 25 17 25 20 14 23 16 25 21 23 22 16 22
21 18 23 24 16 17 26 14 15 16 24 26 15 26 19 14 17 25 21 21 18 16 21 21 15 22 21 20 20 25 18 24 25 24 17 26 21 18 16 14 16 23 24 17 19 20 15 23 15 23 26 25 23 23 15 16 25 16 19 14 26 14 19 22
21 20 16 19 18 21 20 21 26 20 14 15 14 20 17 17 25 26 23 23 16 19 26 21 14 23 22 21 19 24 26 15 17 14 23 14 26 23 14 16 26 20 19 19 22 14 26 22 19 17 21 26 25 16 14 24 21 25 14 17 19 18 21 18
14 24 26 20 20 26 20 19 14 18 25 15 24 19 22 19 23 15 21 22 16 16 15 24 25 25 23 14 14 15 19 18 14 23 16 17 15 20 17 22 17 26 16 21 23 22 15 19 25 15 16 25 25 15 20 20 15 17 20 18 26 21 26 19
17 22 23 16 25 15 17 23 17 18 17 17 21 24 18 24 16 26 24 25 17 20 23 19 24 16 15 24 25 15 23 15 19 18 17 26 26 17 24 19 14 20 15 25 21 24 19 24 23 18 24 20 24 17 14 21 22 21 25 19 20 22 14 24
26 25 22 22 25 19 20 17 19 19 20 14 22 17 23 16 16 15 18 17 25 18 26 22 26 18 23 22 20 15 14 20 17 17 17 19 25 19 19 18 25 18 17 14 21 18 23 24 16 17 25 15 15 14 14 15 24 24 25 19 21 22 26 25
22 16 18 20 18 15 23 14 23 26 15 21 26 23 16 17 15 19 21 26 25 21 19 25 23 23 14 16 23 14 23 20 19 19 21 26 17 25 24 25 17 20 18 18 21 17 25 21 24 14 16 26 15 15 17 23 25 20 25 26 25 18 17 16
18 23 16 21 19 14 21 19 19 22 26 20 19 26 22 14 24 23 14 22 19 23 23 19 20 20 20 26 25 17 21 18 19 15 18 18 21 25 20 25 25 24 14 26 19 16 21 16 26 18 24 23 23 17 24 22 23 24 17 26 18 22 22 19
15 25 21 17 23 21 16 21 17 18 26 20 20 17 24 21 25 17 26 22 23 16 20 24 17 14 26 26 20 16 21 16 19 16 26 14 18 24 17 23 20 14 21 24 16 20 15 21 17 19 16 17 25 21 20 17 20 24 25 24 14 14 16 20
14 18 14 25 18 16 18 21 14 23 25 15 18 18 21 14 24 26 16 19 19 21 26 14 26 15 17 15 26 14 17 16 22 16 25 16 25 21 23 15 21 14 17 25 22 20 14 23 15 14 16 14 19 23 17 17 23 15 22 22 19 21 14 14
15 22 15 17 22 17 23 26 18 18 24 23 15 21 26 18 18 23 24 18 20 26 26 18 16 26 15 21 24 20 18 21 17 24 19 15 25 26 20 18 16 16 14 17 15 17 18 24 19 22 23 22 17 20 17 22 19 22 17 21 16 23 24 23
15 24 20 26 24 15 22 19 22 15 17 22 24 22 24 23 24 20 23 18 16 15 26 20 19 22 15 17 24 24 24 14 26 20 22 20 19 25 26 26 20 22 22 22 23 19 17 21 23 14 17 21 14 26 20 17 23 18 21 17 25 23 19 21
21 22 16 19 24 16 17 20 24 21 20 20 26 15 21 23 18 18 26 25 18 26 16 16 25 14 23 25 24 23 20 21 18 14 26 14 14 26 26 17 25 26 24 15 22 25 21 25 21 25 14 16 23 23 20 25 26 24 19 16 17 23 16 15
25 23 17 14 22 26 16 20 25 14 15 20 16 17 24 23 25 15 26 23 15 26 23 18 25 17 19 19 22 19 15 23 14 26 19 22 23 20 15 19 17 17 17 17 25 22 26 24 19 18 25 18 22 20 14 25 17 17 26 24 15 25 26 15
18 18 19 24 26 26 14 16 23 15 25 19 15 20 25 21 17 20 20 21 15 21 16 14 26 21 23 18 17 21 16 23 15 17 15 18 17 15 24 19 25 16 14 19 18 18 17 23 16 26 14 21 21 23 25 21 14 17 16 15 20 24 16 16
24 21 20 26 18 18 20 25 18 15 20 17 23 17 18 25 16 14 26 15 17 21 24 21 23 22 14 20 23 23 20 23 21 26 17 23 22 23 17 15 17 17 17 16 16 17 25 18 15 21 23 17 14 17 21 25 15 22 19 18 14 14 18 15
26 23 20 23 26 26 23 17 24 25 24 25 25 18 22 21 22 21 14 25 15 16 20 17 15 22 15 22 19 18 20 24 24 16 19 18 20 26 17 18 20 21 18 17 15 14 22 18 17 17 21 15 19 14 15 17 14 19 25 15 21 14 17 19
24 19 23 23 24 15 26 26 23 17 21 20 14 14 23 14 18 20 21 15 15 15 14 17 21 21 18 18 26 18 24 24 17 25 16 21 17 17 20 24 17 15 21 25 18 26 21 19 16 19 21 26 22 26 21 16 26 25 26 18 14 24 19 21
17 18 16 20 24 15 14 26 26 18 14 26 19 21 21 26 24 23 21 20 30 25 18 18 18 23 14 21 22 24 21 15 16 25 22 25 25 14 16 22 23 17 23 29 23 17 27 24 20 24 16 24 18 17 19 15 17 16 22 16 24 16 21 22
20 16 15 21 15 21 16 17 17 14 16 26 16 14 27 19 18 28 28 31 29 29 23 31 25 28 24 16 15 16 18 25 20 16 18 14 25 22 22 20 24 26 22 26 30 33 31 29 30 23 20 23 15 22 26 24 26 16 25 14 14 14 22 21
15 17 25 20 20 14 16 18 22 14 26 26 18 17 23 24 22 26 27 29 28 31 36 36 34 29 25 21 22 24 17 17 14 18 22 25 18 29 29 32 30 35 29 37 28 31 27 34 25 20 21 23 19 26 26 17 22 14 20 18 18 18 19 16
21 16 21 22 23 17 16 16 15 18 20 21 24 21 29 36 27 30 29 39 41 34 34 40 31 27 36 22 23 18 15 14 17 25 26 26 28 28 29 30 35 36 32 32 41 37 29 36 31 29 29 20 19 20 19 19 14 26 16 16 22 17 20 24
15 25 17 23 23 21 25 23 19 17 18 28 22 32 33 39 33 43 44 43 44 37 39 41 36 39 30 31 34 21 17 26 17 25 26 27 25 36 33 41 32 41 44 34 34 40 44 43 31 29 36 31 31 22 26 21 17 14 20 18 21 14 23 26
25 16 19 26 23 18 14 19 21 14 25 26 24 30 39 40 38 36 42 42 40 37 46 44 46 45 35 39 31 24 24 26 25 17 24 33 30 33 43 36 35 42 44 45 38 42 37 40 33 31 36 27 25 23 18 26 21 17 22 17 20 25 21 16
25 21 21 26 18 21 19 17 23 17 31 34 37 30 31 42 42 50 47 46 43 43 41 50 40 46 34 41 30 32 33 30 21 22 34 33 28 32 39 38 40 40 47 44 43 45 45 48 40 34 41 30 35 32 26 20 21 15 23 23 14 15 21 25
16 23 22 19 21 16 26 14 16 25 24 36 32 38 39 47 39 49 48 48 52 52 51 55 41 50 39 41 41 32 36 21 22 24 35 33 31 45 45 40 44 45 55 54 50 44 44 46 39 41 44 37 38 34 26 23 14 17 16 25 25 24 24 22
22 20 14 19 19 25 21 24 19 23 28 37 41 39 37 50 52 51 54 50 49 60 48 53 46 52 46 47 33 39 29 26 32 36 32 37 39 36 44 51 54 48 54 54 50 58 56 49 45 51 48 42 39 36 28 27 28 25 26 14 23 15 14 20
19 16 24 14 22 14 22 21 19 32 32 38 39 45 42 50 50 54 59 53 62 60 56 60 49 45 47 40 40 39 40 34 29 29 32 33 44 40 43 56 59 57 52 59 61 52 51 54 53 48 40 41 38 36 33 22 25 15 24 15 17 22 24 18
23 19 19 21 22 24 18 21 26 24 36 40 34 38 42 47 50 56 56 65 69 69 67 64 54 56 56 45 42 43 32 30 38 35 34 41 49 45 49 47 51 63 59 58 59 66 60 59 47 44 41 47 36 38 29 26 30 27 26 20 20 16 24 15
17 16 25 15 19 17 25 25 30 29 33 40 38 49 54 46 61 65 60 59 62 62 70 65 61 61 56 42 50 38 37 40 42 32 38 35 39 42 47 60 65 64 69 63 71 65 57 60 58 47 53 42 37 39 38 35 20 22 18 21 14 21 19 15
25 21 17 22 16 19 18 21 32 27 28 33 43 46 46 58 56 61 70 71 68 69 70 67 58 60 51 47 49 41 43 40 37 36 39 37 45 50 57 56 54 60 73 76 69 70 61 63 59 59 53 49 41 37 39 32 20 17 23 15 26 26 19 16
19 23 21 25 25 19 22 24 28 25 36 40 47 47 49 56 59 60 63 71 75 75 70 67 63 58 50 50 47 45 44 35 34 45 37 47 49 44 53 56 63 71 69 72 71 73 65 60 63 50 51 51 36 36 33 26 31 17 20 16 22 21 21 26
15 26 20 20 25 21 25 22 32 29 28 43 39 39 49 51 62 62 60 64 75 72 61 69 66 53 54 53 44 47 35 35 33 35 43 36 40 51 54 53 61 68 66 75 70 70 69 63 60 48 50 48 47 42 32 27 21 21 21 18 23 20 17 15
21 15 19 15 24 14 16 26 22 27 37 31 36 42 49 49 60 59 64 65 64 70 67 63 59 57 51 52 45 40 32 36 38 43 33 36 48 49 48 53 58 66 60 70 67 61 63 55 51 49 53 40 36 40 31 26 22 24 17 25 23 19 19 24
20 20 17 25 26 20 25 15 30 25 29 31 35 38 41 44 53 55 62 67 62 69 59 60 50 51 50 52 49 42 39 32 34 42 38 33 42 52 50 58 51 61 66 67 63 64 55 56 58 44 51 37 42 30 30 33 26 27 20 16 20 26 19 25
21 18 17 22 18 22 26 19 23 21 31 39 41 42 43 50 53 57 60 60 58 64 60 61 58 50 47 41 43 39 37 38 32 28 34 43 36 49 44 57 52 52 61 55 65 54 62 50 57 51 42 41 37 33 32 32 25 18 14 23 21 18 16 19
17 21 16 15 18 25 24 19 24 24 31 29 32 35 47 41 52 52 57 57 61 52 57 49 50 52 49 42 44 42 31 32 35 29 33 34 44 46 50 52 45 52 55 53 55 51 55 45 47 40 42 37 35 31 28 32 20 16 21 25 19 24 20 23
16 15 18 14 14 14 20 25 16 22 32 29 40 43 45 43 42 53 43 54 45 46 55 45 50 43 46 37 32 34 30 27 34 23 33 29 39 46 39 41 42 44 54 55 52 52 50 44 45 46 46 37 29 26 27 27 16 26 18 22 24 16 25 18
25 27 21 26 24 17 22 25 19 31 35 27 31 40 44 44 42 48 51 57 49 52 54 50 47 42 43 47 37 40 37 36 31 25 33 39 44 43 51 50 46 56 48 56 54 51 46 53 51 48 46 39 42 31 29 32 26 26 32 32 27 27 32 32
28 30 24 32 30 30 33 21 21 29 33 28 36 40 48 47 41 45 56 50 56 55 46 50 43 49 42 39 41 42 32 27 28 36 38 33 43 47 44 44 45 47 59 55 53 55 57 45 50 49 49 38 35 39 36 29 29 27 37 27 28 35 34 34
24 27 33 36 34 36 30 32 32 30 29 40 40 42 46 48 45 55 49 52 46 52 48 45 44 47 51 44 42 46 32 35 39 32 36 37 39 48 52 54 49 53 60 61 53 56 52 59 54 55 47 44 43 46 38 42 35 40 39 44 37 33 43 44
26 22 21 22 23 33 24 27 23 24 21 32 31 35 41 33 45 46 41 42 47 42 42 45 35 39 33 32 37 38 28 33 32 35 35 30 39 42 42 37 47 48 47 51 47 42 48 40 41 46 41 38 34 36 31 34 34 28 33 33 33 28 30 37
27 27 28 22 18 21 21 28 18 20 28 28 18 31 34 27 33 32 32 39 34 36 30 34 38 31 28 34 32 26 30 20 19 19 26 20 23 35 25 32 39 34 40 37 31 38 32 29 27 30 36 26 21 22 30 24 27 32 21 25 32 31 26 20
17 21 19 26 25 15 19 19 17 22 22 25 20 19 18 21 20 21 29 32 33 24 24 29 26 29 25 23 18 20 22 19 17 26 16 21 19 19 26 28 31 32 27 28 31 24 28 24 23 24 21 20 15 17 18 26 15 24 16 21 18 14 18 25
20 26 22 23 17 15 21 14 16 26 14 16 21 25 22 17 16 23 22 29 25 28 25 22 23 25 23 17 16 14 24 20 25 25 21 18 23 24 23 24 21 24 28 22 29 17 25 21 18 21 26 14 19 17 15 20 18 14 20 26 22 18 26 17
23 22 19 17 14 19 20 24 24 17 22 18 25 14 14 21 25 26 14 16 22 22 23 14 22 15 17 26 25 21 15 25 23 21 22 23 26 19 26 18 25 17 14 23 25 17 14 16 16 24 20 22 22 14 18 21 19 15 21 18 16 24 20 18
18 24 26 25 22 20 20 20 18 24 21 17 21 17 19 23 18 22 19 20 21 16 23 20 14 26 19 22 25 17 24 22 22 26 25 17 15 14 23 18 17 26 24 19 14 18 21 23 18 18 14 24 14 14 24 20 14 15 23 24 19 25 17 26
23 25 17 19 17 26 24 19 25 25 18 25 14 17 20 18 26 26 17 22 19 20 23 17 17 23 17 14 26 19 15 26 18 15 22 18 15 14 21 26 17 16 16 19 17 14 22 25 22 25 23 22 17 14 23 17 14 22 25 22 14 20 19 24
20 17 21 19 23 17 16 15 15 21 15 20 23 23 18 15 23 25 21 24 21 15 16 18 15 18 14 18 26 16 25 19 14 15 25 26 16 19 20 25 21 19 22 22 16 17 14 21 14 15 25 26 23 23 16 20 21 17 26 26 17 25 24 14
23 25 15 14 21 19 21 26 15 18 15 26 16 19 18 25 24 25 15 16 25 16 26 25 16 22 19 16 23 16 16 22 20 22 16 24 14 25 17 15 18 16 21 14 23 19 24 20 15 25 19 25 14 18 14 18 15 24 20 25 19 16 14 17
26 22 15 16 26 16 22 16 18 16 23 23 23 17 25 24 20 15 16 20 15 25 14 21 20 20 14 15 17 21 16 16 15 14 15 16 21 15 19 24 18 18 20 18 19 24 22 14 23 26 24 22 15 22 19 24 14 25 19 22 23 25 24 15
14 16 14 26 15 18 14 24 23 25 20 15 22 16 20 17 21 23 14 19 22 18 15 18 26 18 21 19 24 26 20 26 18 24 25 23 25 20 24 25 14 17 16 16 23 19 19 25 15 26 25 17 20 25 24 16 26 25 16 26 21 25 24 17
15 16 25 14 23 20 25 16 15 22 19 18 24 14 16 19 20 16 16 26 14 26 18 25 16 25 26 22 22 17 18 17 25 16 16 26 22 20 15 16 15 25 17 25 26 21 16 16 17 16 24 16 19 23 19 23 26 20 15 14 23 22 26 16
16 26 19 26 26 21 18 23 20 21 15 15 19 26 18 18 24 17 26 16 19 25 20 16 16 23 17 21 18 24 25 24 24 18 24 26 26 26 14 16 21 20 26 23 22 24 23 15 25 23 21 19 20 17 18 26 14 23 18 17 22 19 24 24
26 17 19 25 21 16 14 19 16 26 16 14 19 15 23 14 18 22 23 18 23 23 19 16 18 16 24 14 16 19 19 21 16 26 17 24 22 26 19 24 25 20 19 26 23 18 20 23 17 17 18 24 20 19 25 15 18 17 26 21 20 26 17 24
14 18 14 20 24 20 23 18 18 22 17 23 19 15 24 21 16 20 24 22 25 18 19 17 23 25 22 14 16 24 15 20 20 22 19 18 25 16 21 17 24 22 19 17 15 20 21 15 17 26 26 23 19 26 23 22 18 25 25 26 15 20 25 21
25 23 15 16 21 16 25 25 24 16 23 14 22 24 21 22 24 26 24 26 22 15 26 17 21 19 25 18 22 26 16 25 22 19 18 24 17 25 19 16 26 23 24 14 26 24 16 14 22 26 23 23 25 18 14 20 22 24 18 24 15 23 17 19
16 14 14 18 17 26 25 25 26 26 19 24 16 25 16 20 16 25 23 26 25 18 25 20 20 18 24 16 21 22 14 20 16 25 21 26 20 16 24 20 18 14 15 19 24 25 19 14 18 26 17 19 25 22 18 18 17 15 25 17 17 21 19 23
21 22 15 24 25 24 16 19 18 25 14 19 25 22 16 14 17 18 14 15 15 16 21 26 23 20 22 24 14 14 16 25 22 15 19 20 22 18 19 24 23 25 25 18 18 17 23 25 14 25 17 16 17 21 17 22 22 20 20 25 17 20 14 17
17 20 15 17 17 24 26 24 17 15 17 23 26 20 26 14 22 22 22 25 18 19 23 16 21 23 18 20 15 25 26 17 20 14 21 24 22 22 26 18 17 18 22 17 17 14 24 23 22 26 26 24 17 15 16 24 24 26 18 19 23 14 23 21
24 16 21 20 22 19 26 25 19 19 23 23 17 16 26 14 14 16 22 18 25 25 25 18 22 19 16 23 26 15 19 23 17 21 26 24 17 22 14 22 17 17 25 24 21 18 18 20 16 20 21 24 21 26 15 25 22 16 20 18 22 19 22 25
20 21 22 23 21 18 21 23 17 18 16 25 14 23 26 16 17 25 24 24 21 24 25 19 23 21 16 22 25 24 26 22 15 23 25 24 21 24 26 26 17 26 15 22 24 20 23 23 17 14 18 18 20 18 25 25 18 22 18 22 18 22 26 14
21 19 18 23 15 15 24 26 17 15 16 17 22 17 22 18 21 20 24 14 15 25 25 23 20 16 19 20 26 25 25 17 15 26 15 20 14 26 23 26 19 26 16 24 23 24 14 14 17 26 25 24 14 19 26 14 16 18 23 18 18 18 24 16
