P2
64 64
255
17 26 25 25 22 21 25 25 24 23 18 14 17 14 15 15 15 25 18 21 20 26 26 14 23 15 21 15 16 17 22 18 23 25 19 16 21 26 24 23 24 15 26 16 17 23 19 16 16 16 18 19 17 22 18 22 26 20 16 21 20 23 14 20
15 14 17 20 22 20 19 21 23 24 17 16 16 16 15 26 26 20 21 24 19 16 23 25 21 22 21 18 20 15 19 24 14 21 21 21 14 24 16 15 19 23 24 17 22 26 14 25 25 25 20 17 15 18 16 17 23 17 16 15 16 23 26 19
22 26 16 26 17 26 14 14 25 18 21 20 23 26 23 19 16 16 19 24 20 20 25 21 25 15 18 21 18 19 21 18 21 16 23 21 19 19 25 17 20 17 26 18 24 14 21 23 21 17 26 22 18 15 22 15 21 25 24 23 16 23 22 22
22 22 18 24 14 24 16 19 17 24 24 22 26 25 22 18 16 24 18 15 22 23 19 26 17 20 17 21 17 18 18 22 19 15 18 22 24 18 24 25 22 23 23 25 18 22 24 16 15 25 23 19 18 19 15 21 20 17 14 25 24 17 21 23
15 19 23 18 20 26 17 21 19 19 15 22 21 14 26 19 19 17 15 18 20 21 17 22 21 24 19 17 21 21 18 26 19 19 21 18 19 24 21 17 26 24 18 19 21 23 20 26 25 23 21 24 22 14 20 23 14 17 14 21 25 15 14 24
15 18 18 15 16 25 21 22 14 21 22 24 20 22 16 17 18 26 14 25 24 23 16 16 21 15 22 19 18 20 20 19 19 15 25 17 18 21 22 14 23 23 15 20 21 15 24 26 16 19 16 21 23 21 19 18 22 24 14 20 26 22 23 15
14 23 24 24 24 16 23 21 20 17 16 23 17 16 21 26 22 18 19 19 16 15 19 26 22 20 15 23 18 21 14 18 20 24 26 15 15 14 20 21 18 17 19 15 20 14 26 24 21 20 25 15 18 16 19 18 26 14 22 24 20 20 21 17
22 14 26 15 17 15 21 24 23 21 22 16 25 15 21 26 22 23 21 17 21 25 25 20 22 15 20 25 20 15 20 23 21 24 26 19 15 24 23 25 24 21 17 24 24 16 14 14 25 15 24 17 16 14 20 26 18 19 18 19 16 19 19 21
21 18 25 14 21 14 20 21 17 24 15 18 16 26 24 25 19 22 17 18 20 24 25 24 17 14 22 24 25 24 21 18 18 21 22 18 19 24 19 14 22 16 23 23 19 18 20 18 20 23 22 19 15 26 17 21 19 19 19 15 25 26 23 18
20 22 18 14 15 25 21 18 26 26 21 17 18 18 20 26 22 18 15 15 25 25 14 19 21 23 16 18 20 16 22 24 21 14 26 18 20 20 22 18 25 19 14 24 21 17 14 23 25 24 18 20 19 15 19 16 17 22 15 24 15 22 24 20
25 20 15 24 24 22 19 15 26 20 15 15 25 24 16 19 21 26 20 19 21 19 20 20 18 23 19 17 20 18 22 19 21 26 15 23 15 22 18 20 25 22 25 26 20 21 25 24 17 26 14 19 18 15 14 24 24 21 21 24 21 24 18 25
21 18 17 18 24 16 21 25 18 25 20 24 26 20 15 18 21 25 19 18 15 23 22 23 17 19 22 15 24 19 15 22 15 22 18 16 16 24 23 21 15 18 25 19 21 17 21 23 19 20 16 14 19 14 23 17 26 22 21 14 17 16 25 19
25 15 17 20 19 26 25 25 16 22 25 20 20 17 20 18 19 19 15 23 23 26 14 22 25 20 19 17 14 17 22 23 22 24 22 16 14 17 24 18 22 16 14 22 23 15 18 15 26 23 24 25 14 25 16 17 19 17 24 14 25 17 16 16
15 19 18 14 24 20 19 17 17 23 18 16 24 14 24 15 21 15 26 16 14 26 25 25 16 18 21 22 16 22 17 21 15 25 20 26 22 25 23 18 23 16 23 25 21 25 26 23 18 18 25 16 19 22 25 24 24 16 24 26 22 23 17 24
23 20 14 22 14 22 14 25 16 25 24 14 23 17 19 24 18 16 22 26 15 16 21 25 25 17 22 20 23 21 26 20 26 17 20 14 26 14 20 15 15 21 24 19 16 20 21 14 16 16 24 20 20 18 18 24 22 15 16 17 22 21 19 22
21 20 25 15 24 16 16 24 18 15 17 16 24 19 18 20 14 26 23 20 18 21 26 23 23 25 25 15 26 22 16 22 15 24 15 22 19 21 17 14 14 16 15 18 17 16 20 25 26 24 18 21 20 24 23 14 20 16 15 18 14 23 20 24
20 19 14 15 14 15 16 17 25 21 26 22 26 24 17 21 15 24 26 20 16 19 20 24 23 22 19 22 19 22 22 25 21 18 25 20 22 24 15 18 26 18 24 26 16 23 20 17 26 22 23 25 25 15 20 20 14 26 20 19 18 23 19 23
15 14 17 14 21 20 25 16 20 25 22 20 25 25 19 14 17 21 25 18 22 18 24 15 19 17 22 25 17 21 17 16 22 20 18 17 24 21 20 21 16 15 18 19 22 15 15 22 19 15 22 17 14 19 26 26 21 25 22 21 25 14 21 19
20 18 19 17 18 26 26 23 17 26 14 17 22 16 16 20 25 16 15 20 24 19 22 25 17 26 26 15 14 15 24 17 14 19 15 26 18 25 15 19 26 22 16 15 21 23 22 21 20 25 21 21 22 14 18 24 26 24 26 23 20 26 14 16
18 19 19 23 25 18 20 16 15 21 19 25 25 18 26 17 27 24 23 21 19 22 25 20 23 15 26 22 14 23 24 20 15 25 24 23 19 17 26 17 27 18 24 18 24 21 19 17 21 23 15 22 23 24 25 20 26 22 18 15 26 21 23 22
17 26 25 15 19 17 14 16 21 25 17 16 18 14 17 29 19 21 27 28 33 24 30 33 21 26 17 17 24 17 23 23 17 19 20 16 14 17 24 30 30 31 29 23 30 24 25 29 22 29 20 23 21 20 23 18 19 22 19 21 16 14 25 26
23 17 18 19 21 18 15 23 16 25 23 17 26 27 21 31 34 29 34 36 27 33 31 30 29 28 22 29 21 15 19 25 28 22 20 21 19 30 22 29 25 29 26 26 36 34 28 30 23 24 27 19 25 17 19 16 17 16 24 20 18 21 19 19
17 16 17 25 17 24 14 20 21 16 16 20 29 24 23 32 28 36 38 29 41 31 34 32 39 28 28 29 25 26 26 29 27 26 30 36 32 30 31 33 27 37 39 41 29 38 32 33 29 28 30 20 22 22 17 19 19 19 17 26 18 20 19 21
22 25 15 21 20 25 19 24 20 25 15 27 29 32 35 27 33 37 37 43 41 45 44 41 40 41 36 38 43 43 32 41 30 39 34 36 44 43 35 40 32 32 34 45 44 36 32 41 33 27 27 32 32 21 27 20 21 21 20 26 18 17 23 23
14 15 21 17 21 21 24 23 20 20 23 22 27 33 39 32 40 46 46 47 37 47 38 50 50 47 48 54 44 53 51 48 43 45 51 52 52 49 46 46 52 41 44 45 48 38 44 43 33 43 40 33 35 25 20 16 17 16 16 15 14 18 18 25
21 15 24 17 25 24 18 22 25 17 20 23 29 39 42 38 42 46 40 48 48 48 49 54 58 58 54 57 63 61 60 57 53 46 49 58 51 57 56 56 56 53 52 48 52 49 43 38 42 38 32 37 32 32 27 19 17 20 18 22 19 22 16 14
15 19 17 14 22 25 24 20 25 21 26 35 39 39 46 43 39 50 44 56 50 60 58 56 67 67 64 60 61 70 64 59 57 58 63 65 69 70 70 70 69 63 58 49 53 56 50 48 48 41 43 36 29 27 21 18 23 22 25 18 18 24 14 22
18 18 23 20 14 18 22 22 26 32 26 28 40 33 39 48 45 53 49 60 58 62 64 69 74 71 72 71 78 71 64 75 68 72 64 76 74 71 79 76 74 71 65 64 55 49 59 47 43 42 47 39 30 32 25 31 17 18 16 18 23 26 21 14
23 19 20 25 22 15 24 26 28 23 36 35 43 40 48 54 51 50 56 53 62 68 75 83 84 83 79 81 76 87 78 79 74 77 77 79 84 78 83 75 74 76 69 75 65 54 62 53 55 53 46 36 40 31 31 29 24 20 23 26 15 14 23 20
15 15 24 16 19 26 21 24 19 24 33 40 34 46 51 49 48 56 62 59 67 74 78 80 81 93 92 92 91 91 83 84 85 90 90 88 84 84 93 83 90 90 87 74 77 69 57 61 58 47 44 44 43 31 35 23 30 26 16 26 19 21 24 15
23 18 15 22 18 18 26 21 24 26 33 33 43 43 47 54 51 65 60 70 81 82 89 84 89 98 90 95 96 96 96 99 91 98 90 95 101 99 95 87 87 88 86 80 82 65 65 58 54 57 54 45 37 31 36 32 31 19 18 26 20 19 23 14
17 18 16 22 22 16 21 28 31 26 36 43 44 43 49 48 56 60 64 72 89 95 93 91 94 95 98 103 97 103 107 96 108 107 106 101 100 100 95 92 100 94 91 90 80 78 66 61 54 58 53 40 42 31 28 28 22 23 20 14 16 26 26 22
19 14 18 24 25 18 24 26 32 27 34 41 38 41 47 56 62 61 68 83 96 100 100 101 98 98 102 101 110 104 113 104 117 113 108 106 101 111 103 96 100 105 91 90 96 85 70 56 54 57 55 49 36 42 28 25 29 26 21 23 23 19 26 19
17 21 20 14 21 19 20 25 25 31 32 35 45 49 54 53 55 64 68 78 85 89 95 95 107 103 102 112 108 104 111 117 111 117 110 110 107 112 108 100 101 94 92 99 87 85 65 55 60 53 55 39 46 43 32 32 23 25 25 15 20 22 19 21
15 21 23 22 17 26 22 17 25 27 30 35 42 45 42 56 51 54 65 73 89 94 91 99 104 107 108 106 116 110 110 117 123 121 122 117 109 110 106 105 98 101 91 87 81 81 65 54 51 51 46 41 46 35 37 34 31 16 19 14 17 19 16 18
21 21 18 14 18 17 25 19 20 28 27 41 44 41 46 46 58 57 61 79 89 84 87 103 102 102 108 105 109 120 114 126 127 118 123 113 116 104 103 104 103 103 93 85 82 81 67 63 52 49 46 46 37 32 26 34 25 26 14 16 15 22 18 20
14 15 21 23 16 22 15 19 28 30 37 32 40 42 45 48 55 50 66 66 77 91 87 101 93 102 107 114 108 113 117 116 132 128 121 120 107 110 106 98 102 100 97 80 74 70 60 51 55 52 49 36 39 30 26 28 20 14 17 18 14 26 15 25
21 22 17 14 15 19 20 14 27 32 25 37 40 37 48 41 42 47 58 68 76 76 90 92 95 96 97 107 112 108 117 112 111 121 109 107 112 102 104 102 90 97 89 76 81 68 58 54 50 52 45 41 35 33 23 27 23 20 18 19 17 16 24 15
17 19 24 25 17 22 21 23 14 23 31 37 32 42 45 37 44 43 55 59 64 80 78 84 85 92 102 106 106 106 109 110 107 105 107 109 105 95 92 98 85 89 81 76 64 59 54 54 49 45 39 43 38 37 32 28 14 25 26 15 22 18 15 19
26 14 24 14 21 14 20 22 21 17 28 28 35 29 36 43 42 49 46 54 61 67 77 76 80 86 98 99 103 99 102 97 93 95 103 98 92 96 99 94 85 83 74 77 62 63 56 44 36 35 39 36 36 27 19 16 26 19 14 14 15 15 24 17
21 24 22 25 26 18 17 15 22 21 24 29 33 30 31 39 38 44 49 49 65 65 65 79 76 88 88 89 86 95 93 86 91 97 87 92 88 84 80 78 79 75 75 68 55 47 47 35 37 37 30 27 25 31 24 26 24 21 14 17 26 22 14 20
14 18 22 14 17 18 26 23 22 24 18 24 22 23 33 34 40 42 40 48 47 53 70 71 77 77 85 83 85 88 79 78 88 80 79 87 86 75 76 79 67 64 60 58 57 53 43 36 35 37 36 27 22 22 16 24 21 18 25 15 22 20 19 26
19 26 18 25 21 16 25 14 14 17 20 22 26 22 34 29 38 35 40 46 51 50 54 67 64 73 69 72 75 77 71 73 79 80 74 77 70 74 76 73 61 55 61 56 42 40 32 33 28 24 30 22 24 23 17 16 14 16 14 17 26 24 18 18
19 18 23 21 15 21 15 19 17 16 23 23 25 26 29 22 27 26 26 34 41 47 47 54 60 66 66 59 71 70 65 65 72 69 75 60 61 70 69 67 60 54 43 49 38 36 30 35 28 27 22 22 24 15 15 23 22 25 20 24 16 23 24 17
24 17 17 21 25 26 16 24 19 21 26 18 22 21 19 27 23 32 24 31 35 40 42 42 44 51 56 52 53 67 65 63 64 64 69 60 52 55 50 48 56 44 45 34 30 25 28 26 21 25 20 22 19 18 24 25 19 19 18 21 17 23 17 26
20 16 21 19 20 19 24 16 21 23 15 21 20 15 23 20 17 28 28 21 21 27 30 43 40 39 49 51 55 57 51 60 57 59 60 57 55 51 43 40 38 44 35 35 25 18 19 23 27 26 17 15 14 20 24 20 16 22 24 17 16 17 17 24
17 22 14 25 23 22 21 21 19 14 24 21 23 21 22 26 19 17 19 17 18 22 25 34 41 44 44 48 50 54 48 50 52 45 54 53 42 38 39 43 37 33 32 18 20 15 18 24 15 15 21 18 15 17 21 14 20 16 14 18 16 16 17 16
24 20 26 18 25 22 21 20 23 25 19 19 18 18 17 16 16 14 19 19 23 20 16 30 33 37 33 42 43 49 45 46 41 45 44 42 43 35 35 33 30 30 19 21 18 22 16 18 26 18 14 19 18 21 14 14 24 14 17 22 14 23 23 19
19 20 21 15 23 14 16 24 14 14 20 26 26 25 23 22 14 24 20 20 20 22 17 21 27 29 28 39 33 42 44 37 33 43 33 37 29 38 31 24 18 16 19 25 17 26 22 21 23 22 23 23 23 15 19 24 18 14 22 23 20 16 22 17
14 14 18 14 23 25 18 21 16 17 15 17 19 20 17 15 16 23 20 24 21 14 14 24 19 26 27 26 25 37 35 38 28 39 30 31 34 24 25 23 18 24 24 20 16 18 17 17 25 23 17 16 26 21 19 19 17 19 22 17 18 15 19 22
22 15 18 25 23 24 18 14 16 21 24 19 26 18 21 16 22 21 18 14 22 20 19 21 14 17 24 20 23 27 29 22 33 21 29 19 24 16 15 25 18 23 17 19 24 23 21 20 25 23 15 16 20 21 17 25 24 17 25 23 17 18 21 17
26 23 25 15 26 26 16 23 26 16 18 14 22 15 23 14 17 14 25 24 24 17 20 23 25 15 20 26 25 23 26 24 26 17 19 15 14 17 24 23 23 17 16 14 20 14 26 14 17 26 20 14 17 18 25 15 22 14 15 16 15 21 15 15
16 22 15 16 24 15 16 22 20 26 26 25 23 19 15 23 19 26 15 18 22 21 20 16 21 23 22 15 18 17 22 14 15 16 21 24 26 23 25 16 23 15 26 25 21 25 22 23 17 15 26 21 22 24 24 17 19 18 25 17 17 14 17 24
21 25 22 14 17 19 20 21 26 14 24 26 18 21 22 17 19 24 17 19 20 20 16 19 25 20 15 25 25 20 19 16 17 26 15 14 17 16 21 17 17 19 20 23 17 21 21 15 26 25 24 19 22 17 20 15 16 17 14 25 26 21 15 25
20 16 19 17 18 25 23 26 14 23 17 15 24 26 14 23 22 21 22 16 14 17 20 26 25 20 18 17 14 25 14 21 18 19 21 17 14 15 22 15 16 22 18 23 16 14 22 21 19 14 17 25 19 20 24 26 14 22 24 26 19 22 21 21
18 14 16 21 21 18 20 21 19 19 23 19 14 14 16 25 22 17 26 25 19 18 22 20 14 26 23 26 17 20 26 23 18 25 16 15 23 18 21 16 16 14 23 18 18 19 16 26 17 14 16 18 19 21 24 26 17 17 24 21 24 22 21 21
26 14 20 15 23 23 20 26 25 22 18 24 26 15 21 24 17 16 25 15 26 16 22 22 17 23 14 21 21 26 23 22 21 22 24 16 25 15 20 22 18 17 16 19 22 18 14 16 17 25 22 26 17 15 15 18 14 25 21 15 19 14 26 24
19 20 16 16 25 15 16 14 16 15 16 16 25 19 23 22 19 20 20 24 26 15 22 24 25 24 16 23 25 14 21 15 16 16 18 16 16 26 26 22 22 26 19 16 24 22 23 14 14 19 19 16 14 25 15 21 17 26 22 16 17 19 24 21
23 25 20 23 19 17 25 20 14 22 15 25 19 21 19 17 15 23 15 22 16 21 26 15 20 25 16 19 24 15 24 23 24 20 15 21 25 22 25 19 19 18 22 20 23 14 24 20 19 16 19 23 22 15 18 25 20 14 15 24 23 20 17 14
25 16 22 22 21 23 23 15 24 16 23 22 21 21 22 24 24 26 26 20 23 15 18 15 19 20 21 17 14 15 21 24 15 25 16 16 14 23 19 17 23 16 23 23 22 24 17 21 25 17 17 18 20 16 25 26 21 26 23 24 15 17 21 21
18 24 16 20 22 23 16 22 14 22 18 16 18 22 16 18 17 15 18 26 19 25 21 21 14 24 19 21 21 14 24 22 24 24 23 24 14 26 26 26 22 23 21 22 23 15 20 14 19 17 22 25 25 14 21 23 25 15 25 26 25 16 15 26
14 18 18 15 23 22 17 26 24 21 18 18 14 24 23 18 22 24 23 16 16 23 23 19 22 16 18 23 22 25 22 18 20 26 14 21 23 25 22 25 16 26 21 16 19 20 25 19 15 14 18 15 22 14 14 18 15 24 18 24 15 26 14 23
15 24 22 19 26 24 26 21 24 24 14 15 20 16 21 14 23 21 14 25 23 23 24 14 21 20 21 18 20 16 18 25 19 23 14 15 14 20 14 18 25 23 25 22 18 21 26 25 18 17 16 26 14 20 17 24 18 16 20 20 22 17 15 26
17 14 18 24 26 19 14 17 19 17 22 14 21 16 15 24 15 26 26 24 19 14 16 22 24 21 20 21 16 16 21 20 15 19 14 17 24 20 24 20 19 22 15 17 14 14 19 20 15 17 17 21 19 24 26 15 18 17 20 16 14 21 22 24
