P2
64 64
255
23 20 20 23 17 16 15 25 20 20 19 20 14 26 23 18 21 21 23 19 20 23 19 15 23 14 20 22 18 25 19 15 20 26 17 16 16 24 21 23 18 15 15 18 21 25 20 19 14 24 22 18 17 23 20 16 26 26 14 26 25 22 25 18
16 14 22 26 21 26 15 17 15 20 19 17 16 14 14 22 18 18 15 23 20 17 23 18 21 16 23 19 26 16 23 23 21 22 20 26 19 19 24 26 15 24 21 16 21 24 26 24 15 17 25 21 20 25 20 17 23 22 18 16 18 15 17 15
16 20 18 20 17 18 18 17 18 19 25 16 16 19 20 23 19 14 17 24 25 17 24 19 17 23 25 20 26 23 19 15 15 24 19 19 16 15 23 22 23 18 26 25 19 22 24 18 24 18 24 16 14 25 22 16 25 14 16 24 18 14 14 26
24 24 18 15 21 22 19 21 25 19 15 21 21 26 22 25 21 17 15 23 22 20 16 14 14 18 21 19 22 24 26 14 16 16 20 18 25 21 23 21 26 23 26 25 16 26 20 24 25 24 26 22 14 21 23 23 23 17 20 18 24 24 26 15
26 23 19 24 14 26 19 24 17 26 23 26 14 22 24 24 16 22 14 16 21 20 23 16 18 23 23 16 15 24 15 20 22 20 26 22 20 17 25 18 23 26 17 22 20 18 24 16 14 26 15 14 22 18 22 25 20 18 21 15 14 17 19 24
16 23 24 25 26 24 22 20 22 16 21 19 22 22 19 26 19 26 25 25 26 21 23 18 18 19 20 26 20 22 17 15 20 15 21 24 18 14 19 21 17 22 22 16 26 15 15 14 22 26 21 16 20 15 18 16 20 17 23 14 21 17 20 25
25 26 16 26 20 23 23 17 17 16 23 25 26 16 21 26 19 23 15 15 19 17 16 16 24 20 24 22 26 15 25 23 16 18 18 25 15 20 18 19 14 22 22 14 23 23 26 25 24 14 21 17 21 20 15 20 16 16 16 26 26 26 20 15
24 15 16 17 22 17 18 26 23 18 19 20 22 23 15 21 25 16 15 26 25 17 25 15 26 23 26 25 15 23 26 24 25 24 19 24 21 14 26 14 21 18 23 20 23 15 25 21 19 18 23 26 19 16 18 23 21 26 18 16 24 15 25 22
17 15 15 18 26 23 24 18 22 24 26 21 26 22 18 22 16 21 24 25 16 24 17 14 26 19 23 23 15 16 24 21 17 21 23 26 15 26 23 25 23 19 24 24 16 20 20 14 20 18 15 21 23 26 23 18 19 17 14 14 18 16 15 26
24 24 22 23 16 23 20 20 19 17 24 22 21 19 26 26 19 15 26 22 16 16 24 16 15 19 18 17 25 14 20 25 25 18 20 22 22 18 26 24 14 19 14 20 18 19 19 14 15 16 26 17 16 26 20 15 18 19 26 17 24 14 14 20
22 21 24 23 18 16 24 14 23 26 17 16 14 19 22 21 14 21 14 22 21 23 21 25 22 24 26 17 22 26 26 14 23 19 15 15 26 22 20 22 14 18 21 25 20 21 26 23 20 19 14 14 24 26 18 15 26 14 16 23 15 25 20 23
23 25 21 22 14 19 16 18 14 22 22 19 22 15 16 18 22 23 18 24 21 17 16 14 19 14 25 17 16 17 23 16 20 22 21 22 14 24 25 19 14 14 22 20 14 26 18 26 23 26 21 16 20 24 18 24 23 20 16 17 19 23 16 19
14 15 16 26 14 14 18 15 14 15 15 14 15 23 14 24 16 14 26 22 16 23 23 15 16 22 26 25 20 24 23 26 26 25 25 26 15 22 17 23 18 24 21 15 17 20 17 17 21 18 18 19 15 18 15 16 18 16 20 14 17 17 26 22
18 23 20 23 21 19 22 22 22 16 21 25 24 16 20 16 16 15 22 22 24 18 15 18 25 16 20 25 20 16 20 14 23 19 20 26 17 24 17 23 21 14 15 21 17 14 23 18 18 22 17 25 19 15 18 25 26 21 16 15 22 16 26 18
21 26 15 19 20 16 16 16 18 24 22 18 19 15 14 18 25 19 22 25 19 26 16 21 17 22 17 22 21 26 25 17 16 15 17 16 22 19 24 16 15 25 26 17 16 18 17 22 25 25 19 22 22 17 17 16 26 19 18 20 21 15 16 17
26 16 19 24 19 17 14 21 21 14 15 23 18 22 19 16 21 24 26 26 24 16 24 22 22 20 16 26 24 19 16 15 24 24 14 15 17 16 22 17 24 17 22 14 25 18 21 21 17 15 26 19 18 24 22 15 16 24 20 21 23 22 16 18
26 19 22 20 24 17 20 21 14 15 21 16 23 15 16 24 23 25 22 15 15 16 17 14 20 18 26 18 23 20 19 16 24 24 17 24 20 22 20 15 15 20 16 24 24 17 15 25 21 25 20 15 19 24 20 15 22 25 22 23 22 17 14 22
18 16 24 25 15 26 16 15 24 26 22 21 16 14 22 20 24 24 14 18 26 22 21 17 23 21 25 15 18 19 21 20 14 26 15 24 26 25 17 21 15 17 26 14 22 21 19 22 24 18 16 25 23 16 19 15 18 26 25 23 25 22 20 21
19 18 24 19 20 22 25 14 16 21 18 15 15 18 21 24 24 15 16 20 22 15 16 23 16 22 18 25 24 22 23 26 25 22 26 15 20 23 23 16 18 20 22 25 18 24 26 20 21 21 16 18 17 17 23 15 19 25 25 15 25 21 23 23
20 18 25 26 19 23 23 25 23 19 19 18 19 25 24 21 17 25 22 29 26 24 26 20 22 15 20 20 19 15 22 26 14 16 20 22 22 15 24 24 26 19 26 23 23 19 27 16 19 18 14 26 16 20 20 22 16 19 15 14 24 19 15 26
17 15 21 24 24 21 24 19 19 19 21 23 26 19 26 25 26 31 23 29 22 26 25 25 21 30 25 26 24 22 14 21 16 20 16 23 17 20 21 25 32 30 26 32 31 24 32 27 26 17 20 15 25 25 23 20 14 15 26 16 22 17 24 16
25 25 14 23 26 21 16 26 17 20 15 26 20 18 30 32 26 30 30 36 31 29 27 32 29 34 28 30 16 24 26 23 22 20 19 25 25 21 21 24 34 26 37 30 25 36 28 31 24 24 24 20 18 16 18 18 22 20 16 18 21 16 23 22
26 18 23 21 18 19 17 23 18 15 25 18 27 27 23 29 35 35 33 31 33 35 34 32 39 35 29 31 27 25 27 23 22 20 24 24 20 29 33 33 39 37 30 41 38 33 29 31 32 36 33 31 22 26 26 18 21 16 20 22 18 21 26 23
22 21 26 20 18 14 14 23 21 15 20 21 28 23 32 33 37 37 39 36 35 38 42 37 43 30 28 32 23 21 24 22 26 25 20 29 23 36 35 29 34 41 36 39 45 44 33 42 36 31 30 26 24 24 25 24 14 26 16 19 14 19 17 18
14 18 23 17 18 24 17 14 15 22 20 31 25 31 39 42 43 39 43 40 39 41 46 37 46 35 39 40 34 28 22 27 24 21 25 31 37 31 41 37 45 37 48 38 39 49 47 43 37 34 28 26 31 22 19 15 17 18 18 18 20 22 25 24
25 24 15 21 22 17 18 14 15 17 25 22 32 33 37 38 48 45 45 50 50 43 44 49 46 46 36 32 37 33 27 22 18 22 25 27 31 38 38 48 42 42 49 46 50 52 46 50 46 46 35 28 30 27 27 22 17 17 22 25 25 23 17 16
22 16 26 21 22 23 25 21 15 29 26 28 34 32 39 43 40 52 50 51 55 56 47 50 51 49 43 41 36 30 28 24 29 29 26 32 31 38 38 49 47 44 51 47 50 49 50 52 45 38 34 41 40 36 25 23 18 23 15 24 19 21 18 16
18 20 17 15 25 21 20 18 23 29 32 30 39 36 47 44 47 57 57 60 53 57 57 51 53 45 48 40 44 36 36 31 35 29 28 35 39 36 46 44 51 50 54 54 61 60 51 47 53 52 45 39 35 32 31 26 23 24 26 18 17 15 21 24
15 15 19 19 20 15 14 14 20 31 31 30 32 44 40 46 54 57 62 62 64 65 61 52 52 56 49 43 40 43 29 35 32 29 29 41 46 41 53 47 53 57 57 61 60 54 51 55 49 46 41 35 37 31 32 23 17 21 15 21 22 14 18 22
19 15 18 22 22 17 22 19 28 22 34 31 45 47 46 48 49 56 61 59 61 65 67 54 61 52 45 41 45 43 42 34 40 40 42 33 47 43 48 48 52 53 62 62 68 64 62 55 54 44 42 48 42 39 30 32 25 25 24 20 15 25 16 15
23 16 17 26 18 26 19 20 30 28 37 38 46 42 50 58 60 64 60 66 70 63 65 59 65 60 51 42 48 34 42 34 35 42 34 36 40 49 53 57 55 65 60 69 64 60 61 58 55 47 50 41 40 42 38 33 22 24 26 26 19 22 21 22
14 14 18 21 25 15 21 17 30 34 29 41 36 42 53 49 53 60 67 70 64 69 72 67 61 51 59 53 48 36 41 41 42 44 34 45 41 49 53 55 60 62 73 73 65 71 69 64 59 50 51 51 40 40 37 25 30 25 15 20 25 20 16 16
19 24 24 21 25 25 25 21 24 31 28 33 47 49 52 54 53 56 63 64 69 73 70 68 60 51 51 44 43 45 35 36 42 36 40 44 48 49 47 52 61 63 66 76 68 64 70 66 55 52 47 41 44 39 34 31 20 28 23 16 17 19 21 18
17 16 26 26 25 17 21 27 24 26 27 31 36 50 51 55 55 58 59 67 75 65 66 64 62 52 51 50 42 44 42 42 34 36 41 36 43 46 57 59 65 70 61 73 73 69 68 63 58 58 45 50 41 42 31 28 32 25 17 24 25 18 16 20
19 22 23 24 21 23 24 22 30 23 30 33 45 44 48 58 57 58 61 62 68 67 69 67 55 52 52 51 44 45 42 38 38 33 42 43 43 46 46 52 64 67 66 60 63 66 67 55 58 57 51 50 35 32 35 31 21 20 25 14 15 14 19 23
24 14 22 17 23 23 21 18 22 27 30 41 42 45 53 50 56 53 57 66 67 59 62 62 52 50 55 50 37 39 33 30 42 42 30 36 45 44 55 50 62 58 65 63 62 57 59 53 53 56 48 42 37 34 33 34 22 17 20 18 18 21 15 19
23 25 16 19 20 26 23 21 20 22 26 36 42 35 50 51 50 56 53 57 59 62 55 55 57 55 46 41 47 37 36 30 33 35 34 42 40 50 46 45 59 54 54 64 54 55 55 48 56 42 51 38 40 40 32 26 27 19 25 16 14 17 14 14
16 15 26 23 20 23 15 24 19 22 33 36 34 34 46 40 47 55 55 56 52 54 55 53 47 45 43 36 40 42 29 30 24 33 35 37 41 47 44 52 52 52 59 56 50 48 54 47 44 42 42 37 37 35 34 30 17 21 22 22 18 14 16 18
23 19 17 20 17 19 17 15 25 30 28 29 34 40 39 46 49 45 54 50 46 48 51 53 48 51 40 45 33 34 30 23 22 23 36 30 34 35 45 50 50 52 55 52 48 45 55 44 49 44 40 38 28 37 25 21 16 21 18 15 20 15 25 19
22 23 28 20 25 25 23 27 24 24 33 34 40 42 44 46 47 54 50 51 48 47 46 52 47 46 49 37 39 37 29 34 34 25 34 42 43 43 44 49 48 44 57 58 49 54 45 51 48 40 48 41 44 37 30 34 25 22 28 22 24 30 27 24
22 26 23 23 33 30 29 31 33 26 28 35 43 46 41 49 50 42 50 56 48 58 56 57 47 50 50 42 36 43 31 35 27 34 37 33 37 42 45 47 53 47 55 50 60 58 52 48 49 43 45 39 37 41 29 31 32 37 27 39 39 32 38 39
25 31 26 24 34 29 25 30 28 37 34 34 43 46 42 40 44 44 48 54 53 47 53 47 48 51 51 44 42 45 36 30 38 30 41 47 41 40 51 51 50 49 61 51 56 51 51 57 54 44 44 44 47 41 40 44 39 32 37 32 37 38 34 40
22 24 28 24 23 21 21 27 25 24 30 24 33 37 39 39 45 45 42 41 46 44 44 36 36 46 44 35 36 30 26 32 31 35 27 36 36 44 36 38 38 48 50 42 51 49 47 42 48 35 39 38 35 28 27 32 29 32 35 34 36 31 33 26
26 29 27 26 28 21 20 25 29 26 24 27 24 28 29 26 27 29 30 35 37 36 32 32 27 38 25 25 32 28 18 22 26 30 27 29 28 35 33 34 31 37 37 35 31 36 33 29 27 34 33 23 25 30 21 29 28 23 28 27 32 30 28 31
25 18 16 18 23 19 18 16 19 24 25 22 26 23 21 20 25 32 25 32 23 34 23 25 31 20 27 18 17 23 23 14 20 25 20 23 23 19 22 19 27 28 29 34 26 23 30 23 23 18 17 24 19 26 26 26 18 24 24 23 17 22 14 16
18 16 19 19 24 20 22 19 16 23 19 14 22 14 19 16 25 25 23 29 18 25 24 23 21 24 26 19 21 15 17 18 22 18 16 16 26 18 22 21 28 25 26 19 26 26 24 23 18 14 16 22 24 25 25 19 18 26 19 22 23 14 26 17
15 15 20 16 21 23 14 19 18 22 20 20 22 26 17 25 24 23 25 21 18 21 23 17 16 20 17 23 20 26 22 17 18 20 15 20 15 20 19 18 18 21 19 16 17 15 24 25 19 14 23 21 21 26 18 24 21 24 26 22 15 18 22 23
16 26 20 17 26 15 17 19 24 22 19 17 21 20 16 23 15 24 23 19 19 17 15 26 21 25 21 16 26 14 22 23 25 16 19 23 20 19 18 26 23 14 17 22 14 24 18 19 19 19 16 19 14 21 21 17 26 19 22 26 21 22 21 14
24 16 26 18 19 23 23 24 18 17 22 25 25 24 26 18 21 22 16 23 19 18 16 19 16 17 19 16 20 16 14 24 26 14 26 19 14 21 15 19 15 15 14 14 25 14 26 25 21 25 24 14 23 26 17 21 17 14 17 14 17 26 26 23
17 14 18 17 26 16 24 20 19 24 25 20 26 26 22 26 26 22 25 25 14 14 14 26 23 18 20 20 24 18 20 20 26 16 26 16 25 14 16 20 24 17 21 14 21 17 14 17 26 17 17 16 15 17 19 21 15 14 26 25 20 24 20 24
25 23 18 23 20 25 14 23 26 23 17 18 19 22 23 22 21 23 16 19 17 20 15 23 19 24 15 15 19 17 17 26 23 23 24 17 15 22 25 14 15 21 21 20 25 17 15 25 17 24 21 26 15 25 14 22 18 23 26 16 26 19 25 25
14 22 22 22 25 14 15 22 19 15 26 17 24 17 26 24 23 18 15 23 21 14 16 25 17 16 15 19 15 23 20 17 21 21 21 22 20 19 25 17 24 14 15 22 21 26 22 19 17 24 17 18 21 26 22 26 26 19 17 17 17 19 16 18
26 17 20 14 14 22 26 20 14 17 19 21 23 21 16 16 25 26 22 26 26 15 21 23 15 25 25 23 14 22 19 24 19 18 17 23 23 21 18 15 16 15 22 24 14 24 23 17 24 17 16 23 18 15 14 15 22 24 20 21 21 25 18 19
19 18 17 16 24 20 18 18 20 26 20 17 18 19 20 23 19 23 21 15 22 21 21 23 24 25 17 22 23 16 18 20 26 14 17 25 14 17 16 18 17 15 26 17 26 23 17 14 14 24 17 23 21 19 22 18 20 14 24 16 17 14 21 20
17 16 24 16 24 20 19 22 14 23 19 19 24 16 18 19 17 24 24 25 21 18 16 15 19 15 16 25 22 24 15 25 26 19 23 26 25 16 24 21 26 15 26 21 20 16 15 16 26 24 14 21 25 23 26 23 14 23 14 18 25 20 26 19
24 19 17 25 24 23 19 15 15 17 15 16 23 20 23 17 15 19 22 16 21 23 20 26 25 14 21 16 16 23 24 21 19 25 16 23 17 26 15 14 24 23 16 16 18 19 21 22 18 22 25 25 15 22 23 26 23 19 17 26 15 24 23 25
14 15 22 16 19 26 14 16 15 22 16 24 15 14 23 24 15 16 24 24 24 24 21 14 26 18 22 22 22 16 23 24 18 16 25 22 16 17 14 26 26 23 15 14 21 15 20 24 26 14 26 16 23 20 14 17 23 17 19 17 17 16 22 24
25 22 20 23 21 17 21 19 14 21 18 17 18 14 18 17 20 15 19 14 25 24 24 26 25 26 17 14 19 18 20 19 16 18 18 21 20 19 25 18 24 19 19 17 21 25 18 19 20 20 26 21 18 24 15 15 20 18 20 22 14 19 16 18
20 16 15 17 16 24 19 19 20 25 24 15 22 15 16 26 14 26 19 24 26 24 16 25 19 19 16 14 14 17 26 24 23 20 16 23 25 16 15 20 24 14 16 21 19 14 17 16 19 15 14 20 18 26 25 26 21 26 19 17 17 21 24 25
23 21 14 16 22 19 20 16 25 20 14 24 26 21 17 20 16 22 15 23 22 23 25 25 19 15 21 25 20 22 19 18 20 17 26 15 25 24 24 22 23 21 19 24 20 25 22 21 26 20 18 17 26 23 18 19 16 25 25 26 24 14 22 19
24 19 23 21 20 24 14 15 22 21 20 26 14 23 23 26 25 26 26 17 15 18 23 22 18 20 17 21 24 20 24 19 14 26 25 16 17 17 26 17 21 21 18 25 23 15 21 17 21 21 18 18 18 21 21 25 16 17 15 19 16 16 25 16
26 16 24 19 15 26 16 14 20 15 16 15 19 17 23 18 14 15 21 19 23 22 17 21 15 16 17 21 22 16 20 14 22 26 25 24 20 14 17 25 19 18 23 18 18 16 21 24 18 22 19 23 24 22 25 14 20 21 17 14 24 17 26 24
16 20 21 18 22 14 22 21 15 18 25 14 26 17 23 18 26 17 18 22 18 22 24 17 25 19 26 24 14 14 17 22 25 14 25 21 23 19 20 20 21 14 21 15 20 26 21 24 20 20 23 14 23 17 24 14 15 26 21 16 24 23 17 25
19 16 22 26 21 19 15 23 19 23 23 18 18 19 20 23 15 15 19 18 24 17 25 20 15 14 16 22 19 18 15 24 22 20 20 24 21 23 17 22 16 14 18 14 21 25 21 24 24 21 21 16 22 16 21 26 26 14 19 21 22 24 25 19
