P2
64 64
255
19 27 23 23 37 28 25 25 18 32 32 19 20 23 32 36 33 34 19 37 28 33 29 18 25 28 21 22 28 19 29 22 29 36 37 34 21 20 22 26 18 22 22 27 32 29 35 22 30 18 38 28 29 23 25 22 22 34 27 32 28 19 24 30
20 30 35 28 24 29 23 38 31 37 29 37 24 18 32 25 20 18 22 24 29 19 31 18 32 19 33 19 28 33 24 25 22 30 25 24 22 20 21 23 36 26 37 37 22 29 22 21 24 27 18 30 37 38 27 21 19 35 27 36 28 20 36 23
23 22 25 35 29 23 21 22 36 30 37 30 25 24 35 29 36 21 36 20 26 26 31 20 36 20 37 28 21 37 25 28 25 33 25 31 25 26 18 25 22 31 22 28 37 28 35 18 28 22 30 30 36 23 25 32 23 23 31 22 33 38 24 24
37 24 23 20 38 21 26 19 34 36 22 38 30 22 21 37 31 19 34 24 26 27 28 26 35 18 21 35 19 21 27 24 20 30 27 22 18 24 34 21 20 19 28 38 28 35 25 25 37 18 34 20 35 38 25 26 27 26 36 18 26 18 32 29
30 18 21 24 23 37 27 23 37 33 18 29 38 34 24 35 21 18 25 26 31 30 27 22 26 36 24 26 33 36 33 31 21 25 27 26 33 21 26 20 38 33 38 37 27 21 29 23 37 24 21 38 28 19 24 36 22 37 20 38 28 23 38 35
32 34 26 36 20 25 37 19 31 34 19 23 27 20 35 29 19 27 29 33 38 20 33 30 38 32 21 26 35 20 25 29 36 22 36 23 38 26 23 23 35 31 28 30 30 28 30 18 31 28 18 33 23 18 18 22 34 30 29 32 34 18 19 33
30 22 27 28 19 21 21 23 30 33 37 36 37 38 30 32 36 18 21 25 21 23 27 19 31 33 22 29 24 33 18 21 18 18 29 28 33 22 31 38 24 25 35 28 30 31 18 29 19 20 25 29 33 27 21 27 24 37 19 22 38 23 21 36
38 34 21 34 30 28 37 25 21 36 35 22 18 30 38 20 30 25 32 24 24 37 28 21 34 31 36 28 28 24 21 30 29 18 21 37 25 38 38 27 19 29 34 21 26 23 21 29 31 21 36 26 34 25 29 37 38 24 24 35 30 20 23 32
28 24 37 35 23 31 33 38 28 37 27 26 24 27 25 26 28 27 30 35 28 25 27 26 32 28 35 38 32 26 23 31 19 23 19 22 24 20 20 35 27 37 26 38 23 27 31 27 26 23 23 24 19 30 36 33 19 38 38 22 21 32 37 33
34 30 22 29 21 20 28 19 27 31 34 33 18 20 37 19 33 31 31 28 32 33 20 25 30 23 32 31 25 36 32 32 26 22 22 23 22 27 35 38 29 33 28 26 33 19 32 22 18 23 19 20 21 27 20 34 26 20 22 26 37 26 25 20
35 26 20 34 18 27 35 24 31 38 30 36 23 23 20 38 32 18 21 19 33 31 33 33 31 19 30 31 24 19 36 18 23 38 22 23 34 18 28 30 20 30 23 31 27 27 33 36 33 27 21 19 38 18 20 19 22 21 36 23 38 37 31 34
32 27 18 29 26 29 31 19 37 22 29 36 26 27 32 35 36 24 35 27 29 19 35 22 33 31 34 19 28 18 28 25 26 28 30 27 24 24 36 28 20 36 21 38 26 29 26 29 35 33 37 24 28 21 36 33 23 30 20 37 35 21 19 37
34 28 35 37 29 38 19 36 21 21 25 38 22 20 31 34 25 28 33 21 29 34 36 32 21 25 21 33 36 34 25 20 18 20 34 32 22 18 19 21 34 31 23 18 37 25 25 24 34 23 30 19 20 27 19 38 33 38 31 38 22 38 29 19
26 33 35 26 28 25 25 24 32 21 36 31 36 30 23 27 31 32 29 32 33 36 33 34 37 32 38 29 38 32 33 26 35 38 29 18 36 23 27 28 27 33 22 20 38 29 22 28 26 19 27 33 32 23 25 30 37 21 25 36 34 21 21 23
19 23 29 38 19 27 35 36 28 19 22 26 30 32 28 28 32 25 37 20 36 24 20 19 18 32 18 25 29 38 25 26 27 26 30 20 25 31 24 38 20 35 24 25 23 30 38 20 25 34 34 33 28 38 25 38 34 22 32 20 34 32 19 38
26 22 20 36 28 26 29 28 26 37 20 18 19 32 36 30 35 31 23 18 31 34 25 24 34 38 24 35 22 32 25 25 38 37 24 28 36 22 26 32 25 28 27 37 29 32 32 27 30 28 28 37 33 22 23 30 32 23 18 36 21 34 37 24
23 18 21 19 26 37 27 36 29 36 29 30 34 24 22 19 28 32 34 36 22 23 19 24 20 20 19 31 22 22 33 27 30 28 34 37 22 24 38 29 32 20 28 30 31 27 22 29 29 26 19 18 37 20 23 25 28 29 34 38 19 32 32 20
31 26 23 18 20 28 35 32 28 30 37 35 28 20 21 36 21 20 30 23 38 27 33 28 21 20 24 29 25 29 18 19 33 23 19 20 33 32 31 25 25 22 38 38 35 22 18 29 26 35 31 26 21 29 25 25 35 22 31 38 26 22 38 23
22 28 32 24 25 38 37 19 21 22 19 31 18 22 26 26 24 33 38 31 38 19 31 34 32 29 25 20 20 19 24 19 28 25 30 30 22 24 20 24 37 32 21 35 21 18 38 22 31 18 28 25 18 35 35 18 27 24 37 35 34 35 34 31
28 27 20 36 18 36 32 34 22 37 19 27 28 30 18 35 38 35 33 29 42 26 24 41 29 36 37 26 23 28 31 18 38 32 20 30 21 28 20 23 35 27 22 31 36 30 38 20 27 22 38 20 29 18 36 19 23 26 35 33 23 35 25 38
33 18 36 22 28 18 31 34 22 27 22 30 27 30 31 33 37 44 40 29 46 44 42 30 25 30 33 35 25 27 25 22 27 35 18 29 27 33 28 41 39 32 33 29 39 45 39 30 40 31 38 31 29 29 18 36 32 20 22 37 22 25 21 38
27 31 35 37 23 35 18 23 32 37 19 25 30 31 37 41 36 39 38 42 43 32 41 38 38 34 37 41 26 34 30 28 37 37 31 33 29 37 42 29 40 47 33 44 36 37 38 43 39 44 23 29 32 18 21 19 24 33 26 28 18 33 31 31
33 33 26 26 32 30 23 30 22 38 33 23 29 42 36 33 31 34 35 52 52 37 37 50 34 35 29 34 32 33 35 24 21 29 19 34 39 28 41 34 39 35 51 37 41 36 41 41 30 43 44 31 39 29 30 28 37 19 27 32 35 34 29 18
22 23 35 22 36 29 29 20 33 35 38 26 33 36 29 50 41 42 42 37 38 45 39 52 42 47 40 43 47 25 34 19 36 31 38 35 44 49 32 35 45 43 50 44 37 37 50 53 44 41 44 37 26 34 38 24 21 25 33 23 19 37 24 37
30 33 38 38 19 34 26 27 31 27 36 31 34 46 37 47 37 42 40 52 59 47 45 56 48 45 46 46 35 46 26 25 34 33 36 30 40 39 48 53 51 58 57 51 61 56 53 43 41 50 50 35 47 32 40 36 20 29 27 29 35 35 36 35
22 21 27 33 30 19 32 28 29 36 27 28 37 52 47 57 43 58 59 50 51 57 50 54 59 59 53 46 48 33 35 29 28 36 34 39 32 54 39 44 60 50 47 51 54 60 60 48 55 48 55 52 42 29 39 28 35 23 36 22 35 32 31 26
24 20 37 28 36 21 21 21 20 30 34 42 46 37 49 57 49 49 49 60 51 54 49 47 58 46 47 45 55 45 31 37 46 30 40 45 54 41 50 46 56 48 55 49 69 63 47 52 57 50 57 51 33 31 32 35 32 35 29 19 32 20 22 21
33 30 20 19 32 27 20 33 28 39 46 51 41 44 44 55 50 50 62 54 59 65 54 66 57 50 50 45 44 48 46 45 40 47 47 36 47 55 50 54 54 53 58 55 66 55 52 49 62 55 59 37 49 50 41 29 22 32 32 26 22 26 32 34
29 23 27 32 27 18 18 30 38 34 38 33 41 53 50 47 64 61 61 59 71 74 62 56 56 51 47 59 41 40 43 51 34 40 50 53 59 48 62 61 57 55 66 59 67 76 61 63 52 51 55 46 42 33 47 45 27 37 28 36 33 34 35 22
38 31 25 29 35 27 23 23 22 32 31 46 44 59 61 48 71 58 75 69 62 61 61 65 71 63 67 52 52 47 35 47 50 36 41 38 54 55 53 62 64 68 79 70 79 79 60 70 60 51 45 53 56 40 47 37 41 37 26 30 24 37 25 34
35 31 36 31 26 30 29 34 26 34 46 38 39 46 64 64 62 66 67 66 80 82 79 68 63 66 52 66 42 48 44 43 36 53 52 40 62 61 57 69 77 60 82 71 77 64 79 77 68 66 65 54 43 54 38 34 43 26 37 22 23 25 28 18
24 36 23 29 18 32 34 21 34 31 41 39 41 61 52 58 69 68 67 67 76 88 73 70 70 66 71 54 50 52 42 44 36 47 51 44 43 49 67 57 61 65 72 72 85 66 78 60 75 62 47 60 55 47 31 29 43 35 18 23 28 38 34 22
23 35 25 30 18 19 29 36 35 42 32 45 50 61 60 61 72 65 72 69 87 80 87 71 73 74 51 64 55 40 47 55 41 44 51 40 58 59 54 61 64 64 67 88 73 69 82 61 62 62 56 63 55 35 37 37 26 40 37 21 21 28 20 36
21 28 21 31 33 18 26 38 27 30 38 37 45 50 61 70 61 78 67 77 70 69 80 66 58 68 68 51 60 57 37 49 46 50 56 52 43 52 58 71 73 70 77 86 80 79 82 73 60 58 67 45 46 38 47 44 37 27 32 26 36 37 35 37
18 37 37 21 29 35 21 35 42 46 44 35 50 54 62 65 58 57 67 67 69 74 78 80 66 57 64 51 50 39 46 44 37 44 55 41 53 48 57 64 59 69 72 81 66 66 61 76 71 69 47 46 40 48 32 27 32 25 31 22 31 23 28 38
35 38 33 37 27 29 37 24 31 31 50 52 44 58 54 49 53 69 64 75 65 76 69 71 72 62 58 56 49 56 49 37 36 47 53 51 57 53 66 52 59 77 72 62 78 77 67 61 68 55 57 43 49 51 43 41 33 21 18 25 25 38 33 38
34 20 33 18 38 36 26 23 28 37 33 48 46 50 45 61 49 70 59 67 70 66 68 59 54 49 66 59 48 52 51 40 52 44 33 53 54 55 55 57 58 64 65 57 62 66 61 66 60 54 61 48 46 35 29 40 23 37 36 25 18 36 23 23
20 19 21 26 36 20 28 38 34 30 43 46 47 48 55 45 53 53 55 58 62 53 53 65 57 49 58 51 41 38 33 29 30 38 41 53 47 41 50 65 63 65 57 55 67 53 53 69 50 49 58 46 47 44 32 38 31 20 23 26 26 21 21 34
29 28 27 19 35 21 28 25 36 26 43 33 32 37 55 49 47 56 48 49 69 59 56 62 57 58 43 56 36 48 33 31 33 44 29 37 47 41 48 54 49 67 65 66 52 53 61 60 62 61 54 52 52 49 44 34 32 19 31 19 18 22 27 19
24 35 33 24 31 28 40 21 39 28 43 47 39 41 59 45 60 52 50 59 49 59 61 50 46 59 61 56 47 41 47 30 44 38 40 39 41 60 57 48 62 60 70 51 65 59 66 60 64 55 56 47 51 34 46 38 36 24 34 44 40 40 30 37
31 44 26 29 45 29 29 32 45 28 31 39 37 55 58 48 46 46 62 62 62 68 60 66 56 57 61 50 43 55 50 34 39 39 47 49 49 52 65 57 60 54 60 64 68 63 60 53 63 65 54 42 51 38 39 31 38 45 30 51 35 34 50 51
34 30 36 31 42 47 48 40 45 49 37 32 42 56 55 52 59 51 65 64 65 68 62 51 55 52 46 49 53 45 43 36 45 34 53 39 44 59 47 56 55 56 66 61 53 59 67 58 69 55 65 59 58 39 39 43 56 42 38 56 47 50 42 37
33 25 26 29 40 25 39 41 28 42 37 27 44 38 50 56 53 56 44 57 56 60 43 48 52 42 38 49 47 47 46 37 30 30 33 31 52 43 53 54 46 62 63 60 46 55 62 43 41 53 47 47 45 42 35 30 47 38 47 31 40 46 36 38
41 41 25 30 34 25 28 34 24 40 25 34 32 30 39 36 48 51 35 41 47 37 50 32 47 30 29 42 28 27 40 36 28 31 24 33 30 29 36 39 36 43 42 53 47 39 45 41 48 36 28 29 31 34 35 41 32 41 33 25 36 37 31 31
31 20 20 18 21 32 27 25 35 28 22 31 20 28 32 37 40 36 37 45 31 39 33 44 34 25 34 22 21 32 29 31 32 30 25 34 22 32 28 31 33 37 35 42 35 34 35 35 34 30 34 27 22 35 18 33 27 38 28 25 37 31 34 26
36 36 26 25 36 33 34 18 33 34 29 28 32 20 25 32 22 33 35 24 34 29 27 29 29 20 24 32 22 24 32 38 27 25 33 21 28 33 24 31 21 32 40 33 39 27 27 30 28 18 33 22 32 37 23 30 19 38 26 29 28 35 22 30
28 37 25 34 21 19 18 34 18 21 23 31 21 36 37 37 30 22 35 21 34 26 34 24 18 38 30 20 34 26 37 32 26 36 35 25 25 30 35 24 19 28 19 19 24 18 19 27 33 32 36 38 22 31 31 20 38 34 19 28 31 28 29 19
21 38 32 22 26 38 24 34 26 32 35 20 22 24 36 34 21 19 33 36 37 18 31 34 26 33 22 27 38 36 30 31 28 31 37 19 31 23 28 18 30 28 22 36 19 31 23 30 18 24 20 24 36 31 18 31 31 33 35 29 34 26 28 31
32 19 31 18 30 22 26 24 22 21 27 24 18 20 24 29 34 22 33 28 36 26 27 34 38 19 38 23 23 22 36 30 23 36 30 33 31 26 20 31 29 18 36 20 37 20 24 38 28 33 22 18 20 18 27 33 30 20 22 26 34 37 19 24
31 26 23 36 23 32 34 29 30 29 31 28 22 34 25 19 35 36 34 25 26 35 38 24 23 24 20 19 21 32 26 33 19 27 29 20 19 19 32 34 27 23 20 29 30 18 32 28 36 23 19 26 30 29 20 30 33 24 20 28 25 23 29 38
31 37 32 31 29 33 20 30 34 19 32 31 18 28 33 22 21 23 32 36 27 32 38 32 27 36 21 31 24 26 34 18 19 27 18 24 36 36 25 30 30 24 29 19 31 34 35 20 25 29 22 28 30 36 21 28 31 25 22 24 28 22 29 27
18 31 28 21 36 21 28 20 36 22 33 20 30 36 37 20 36 25 32 18 18 27 33 19 33 25 29 26 29 38 22 26 37 29 31 31 31 36 34 24 20 28 28 35 23 31 35 24 34 20 20 22 31 30 19 32 30 25 25 31 30 18 20 32
32 21 30 29 34 26 35 25 37 35 27 24 28 38 22 18 31 30 34 35 28 29 32 34 28 38 27 24 36 21 26 23 37 26 19 22 32 22 27 27 35 37 20 20 24 23 34 29 31 27 21 38 21 18 22 27 37 21 19 38 35 31 38 21
38 18 38 33 21 21 25 18 25 28 25 31 27 19 23 33 23 22 19 34 20 26 36 37 24 24 19 23 37 23 33 34 29 27 33 36 21 37 20 27 19 33 23 29 34 36 19 20 30 27 24 19 22 28 26 19 23 20 33 27 31 25 36 38
36 29 26 19 20 23 28 20 25 20 27 35 26 24 21 30 20 21 23 34 22 18 38 37 19 32 19 33 37 27 19 26 31 32 24 34 38 35 28 33 27 35 23 21 21 27 26 19 27 37 34 36 31 26 24 24 31 27 26 24 38 34 35 18
34 31 28 37 32 27 31 33 26 30 29 22 25 37 35 22 36 23 18 20 32 23 34 32 27 32 19 24 27 36 32 21 21 27 18 23 36 37 21 33 33 25 35 24 24 18 18 20 28 33 36 21 33 18 26 28 24 18 32 22 31 33 29 28
23 24 31 18 22 36 22 30 29 27 36 24 19 18 28 32 18 20 22 38 26 26 24 26 26 32 37 25 34 34 18 20 18 20 22 37 34 27 18 37 30 20 34 35 33 20 34 32 25 34 18 26 36 31 35 36 34 27 38 20 27 38 25 37
19 24 20 33 18 30 20 26 37 28 22 28 31 19 36 22 30 23 32 36 19 26 34 26 33 18 20 21 27 18 25 34 24 19 18 25 32 37 31 30 33 36 24 31 34 18 33 32 30 22 33 38 22 38 36 19 35 35 35 25 31 20 31 31
26 24 35 22 18 27 30 23 20 30 19 37 25 21 22 36 27 37 27 25 19 29 27 27 28 35 38 24 32 30 20 34 31 32 26 24 20 34 37 29 36 35 37 30 27 23 18 37 34 37 30 25 35 38 28 21 25 31 31 34 24 28 23 29
20 33 22 32 23 30 38 35 19 21 31 23 19 21 27 19 31 27 33 21 21 23 38 21 24 25 36 27 37 38 28 18 29 34 32 19 29 37 30 27 19 32 38 34 32 29 28 37 25 36 31 29 21 31 29 19 25 34 18 29 28 29 29 22
34 19 24 28 33 28 33 31 36 19 32 19 25 19 23 34 31 27 25 38 27 33 27 19 18 36 23 33 38 19 33 31 27 24 22 18 37 33 34 36 35 34 31 26 29 25 27 21 30 23 18 24 21 21 20 24 34 34 31 20 32 21 35 37
37 26 38 30 37 37 20 32 28 36 36 30 32 20 37 33 24 32 25 29 29 23 24 21 34 36 33 32 32 28 35 26 30 35 18 26 28 24 35 29 22 36 20 19 24 36 28 19 22 33 20 21 18 20 18 32 32 36 29 23 35 18 19 25
30 33 28 32 19 27 31 33 22 25 38 38 34 28 33 18 35 30 33 21 21 35 34 27 34 29 21 26 27 29 36 29 35 21 26 33 37 21 25 19 37 26 29 27 35 22 32 28 32 37 28 35 26 27 29 25 36 37 37 30 28 32 18 18
20 18 24 23 23 33 32 18 27 18 30 34 30 23 22 25 30 32 20 18 29 18 38 26 31 36 18 31 27 36 35 37 35 30 20 36 27 31 29 21 36 35 22 35 26 38 21 29 22 19 19 33 32 25 25 32 37 28 35 27 35 32 36 34
