P2
64 64
255
25 14 23 25 25 19 26 19 18 14 16 22 24 18 22 19 19 22 18 16 23 26 25 18 14 23 15 15 15 26 26 18 16 20 18 21 17 18 16 16 17 14 21 24 15 18 23 23 24 23 20 24 18 15 16 16 24 22 22 25 17 20 15 15
20 14 16 24 16 18 23 14 21 17 22 17 24 18 19 16 24 26 14 24 20 26 22 15 18 24 20 14 16 23 16 20 16 17 24 19 15 14 21 19 14 22 21 24 24 15 24 16 21 23 15 19 21 25 24 22 25 25 18 14 20 15 21 26
14 22 15 15 22 20 14 17 26 24 17 15 18 16 15 15 18 26 14 24 15 25 19 22 20 24 14 22 18 25 17 21 21 26 16 23 20 17 22 15 25 24 18 21 26 15 25 25 26 16 17 22 22 18 21 20 23 20 17 25 17 24 17 21
18 17 24 25 18 14 22 17 19 24 20 17 17 21 14 15 25 21 18 21 15 15 20 25 26 25 25 17 25 22 16 14 14 26 20 18 24 15 25 23 21 17 15 23 20 20 15 19 24 23 23 23 20 26 17 24 19 15 14 14 20 16 19 18
26 15 20 20 26 24 20 21 20 20 26 22 16 19 15 17 17 15 21 19 23 15 22 20 18 26 23 26 26 23 16 20 21 25 21 25 19 25 15 19 22 22 16 19 20 19 20 22 23 18 26 26 22 20 15 24 19 25 18 20 14 21 18 14
16 24 21 15 24 22 24 20 21 20 23 19 18 18 18 15 25 20 25 14 26 24 19 22 23 14 19 20 18 22 18 18 21 15 24 19 16 25 24 24 23 19 23 20 17 22 15 23 16 15 18 23 25 22 24 18 17 18 23 19 26 24 21 23
19 16 24 26 22 23 18 22 14 18 15 16 18 18 15 16 17 25 15 23 20 24 22 19 22 16 22 23 23 14 18 20 21 24 18 14 24 21 21 22 26 21 17 19 21 21 20 26 17 18 20 24 23 16 19 14 15 14 17 18 22 18 25 25
14 25 14 21 25 14 14 20 26 21 25 21 22 21 21 23 25 24 21 17 26 17 17 16 26 17 20 22 24 15 18 17 20 20 18 19 17 23 14 25 22 24 22 21 16 16 21 20 21 23 19 16 26 25 22 21 22 20 15 23 22 25 16 14
24 24 20 16 19 21 25 20 19 26 26 15 25 23 26 23 14 20 18 19 19 24 19 22 21 21 14 23 19 14 15 17 19 15 19 24 15 21 16 19 21 19 23 19 21 23 16 14 24 14 22 19 21 16 14 14 21 19 26 15 26 20 21 22
26 21 23 17 18 18 21 25 20 26 18 26 20 15 22 15 20 16 19 25 24 26 19 16 23 24 19 22 24 24 18 22 24 24 18 21 17 19 26 23 22 26 20 20 19 23 22 18 20 26 22 26 19 18 23 25 23 23 21 23 21 22 25 23
24 16 26 18 25 16 21 23 16 18 17 18 17 14 20 16 26 16 26 25 17 20 15 23 14 25 23 15 19 16 25 23 15 17 24 25 15 25 18 16 16 19 19 19 26 18 25 22 23 25 14 19 16 26 23 14 24 25 17 19 21 25 24 14
23 23 24 20 26 19 21 26 19 20 23 18 17 17 24 24 22 21 20 22 15 22 19 19 21 14 18 18 24 16 26 23 19 24 18 14 21 19 14 17 22 19 25 25 20 24 14 23 15 18 17 22 23 24 16 26 24 26 22 17 20 19 24 16
23 24 26 23 21 25 19 23 20 23 23 21 17 25 22 26 24 21 20 18 19 23 16 26 20 16 15 20 26 17 16 25 16 17 15 14 18 17 17 23 18 26 15 17 16 23 24 25 14 17 20 25 18 23 17 17 26 16 22 24 20 14 17 26
21 25 24 22 15 21 18 14 14 18 25 21 17 25 20 19 23 22 18 21 24 21 26 19 19 22 22 24 21 16 20 24 17 22 22 23 17 18 22 17 20 22 20 18 23 14 23 17 14 15 15 22 24 18 22 19 26 20 26 18 15 22 17 26
25 19 18 23 24 21 15 16 20 16 21 20 18 21 20 25 24 19 17 26 16 15 18 25 25 16 26 17 21 26 25 22 14 15 17 23 17 16 15 24 17 16 24 22 17 14 21 23 19 26 24 16 15 26 15 22 15 19 26 21 16 22 26 14
15 26 22 18 16 23 21 18 22 17 16 20 23 24 18 17 24 25 14 20 17 20 26 24 23 26 24 16 18 25 15 26 24 24 25 18 20 16 15 23 17 24 16 23 26 20 25 15 14 24 15 23 20 23 21 15 14 22 19 22 15 17 21 15
26 20 21 25 14 25 24 19 18 22 24 22 21 14 21 26 24 23 16 24 21 16 23 14 15 19 16 17 25 24 19 14 19 15 14 22 25 20 22 16 15 22 22 22 14 20 25 15 23 24 25 14 14 16 16 18 15 24 24 20 24 19 21 22
17 25 17 23 16 19 22 25 22 23 23 26 23 20 20 18 21 19 26 22 17 22 23 14 20 25 26 18 17 24 19 14 20 21 25 14 18 18 14 22 22 19 23 23 19 17 25 24 19 22 18 14 15 19 26 23 23 22 21 15 23 22 23 25
20 15 14 22 23 24 16 21 14 22 24 19 24 26 18 16 25 18 21 24 19 16 21 26 23 24 22 20 25 20 24 18 14 15 18 26 19 15 18 22 16 18 23 14 26 15 25 26 17 17 22 17 23 16 18 23 15 22 18 25 24 16 24 26
21 19 20 22 15 15 15 23 15 23 20 19 24 16 21 24 22 25 23 17 24 27 22 28 22 18 14 16 18 16 25 25 23 25 18 14 21 24 18 17 25 18 19 24 27 19 27 18 23 15 19 25 23 20 24 17 26 26 24 20 20 24 19 16
22 14 23 18 22 15 22 24 17 23 24 16 25 22 22 27 19 21 22 21 32 34 22 31 30 18 22 19 18 18 14 17 19 26 24 15 18 26 27 19 24 24 30 24 32 23 26 20 22 25 17 16 23 25 19 17 26 15 21 23 15 23 22 25
14 16 20 25 23 22 21 20 20 22 23 26 14 28 21 29 32 29 28 30 27 26 32 27 34 22 31 28 26 15 25 16 23 20 24 21 23 30 20 30 28 35 30 37 34 29 36 26 28 28 23 29 19 14 15 26 18 23 26 19 19 18 23 25
14 25 21 18 24 14 22 19 23 18 24 21 21 28 28 34 37 34 31 38 29 41 38 30 36 30 32 22 20 21 15 20 15 26 25 21 26 32 32 31 35 38 33 35 29 32 31 31 31 25 31 26 24 15 18 26 15 22 18 25 23 23 17 14
16 24 23 24 15 25 15 16 26 21 17 17 30 24 28 33 36 32 37 37 36 42 41 37 39 32 28 29 32 31 21 23 16 26 17 20 35 28 32 36 40 34 44 33 33 34 33 37 29 38 31 26 20 29 16 14 16 19 22 16 16 14 23 26
19 18 19 15 25 21 17 23 14 25 24 29 34 33 40 39 38 36 44 45 48 48 45 45 39 44 38 30 33 30 25 23 25 23 31 32 37 37 41 40 39 36 39 40 42 40 36 46 43 32 38 26 25 26 24 20 16 16 15 16 26 25 19 15
19 24 16 20 23 22 16 19 20 26 30 24 30 29 38 42 38 45 49 47 50 50 51 43 39 38 37 38 28 32 23 19 28 24 22 27 28 37 34 48 38 47 50 45 50 49 43 49 48 35 40 33 29 25 22 26 15 23 19 15 17 15 16 26
17 20 25 19 14 14 17 18 23 23 24 36 30 42 34 40 49 44 51 54 50 55 56 51 49 43 49 36 31 31 33 26 33 30 29 32 43 39 39 41 49 53 56 57 54 54 47 42 49 37 37 37 34 25 29 25 16 26 25 19 25 17 16 17
26 26 19 16 25 21 19 14 20 25 31 34 34 42 38 47 53 54 54 53 57 50 51 48 48 49 44 46 37 30 32 27 26 25 34 41 34 48 45 51 51 50 50 56 53 48 57 56 45 43 47 38 30 34 31 28 27 19 23 15 15 21 22 17
26 20 15 26 22 14 19 19 20 30 31 38 35 39 48 51 50 59 58 57 57 63 59 61 52 47 48 46 36 33 32 29 28 28 39 34 42 49 43 55 48 51 64 58 65 64 54 56 48 46 49 37 42 33 35 23 19 25 23 23 25 26 19 23
14 21 21 24 18 21 20 17 27 33 34 33 42 41 50 54 56 59 57 63 69 58 66 57 55 56 51 47 38 40 42 30 39 41 30 35 48 49 46 47 59 59 67 63 67 58 53 54 52 45 50 48 38 37 27 29 26 19 26 16 25 21 18 15
20 14 22 14 23 18 24 15 27 30 29 33 45 42 46 46 57 54 60 61 66 68 59 61 65 55 58 54 43 43 43 44 35 42 39 40 43 52 55 53 55 58 68 64 65 59 61 56 53 51 51 45 42 32 35 28 31 24 17 21 17 18 25 20
15 23 25 22 21 24 18 20 30 34 27 42 37 49 50 59 55 57 64 73 70 76 67 64 55 62 54 54 44 47 45 41 37 41 36 37 48 54 49 62 61 64 67 73 72 65 61 61 59 55 43 40 42 31 32 27 27 21 26 18 16 23 23 26
22 16 23 25 24 17 23 25 21 32 36 35 37 43 46 55 60 63 70 66 69 75 68 60 56 51 52 52 47 35 38 34 44 43 40 46 47 54 52 52 65 70 69 76 69 64 61 64 53 50 54 39 44 37 38 32 22 17 17 15 22 15 25 21
21 24 16 24 25 17 26 16 29 29 27 32 43 41 49 58 62 59 62 74 76 76 66 65 63 52 56 45 42 46 33 41 41 43 33 44 51 54 53 57 62 68 69 74 66 63 68 61 58 47 47 39 35 37 38 33 28 23 14 18 26 22 17 22
23 19 14 23 18 25 21 26 29 23 30 42 45 43 50 50 52 57 56 68 68 60 59 62 65 53 57 50 42 39 35 39 33 34 35 39 42 53 52 50 61 56 66 68 67 68 57 61 61 58 45 42 41 35 38 24 19 22 25 19 21 20 26 25
25 18 15 17 17 23 21 22 19 22 27 40 44 47 46 54 48 58 59 61 58 68 60 62 59 53 55 41 48 45 33 39 41 41 40 41 39 42 47 54 54 62 59 69 58 67 57 59 57 54 52 49 34 34 27 31 18 27 21 22 18 25 14 19
23 24 16 22 16 23 23 22 20 32 32 40 39 36 43 43 49 60 62 62 53 65 59 62 50 53 49 46 47 39 31 31 38 35 37 33 41 50 42 55 51 51 56 64 61 53 57 53 52 53 42 43 36 36 37 33 24 21 14 22 21 20 26 20
19 14 20 21 18 17 23 24 22 30 23 37 38 39 49 50 48 51 58 58 57 49 54 58 55 49 48 44 37 40 33 32 31 27 26 33 33 36 49 51 45 57 59 49 57 57 55 49 52 51 42 41 42 34 35 25 20 24 20 14 26 21 23 24
18 25 17 23 15 21 25 19 21 19 22 28 37 34 44 41 42 48 55 47 55 46 45 46 53 44 37 40 32 29 34 33 31 29 29 36 31 42 46 39 45 53 50 48 57 54 45 45 39 39 43 38 39 34 22 21 15 24 25 15 22 14 25 21
18 19 29 20 29 21 17 27 29 29 24 31 36 36 38 40 44 53 49 51 50 53 48 48 52 43 43 37 39 37 37 25 29 25 27 33 35 39 49 41 48 50 48 50 58 58 47 54 47 43 39 34 35 36 35 25 32 31 26 20 22 22 25 23
24 28 26 33 32 27 29 24 25 26 28 38 39 39 44 39 43 47 45 56 46 54 47 48 52 42 49 44 40 34 33 33 29 32 37 41 45 38 47 48 50 55 48 55 49 53 58 50 54 48 48 49 45 34 40 31 29 33 31 27 34 35 33 28
26 36 24 29 28 31 26 35 27 29 27 38 33 44 41 43 45 52 51 53 57 46 49 53 56 44 50 44 40 45 37 37 31 34 32 36 45 50 52 50 57 48 59 57 49 58 59 52 57 49 43 46 41 41 36 35 43 34 40 40 33 35 42 39
26 29 20 31 31 27 25 26 21 29 32 25 33 36 33 38 34 46 43 43 44 47 37 43 43 35 39 34 37 31 34 26 35 27 37 29 41 38 39 38 38 39 49 39 44 47 47 41 46 47 41 33 35 28 28 32 35 28 31 27 31 35 28 34
22 21 18 19 24 27 18 29 24 21 24 20 17 23 31 34 37 29 30 35 40 36 39 34 31 30 25 26 21 28 25 24 20 20 20 19 27 32 34 36 30 32 30 37 42 35 41 31 38 34 31 23 20 27 19 24 32 26 30 27 31 28 26 22
22 24 18 17 17 25 14 24 18 15 16 17 17 23 25 29 20 25 21 27 30 25 28 28 23 25 21 24 19 22 16 17 22 20 22 23 16 15 26 30 32 26 23 32 30 24 32 20 28 25 26 18 14 20 25 22 14 15 16 18 19 24 25 15
21 14 18 23 22 16 24 18 17 16 22 16 22 24 26 18 20 21 27 19 29 22 25 29 23 23 18 14 19 25 16 15 25 15 18 24 17 21 25 27 24 21 20 24 20 23 26 23 26 19 18 22 24 19 23 21 24 23 26 23 20 24 22 18
22 21 14 21 14 22 16 22 18 21 24 16 19 17 26 24 24 23 15 21 23 21 19 22 17 24 15 20 16 18 19 21 25 22 17 23 14 20 23 17 14 17 15 16 21 17 22 15 17 21 19 24 18 25 15 18 26 19 25 17 15 15 24 24
15 15 14 26 25 26 22 22 26 19 22 21 18 17 14 18 15 22 22 25 23 20 20 15 21 26 16 22 14 22 18 17 17 21 21 21 16 23 24 23 23 24 18 19 21 25 26 20 14 14 14 20 24 21 19 25 15 20 17 17 20 21 15 16
21 22 20 25 19 17 23 16 23 23 14 18 25 18 16 14 20 14 25 14 25 15 17 15 16 25 23 22 21 21 17 23 23 16 19 26 14 20 14 19 25 17 18 26 17 26 20 20 22 16 17 18 21 22 19 18 18 15 19 21 18 26 22 19
21 14 24 25 26 25 16 23 17 19 25 25 26 24 24 22 20 14 23 24 18 25 26 17 16 24 16 17 15 24 19 15 24 26 15 24 14 24 18 17 22 16 23 26 17 18 14 17 24 26 25 14 18 14 20 19 20 23 15 17 17 26 22 21
14 24 26 24 15 14 20 26 23 16 19 16 14 25 26 14 26 15 26 19 17 21 25 25 18 17 25 17 14 15 21 20 15 15 21 16 15 19 24 17 14 21 24 21 21 20 20 23 21 22 19 24 24 26 22 19 24 24 15 24 22 25 17 25
26 24 21 26 24 25 25 26 26 16 15 14 16 22 24 22 22 26 16 19 26 22 20 16 14 24 20 19 20 15 16 18 17 24 22 24 22 20 26 18 20 24 25 14 14 17 19 22 24 14 26 17 14 23 18 26 19 15 21 14 23 26 26 26
21 22 18 23 15 26 15 15 23 18 23 20 23 21 26 22 25 23 15 26 20 22 23 19 21 17 14 19 14 21 24 25 26 20 26 16 20 18 18 16 20 21 25 25 15 24 17 22 23 22 17 19 26 14 18 19 24 22 19 14 19 15 14 20
15 19 22 15 19 23 24 21 19 26 18 21 23 16 16 26 21 21 22 24 17 19 21 21 18 17 19 20 21 17 21 22 18 20 22 19 21 16 24 19 18 18 23 22 24 20 19 25 26 18 25 24 14 22 18 17 26 17 15 24 20 24 19 16
14 17 18 21 26 16 21 17 26 15 18 18 23 15 20 16 21 26 23 23 25 22 19 23 23 18 19 15 17 16 26 14 24 24 22 21 17 20 19 18 20 18 15 20 19 19 18 19 21 17 22 15 19 26 25 19 26 26 24 26 18 18 17 14
16 25 24 24 19 20 19 16 21 18 26 14 15 16 24 15 16 23 19 21 21 15 17 24 21 16 15 25 20 14 22 21 19 20 26 18 23 25 24 20 26 14 20 18 25 22 23 23 24 22 21 22 26 25 18 25 26 21 19 16 17 19 20 26
26 23 19 21 23 21 16 19 14 18 23 23 17 20 16 25 22 19 19 26 26 16 24 19 24 22 22 24 18 22 21 23 23 18 23 14 19 15 26 16 22 19 17 26 14 24 18 21 18 15 16 21 23 15 22 24 21 24 15 15 23 17 19 22
20 26 21 22 20 21 21 16 17 17 21 22 22 24 14 22 18 23 21 15 14 25 16 26 19 20 23 24 15 21 16 24 20 14 23 15 14 22 25 18 21 15 17 24 21 23 22 24 19 26 16 17 19 26 23 23 25 20 25 21 15 26 16 14
18 21 15 18 16 25 24 24 19 24 14 23 15 25 20 17 19 20 18 23 14 14 20 17 21 15 23 17 22 23 23 15 19 14 19 22 21 25 15 23 25 16 15 22 26 14 14 20 22 19 22 17 26 18 16 23 16 19 20 24 18 21 20 23
18 23 25 26 25 14 17 24 20 26 16 14 22 18 14 20 16 24 20 24 22 24 21 16 16 23 17 21 23 20 19 26 15 16 21 26 14 23 26 14 17 16 21 14 21 22 17 17 14 19 23 16 21 20 25 17 26 21 18 26 21 16 25 18
21 15 19 24 24 26 20 26 22 14 18 26 26 26 17 18 20 18 15 15 14 16 21 18 19 25 15 23 14 24 23 22 22 25 25 16 14 14 18 20 18 18 17 17 15 24 21 23 17 15 17 16 25 25 16 19 18 26 14 21 19 16 24 19
22 18 22 22 22 16 23 18 16 25 20 23 24 14 19 15 16 22 21 20 25 25 26 14 21 24 25 16 22 19 21 25 24 14 22 20 21 15 20 22 20 16 18 24 23 23 19 16 19 25 22 19 21 15 17 22 15 15 20 20 14 17 26 14
25 23 25 17 16 22 23 26 14 19 23 19 21 17 17 19 24 26 22 21 18 20 20 14 17 18 23 24 17 24 20 22 14 18 19 20 25 23 14 24 18 22 18 25 14 24 19 26 25 25 18 19 21 20 24 24 16 18 20 23 24 19 15 24
21 20 22 24 15 23 14 16 14 14 15 26 17 15 16 26 21 16 17 22 25 25 14 16 20 17 19 19 18 25 22 23 15 26 19 19 24 15 22 26 26 18 25 25 19 25 22 16 14 25 18 25 14 20 23 19 25 24 16 23 20 18 21 21
