P2
64 64
255
25 18 18 27 23 20 29 21 26 22 37 34 24 25 28 31 37 26 26 35 18 34 25 20 27 24 22 20 38 35 26 38 20 29 31 30 19 37 28 31 25 32 30 25 25 19 36 31 34 25 28 33 33 36 30 27 28 29 37 36 36 31 21 33
25 25 32 19 28 23 24 23 34 28 31 32 18 33 27 31 38 34 22 25 31 33 20 36 34 28 32 30 22 35 38 38 21 20 31 21 29 23 29 36 31 38 31 20 18 26 32 37 25 22 28 38 19 24 32 31 25 21 35 37 28 33 28 33
27 28 36 32 26 35 18 19 32 33 21 18 32 34 29 20 20 20 20 19 26 20 25 32 37 36 36 37 35 22 36 21 20 25 36 31 21 35 25 38 26 35 36 30 32 22 28 19 31 33 26 19 29 22 22 27 33 36 37 28 26 20 34 20
30 32 29 20 18 19 26 30 27 28 21 28 37 35 19 25 24 35 34 32 33 19 26 27 35 28 29 23 38 21 23 25 31 37 36 32 25 37 33 25 28 33 20 20 18 38 18 23 28 28 26 29 33 28 28 38 31 23 29 30 21 25 27 21
36 35 37 36 37 32 37 31 37 25 37 19 25 26 29 33 32 26 21 21 18 26 19 36 28 27 31 18 20 27 33 34 33 28 28 37 24 38 32 18 22 32 20 28 19 20 21 31 24 28 21 30 22 22 20 30 36 18 18 34 28 32 25 22
29 27 32 25 34 18 25 20 36 26 24 35 36 36 22 28 25 34 38 38 34 21 30 20 24 33 36 27 29 21 20 37 32 35 37 23 36 37 26 29 23 26 34 36 31 21 37 29 23 34 26 23 22 22 19 27 36 27 31 33 23 23 32 21
35 34 34 19 18 30 24 24 28 33 32 37 20 34 33 18 27 37 26 34 36 31 33 29 37 37 29 30 18 32 34 31 27 33 19 30 29 31 27 30 35 22 29 27 31 22 26 22 24 37 24 18 21 18 38 24 30 19 18 35 37 21 35 35
32 27 22 19 25 37 25 30 30 30 19 26 27 34 24 21 24 19 37 22 20 33 23 19 23 30 29 26 19 27 19 28 26 29 26 30 37 36 24 34 34 38 38 21 24 23 32 38 24 35 19 27 32 27 38 33 21 37 37 24 31 19 25 35
36 25 26 32 21 33 24 27 18 35 27 19 22 19 22 32 25 38 34 28 22 25 25 29 36 19 32 29 18 36 23 19 28 34 21 21 33 25 36 24 21 23 24 38 38 32 30 25 24 20 18 33 25 23 26 26 31 19 37 20 30 33 36 30
37 36 37 26 23 27 18 37 26 27 18 20 34 30 33 31 38 25 29 19 34 24 31 34 23 21 33 27 30 18 22 37 21 24 19 31 25 38 22 36 28 21 28 20 33 38 24 28 33 36 36 24 36 28 31 20 20 24 26 34 19 25 27 34
28 29 38 37 24 32 29 32 31 23 22 18 22 21 30 18 35 23 24 23 29 38 22 34 37 26 32 27 35 27 26 34 18 27 22 19 25 34 30 23 20 35 25 21 25 27 36 31 36 33 19 23 22 23 31 19 36 18 21 29 18 21 22 27
20 19 22 28 27 23 19 23 23 38 23 38 31 19 32 19 28 21 30 28 34 33 25 29 20 19 22 28 35 24 34 21 30 21 21 34 35 25 37 18 33 38 36 25 36 28 31 31 35 25 35 33 20 28 30 19 25 34 23 22 22 22 18 31
29 26 36 35 37 34 18 35 27 19 21 27 33 24 21 25 37 31 22 20 22 31 33 33 26 32 26 36 36 22 28 22 30 26 24 19 22 32 32 26 22 38 36 22 37 25 32 35 37 21 28 19 26 37 34 21 24 22 37 19 26 32 30 21
19 32 28 29 33 20 37 37 37 23 20 22 20 22 23 32 32 21 31 27 33 35 35 22 35 31 36 20 26 38 28 22 22 29 26 30 20 35 24 35 36 29 32 18 27 31 25 19 33 21 33 31 33 30 35 26 25 24 38 38 18 34 28 32
33 34 29 38 27 26 33 24 22 28 22 36 18 26 36 33 20 34 19 33 30 18 23 21 21 35 32 33 38 33 38 27 18 38 28 27 31 18 26 35 18 18 37 31 28 38 27 19 23 30 24 27 19 24 19 26 27 22 34 28 35 31 20 19
37 37 30 33 31 31 34 33 25 36 35 36 18 23 36 31 38 31 30 25 34 24 31 26 18 32 23 34 24 30 27 25 34 24 28 35 29 23 27 38 30 22 30 29 35 18 27 22 24 26 37 28 22 37 35 33 21 32 32 23 20 24 31 33
29 38 36 34 19 34 23 35 29 36 34 20 34 28 31 38 35 24 31 32 18 33 26 28 32 30 32 18 34 32 36 33 32 35 37 21 33 32 20 20 34 33 37 31 26 35 35 35 37 22 34 20 19 20 18 20 20 27 25 34 38 34 37 31
38 35 36 24 21 26 20 28 33 24 25 28 22 25 31 24 29 34 35 22 35 38 29 20 34 38 20 34 20 27 24 31 34 18 36 28 37 29 28 33 38 31 32 32 19 38 27 34 21 37 30 23 29 32 30 20 32 21 23 38 19 31 24 34
30 23 28 19 18 24 28 28 26 35 37 38 31 22 18 27 19 32 24 32 28 23 28 33 23 31 23 30 31 18 27 29 31 23 38 25 29 21 32 34 29 34 18 38 36 34 29 20 37 19 35 21 36 18 25 37 18 34 34 34 38 34 20 22
28 30 19 27 21 32 34 25 18 23 29 20 30 36 22 34 38 35 21 30 27 28 28 28 37 23 20 27 31 29 29 38 33 35 21 27 30 32 27 26 39 36 41 29 37 24 27 24 29 30 29 31 33 27 24 23 25 33 38 25 20 26 23 21
28 23 30 28 20 28 35 38 32 22 29 19 29 19 33 27 40 39 42 35 41 45 29 38 41 26 38 30 35 18 33 35 38 37 35 33 22 23 24 37 24 35 26 46 33 36 28 40 42 21 39 32 36 34 35 25 30 32 34 35 28 36 22 32
36 35 25 30 28 38 23 26 30 26 38 25 26 39 38 38 46 45 34 34 36 35 30 30 41 42 39 43 20 33 34 34 35 26 34 29 30 25 41 31 29 45 47 42 31 42 46 44 37 24 27 33 31 37 29 21 25 27 23 18 28 33 31 32
36 22 30 30 34 21 24 28 28 23 37 24 23 35 44 41 41 32 48 43 47 43 47 49 45 49 40 39 33 28 28 32 37 36 28 30 40 29 35 32 51 49 48 34 43 48 50 33 43 32 37 31 41 30 21 22 21 36 27 25 38 31 20 27
20 19 32 33 20 18 26 21 18 33 21 34 43 41 43 49 36 50 42 57 57 55 46 50 44 50 41 38 42 42 48 41 46 42 55 43 43 47 44 54 46 48 54 41 44 47 43 51 33 47 36 34 29 21 32 30 22 33 19 36 21 38 36 21
28 38 23 30 20 24 25 24 29 34 25 28 28 35 43 44 42 49 45 51 43 51 51 59 60 48 53 64 67 58 60 59 56 59 60 51 47 61 65 53 45 48 51 43 42 56 47 55 50 55 32 42 43 25 36 36 23 27 33 24 36 27 35 27
36 27 31 29 26 32 37 23 24 21 43 32 32 32 41 49 54 50 43 54 59 58 68 50 55 70 61 76 75 69 53 58 69 62 70 66 64 66 60 61 70 65 48 56 61 64 52 53 57 44 38 37 34 45 41 26 31 36 20 31 19 22 37 21
37 29 33 38 30 24 18 31 27 22 32 46 51 50 47 53 48 49 50 49 54 60 59 69 63 65 77 72 71 80 67 69 74 62 65 63 64 84 77 71 77 71 61 63 55 55 47 54 62 48 49 42 49 41 45 34 19 29 33 30 34 25 20 38
37 37 33 22 33 20 28 37 39 33 47 42 42 41 46 44 55 52 64 70 62 68 68 69 72 72 89 91 78 76 70 85 73 84 73 84 90 72 86 73 75 70 80 76 69 69 67 59 66 47 43 43 52 39 32 38 30 36 24 21 20 24 20 21
38 19 23 19 26 25 26 30 27 30 30 52 54 48 43 56 53 58 60 65 74 77 77 76 94 78 79 84 83 98 84 87 94 93 94 92 97 83 84 91 95 84 84 75 71 61 60 61 56 66 54 49 47 38 32 29 30 33 29 23 33 25 33 34
23 24 19 29 35 38 24 34 30 40 50 51 48 44 54 58 58 55 63 69 79 84 99 100 85 94 88 106 104 90 91 97 106 87 103 91 90 106 93 90 103 88 96 92 74 70 62 75 66 61 48 46 51 43 34 41 26 25 37 32 33 37 19 26
33 38 24 25 37 26 32 29 41 46 49 44 38 45 57 59 62 75 63 83 82 97 103 99 90 97 97 95 109 95 97 103 112 94 95 107 101 111 101 98 106 94 92 87 95 83 77 68 62 68 56 60 43 45 42 27 34 20 22 31 34 19 37 38
29 24 33 19 37 25 25 31 41 35 51 41 55 43 66 63 61 70 67 92 85 108 105 93 108 105 113 118 107 117 114 111 106 107 102 111 100 104 110 99 113 110 99 101 89 83 73 64 70 51 55 48 45 35 33 37 30 22 34 37 24 37 34 25
32 31 24 23 19 21 27 40 27 38 34 48 39 51 53 59 62 66 77 84 88 95 107 98 101 113 110 120 111 111 119 125 128 119 123 118 117 120 106 115 112 100 105 92 108 89 71 72 61 60 57 55 57 47 39 40 30 22 23 36 23 34 25 32
30 26 18 23 31 19 31 36 25 39 39 54 52 54 51 65 75 67 83 84 101 106 103 103 101 104 123 111 109 109 119 113 125 121 120 122 125 114 122 119 115 116 103 100 91 85 71 64 58 51 54 53 42 36 32 33 29 25 21 27 34 31 27 25
27 37 19 31 36 36 25 24 40 28 37 55 42 57 63 65 59 78 81 80 89 109 95 105 114 116 111 118 114 124 128 124 136 119 115 121 119 108 107 110 120 113 97 105 95 90 70 74 56 58 50 56 43 53 41 45 33 37 33 28 20 18 35 26
20 19 29 18 38 30 21 26 31 31 46 36 54 47 47 68 51 58 65 83 91 95 91 116 99 107 109 125 125 119 124 125 141 140 135 114 127 107 125 121 108 100 111 92 98 84 68 66 60 56 54 45 55 46 34 32 28 30 24 31 31 25 27 26
28 37 27 37 34 35 31 20 41 34 33 34 54 48 53 61 69 64 70 85 92 93 108 99 115 102 111 122 114 120 119 125 145 134 130 129 127 112 113 120 116 101 102 86 77 84 65 56 53 48 57 39 53 33 49 43 30 32 35 37 22 33 28 22
23 30 18 36 19 22 22 21 24 31 41 46 49 42 49 53 58 58 66 66 75 82 98 102 113 105 117 112 121 119 120 133 119 119 118 110 121 121 111 98 106 89 100 80 86 85 62 50 46 64 54 53 52 36 42 42 36 26 32 27 38 29 28 24
24 23 27 23 26 26 24 34 24 34 29 46 46 38 54 49 60 56 60 70 83 78 84 98 102 110 108 109 111 124 113 118 114 122 114 109 103 111 97 94 107 88 79 92 68 62 59 63 57 47 53 51 50 40 28 32 26 23 19 18 23 19 32 36
31 25 25 20 26 26 35 20 24 31 25 39 38 33 39 41 45 49 53 76 64 69 75 92 84 107 110 93 111 99 117 109 105 103 106 113 103 94 106 106 84 84 94 76 83 67 51 43 46 54 51 46 36 35 24 37 20 25 22 34 28 24 26 19
29 34 21 34 20 22 35 33 30 21 39 28 30 43 47 43 49 40 58 64 77 82 76 76 77 88 85 91 97 97 106 96 100 104 96 105 91 99 90 82 92 93 78 73 58 63 59 56 40 46 52 40 43 33 41 24 35 25 34 33 23 24 36 37
36 38 18 25 34 22 32 32 18 27 19 25 31 34 39 39 50 50 38 53 66 56 80 80 91 92 97 82 88 88 94 90 99 94 88 101 92 93 77 75 85 70 77 61 61 55 45 48 38 46 43 39 39 35 37 36 32 21 20 36 18 21 37 36
28 36 34 26 26 21 35 31 23 27 26 35 30 33 41 36 50 48 46 55 44 69 66 74 63 70 89 87 83 81 76 90 94 74 79 83 78 88 80 73 73 66 75 68 45 48 51 45 45 33 35 29 33 31 22 36 30 19 22 24 20 27 23 18
26 35 30 38 31 34 29 37 32 36 19 38 24 32 38 41 34 28 40 52 38 54 47 63 62 79 74 67 83 76 84 75 74 68 80 74 70 73 70 61 59 65 54 49 38 43 30 37 42 28 24 41 30 22 23 26 36 34 25 24 23 27 27 19
21 19 30 35 35 37 25 30 32 26 38 25 24 29 26 31 32 41 30 43 31 46 46 60 50 57 65 57 60 77 66 76 74 76 65 76 64 68 57 51 50 63 44 52 40 37 40 35 37 35 26 19 20 34 28 36 35 30 23 25 30 31 21 36
36 35 25 27 34 19 19 25 32 25 22 26 34 35 24 30 29 23 41 39 39 38 32 46 59 61 46 55 68 57 59 74 56 56 64 70 56 65 58 57 49 37 33 32 33 36 21 20 22 21 25 18 22 24 36 38 20 35 31 34 26 36 24 22
38 28 26 28 37 34 35 21 19 35 33 30 34 29 32 23 34 29 33 29 32 39 33 49 50 38 52 61 47 57 54 58 58 63 55 57 54 42 57 44 51 40 38 21 36 22 30 27 22 21 36 32 37 30 36 38 22 22 27 32 38 26 27 23
29 24 24 34 26 28 26 33 24 18 32 22 22 28 37 20 34 33 31 33 34 33 25 41 29 33 53 37 47 52 52 51 47 59 47 45 51 37 34 49 31 31 39 20 20 21 34 31 24 19 23 22 22 19 24 37 33 18 31 33 24 28 31 30
22 31 24 26 24 21 18 38 20 21 23 27 19 20 20 26 21 37 22 34 23 38 36 29 37 32 39 39 48 39 55 51 47 57 46 54 40 31 41 31 42 27 37 28 29 38 37 28 32 23 29 33 33 31 38 23 18 27 21 24 21 31 31 24
20 21 33 36 34 27 19 19 20 35 28 25 23 36 20 33 28 25 31 26 21 20 33 22 20 29 32 35 35 44 46 34 31 44 42 33 31 28 25 40 37 30 35 21 22 32 35 29 21 20 21 24 33 27 26 29 26 34 28 26 32 23 21 20
25 29 35 29 29 36 38 20 27 21 24 19 27 30 32 37 38 30 23 37 37 35 29 37 37 29 22 23 33 26 33 29 31 25 40 37 30 40 18 34 18 20 24 20 24 32 31 21 20 30 32 36 21 28 22 35 21 29 27 32 35 30 27 32
20 23 38 30 30 25 36 31 30 31 23 27 38 19 21 32 21 34 30 21 34 26 21 18 34 28 20 28 22 27 38 27 28 38 30 30 19 19 25 36 23 20 38 36 29 19 18 27 28 21 32 27 29 18 32 20 28 36 20 25 27 30 26 28
23 29 26 26 32 27 38 32 36 36 21 20 24 30 24 20 28 36 30 36 25 24 36 27 24 23 28 24 33 35 36 27 21 22 31 27 32 23 33 18 24 28 21 33 19 24 33 19 27 28 29 28 35 27 19 35 24 19 35 27 27 21 37 21
25 31 23 31 26 23 18 27 27 25 27 22 31 30 36 37 18 27 27 18 20 34 33 32 18 20 26 38 34 28 29 28 25 23 22 19 25 37 31 24 19 29 31 18 25 29 33 34 26 28 23 34 31 22 36 36 27 33 37 22 28 31 25 32
33 38 34 27 30 33 21 37 29 31 29 32 22 25 32 30 36 38 21 31 33 28 38 34 22 26 20 21 30 32 22 35 20 19 20 35 32 21 28 35 38 37 29 20 31 28 34 28 21 26 20 32 33 30 33 30 23 32 30 30 29 32 28 37
35 28 19 22 33 34 36 28 21 31 20 21 20 31 35 26 31 34 37 21 32 33 26 30 19 37 22 33 30 32 37 30 36 33 23 28 20 27 37 25 38 20 23 36 36 18 21 31 37 37 21 37 19 29 32 18 32 28 37 21 21 19 36 21
29 38 33 34 29 22 20 24 26 27 19 24 34 38 37 22 37 22 20 31 37 36 18 20 19 22 21 20 18 26 34 20 27 23 29 37 23 27 37 33 22 36 29 29 23 18 31 34 26 29 36 23 20 28 23 20 34 35 34 29 19 27 35 34
34 30 34 37 36 29 35 28 28 25 27 35 25 21 23 29 31 34 24 31 19 23 25 28 23 33 24 25 26 32 21 29 27 35 18 27 34 37 25 25 32 31 29 22 28 28 18 34 24 37 29 32 37 31 26 29 22 29 32 19 31 33 31 27
24 27 22 37 24 20 30 34 33 28 38 31 32 25 19 36 26 19 32 31 28 38 21 31 29 27 18 38 38 36 38 18 22 38 27 18 26 32 26 22 22 29 38 25 24 29 32 19 19 23 24 32 28 21 36 36 26 31 19 37 38 33 35 32
25 32 36 23 20 35 30 35 27 33 35 29 20 21 30 34 26 27 21 22 19 24 29 19 23 28 25 23 19 23 29 38 27 37 30 26 24 33 32 27 28 37 21 24 18 26 26 32 22 28 19 33 22 19 24 22 21 35 36 22 26 36 33 22
32 34 33 37 18 20 26 26 34 26 29 27 21 34 24 29 23 32 26 32 33 30 35 37 27 27 34 37 35 29 35 21 37 34 32 24 18 21 19 33 27 32 28 18 35 26 21 37 27 18 28 24 28 38 31 32 30 29 30 32 37 35 36 31
23 38 21 25 25 24 27 31 38 26 19 37 29 38 24 36 18 21 33 26 36 32 36 26 27 23 18 27 26 29 19 38 30 31 33 24 33 28 22 18 31 22 36 19 31 33 20 37 30 24 24 29 21 25 29 30 22 29 32 19 28 38 32 27
37 24 18 33 26 37 27 29 33 25 27 19 23 31 36 33 28 36 38 26 36 38 24 37 36 26 29 18 23 23 38 19 20 33 34 25 23 23 38 28 32 31 31 18 25 36 35 26 26 28 21 22 31 31 38 26 25 18 23 21 26 20 31 26
18 22 27 23 24 36 32 33 31 32 34 18 18 23 29 35 38 23 32 30 33 21 24 20 28 34 38 26 26 24 20 21 23 23 38 28 26 31 21 32 38 38 26 35 23 35 25 31 25 29 22 23 22 31 36 32 36 22 28 29 25 21 19 28
