P2
64 64
255
14 24 19 23 23 20 26 16 22 14 26 20 19 15 20 25 21 24 24 19 14 15 25 20 18 26 22 23 19 19 20 26 19 23 21 19 14 14 14 17 15 20 23 16 19 15 20 26 18 15 19 22 20 21 17 26 16 25 14 18 20 23 15 17
21 18 14 18 19 22 16 20 17 16 20 26 17 22 26 15 21 26 17 23 17 19 26 14 17 15 15 23 26 17 24 17 15 24 25 21 16 19 24 17 20 15 18 24 19 16 15 23 16 19 25 17 17 25 21 15 17 14 19 18 23 24 17 22
18 26 24 23 15 26 23 23 20 15 23 14 25 19 19 25 24 22 19 14 14 26 25 20 21 20 22 26 19 18 21 26 14 20 23 16 26 15 20 20 15 17 14 24 23 23 20 15 15 20 15 17 17 24 19 23 17 18 15 22 17 23 25 24
25 23 25 26 26 16 14 17 17 17 20 18 16 23 23 18 22 22 19 25 21 18 20 16 15 15 18 24 20 15 16 24 16 16 14 23 15 26 23 20 23 26 20 17 26 26 19 22 25 19 24 18 21 20 23 18 19 20 18 25 22 19 20 22
23 26 25 15 14 25 25 20 19 22 17 24 15 19 15 16 25 23 26 20 26 17 26 23 18 14 22 19 25 18 18 21 16 16 26 20 25 20 21 16 20 14 26 15 25 25 14 25 22 24 24 14 20 18 25 17 25 15 14 26 23 15 23 16
25 16 25 20 21 20 14 15 15 22 18 15 17 16 15 18 20 15 23 25 21 25 19 16 22 16 17 22 14 17 15 20 20 15 18 21 23 19 20 20 16 14 14 21 24 24 24 23 24 23 19 16 19 26 24 14 20 19 23 18 19 26 24 24
24 16 15 21 26 14 17 22 21 20 19 14 25 19 24 20 23 14 14 23 19 24 15 25 16 25 18 23 16 15 25 26 26 16 18 19 18 24 25 26 23 16 25 17 14 22 25 25 26 24 20 25 16 24 14 19 17 24 26 14 18 15 14 18
14 14 23 16 15 16 20 21 16 14 21 26 24 17 26 14 26 24 23 21 17 19 23 20 22 21 17 25 16 25 15 14 19 16 19 26 18 19 22 16 17 14 16 21 25 19 16 18 21 14 19 17 20 21 25 20 17 14 24 15 17 15 22 16
23 16 17 15 26 22 18 24 21 21 17 22 26 19 17 19 23 25 18 24 19 20 21 17 14 19 23 20 20 22 25 26 20 24 17 24 16 17 23 16 16 22 20 23 20 25 16 20 22 15 14 22 26 17 26 16 21 18 23 25 15 18 25 19
26 21 23 25 21 15 26 17 25 20 26 25 23 23 19 14 26 15 15 21 25 26 23 25 22 20 14 19 14 17 22 20 25 22 22 16 17 16 23 15 23 17 18 25 14 24 15 18 15 19 22 24 24 15 16 21 24 18 18 19 21 26 18 25
21 19 26 16 22 17 25 15 17 18 23 14 18 20 19 22 23 25 21 14 17 14 19 24 17 17 18 23 18 23 17 17 18 24 22 16 14 18 16 15 26 22 15 19 21 17 16 16 19 26 23 25 21 26 23 21 17 22 21 15 14 15 21 26
22 17 17 23 17 19 19 19 24 21 26 15 21 23 14 25 24 22 17 24 14 16 20 20 14 24 23 25 18 25 15 23 26 21 18 23 23 19 22 19 14 16 26 26 20 15 21 19 14 16 14 14 24 24 18 25 20 23 14 24 14 18 26 16
20 25 19 23 24 16 25 26 15 19 20 22 19 17 26 21 19 15 20 26 19 25 21 21 15 20 25 17 17 22 20 25 17 23 19 25 21 24 16 22 26 18 20 22 17 22 23 23 25 23 18 20 23 22 24 16 23 15 23 25 20 15 16 19
21 25 16 17 21 14 15 25 14 21 16 24 22 20 21 19 14 22 18 16 17 24 15 19 22 24 21 26 17 26 22 24 17 23 17 22 14 25 24 20 24 19 15 15 18 26 15 16 22 16 21 14 15 16 18 19 26 23 20 22 19 16 18 22
24 24 19 25 25 14 14 18 25 22 20 19 19 19 24 15 20 24 14 21 15 26 16 26 16 21 16 15 25 16 15 15 21 23 24 19 16 16 14 22 21 24 22 16 25 15 25 16 15 19 16 15 17 25 20 25 21 17 22 19 25 20 16 16
20 16 19 22 14 22 25 17 21 19 18 19 25 24 18 18 21 19 21 23 16 18 26 18 16 26 14 20 25 26 16 26 18 14 14 26 26 26 15 17 15 21 20 19 14 14 20 16 25 15 17 16 19 25 25 26 24 17 24 25 22 16 26 14
17 25 16 24 24 25 19 24 14 21 20 18 21 22 15 18 17 24 15 23 19 14 17 19 17 25 15 21 15 15 21 19 17 18 20 26 15 20 18 21 22 26 15 18 25 19 23 15 26 16 16 23 25 21 25 16 21 20 22 20 20 15 14 15
19 17 17 16 21 16 20 25 15 26 20 23 23 16 23 14 16 21 18 24 20 22 19 24 14 19 14 18 17 19 24 21 25 19 20 18 23 22 17 26 26 26 26 24 17 24 14 25 14 14 24 18 19 21 19 22 21 23 26 15 18 22 17 19
20 19 26 14 16 14 19 21 22 15 15 18 23 26 15 15 24 24 16 15 16 14 15 22 24 20 25 26 22 19 23 17 14 26 17 20 23 16 18 14 22 17 22 15 18 17 25 14 24 23 21 23 17 19 15 18 21 23 26 16 26 18 14 22
21 24 14 22 17 20 22 23 22 19 14 19 22 21 22 20 17 23 25 18 28 25 19 24 22 27 18 17 22 26 23 14 15 19 15 14 25 19 25 18 25 29 23 23 22 26 28 27 17 15 21 25 18 19 15 15 18 24 23 17 18 15 26 23
16 26 24 16 16 14 23 15 19 18 18 14 21 20 20 20 30 32 29 30 33 27 29 32 31 26 27 17 16 18 16 24 19 21 24 20 24 26 27 28 31 33 28 24 32 31 25 25 21 24 20 18 24 23 18 17 23 20 15 16 16 18 15 17
20 25 22 19 19 23 24 22 17 21 18 24 26 23 21 25 30 35 27 28 34 37 25 25 34 22 29 26 21 24 17 26 29 29 17 26 21 25 31 34 27 36 26 37 28 28 34 26 23 25 29 22 14 25 23 14 14 16 14 26 25 26 14 20
18 20 14 25 15 17 15 24 22 23 19 22 29 25 28 31 30 28 34 29 32 41 40 32 27 32 35 36 29 33 34 26 24 32 27 29 35 27 33 32 34 39 33 36 29 39 35 31 38 24 29 32 26 26 25 14 22 19 24 14 26 16 22 22
22 18 20 24 25 24 24 14 14 22 22 25 23 30 28 39 33 34 44 39 38 39 35 37 39 40 38 42 39 44 32 40 40 40 36 37 44 45 46 33 36 38 39 36 36 35 43 43 34 34 25 33 30 29 16 19 16 26 17 24 18 23 26 23
19 24 25 25 25 22 26 15 21 26 18 32 26 26 30 32 40 36 45 44 49 47 42 51 48 48 49 48 45 46 42 39 35 42 42 53 47 45 48 52 46 50 39 44 41 44 40 45 34 43 37 29 32 29 19 20 18 15 22 18 18 26 19 17
25 15 22 20 18 26 14 23 25 24 27 31 26 29 35 42 41 41 41 49 53 50 56 50 53 52 59 57 63 58 57 46 53 52 56 53 59 60 62 52 50 55 47 51 51 50 43 44 43 39 43 28 32 24 27 16 18 22 21 24 24 26 21 25
21 25 18 24 14 24 19 22 26 18 31 30 32 34 39 49 41 51 51 56 46 53 60 67 66 62 71 62 67 71 67 63 59 61 67 66 65 67 64 68 67 57 52 57 51 50 55 47 47 47 44 37 38 37 25 20 22 26 24 20 25 16 22 20
17 20 20 15 14 25 19 15 20 20 26 33 32 34 40 52 43 51 47 51 56 60 71 66 72 67 67 72 67 74 68 72 69 69 76 69 69 77 75 68 70 66 71 58 63 55 58 53 42 49 42 33 31 34 27 25 19 23 23 18 22 16 26 19
15 20 22 20 15 16 25 26 22 28 35 34 33 38 47 44 46 54 60 59 61 67 79 76 75 76 76 83 75 75 77 75 83 80 78 81 75 80 84 84 85 78 80 74 61 61 56 51 45 48 49 35 42 32 37 28 28 20 14 14 16 14 18 26
26 17 24 15 19 17 22 24 19 30 33 32 38 47 47 47 59 56 55 64 76 73 78 80 86 86 94 82 92 85 87 85 82 87 83 82 84 85 87 90 89 85 78 72 71 61 63 59 54 45 50 49 33 37 38 23 22 27 18 21 23 23 26 26
20 23 21 19 26 18 17 15 27 25 35 41 42 50 44 46 50 65 59 74 79 78 85 89 97 87 99 91 93 89 93 99 98 100 95 90 96 99 92 97 86 92 92 87 82 75 60 56 51 49 44 49 42 31 36 31 20 15 22 24 23 21 14 15
19 24 20 19 14 20 24 19 21 24 28 34 45 46 49 52 55 57 66 75 78 86 95 91 94 95 104 94 106 100 97 98 98 97 106 106 106 100 102 97 91 92 92 90 80 75 70 58 57 50 45 49 47 31 34 35 25 18 26 15 22 19 22 15
26 21 26 25 22 22 25 20 26 30 30 33 36 44 45 48 56 61 66 82 90 95 97 101 103 103 98 108 101 104 111 103 117 105 109 99 110 111 101 105 95 102 99 95 89 82 66 63 54 51 45 40 46 39 34 34 24 20 24 14 22 17 15 20
24 19 20 20 22 21 26 22 22 31 30 36 35 44 51 57 54 60 64 76 83 97 95 94 99 106 100 112 115 109 115 118 119 111 115 106 112 110 100 110 106 101 92 92 86 85 76 55 55 50 50 48 46 37 34 25 23 21 17 26 22 26 18 18
22 19 26 17 20 19 21 22 23 35 37 35 37 50 45 50 59 63 68 82 79 93 99 98 97 111 109 110 117 116 121 114 117 115 110 113 108 104 104 103 109 94 101 90 88 78 73 56 51 47 42 45 39 37 29 27 24 22 16 21 15 17 22 22
17 23 17 17 26 19 18 16 26 30 29 42 35 42 43 48 51 64 67 72 80 90 99 92 96 104 104 108 118 118 112 126 123 123 117 110 112 107 113 103 107 101 87 92 80 79 69 56 47 54 43 46 41 36 38 27 29 23 16 14 14 15 18 20
20 19 17 25 16 24 26 16 27 31 33 38 43 45 49 50 46 57 70 69 82 85 94 100 103 98 110 114 117 109 119 121 130 119 112 108 107 115 111 103 100 90 95 85 76 76 60 50 48 46 48 37 42 34 32 24 21 25 16 19 19 25 15 19
15 18 17 16 14 15 15 24 24 31 28 38 32 36 37 48 49 58 55 63 69 85 87 95 98 104 108 109 103 108 114 120 111 121 116 105 106 101 97 99 97 87 87 82 81 71 64 46 44 50 46 43 36 32 32 23 21 20 19 14 14 15 21 21
25 20 25 15 23 15 23 14 14 28 26 28 30 40 46 48 44 44 61 63 66 82 86 81 89 96 102 98 105 108 104 109 107 111 101 111 104 104 97 97 85 90 87 82 75 61 53 42 42 37 40 42 34 36 26 30 19 23 26 17 26 23 16 25
24 22 20 22 17 26 18 18 25 22 19 30 38 40 42 36 38 49 46 58 62 74 73 86 85 84 96 99 99 101 102 105 101 98 99 93 91 94 87 84 90 77 77 72 59 61 45 47 44 46 37 30 26 31 30 17 24 19 14 19 25 21 14 16
17 24 23 19 14 21 17 16 25 24 17 28 26 33 40 33 40 38 42 50 58 66 76 75 83 85 92 91 97 86 94 86 84 90 89 98 95 85 89 87 85 79 77 59 58 47 51 43 35 31 29 26 25 29 19 15 25 20 19 17 15 21 19 22
14 14 17 19 19 25 26 17 15 18 21 24 31 28 26 34 40 34 43 41 53 64 68 65 70 82 84 83 77 87 84 79 84 83 79 88 83 84 85 70 78 71 64 52 55 50 40 37 31 27 37 31 23 21 16 24 22 25 14 25 17 21 14 17
22 16 21 16 23 15 21 25 18 23 26 15 29 31 28 31 38 33 35 40 50 58 53 63 62 68 70 67 71 78 81 75 82 82 71 73 80 70 66 71 66 61 53 47 52 36 32 32 33 26 31 28 20 24 23 24 18 17 16 25 25 25 14 26
18 17 23 21 25 22 17 16 22 21 17 16 16 23 30 21 29 35 26 37 38 38 50 47 54 64 67 67 71 69 72 76 75 73 66 70 67 65 62 57 63 59 53 45 36 37 34 34 31 30 24 20 14 20 26 19 20 19 16 26 19 25 14 24
24 15 17 15 23 17 26 23 19 21 16 18 16 14 24 24 18 30 23 29 27 34 38 50 51 46 59 61 58 58 67 67 66 63 67 58 63 60 51 51 52 43 38 42 39 27 29 20 20 21 26 17 21 14 21 22 24 20 25 22 18 24 21 16
21 18 26 16 18 19 14 22 17 19 14 18 23 15 21 25 27 23 22 26 28 32 38 32 47 49 46 45 52 55 59 58 62 56 62 56 53 56 43 50 45 43 29 34 19 20 18 23 21 21 17 14 26 23 22 22 24 26 15 20 21 23 26 16
16 17 21 14 25 20 18 18 15 22 14 19 16 21 14 25 20 25 23 25 16 19 25 27 37 39 42 43 46 45 46 51 52 49 54 54 49 41 44 32 35 28 28 24 16 18 22 16 19 21 20 26 18 24 21 14 14 16 19 23 24 22 24 22
26 25 15 21 25 14 24 25 14 21 18 15 16 26 23 20 14 15 21 20 18 20 24 20 36 35 40 43 47 37 40 47 49 43 46 39 36 34 35 30 26 26 23 18 25 22 17 17 14 23 26 20 22 22 20 25 25 23 17 16 22 23 18 24
20 14 26 20 22 24 21 19 15 20 25 14 14 16 17 18 14 22 14 19 26 15 14 18 28 24 25 28 41 41 36 37 35 35 35 39 34 31 37 25 22 26 15 26 20 20 26 17 16 18 26 14 16 15 23 23 14 18 24 22 24 20 19 26
14 24 18 21 14 19 20 15 20 19 17 22 20 22 18 16 22 15 20 24 21 26 21 24 15 27 30 23 27 31 31 36 27 36 35 28 30 22 24 24 25 26 19 25 15 19 19 22 21 26 19 26 15 25 23 17 16 23 26 23 26 17 17 18
23 23 16 14 20 14 15 16 17 23 25 21 22 18 22 16 19 18 14 19 26 18 25 15 21 22 21 18 18 25 20 33 29 32 30 28 21 25 23 18 17 24 24 26 15 20 22 26 15 16 23 24 23 15 20 14 19 18 19 20 20 21 17 17
24 22 20 22 16 26 14 23 18 21 25 16 15 20 25 18 20 23 23 25 18 19 22 20 18 20 15 23 24 25 25 18 26 22 15 23 25 22 16 24 16 14 17 26 24 18 22 25 16 17 24 17 14 25 19 22 25 18 16 20 23 19 22 22
14 17 16 26 24 26 18 19 20 18 25 14 23 22 22 15 22 23 25 26 23 20 20 19 22 16 14 26 25 18 21 21 26 26 15 20 25 15 20 21 24 14 23 26 14 24 22 15 26 24 20 21 17 18 14 26 21 14 24 21 18 18 21 22
20 15 24 17 23 19 15 15 20 20 15 24 18 25 25 25 21 15 26 17 25 21 21 22 24 17 14 25 14 18 24 16 23 18 14 24 22 21 16 17 26 22 21 16 18 25 25 14 24 15 22 18 18 18 23 21 16 17 20 26 21 14 25 25
14 25 23 26 25 22 25 23 23 20 18 18 16 21 22 26 19 14 18 19 23 15 20 26 21 14 26 26 26 18 19 22 21 20 26 24 15 15 14 16 18 23 26 26 26 17 23 24 21 22 25 17 20 22 19 20 14 17 15 14 15 14 19 21
20 18 14 14 17 26 21 14 17 20 22 26 24 17 20 23 21 25 16 19 26 15 22 23 22 23 15 26 16 22 15 25 16 18 17 16 22 24 19 21 24 16 22 19 22 17 20 16 23 17 19 15 16 14 17 16 19 26 24 14 24 21 19 25
21 25 20 26 18 21 22 16 22 15 18 16 22 19 26 25 24 19 19 22 20 19 23 16 23 22 17 18 17 15 17 21 15 15 20 24 16 15 23 23 16 25 18 18 19 26 18 22 15 24 22 17 19 19 15 24 24 16 19 26 19 15 19 21
19 25 25 14 25 15 18 20 20 21 19 19 24 20 15 26 16 26 23 14 14 24 24 18 15 14 24 18 21 25 25 14 20 16 20 16 18 16 22 19 15 15 18 16 14 25 17 21 18 18 23 19 22 14 24 20 21 23 26 21 15 17 19 21
15 23 22 26 24 15 26 19 21 16 16 22 23 25 26 24 20 23 17 16 16 17 17 26 22 19 14 22 26 24 19 23 18 26 20 23 25 24 21 19 22 19 14 17 19 14 16 19 16 24 19 21 20 14 26 14 20 25 23 17 19 19 16 24
21 15 23 26 15 22 24 21 24 17 16 14 25 23 26 14 23 16 22 19 18 23 15 22 21 14 18 23 26 22 21 26 21 21 15 15 14 20 20 14 18 20 22 22 24 25 21 26 22 22 15 15 17 14 26 19 25 20 22 26 16 15 19 22
24 15 24 15 22 25 23 21 16 15 14 21 14 23 20 16 20 17 17 17 17 25 22 23 17 22 16 17 26 18 25 21 21 21 14 19 22 25 23 21 19 17 14 17 21 18 19 23 19 26 16 26 21 17 22 18 15 25 24 16 22 21 14 17
15 22 20 16 22 21 24 26 23 23 16 18 20 24 18 20 15 23 24 25 14 15 25 19 22 18 19 24 23 15 17 24 14 26 18 19 15 15 25 18 26 17 25 18 15 18 23 26 23 19 17 21 17 15 16 19 21 18 16 25 14 18 17 25
21 19 26 26 20 17 26 25 14 17 22 22 21 26 17 25 22 17 25 25 26 22 14 14 17 25 20 22 20 21 16 26 21 21 17 17 22 17 20 21 26 17 23 17 17 16 19 18 17 15 24 23 14 14 23 17 22 22 23 26 22 24 17 14
25 19 19 17 21 24 17 14 17 16 24 18 25 23 17 25 22 24 23 15 22 17 26 18 26 14 21 20 16 21 26 25 18 19 24 24 23 25 26 19 22 21 20 21 15 22 22 25 18 17 25 23 15 26 19 15 16 26 17 14 15 18 16 21
