P2
64 64
255
26 23 25 26 16 20 21 23 24 21 26 14 25 14 15 25 19 14 15 16 20 20 18 19 17 18 17 24 24 25 21 19 25 17 25 16 20 21 14 15 22 16 16 20 14 25 22 26 21 26 17 16 19 15 15 14 19 19 20 20 24 19 24 24
17 20 20 26 18 20 24 17 21 14 23 18 18 17 25 19 16 16 14 24 26 20 20 22 21 14 16 26 26 21 19 17 26 23 19 16 19 26 20 26 22 17 18 23 17 16 17 18 14 23 23 15 18 25 21 21 14 18 16 24 23 23 24 15
25 20 18 17 17 23 18 14 16 15 24 24 16 22 25 18 22 17 16 24 19 14 17 16 16 25 21 17 21 19 25 20 19 15 18 23 19 22 24 14 25 19 26 17 15 24 17 23 15 16 18 24 26 16 23 23 21 26 14 16 21 22 25 21
23 20 15 15 22 18 22 19 20 24 14 20 24 24 22 20 24 25 18 16 25 17 20 20 23 14 20 21 14 17 16 18 14 20 17 17 16 23 17 26 26 26 22 26 22 19 19 18 26 23 24 24 14 23 24 17 21 21 24 16 22 18 21 17
17 21 25 14 21 20 15 20 17 19 19 21 14 21 14 15 16 15 22 15 25 24 22 24 15 22 23 14 24 18 14 18 23 15 15 21 15 26 19 24 23 15 15 18 14 25 20 22 18 25 17 15 17 19 16 18 16 26 20 25 22 24 17 15
25 18 21 15 24 22 23 19 26 26 18 25 26 18 14 22 20 21 21 17 23 19 17 21 14 24 16 20 20 25 18 25 26 25 16 22 25 25 21 18 22 22 15 25 21 16 17 25 18 19 26 21 15 19 18 25 20 26 17 16 18 19 19 14
23 21 21 26 14 19 24 15 21 18 14 21 24 26 18 24 19 23 17 25 17 24 14 19 16 14 16 22 20 26 24 16 17 18 23 25 19 21 19 26 15 21 20 26 23 18 14 21 25 20 20 18 23 15 26 20 19 22 22 15 16 23 18 20
24 23 23 14 21 21 19 16 23 25 21 26 19 21 17 15 15 15 22 17 25 16 19 15 20 19 16 15 26 18 15 23 25 25 15 18 16 14 19 18 15 21 21 20 19 14 15 23 15 21 22 16 20 19 18 24 19 26 26 14 20 17 14 16
16 19 21 24 23 26 14 25 15 15 14 22 16 18 22 17 20 22 16 19 23 25 17 15 21 17 26 18 15 14 18 20 20 22 16 26 26 25 19 17 23 20 16 20 21 20 15 21 25 16 17 16 18 20 21 19 23 15 19 20 19 16 15 25
15 22 14 19 15 20 24 19 22 17 19 21 15 15 23 22 21 15 19 17 16 15 17 14 21 23 15 15 14 17 18 26 23 18 19 15 24 25 18 25 25 26 22 26 19 17 26 25 17 22 24 20 18 22 18 25 16 23 14 18 18 19 20 23
26 17 22 25 26 24 23 17 25 26 20 19 23 18 24 18 15 20 25 16 23 25 14 18 18 26 23 16 26 22 24 18 26 23 25 20 16 25 15 25 19 17 20 17 21 20 17 15 15 16 17 18 21 15 18 15 22 18 23 21 26 14 26 20
15 19 18 20 23 20 23 16 25 17 16 15 17 26 25 22 25 14 22 23 16 22 24 23 19 17 24 26 20 22 24 26 15 19 14 23 16 20 16 24 19 17 20 16 21 19 22 26 17 16 16 14 16 17 21 18 20 19 19 25 15 15 26 24
18 23 14 18 22 20 17 22 17 20 22 18 24 25 26 23 15 23 21 14 24 17 17 20 18 15 22 21 15 21 18 17 24 15 23 15 16 14 25 19 14 24 25 14 17 26 19 16 26 15 26 25 24 22 18 23 22 26 14 23 15 26 24 25
17 18 24 17 20 25 21 17 23 25 15 24 22 14 24 23 14 18 17 24 15 15 22 19 16 18 24 24 17 15 21 14 17 24 19 16 19 14 16 23 14 19 15 18 17 20 14 24 22 26 23 25 22 16 14 21 24 15 14 14 21 21 25 16
24 24 19 15 25 23 24 23 26 24 21 23 14 16 17 21 24 20 21 25 20 21 17 18 15 18 20 22 25 17 17 16 26 22 15 19 20 21 18 17 14 23 16 18 21 21 19 23 20 14 15 17 14 25 24 17 19 20 16 26 21 25 14 23
26 18 25 17 14 17 14 16 14 23 14 22 18 25 22 16 24 19 25 24 21 17 20 19 14 22 19 22 24 15 15 19 22 19 16 22 21 19 24 21 15 17 17 24 14 23 26 16 26 18 14 21 24 16 22 14 16 24 25 24 26 20 20 15
19 15 19 17 26 21 15 21 19 20 14 15 15 26 23 14 17 20 19 17 22 22 26 22 14 18 26 25 21 25 18 19 19 20 24 24 21 18 24 23 16 24 26 15 22 20 22 20 16 16 23 18 23 19 23 24 24 23 26 18 16 15 20 17
20 16 22 23 19 14 23 17 21 19 23 22 19 23 18 16 15 14 19 23 25 14 26 17 25 23 15 14 20 26 17 18 24 16 14 26 23 22 26 15 24 17 25 17 21 26 21 22 15 14 18 18 23 23 20 17 17 26 17 18 26 14 18 24
14 18 16 17 20 19 25 22 25 19 16 26 23 19 18 24 18 20 22 14 26 21 18 24 20 23 24 25 17 20 17 18 18 23 19 15 24 26 19 23 23 19 18 18 19 24 15 22 25 20 22 21 25 15 25 19 21 19 14 21 18 21 26 26
17 26 16 14 19 17 17 15 18 18 19 20 21 17 20 23 21 18 17 24 30 24 20 19 16 20 17 15 14 25 14 25 15 17 16 25 18 26 20 20 27 28 26 27 24 24 21 16 19 17 14 18 24 14 25 15 18 22 16 18 19 20 21 17
18 22 20 21 19 18 24 17 22 24 22 23 22 22 16 27 30 32 32 32 30 27 26 30 32 23 21 17 18 17 18 22 15 26 14 21 20 23 20 22 31 31 21 34 28 33 27 24 25 17 23 24 19 21 25 25 25 16 16 19 22 17 25 17
20 14 16 21 15 25 14 22 21 22 14 16 25 19 19 23 31 26 27 27 33 33 25 26 31 23 30 26 22 20 16 28 22 29 21 21 18 23 27 23 35 27 37 29 31 25 33 29 26 25 28 25 23 15 20 25 24 16 25 23 23 25 17 15
16 23 20 19 26 18 21 25 18 15 15 17 18 21 22 25 36 28 34 35 31 33 32 30 28 28 36 34 36 34 34 30 32 35 32 24 30 29 34 33 31 35 33 41 39 34 39 31 28 33 33 29 22 18 26 24 20 19 25 18 15 26 24 22
20 14 18 25 20 23 25 24 20 14 18 21 29 30 28 33 35 34 34 44 38 33 36 32 36 45 42 38 42 35 37 35 33 35 41 41 41 40 43 38 33 32 38 38 37 37 43 38 37 36 33 33 24 27 22 19 16 15 21 25 26 20 25 15
15 24 24 22 21 26 23 23 21 21 20 23 31 32 31 42 45 36 43 38 48 49 40 41 51 42 47 44 46 46 48 47 46 46 43 48 51 53 47 46 51 42 49 46 41 41 44 39 36 41 38 31 26 22 23 18 21 26 20 26 24 26 15 23
17 25 17 25 23 16 17 17 26 22 29 23 34 36 42 42 47 48 43 43 51 49 46 53 59 61 53 63 52 62 58 52 47 50 52 57 58 63 52 60 61 58 49 50 53 42 48 48 44 39 36 34 28 24 24 22 15 22 17 26 19 23 20 24
23 24 24 20 19 21 14 14 22 26 29 30 32 34 38 40 45 48 49 53 49 49 60 59 66 65 70 60 65 59 62 66 66 58 64 69 68 71 70 60 61 63 58 52 45 54 43 44 40 37 38 41 37 29 26 24 20 15 26 24 20 22 17 16
23 25 17 26 21 14 16 21 17 28 25 31 32 36 44 41 42 45 59 57 58 64 62 67 70 67 73 78 71 70 72 64 71 66 75 77 75 79 74 79 78 64 65 65 60 55 48 52 46 49 41 33 40 33 29 32 27 25 14 17 25 26 14 19
17 17 22 17 19 14 16 20 18 27 32 32 41 36 45 51 56 52 52 55 59 76 79 72 83 75 86 77 75 81 83 81 84 75 74 87 79 82 84 78 84 73 80 65 62 62 57 50 53 43 45 41 37 31 29 29 19 24 16 15 25 23 16 24
21 16 22 24 24 21 15 19 26 32 26 38 43 37 47 53 52 53 60 63 77 80 82 80 91 86 89 88 93 92 88 87 94 86 90 87 94 83 94 93 87 89 82 76 66 63 61 55 56 46 51 44 33 37 37 31 18 16 17 15 15 23 20 21
17 23 25 25 24 23 21 19 25 30 39 35 36 45 51 55 53 56 68 74 78 81 86 96 88 93 97 93 97 97 89 91 94 98 100 90 98 100 92 90 95 84 82 82 74 76 64 62 56 56 42 43 46 40 31 28 27 15 14 22 16 15 25 15
19 15 21 23 23 17 14 24 25 25 36 41 44 43 47 55 60 62 64 72 85 93 88 101 96 101 104 105 102 99 101 107 109 105 95 97 101 106 105 95 96 89 88 86 86 81 64 65 56 57 46 50 39 33 35 27 24 26 18 22 20 17 25 17
24 21 22 25 21 22 15 17 30 36 37 31 40 40 49 58 60 65 73 76 94 98 91 104 95 103 108 106 110 103 111 109 110 108 101 100 104 105 107 99 99 95 92 99 93 85 75 65 54 58 55 45 37 33 28 29 26 26 22 22 18 24 23 23
17 19 19 18 23 16 20 27 23 34 39 40 45 47 48 58 57 55 67 78 87 94 102 102 100 107 105 103 112 104 110 116 120 120 118 113 107 107 101 104 101 99 102 88 93 81 73 54 52 51 43 51 47 43 33 25 32 20 19 17 20 15 15 20
26 18 24 15 14 20 19 17 26 24 39 42 35 47 49 50 61 56 66 74 88 89 94 94 105 106 103 107 112 115 119 125 126 126 114 108 112 113 110 105 100 94 99 93 85 80 69 62 57 53 51 46 43 35 33 23 24 22 17 19 25 24 26 17
19 23 17 24 26 18 25 24 24 22 30 30 39 46 45 56 48 63 70 77 78 89 99 94 102 101 102 113 114 110 113 120 131 116 115 110 116 105 104 101 96 104 93 84 84 69 63 55 53 44 46 46 45 39 31 27 20 27 14 21 15 20 18 14
18 23 21 16 19 16 24 24 27 22 31 39 33 39 49 49 54 54 59 72 81 89 85 89 101 100 104 111 114 118 114 118 123 116 122 117 111 115 102 103 99 94 92 84 79 68 59 61 49 45 42 46 38 36 30 33 28 26 20 16 25 23 17 20
19 24 20 17 17 26 23 18 21 24 26 33 35 34 44 42 52 47 59 69 74 75 82 97 102 97 101 109 112 114 117 120 112 114 110 114 109 103 100 101 91 94 88 87 74 69 63 58 49 40 41 43 35 33 31 26 24 20 22 15 19 17 14 21
22 18 20 24 25 15 16 15 22 30 27 37 32 32 40 45 43 43 53 69 75 73 80 91 89 96 102 105 106 106 109 106 114 109 110 112 102 97 96 97 90 86 77 70 67 60 50 50 39 40 35 31 38 33 29 23 23 25 23 19 17 21 14 17
26 14 16 25 23 23 21 20 17 16 31 32 30 29 37 34 43 39 52 62 66 77 82 87 90 90 91 99 91 104 97 94 97 94 100 96 94 95 90 93 84 76 81 76 66 59 49 40 40 40 40 33 26 31 22 27 24 14 25 16 14 18 17 24
22 18 24 17 16 19 24 16 16 21 26 21 24 35 40 31 38 43 48 49 63 61 65 77 73 82 80 89 93 93 96 91 94 89 94 98 90 92 84 87 85 69 75 61 53 47 50 45 44 39 34 32 34 32 24 20 18 22 15 17 24 19 19 21
26 19 22 15 26 23 21 17 20 16 16 18 21 31 33 31 39 38 38 49 55 57 60 70 75 81 76 81 79 85 83 83 88 86 81 87 84 75 82 76 71 64 58 58 52 47 35 31 34 35 30 35 20 27 17 22 26 25 14 24 14 18 15 16
26 24 25 22 20 20 17 26 16 14 20 20 24 23 32 25 31 39 29 35 40 51 59 65 69 67 73 79 69 73 80 73 78 75 70 80 73 77 73 63 65 56 57 51 45 47 37 38 34 26 32 23 25 18 17 22 20 23 22 24 19 20 22 22
20 17 19 19 15 24 17 19 22 23 21 19 21 27 27 28 34 24 32 36 37 42 48 52 54 56 58 62 72 70 74 70 68 75 71 64 62 59 63 61 51 47 43 43 34 33 34 26 34 27 20 18 20 23 16 24 19 19 18 18 15 19 24 18
17 26 16 19 20 17 23 21 24 25 20 20 19 23 19 26 23 29 23 22 37 37 43 50 51 56 58 50 62 59 63 65 59 67 61 60 63 52 53 50 48 41 48 37 34 27 31 32 27 23 22 17 24 22 22 18 25 21 16 23 16 17 14 17
18 20 17 26 23 17 15 19 17 20 20 15 21 26 23 15 20 28 21 22 27 26 40 32 40 38 49 49 49 55 55 58 53 56 54 53 57 44 53 44 42 43 31 28 22 18 23 24 20 20 15 24 25 15 23 20 23 21 21 24 18 14 14 26
18 15 26 24 14 16 19 23 19 16 14 25 15 19 19 21 23 16 17 17 17 26 28 30 35 33 48 47 46 54 51 47 54 57 49 55 46 48 44 43 33 28 32 19 18 18 23 24 15 22 26 23 26 22 20 20 26 18 15 23 21 16 20 25
26 19 19 20 22 19 20 23 18 15 15 16 21 15 19 23 17 20 24 14 23 25 16 29 31 27 34 37 38 46 48 48 51 45 49 37 43 38 31 32 25 21 24 23 24 24 16 14 15 23 25 15 16 16 23 21 25 18 17 21 18 14 15 24
19 26 19 24 16 15 26 25 25 14 24 22 16 23 25 19 25 22 17 19 18 19 21 17 30 30 33 36 35 31 38 45 34 41 39 34 41 35 31 24 30 20 24 25 25 20 14 22 23 16 23 26 20 16 21 19 20 21 26 25 23 19 24 14
21 21 26 24 14 22 15 24 23 26 14 16 14 24 14 22 20 18 25 25 24 26 17 22 21 19 29 24 33 26 27 34 36 39 26 37 32 25 30 27 24 23 22 22 24 24 26 18 24 15 14 19 24 18 15 16 14 16 14 21 18 21 14 14
17 14 16 20 21 15 23 25 22 16 25 16 19 23 25 22 21 14 20 20 22 22 22 24 21 14 23 25 22 19 32 23 30 21 24 19 27 16 20 26 21 23 21 15 23 17 24 16 14 23 18 17 25 24 14 24 19 22 22 23 17 26 16 15
21 25 21 17 19 22 22 15 14 23 21 15 20 24 17 25 19 24 20 14 20 17 26 19 14 16 22 15 26 25 22 21 18 26 26 25 23 22 24 21 23 26 25 25 25 24 24 15 17 25 23 23 18 14 15 22 23 25 14 20 24 24 21 21
24 14 16 23 23 23 25 16 17 22 18 22 23 24 26 16 18 15 24 25 20 26 18 23 22 17 17 23 18 26 19 21 20 14 24 26 23 26 25 20 22 19 24 20 21 19 25 16 17 20 22 15 19 21 15 14 16 26 19 16 15 24 14 15
20 17 20 25 19 24 25 22 23 18 18 20 24 20 18 15 20 19 21 22 14 25 25 26 15 16 14 24 24 25 14 21 17 19 21 25 15 16 24 14 20 22 25 26 23 19 24 15 21 20 19 14 14 15 14 19 14 21 24 19 20 25 19 14
23 22 17 17 15 24 18 26 16 24 25 22 24 26 17 15 17 14 18 26 22 16 21 23 18 24 26 19 14 23 21 21 23 16 21 26 18 23 26 23 23 22 16 20 24 18 19 14 15 16 24 20 15 23 25 20 21 23 18 15 21 16 19 15
24 19 15 14 15 26 20 14 26 26 20 16 22 15 22 26 16 18 19 18 16 25 17 22 14 17 22 15 25 17 26 20 26 26 21 19 21 20 24 15 14 19 23 15 23 17 25 15 22 16 17 22 21 23 21 24 16 17 20 23 17 20 20 25
25 25 20 20 25 16 18 21 25 14 23 21 18 23 18 15 23 23 21 17 24 25 23 21 24 24 26 24 26 20 22 26 23 26 14 26 21 14 16 16 22 14 15 24 18 16 15 25 14 20 21 24 19 21 19 22 16 20 18 24 16 26 22 26
24 16 20 23 19 16 17 25 16 22 20 17 25 20 19 24 16 15 23 15 16 21 25 25 15 24 17 18 15 14 18 23 15 14 25 25 18 24 15 15 20 20 15 24 20 23 21 15 18 26 18 18 24 25 16 17 15 20 17 25 22 20 22 14
14 24 17 22 17 22 23 16 26 24 15 17 20 23 23 21 16 16 15 22 18 23 23 23 15 20 26 24 20 24 23 14 26 14 20 23 26 20 19 19 19 25 26 15 20 23 16 19 22 19 25 17 25 25 17 22 19 25 25 17 16 17 23 14
20 14 18 21 14 24 20 17 25 15 19 25 14 26 22 18 26 21 21 25 18 15 20 26 14 18 20 26 22 20 22 23 15 17 23 21 14 15 23 23 20 14 23 24 24 20 15 25 25 19 22 18 17 20 14 23 26 17 17 15 15 17 17 14
25 19 21 25 17 19 14 21 14 22 25 16 21 21 14 26 14 20 21 19 16 14 23 22 21 19 17 19 14 19 23 23 26 18 24 22 17 22 14 18 15 15 18 19 26 15 21 16 22 15 23 18 20 21 26 17 20 15 24 22 14 19 26 26
26 21 17 16 26 18 24 23 24 24 18 21 14 23 23 20 23 17 16 23 15 17 22 24 18 22 15 23 17 15 24 20 24 18 22 25 25 25 17 16 22 14 20 25 23 17 19 18 18 25 14 20 18 24 26 17 18 20 23 17 24 16 18 24
19 21 19 17 15 16 17 20 19 15 19 17 19 18 23 25 24 18 22 20 22 17 17 23 15 15 19 15 26 22 16 17 25 17 23 25 16 22 23 20 24 16 22 26 24 21 16 19 25 22 18 20 22 16 17 20 16 21 23 18 15 25 15 25
14 14 18 16 17 26 15 24 15 24 22 23 25 24 15 24 25 26 23 24 14 24 16 15 26 19 16 20 15 20 14 19 23 22 19 20 15 22 26 26 15 24 26 19 22 25 15 23 15 22 25 18 15 19 25 15 26 21 19 16 22 15 25 19
