P2
64 64
255
23 18 16 18 18 16 26 15 25 23 20 26 18 26 19 24 16 24 24 23 26 21 25 19 17 17 19 19 19 14 20 14 24 26 23 25 18 14 18 23 24 19 19 18 15 20 23 25 18 18 24 25 17 16 17 20 22 21 16 18 14 15 23 21
26 16 26 23 25 17 19 17 25 18 14 20 19 17 24 20 26 15 22 26 18 16 22 14 16 26 22 25 19 14 14 23 21 25 23 26 18 25 24 16 14 14 18 21 24 17 25 20 25 18 20 16 15 23 21 15 20 20 17 26 24 20 20 19
23 19 26 19 25 21 20 15 18 18 20 22 19 15 22 19 22 25 23 19 23 18 20 18 19 22 15 18 23 18 26 23 19 24 19 26 16 17 15 15 15 25 26 17 20 19 18 16 20 18 20 18 18 19 16 19 22 16 23 25 21 22 23 17
26 20 14 21 26 24 18 23 19 15 21 19 16 17 18 21 19 22 14 14 24 16 25 15 25 21 23 18 15 23 18 15 21 21 15 14 22 24 26 19 25 18 18 26 25 24 20 17 25 25 25 22 16 26 17 24 21 23 26 24 26 24 22 17
16 19 18 17 16 15 19 26 15 26 26 16 25 19 25 19 26 17 16 14 20 14 22 15 16 16 21 21 24 21 14 18 19 17 22 21 23 14 15 25 26 14 24 17 15 15 19 14 17 14 21 21 21 17 18 20 15 21 20 22 20 20 23 22
25 15 26 20 23 15 17 24 18 23 18 21 14 18 22 24 20 18 23 14 16 20 23 19 25 17 16 26 24 20 21 21 22 23 19 16 16 24 19 16 17 20 16 25 18 15 21 18 20 24 26 20 21 19 14 26 23 24 25 16 23 19 14 18
25 17 15 15 26 16 16 20 20 18 19 23 25 23 21 21 21 22 19 21 17 24 19 15 25 15 20 15 20 15 25 23 23 26 24 15 18 25 23 21 22 18 17 19 22 17 23 23 23 21 26 18 20 23 15 16 14 21 21 15 21 22 24 25
22 20 23 18 16 22 19 25 15 15 24 14 16 15 23 21 24 14 15 22 21 24 24 14 18 17 19 20 15 15 20 22 26 25 22 25 25 18 26 15 21 26 14 15 20 19 19 17 24 21 20 26 25 22 16 25 16 26 18 16 14 22 23 22
24 18 23 25 14 26 23 25 23 22 21 16 26 22 15 25 16 19 26 25 19 19 18 17 22 25 26 16 18 18 23 24 21 19 17 18 26 25 24 22 25 17 20 14 19 24 19 16 14 23 24 25 16 25 23 23 14 22 22 25 21 17 21 15
23 16 16 17 25 15 22 24 18 20 21 15 24 17 21 24 22 21 25 17 15 22 20 22 26 17 14 25 20 15 23 25 21 21 23 22 25 25 19 15 26 16 22 21 23 14 18 25 25 15 26 16 22 20 25 24 20 25 16 21 22 26 26 16
22 17 23 22 19 17 21 14 23 24 15 16 18 25 23 22 14 20 21 19 18 20 15 21 23 21 25 19 26 22 17 23 23 26 15 18 18 20 21 21 26 16 18 16 16 20 18 19 20 25 24 22 18 15 18 16 26 23 17 24 16 17 14 14
26 22 24 15 15 14 15 14 20 21 15 22 17 26 20 23 24 21 18 23 14 20 26 14 14 15 16 24 17 23 24 14 18 25 16 17 22 15 26 18 18 20 26 14 21 23 23 21 21 25 22 18 19 24 24 16 24 16 24 21 25 17 20 14
16 18 21 17 21 20 21 18 16 16 18 22 18 26 17 25 24 25 17 21 21 16 15 20 23 26 24 18 14 19 16 24 20 15 20 17 22 23 23 14 24 21 19 14 14 19 22 16 26 21 24 14 24 22 17 23 26 18 25 25 25 25 21 25
14 25 15 20 21 23 18 19 23 25 20 25 16 21 26 14 18 25 22 23 20 25 26 15 20 14 18 21 15 26 25 19 23 17 21 21 24 17 22 17 25 17 21 26 24 25 22 20 15 18 19 22 19 22 14 16 21 25 23 17 24 14 22 22
23 15 25 25 26 14 14 24 23 16 21 21 25 16 17 20 21 18 24 23 22 14 23 19 25 19 23 25 19 20 19 22 14 20 19 20 21 24 20 20 19 15 15 20 18 22 17 22 17 19 21 16 16 22 18 23 23 22 20 25 14 21 19 26
26 17 17 15 21 21 23 23 20 24 26 18 24 19 26 16 14 25 22 25 21 18 17 17 26 19 16 17 16 16 23 26 14 26 20 17 19 18 19 18 23 18 20 20 15 16 15 23 26 15 25 18 14 16 25 26 14 24 15 22 22 14 20 22
22 17 20 25 15 21 16 17 16 24 16 19 18 14 22 26 15 20 18 18 15 16 17 22 20 14 25 16 25 21 17 25 21 18 20 25 19 20 16 19 16 20 26 14 23 22 22 23 16 19 23 23 14 20 21 21 17 25 24 20 20 17 23 22
18 26 19 23 25 23 22 26 24 19 24 21 25 22 24 18 15 14 16 14 23 19 23 21 15 26 24 23 15 24 18 24 17 23 15 22 19 19 23 18 19 17 23 25 21 21 21 22 23 15 21 15 19 25 24 17 26 26 23 20 15 16 24 21
25 24 14 23 26 16 24 26 24 26 26 14 22 21 18 18 18 26 19 25 15 17 20 16 18 24 18 22 25 22 18 25 14 24 24 20 18 26 18 23 26 21 19 20 20 23 23 19 21 19 26 17 20 23 20 16 19 17 16 20 17 26 19 23
26 22 16 18 23 22 16 17 25 16 21 20 19 16 14 24 18 17 29 22 29 27 28 25 23 24 17 24 17 14 16 16 22 18 14 16 16 20 22 15 24 22 19 26 27 20 26 22 17 26 17 26 22 22 19 21 16 24 15 26 15 25 25 24
18 15 16 18 24 23 21 25 15 14 17 17 17 20 19 26 20 21 33 28 22 33 27 33 23 30 26 15 24 21 21 26 22 24 14 16 20 17 20 21 25 21 29 24 26 32 28 26 28 20 24 17 22 25 16 18 26 20 21 25 16 25 15 19
23 26 24 21 23 24 26 15 18 23 25 23 14 20 27 23 32 32 32 25 29 37 33 24 35 26 20 21 24 22 16 18 19 21 19 15 21 21 27 32 29 31 36 31 28 30 28 34 22 30 31 23 24 26 21 17 20 23 24 23 14 14 20 17
15 25 18 17 24 26 14 22 23 25 25 17 26 21 34 33 32 34 38 33 37 34 40 38 33 38 33 37 34 30 28 28 25 35 31 34 36 30 28 26 37 39 39 41 37 32 35 27 26 26 31 24 23 17 14 19 22 21 24 23 25 17 23 26
16 20 21 15 17 15 25 14 18 26 23 28 22 24 31 37 41 33 41 45 41 45 34 41 39 36 34 43 34 42 34 37 41 29 42 35 36 40 43 33 40 44 39 40 35 37 36 35 29 37 35 35 24 24 25 25 23 25 25 23 17 23 21 26
20 23 25 22 24 18 24 15 21 25 19 28 33 28 32 35 36 44 43 39 42 43 42 41 50 42 47 44 46 46 41 40 44 45 45 45 44 53 50 46 51 39 49 49 39 39 37 45 41 32 33 26 33 30 26 23 22 24 16 18 24 19 14 17
19 21 14 14 16 20 23 20 19 16 28 26 31 34 41 37 39 38 43 46 41 50 49 53 53 54 63 62 56 54 49 50 49 53 54 58 55 54 57 62 49 53 45 48 51 49 45 41 37 41 33 35 29 22 19 25 17 19 16 21 17 15 21 21
18 24 26 20 23 19 23 26 26 23 29 31 29 31 36 38 46 48 43 56 47 58 61 59 57 67 72 60 62 61 68 61 57 65 59 69 66 60 71 65 67 62 60 57 48 44 45 41 39 48 43 40 32 35 25 22 19 18 17 26 18 15 14 16
23 16 18 23 17 21 24 21 24 22 33 35 37 44 45 46 54 56 50 50 54 67 71 72 76 76 68 71 74 75 75 68 72 72 76 75 76 69 72 71 74 70 72 60 57 59 50 53 53 49 37 33 36 37 33 27 26 14 22 22 22 18 23 25
21 22 24 14 23 25 15 22 20 32 32 33 36 41 51 42 57 50 50 55 71 64 69 77 82 74 75 84 85 80 73 86 78 78 79 75 77 83 76 84 83 80 76 64 63 60 61 53 57 53 42 42 43 28 32 33 25 22 26 18 23 22 20 22
21 17 21 21 21 23 14 22 26 31 30 39 36 45 45 44 52 53 57 67 67 75 81 82 89 92 83 91 90 85 80 92 94 87 87 89 82 82 87 91 84 79 80 74 67 66 60 55 52 49 50 40 36 33 32 32 18 26 15 16 15 26 26 26
14 20 19 26 14 14 24 26 28 27 36 36 46 48 53 54 59 64 59 70 82 87 94 84 86 94 93 100 91 92 98 92 102 90 97 98 94 89 96 99 88 86 82 79 79 73 57 54 50 50 50 48 36 31 32 23 19 22 16 14 16 18 26 17
24 23 15 14 17 24 15 21 27 26 30 41 41 47 43 54 59 55 64 72 85 96 87 98 92 99 96 105 101 106 107 102 103 100 103 105 101 98 95 104 96 96 99 90 86 81 65 54 51 56 43 45 40 33 28 31 29 25 15 17 21 24 22 19
21 17 22 24 16 20 17 27 28 35 31 32 47 43 44 51 60 60 66 77 85 97 92 94 101 104 106 108 100 110 108 112 109 108 101 109 107 106 97 97 98 99 93 96 86 84 68 59 58 59 55 46 42 37 34 35 27 27 25 24 19 19 16 26
21 15 19 26 25 17 18 16 32 30 32 33 43 40 50 51 57 57 71 76 86 96 92 95 96 99 112 112 107 113 106 120 109 113 116 104 114 112 105 106 100 101 97 92 92 74 75 59 51 49 47 49 46 31 36 32 22 22 18 18 24 18 15 20
18 22 21 26 14 25 15 25 30 29 27 36 39 42 43 48 61 55 75 73 80 96 95 96 107 101 112 114 113 111 116 125 118 126 116 116 112 112 113 106 108 96 102 96 84 78 68 66 61 47 42 43 41 35 37 34 29 20 15 17 21 15 21 19
17 14 25 26 23 22 22 27 28 32 36 32 41 39 52 46 51 56 62 73 82 85 94 98 106 100 108 107 111 114 119 123 130 122 121 109 115 110 105 106 100 97 96 84 86 76 66 65 54 51 52 37 41 34 36 28 26 15 25 19 14 16 15 22
24 18 17 22 14 24 16 21 27 30 37 29 41 43 42 42 45 51 62 69 82 83 97 90 104 102 110 109 114 120 121 116 132 117 121 115 109 107 110 103 93 98 87 84 81 69 64 51 50 51 46 46 37 38 35 27 19 15 24 24 21 15 24 18
16 18 18 21 24 14 21 14 17 24 23 28 39 41 44 50 47 58 60 68 69 78 86 89 95 104 96 102 109 110 118 117 121 122 115 110 114 101 106 105 98 94 92 82 78 68 67 49 43 44 42 43 30 37 25 25 25 21 18 23 26 17 24 26
14 26 23 20 25 25 19 25 18 26 23 31 38 32 46 42 51 46 54 59 73 70 75 82 91 95 102 105 105 102 101 103 114 101 110 109 105 95 93 90 87 83 79 80 65 57 53 43 50 41 46 34 36 31 21 20 22 21 14 16 17 22 23 22
15 16 19 21 26 17 20 21 21 21 29 25 26 36 35 41 44 45 47 63 68 70 83 82 86 85 91 100 92 96 96 96 105 95 97 95 96 90 97 90 85 86 78 68 64 61 56 41 47 46 36 29 36 34 24 20 24 20 19 21 24 15 14 18
20 24 26 25 23 25 19 20 22 20 26 26 30 29 34 34 33 34 47 58 62 66 70 78 74 88 89 92 86 97 96 93 92 87 95 92 86 85 88 87 81 73 72 64 58 55 51 38 39 37 34 31 31 26 19 19 24 20 19 16 20 17 15 20
25 22 16 15 23 14 25 20 23 15 26 21 30 33 28 28 33 39 45 51 48 60 59 67 74 78 73 78 86 78 80 80 85 79 78 82 89 83 74 79 73 67 61 57 47 43 36 39 34 33 31 34 25 24 21 20 20 17 26 23 18 24 26 21
14 21 25 18 20 19 26 24 16 17 17 20 28 30 23 33 32 28 29 46 49 57 55 67 65 72 69 78 79 72 74 82 70 74 72 74 70 78 75 73 66 64 59 46 51 40 38 37 32 24 33 27 28 26 20 26 22 15 16 21 17 15 23 17
16 16 15 16 16 17 22 16 26 14 22 26 23 19 20 27 31 25 30 28 45 46 43 55 54 65 69 68 69 67 70 64 75 70 75 68 70 60 61 63 51 53 52 38 36 30 25 34 29 26 28 18 26 26 24 26 23 24 14 20 17 19 19 20
14 24 16 19 26 16 20 25 17 20 14 14 26 21 27 18 19 22 21 24 31 44 46 45 48 55 57 51 64 63 67 60 60 67 66 62 58 50 55 52 51 41 40 39 35 30 33 22 25 22 17 25 17 16 21 18 23 23 19 24 20 15 23 19
15 24 21 15 23 15 16 26 23 15 18 19 25 23 14 18 26 16 21 27 23 25 30 32 41 38 53 54 59 58 60 55 64 64 55 60 51 56 42 50 41 38 28 35 26 26 19 26 24 19 19 14 15 15 22 21 22 25 23 20 19 15 24 15
15 24 20 19 16 21 20 18 19 22 21 23 24 20 23 26 16 20 23 24 18 18 31 28 29 33 46 39 44 54 50 56 46 47 50 55 46 43 41 36 29 27 24 18 26 25 16 14 21 18 19 20 23 18 26 20 18 21 23 15 21 21 15 21
14 25 20 14 26 14 16 15 16 23 25 25 16 15 21 14 24 24 26 17 15 20 19 21 30 38 34 37 45 48 48 48 46 42 40 46 40 33 30 36 36 23 20 26 26 22 15 22 15 24 17 26 16 15 21 16 16 23 16 25 25 16 22 25
14 19 24 18 24 16 26 15 20 20 19 26 19 23 14 26 16 15 23 20 21 22 26 16 27 23 30 37 41 42 35 44 43 38 37 31 41 27 32 27 23 26 24 19 21 16 22 14 20 24 23 15 23 18 18 19 14 14 15 26 20 17 18 14
17 21 23 22 20 17 17 15 24 21 15 21 18 24 20 16 16 16 20 20 18 14 23 19 15 25 28 24 23 35 28 39 29 34 27 30 32 26 30 23 16 22 18 16 15 22 20 19 26 14 25 25 16 18 16 26 15 24 14 20 24 25 24 20
20 23 14 14 21 22 18 15 15 19 25 19 20 23 16 25 14 26 16 26 21 18 19 20 24 16 16 18 29 31 31 21 29 33 23 27 25 20 19 18 26 16 15 26 23 26 26 14 26 22 21 26 20 22 18 26 24 25 15 14 16 17 26 17
18 22 19 16 16 24 21 21 15 16 18 23 23 22 24 22 26 17 24 25 18 23 14 20 26 20 25 26 25 18 17 22 20 17 14 14 21 18 19 25 20 15 16 26 15 18 14 19 22 20 15 23 15 22 26 20 19 20 26 22 18 24 14 24
24 25 14 18 23 21 18 26 26 21 25 19 20 15 20 14 17 19 22 16 14 25 26 23 26 19 14 15 19 21 25 15 19 16 15 17 14 24 19 18 14 14 25 17 18 24 17 20 24 21 22 25 26 26 21 23 17 14 21 18 23 17 22 24
26 23 18 23 15 17 20 21 23 17 21 16 26 24 26 14 16 25 21 22 18 14 17 23 15 19 15 16 17 25 18 16 22 26 25 21 19 24 25 19 21 25 21 19 21 17 26 18 15 20 26 17 17 22 23 17 22 20 19 16 15 16 17 24
14 14 20 16 15 19 14 15 15 20 21 24 22 20 24 15 24 17 22 15 21 21 16 22 22 14 22 24 20 14 22 26 24 15 19 25 18 23 16 24 15 23 15 17 24 26 24 17 25 16 20 19 15 15 14 17 17 19 20 23 18 17 21 24
18 21 23 18 24 15 21 24 19 15 15 17 15 17 20 17 14 26 25 23 18 17 25 17 20 26 25 25 18 14 21 15 14 20 26 22 26 20 18 15 16 18 21 18 20 24 19 22 16 22 15 14 19 17 23 18 26 14 19 22 15 25 16 14
23 14 17 25 26 24 21 23 25 22 14 26 15 14 18 17 20 24 20 21 23 17 17 24 25 26 24 15 22 23 17 26 24 16 21 26 18 15 22 18 23 14 16 19 14 23 14 25 15 25 17 18 23 25 18 22 20 16 17 18 20 26 22 15
26 14 23 26 19 18 18 18 23 20 17 19 17 15 21 22 24 22 20 18 26 16 19 16 16 17 25 25 14 17 16 14 23 15 18 19 22 24 21 23 16 15 23 18 17 14 21 16 16 17 18 24 18 25 18 24 25 18 14 18 26 22 14 17
20 21 26 19 20 23 17 19 26 15 24 22 16 14 18 21 14 26 24 19 26 23 18 18 18 26 15 17 20 26 24 14 20 26 15 21 17 24 17 16 21 23 14 19 16 20 25 21 14 26 18 19 24 22 22 21 17 22 25 22 18 25 25 22
20 16 18 22 14 17 25 20 25 17 18 15 21 22 25 26 21 23 15 20 18 21 23 15 14 21 17 25 14 23 24 25 18 22 24 26 16 18 17 19 20 16 16 14 15 16 14 26 23 14 21 20 23 26 25 18 19 24 22 21 18 26 14 22
24 21 22 26 23 19 22 21 17 14 16 16 21 25 16 14 17 24 19 25 19 21 19 14 23 19 19 25 14 15 14 18 14 22 16 23 21 23 19 14 24 21 16 18 18 17 26 15 17 24 17 20 19 16 20 18 25 19 24 17 25 16 19 21
14 16 16 22 19 22 15 16 24 14 24 16 22 16 18 23 24 17 20 14 23 22 19 22 16 16 19 23 25 17 26 22 25 14 21 14 14 15 16 19 17 16 16 23 24 26 18 18 15 22 23 22 20 14 15 18 17 26 22 24 26 16 20 23
17 14 17 26 25 14 24 18 17 14 24 23 22 23 26 14 19 22 23 15 23 19 22 23 22 15 18 23 15 25 14 22 17 20 24 16 15 25 18 25 25 16 22 26 14 25 14 21 21 18 17 16 16 14 22 23 16 24 21 19 21 24 21 18
18 16 16 23 23 24 21 19 22 14 20 25 20 14 14 24 17 21 24 15 22 17 16 18 21 20 26 23 19 24 26 16 22 14 14 24 26 14 14 14 22 23 19 26 17 17 24 21 23 26 21 18 15 19 17 19 16 17 21 16 26 14 23 26
