P2
64 64
255
37 37 37 19 24 35 23 28 27 18 33 18 22 32 31 37 35 23 23 29 28 33 32 21 30 32 29 29 20 18 28 34 28 26 37 33 37 34 21 27 23 25 28 27 34 37 33 38 20 19 20 23 31 34 36 32 34 18 19 32 36 32 26 32
36 38 33 21 22 24 28 35 18 28 30 26 18 26 22 25 27 22 19 22 31 31 30 38 26 23 32 30 36 22 27 21 32 18 36 37 25 22 31 34 27 22 25 26 28 23 24 37 22 35 19 24 27 19 28 21 18 37 30 30 37 20 31 36
30 38 30 27 31 38 26 21 31 21 20 22 36 33 33 26 27 25 33 19 20 23 27 19 20 28 23 32 31 37 23 34 36 30 21 38 30 30 29 26 23 37 28 31 26 18 27 22 30 32 32 35 21 23 24 30 36 19 21 27 24 24 38 35
30 32 37 22 33 23 36 34 29 23 31 24 19 32 31 34 18 27 24 21 36 37 25 32 24 37 37 33 29 21 22 35 18 38 35 33 25 18 19 22 34 24 28 25 34 30 23 33 35 22 35 29 18 31 23 33 25 28 30 30 18 19 19 27
26 31 20 20 32 33 34 35 34 26 34 19 32 23 37 23 27 37 36 23 29 27 24 27 38 35 31 31 18 29 38 33 18 32 33 33 29 22 32 37 19 38 38 26 29 35 33 36 36 23 35 33 27 20 29 22 20 31 27 28 18 36 26 31
29 37 27 25 34 20 22 20 23 21 35 27 19 24 27 28 32 21 35 32 34 33 28 19 20 27 23 22 20 38 33 20 20 37 26 35 30 23 28 20 24 33 23 34 19 30 31 38 25 20 37 30 28 38 33 29 37 20 19 35 32 32 31 33
21 30 24 36 23 37 38 22 37 24 34 25 33 29 28 27 19 28 24 22 28 20 20 25 18 29 24 38 26 33 19 19 38 30 30 23 28 37 35 22 18 36 20 20 36 34 36 23 31 38 23 34 22 35 23 30 30 25 23 38 32 29 22 25
32 32 28 27 20 37 23 35 21 36 22 20 30 38 28 22 31 27 22 38 34 31 38 22 33 37 19 22 18 38 34 28 31 35 20 27 30 36 20 30 36 26 33 32 29 24 35 25 18 20 27 38 26 19 23 28 24 35 27 18 31 22 25 21
26 32 18 31 35 23 33 22 19 29 29 20 20 18 37 21 31 20 28 38 32 29 29 18 21 27 36 28 28 32 22 32 20 26 38 22 32 19 37 22 21 26 19 25 25 33 18 26 30 19 30 32 21 30 31 26 33 33 18 28 34 36 38 34
36 20 22 38 29 30 26 31 36 38 27 19 27 24 26 37 31 18 36 37 37 31 33 27 37 23 19 32 30 36 20 28 18 33 30 29 19 36 21 22 30 24 22 33 28 34 31 36 30 27 23 21 28 28 27 36 27 30 38 38 24 35 20 27
22 31 28 30 19 28 25 28 19 18 32 18 28 19 28 34 38 37 28 22 32 19 31 23 31 38 29 32 32 36 31 31 35 22 20 24 38 19 36 34 29 31 36 32 35 28 23 25 23 23 23 32 34 35 18 30 25 19 23 25 25 34 37 34
25 38 23 26 27 36 36 22 30 23 35 25 32 35 33 25 30 32 26 32 31 22 29 25 28 20 26 21 24 35 32 37 33 21 28 35 18 19 32 25 32 38 23 31 37 37 26 18 37 30 27 37 28 34 33 33 27 34 37 30 22 37 27 29
30 34 21 38 27 29 26 23 21 32 34 37 23 26 32 28 36 27 33 35 19 19 31 19 26 24 38 21 33 30 25 32 20 35 20 25 34 27 27 20 23 26 20 32 23 27 18 24 35 31 37 30 25 36 30 18 35 37 24 30 30 19 20 31
34 30 32 22 32 36 31 31 30 37 18 30 27 24 19 30 21 19 21 36 22 27 23 31 22 36 19 32 32 38 22 18 38 32 31 38 26 36 18 21 27 28 19 25 20 31 19 33 24 31 21 24 25 18 30 28 18 29 35 32 29 33 37 37
33 36 28 24 29 36 27 34 37 33 20 21 38 31 32 28 33 37 28 26 36 26 37 21 33 26 26 33 26 35 37 36 32 19 32 20 30 21 31 28 20 34 29 35 36 33 20 31 31 23 38 33 23 31 25 20 38 30 36 30 30 24 20 24
26 27 23 19 21 38 25 26 30 34 18 30 32 30 19 20 27 36 29 21 35 26 25 25 28 21 38 35 23 19 19 36 30 25 37 20 37 20 35 36 27 21 35 23 22 35 27 23 23 22 32 27 26 33 22 30 20 27 28 35 30 24 23 24
26 22 26 36 30 36 35 35 19 27 21 19 18 20 24 21 19 23 38 23 33 22 33 28 30 37 27 31 34 38 26 18 21 20 30 31 34 30 33 19 27 32 38 29 30 33 35 21 33 33 21 38 25 33 31 26 20 22 35 36 38 37 33 28
29 18 22 30 38 24 36 24 33 32 30 28 30 33 25 26 33 37 30 34 23 28 29 22 24 32 36 20 20 29 27 37 19 30 28 38 19 24 28 30 32 24 22 33 21 28 34 38 33 38 22 34 28 29 35 38 23 36 31 29 37 36 34 38
34 25 30 20 37 22 28 27 37 19 18 31 28 27 25 30 24 20 35 34 23 33 36 31 38 23 20 24 21 24 29 22 30 21 29 26 37 37 20 36 31 27 35 28 38 27 27 31 30 37 38 29 36 26 20 38 33 27 36 35 20 29 37 18
31 20 29 38 38 22 18 26 37 21 31 21 34 38 25 26 34 22 26 21 25 35 36 32 30 21 35 19 23 36 32 26 27 22 27 30 37 27 26 33 36 37 37 36 33 33 34 29 25 34 22 24 28 28 29 19 38 33 30 26 18 24 28 26
19 20 27 23 21 26 30 35 18 24 31 38 23 21 32 23 33 25 45 25 42 35 34 29 26 42 32 32 31 28 36 25 35 33 32 25 22 22 29 42 38 28 41 46 33 32 33 32 40 24 33 31 36 33 37 24 21 36 22 25 34 23 21 37
37 23 25 20 27 30 25 23 35 32 36 26 25 32 42 40 29 31 46 35 30 32 35 30 37 31 37 41 35 20 25 34 26 25 23 34 27 33 34 40 31 45 48 47 37 47 35 34 36 42 29 33 36 28 30 18 35 24 36 20 28 24 34 27
25 28 38 32 30 23 30 36 27 23 21 28 31 42 28 37 35 48 36 43 41 36 44 32 47 42 28 38 42 32 22 36 20 32 27 31 31 29 39 44 41 52 46 39 49 46 39 36 30 33 38 31 35 21 33 32 27 21 29 35 23 18 27 29
34 18 34 38 25 29 26 23 30 30 24 30 26 29 32 41 41 50 37 39 42 53 38 52 45 52 43 46 45 28 40 28 36 19 40 37 32 37 50 36 35 45 46 52 37 51 55 50 38 35 44 38 24 39 21 34 27 37 36 20 21 37 37 33
20 33 36 33 32 19 28 34 30 27 21 35 30 45 35 38 39 39 48 48 45 57 52 46 44 50 40 37 43 33 38 24 18 30 32 28 32 44 44 42 41 51 52 57 51 49 51 43 52 43 37 36 27 25 35 24 36 30 31 25 30 20 38 20
23 26 29 32 19 20 20 26 27 24 23 38 47 42 43 42 54 46 51 46 46 53 52 44 44 60 49 54 34 42 33 30 23 36 32 32 47 35 40 45 51 55 45 56 46 45 57 55 50 46 44 45 41 38 34 21 23 37 22 20 18 31 25 31
28 26 30 23 34 19 24 29 30 22 26 47 34 52 44 47 57 59 65 48 55 57 67 61 49 58 46 54 49 46 43 42 39 27 29 48 55 43 55 60 51 55 62 52 55 51 51 47 60 47 52 52 34 32 33 28 35 30 23 27 34 28 29 29
29 21 28 21 35 18 20 23 36 34 37 37 53 41 51 52 55 61 65 71 53 70 59 58 53 61 57 50 40 37 40 45 48 38 38 42 38 40 49 64 63 56 57 63 71 71 67 64 62 60 49 41 50 31 35 30 31 31 28 19 27 34 22 38
23 30 19 35 37 27 35 28 27 40 43 38 49 44 43 63 49 67 72 62 64 67 65 56 65 63 65 54 45 37 45 45 46 47 40 39 54 54 64 60 62 66 68 75 60 69 55 72 55 65 59 50 46 44 35 34 34 23 25 24 38 19 26 19
20 18 38 22 35 26 30 30 30 42 50 47 44 54 63 60 66 56 72 67 80 81 69 59 74 57 59 53 43 57 34 41 51 46 35 48 42 54 62 67 62 76 67 77 74 76 63 75 54 62 60 50 40 38 34 31 33 29 22 23 33 30 19 19
21 19 19 27 23 33 29 28 32 46 42 35 40 56 61 57 65 63 73 66 68 66 81 74 62 63 57 64 47 46 39 36 53 37 41 38 50 60 65 69 59 65 77 69 64 69 60 65 57 69 55 59 47 53 44 30 36 25 37 18 38 21 22 26
23 32 35 29 24 23 25 30 37 36 45 36 50 48 58 55 58 64 74 66 79 82 71 79 75 60 69 62 52 42 48 37 36 46 45 59 52 50 65 72 68 75 81 79 74 82 76 69 61 67 50 50 47 46 49 28 39 20 24 36 37 21 28 28
29 20 24 19 28 19 36 26 42 45 42 46 58 54 62 51 60 79 80 67 82 87 80 70 63 64 62 53 47 44 48 56 46 47 42 51 51 58 57 70 59 74 71 90 84 83 65 67 66 54 54 44 45 42 37 48 39 28 38 20 36 34 20 19
27 26 36 19 36 24 32 30 30 46 36 54 54 48 50 59 56 69 62 73 83 70 69 69 70 60 53 57 60 58 50 40 39 41 47 42 43 57 57 62 65 66 79 71 76 83 79 65 59 59 48 48 44 45 33 45 25 33 22 19 37 33 35 28
28 27 18 34 20 26 22 24 37 38 37 42 55 59 53 58 62 74 62 67 70 84 63 77 63 65 50 52 56 45 48 43 54 48 56 39 46 59 50 72 74 61 73 73 70 75 72 63 53 67 62 62 38 47 38 34 36 28 23 29 38 20 29 31
38 28 34 26 33 20 31 30 37 34 46 53 50 44 49 52 58 71 60 59 79 69 72 62 55 55 50 53 50 47 35 38 47 48 41 42 52 58 52 54 68 58 61 70 70 76 68 72 52 59 45 58 53 49 35 46 29 28 25 27 28 26 31 35
18 36 30 22 25 22 29 24 36 33 35 42 43 55 43 53 60 68 62 72 77 74 76 60 63 60 48 44 45 43 48 40 37 48 43 54 43 62 57 60 64 56 66 76 60 62 61 57 56 56 62 48 38 34 40 40 32 23 31 36 18 23 22 27
30 32 34 19 36 20 27 30 36 42 40 49 40 38 41 63 46 52 68 55 70 58 57 58 53 58 46 40 48 44 49 34 29 38 46 49 40 58 50 54 66 54 68 54 54 72 69 63 57 44 53 39 41 48 39 26 22 22 23 29 32 21 20 25
27 24 30 34 25 21 33 33 32 32 34 32 44 44 47 54 50 64 65 59 61 53 49 53 59 45 56 50 50 46 49 31 42 35 49 44 53 54 55 56 54 52 66 56 69 49 64 48 46 49 44 54 37 49 30 27 36 27 33 34 33 27 26 35
24 21 36 40 39 28 36 35 32 25 39 46 52 43 52 62 58 52 65 58 53 56 54 49 66 60 48 59 40 46 47 28 31 45 37 45 44 52 60 64 51 55 63 70 59 69 62 62 60 51 51 39 43 45 49 35 31 39 32 41 40 28 24 38
27 25 44 34 29 35 37 40 29 43 39 34 40 41 44 57 56 51 58 58 69 64 65 61 61 47 53 59 53 55 40 46 31 42 37 57 57 49 54 62 52 65 68 72 66 66 68 68 59 53 56 45 44 54 38 50 42 35 48 46 39 49 38 31
32 37 36 41 29 41 39 44 48 29 47 51 36 54 54 48 60 66 55 58 53 62 70 59 63 51 62 53 44 41 47 49 34 49 55 46 61 55 50 50 59 62 72 66 56 53 64 64 65 66 55 45 57 42 37 47 50 50 38 51 46 38 51 46
28 44 36 25 35 40 43 39 42 35 37 35 35 42 39 38 44 46 40 47 46 47 54 52 48 59 44 54 36 50 48 34 43 36 42 40 35 41 46 48 45 62 46 52 55 62 53 46 52 59 41 51 33 45 32 44 45 40 42 43 35 31 35 50
29 37 27 35 38 27 28 35 26 29 29 21 32 43 35 34 35 36 42 41 37 37 41 47 35 33 44 27 42 28 32 34 41 23 25 24 31 41 34 33 35 42 50 34 42 51 41 40 48 32 44 31 34 25 39 32 35 32 37 39 31 24 41 25
34 22 21 24 18 28 25 20 24 37 30 23 35 30 27 28 28 25 38 36 36 28 34 34 32 41 41 33 36 32 33 22 32 31 27 36 34 19 37 28 44 38 37 36 37 35 30 26 25 31 31 34 34 20 21 26 24 30 25 19 34 33 36 36
28 28 25 20 20 27 27 36 25 23 28 32 28 20 33 20 19 20 25 30 28 23 29 37 21 36 30 30 38 24 24 23 34 37 22 26 30 29 22 33 33 25 33 35 25 21 39 29 20 19 27 36 29 22 29 33 34 35 20 18 25 31 19 21
23 38 29 18 30 31 38 19 22 22 26 31 38 19 19 34 31 36 28 18 29 38 30 23 31 37 32 18 30 20 22 34 34 34 35 18 28 31 29 28 38 26 21 34 34 26 23 22 22 32 37 30 30 38 23 35 30 33 21 22 19 29 28 19
18 30 20 23 37 18 22 25 23 30 19 32 18 28 23 23 36 22 37 36 19 21 23 33 30 34 29 30 32 33 38 32 18 26 27 37 25 33 35 32 28 20 30 36 32 37 19 23 25 32 33 29 23 18 23 35 37 26 19 21 33 21 32 29
26 19 19 28 32 32 28 24 29 20 29 25 33 33 38 18 34 32 20 18 38 20 20 29 22 30 33 24 29 28 19 37 35 34 19 34 28 23 26 20 23 24 19 26 29 38 25 22 35 21 29 31 30 22 19 37 34 27 34 32 33 34 27 37
21 29 24 37 24 22 34 27 34 33 30 32 23 24 26 32 37 36 34 20 26 30 30 25 22 37 28 36 32 27 31 36 28 35 30 20 31 19 38 27 24 19 33 28 37 37 32 36 27 20 18 21 19 38 31 22 26 34 38 28 21 21 38 33
20 21 25 22 21 22 36 23 34 30 27 18 28 26 35 19 27 35 25 32 37 36 32 19 23 35 32 34 27 38 22 29 37 27 21 19 36 32 18 32 24 24 22 25 20 25 31 20 31 36 29 22 21 18 27 24 34 24 25 31 30 21 31 26
27 27 34 22 24 33 32 18 26 31 36 26 26 31 22 22 26 36 36 29 27 36 31 18 26 24 23 18 37 32 20 34 31 37 24 36 38 20 38 37 25 32 24 21 18 20 30 18 26 22 38 38 27 31 38 30 20 18 21 18 31 23 24 24
28 29 25 32 22 27 36 38 26 18 25 31 36 21 20 29 32 35 26 35 34 35 28 28 19 33 21 32 28 34 24 29 23 22 24 34 22 18 23 38 19 18 31 27 37 24 27 26 26 38 35 18 33 32 27 23 20 23 28 18 25 26 21 22
34 32 23 20 34 20 29 21 32 26 34 31 34 36 33 25 35 38 35 24 37 23 24 34 30 26 26 32 20 33 19 28 29 32 38 35 26 24 36 29 26 21 20 19 21 20 38 25 18 32 34 21 24 31 32 22 19 35 19 33 19 20 37 38
20 24 26 31 19 22 29 31 35 31 19 22 33 37 18 38 33 22 30 21 31 31 24 25 29 18 20 38 18 30 26 28 22 33 32 28 26 37 31 24 26 24 31 32 33 23 32 25 34 24 23 34 34 23 30 36 35 28 22 33 31 33 37 28
22 37 28 21 19 36 22 31 38 18 22 35 36 21 21 36 22 33 33 34 23 36 36 20 33 33 31 38 29 18 33 19 35 29 26 35 29 30 23 27 25 22 34 38 32 37 21 35 32 20 33 29 37 23 20 24 18 23 21 25 22 18 26 29
25 31 30 36 32 26 34 29 31 28 31 37 29 22 29 23 32 31 30 25 19 32 19 37 26 31 26 19 36 33 27 24 30 23 23 29 27 18 26 25 34 20 26 24 38 29 34 33 23 19 21 38 23 26 31 28 26 34 36 37 31 32 34 33
38 36 26 38 30 23 21 29 21 30 33 22 36 30 18 32 37 32 25 19 18 22 30 38 23 37 28 35 22 18 30 31 25 26 18 26 33 22 34 32 21 22 36 25 25 35 20 21 19 34 30 33 21 28 27 26 23 30 21 18 36 23 36 23
27 35 31 18 24 19 33 20 31 24 27 20 19 24 19 25 20 28 35 19 19 19 35 21 31 27 27 35 18 32 33 28 19 27 31 32 30 33 21 32 30 30 26 22 32 26 22 22 31 19 25 36 21 38 30 32 19 24 38 28 33 27 30 30
31 18 29 36 22 34 34 20 30 21 23 33 32 34 18 25 27 34 24 35 36 20 32 30 29 30 26 29 19 33 30 30 21 36 26 34 25 21 31 25 23 21 34 33 23 31 28 37 22 35 37 30 33 30 32 25 37 27 31 30 35 30 28 36
26 31 38 31 36 25 23 25 31 21 20 26 26 38 23 31 23 31 32 28 38 19 26 29 19 24 24 22 20 18 21 27 24 33 33 18 24 35 35 25 19 32 23 33 32 37 36 25 26 24 28 30 30 19 22 30 23 29 28 34 34 34 23 31
28 32 35 27 30 38 24 33 34 30 19 34 37 37 21 33 32 34 35 26 35 38 22 19 19 33 18 33 21 20 29 29 21 23 30 26 24 34 36 37 35 18 38 33 19 25 19 30 20 23 29 25 22 32 30 21 37 35 21 27 35 37 20 33
19 24 18 23 19 35 36 24 26 29 34 30 18 19 34 29 31 26 36 23 33 23 32 36 32 24 26 29 18 33 38 31 19 37 24 24 36 35 38 33 33 24 20 25 18 33 30 31 25 23 30 36 25 27 18 31 30 33 25 33 29 38 32 35
38 18 33 26 27 25 20 26 37 26 30 18 35 34 25 35 20 18 23 29 22 25 30 20 28 31 28 28 32 20 25 38 38 18 23 19 19 36 21 28 23 19 30 19 20 37 29 26 30 27 21 25 29 23 22 27 27 30 22 29 34 29 22 18
