P2
64 64
255
38 30 25 20 33 21 36 26 19 20 31 22 24 22 38 19 37 20 22 26 33 28 31 20 20 22 24 25 38 27 35 32 22 25 21 26 21 18 31 19 33 25 20 25 30 26 22 20 37 26 31 27 18 25 37 35 27 31 32 27 21 19 22 24
35 19 29 32 34 28 32 37 33 37 32 34 34 19 25 33 29 35 33 38 32 34 19 26 32 30 28 34 30 22 19 32 19 31 31 34 21 26 26 21 28 21 20 23 35 23 29 18 19 26 31 24 36 24 24 37 32 26 27 30 20 21 20 30
35 33 30 33 32 18 18 32 28 37 35 31 18 18 20 29 33 20 26 38 18 21 34 25 28 20 23 31 23 34 22 21 36 27 35 28 19 18 26 36 21 29 29 27 36 26 38 20 20 35 19 21 32 22 28 32 24 37 30 28 24 21 35 22
28 35 34 27 25 30 25 21 18 31 24 29 31 32 38 18 28 29 25 37 32 29 34 33 21 18 37 27 34 26 18 23 31 22 19 36 22 23 33 32 37 33 31 27 35 24 29 33 18 37 25 30 30 36 23 22 30 30 24 37 23 23 33 38
33 23 22 29 24 28 23 31 34 18 28 38 27 21 29 27 24 20 33 38 20 36 33 28 34 32 24 30 27 27 37 21 25 21 27 28 33 23 24 38 25 33 34 30 29 37 22 37 35 33 28 21 35 32 33 21 33 22 35 31 37 18 21 31
22 36 27 27 19 30 37 35 28 25 26 25 37 32 29 19 27 28 33 35 31 29 21 21 33 32 23 29 30 21 32 29 27 23 32 29 35 35 30 36 30 36 35 18 29 19 21 31 29 20 38 25 38 24 36 27 32 35 19 38 30 19 37 19
24 25 25 20 29 38 21 20 29 35 29 27 29 38 21 27 19 34 35 18 35 23 28 25 20 31 31 28 30 37 25 37 26 31 27 18 32 32 33 24 30 31 27 20 32 19 20 24 32 34 18 33 38 23 37 25 28 31 34 35 23 36 33 35
24 19 29 21 24 37 26 37 36 21 30 35 23 20 27 18 34 29 22 33 21 20 23 29 19 33 33 24 20 30 37 21 23 30 27 32 21 31 30 21 38 27 38 18 23 26 32 38 21 34 33 21 30 33 36 35 23 31 30 37 19 36 36 18
38 29 24 25 28 22 36 19 19 21 29 21 26 38 22 23 33 23 25 24 22 34 35 31 32 20 23 21 28 21 25 22 21 38 26 29 20 23 30 27 20 26 28 30 36 38 32 35 27 24 32 18 28 31 24 37 32 21 27 28 38 36 24 33
37 32 26 23 28 35 20 29 25 21 37 36 33 28 28 24 21 38 32 36 30 18 20 33 22 27 28 21 21 33 27 29 31 24 18 37 20 21 38 26 34 33 23 33 21 35 20 28 20 32 37 28 18 24 38 23 19 31 32 20 38 31 18 24
26 19 19 29 27 35 34 28 37 28 22 22 38 38 20 20 28 30 31 18 27 21 21 19 33 37 26 24 19 27 31 38 22 30 29 37 20 25 20 21 34 36 34 21 38 37 38 31 29 22 31 31 25 21 24 34 32 29 36 22 30 32 36 35
26 38 23 35 28 29 22 37 31 23 38 18 22 28 34 19 32 38 19 37 23 24 23 22 25 30 20 32 23 21 23 27 37 22 33 26 19 25 28 36 29 18 19 36 38 38 30 22 32 22 29 30 30 38 33 28 30 29 27 36 35 28 28 38
19 32 26 20 31 38 32 30 23 18 33 28 29 18 37 26 32 32 27 22 29 35 25 23 30 32 31 28 36 18 23 33 19 33 26 19 32 18 33 28 19 33 31 31 27 36 20 25 22 29 28 28 19 18 27 36 34 30 29 32 22 37 26 32
26 19 29 27 26 35 36 19 21 26 32 24 32 28 34 28 22 37 30 37 22 30 19 24 18 24 28 25 19 38 36 35 23 36 37 23 32 37 29 21 26 38 25 30 29 34 33 33 34 18 23 18 24 25 37 29 29 32 26 28 21 22 21 22
27 31 25 37 20 25 18 38 34 36 31 25 32 22 24 18 19 35 35 38 25 19 20 29 33 29 30 23 34 34 24 34 38 38 37 36 24 25 19 32 36 22 27 18 19 19 24 26 19 22 25 38 21 22 31 24 30 21 27 18 22 36 30 25
19 23 24 22 20 25 31 25 35 21 30 34 27 29 18 19 35 30 28 26 37 42 35 41 42 30 42 26 19 31 23 37 18 20 38 32 19 26 25 20 38 30 30 29 19 36 26 35 36 18 28 25 29 37 29 22 19 37 38 36 36 18 28 31
37 31 20 38 28 31 36 34 38 34 23 18 34 24 20 18 38 32 24 42 42 42 58 46 58 53 45 43 30 30 28 18 21 33 19 28 35 22 19 31 27 21 37 22 31 18 38 34 30 23 28 30 18 20 26 36 36 24 31 27 22 23 32 27
33 25 29 28 37 18 19 30 37 35 24 22 35 25 35 24 34 36 45 58 49 64 70 55 63 65 58 51 45 41 26 38 38 21 21 22 25 34 35 38 32 35 19 29 20 27 19 23 30 30 20 38 36 19 31 24 19 38 33 29 26 23 21 21
23 35 29 26 21 22 35 22 32 31 19 33 29 28 37 32 39 48 55 65 66 73 76 72 72 59 54 51 58 43 30 27 34 24 30 29 33 23 30 28 21 29 33 28 29 34 34 29 35 19 21 26 27 18 36 33 18 23 37 34 18 38 26 37
24 19 33 25 29 23 27 26 24 27 38 31 34 27 19 31 34 64 62 78 72 79 74 84 75 78 68 61 69 52 42 28 36 34 26 24 32 26 28 38 20 33 38 29 36 38 34 24 35 20 22 19 21 20 19 29 36 25 18 24 28 26 21 30
30 33 27 33 35 24 33 30 24 29 19 38 34 37 37 43 45 73 78 92 99 90 107 101 90 87 81 73 68 52 48 45 19 22 23 23 23 33 29 31 34 25 44 44 36 34 36 44 37 39 21 27 23 20 24 19 22 19 27 35 30 20 22 19
37 33 21 20 36 31 18 31 25 20 31 28 18 22 35 44 60 68 84 85 96 119 116 114 118 105 99 85 83 55 56 51 26 28 35 21 33 24 34 31 36 32 34 42 37 35 31 34 29 36 35 41 18 27 22 20 30 23 33 34 31 19 33 38
20 37 27 33 38 34 36 25 24 35 38 34 27 39 42 47 73 88 83 101 118 116 131 126 126 111 104 93 90 77 53 45 31 36 33 24 24 28 40 48 38 46 45 37 43 34 41 34 50 42 40 29 24 25 33 36 33 32 38 22 27 21 19 37
21 22 36 19 33 21 36 38 29 22 22 38 29 45 53 72 78 87 96 104 132 128 131 135 145 135 112 111 82 84 58 39 47 20 22 29 41 30 37 37 51 36 57 50 42 43 50 52 43 38 43 29 27 36 28 34 20 19 20 36 20 37 29 26
23 27 25 38 35 37 34 28 25 38 33 26 39 47 49 76 90 95 113 123 121 140 157 164 152 130 130 101 105 81 68 57 42 40 42 29 32 33 54 39 52 40 41 43 51 44 58 55 50 46 47 32 33 29 24 20 33 31 35 19 28 35 37 21
21 26 21 19 28 23 24 19 22 37 36 28 30 43 57 66 85 91 112 129 135 144 151 147 144 128 120 104 85 84 64 62 33 31 44 47 48 52 41 47 54 60 57 61 58 52 56 62 60 49 44 48 46 29 30 23 21 29 23 18 31 26 32 20
35 27 25 33 26 38 32 27 28 37 26 43 33 44 60 78 87 102 97 128 126 128 149 137 132 134 125 99 97 94 66 55 43 42 51 51 45 42 47 58 56 50 66 66 63 51 52 61 59 46 40 50 41 37 38 33 22 32 28 37 25 24 35 31
31 37 28 22 37 23 26 25 34 29 46 48 38 45 55 72 85 104 109 126 116 142 145 144 137 135 121 101 108 100 75 70 54 53 47 59 58 61 45 52 50 54 56 70 67 66 69 50 63 49 46 50 34 50 33 31 22 27 28 35 35 29 26 21
37 27 22 31 20 24 33 29 33 39 47 33 51 39 63 64 78 98 109 120 126 137 133 138 127 127 115 112 107 96 79 73 75 68 76 72 64 65 54 54 62 68 66 67 74 74 61 55 57 51 63 53 50 52 36 38 38 33 21 30 36 36 23 22
29 38 36 31 18 24 21 25 37 46 35 54 56 45 65 57 67 96 97 112 122 126 112 132 112 106 102 101 103 90 84 82 88 95 83 73 89 84 68 60 58 58 76 65 64 67 75 69 56 55 45 45 44 40 35 28 22 28 34 29 32 35 21 21
38 33 24 27 20 28 19 24 27 43 33 40 56 50 63 59 61 75 103 96 110 123 113 121 100 119 118 119 106 113 102 106 108 100 102 90 93 89 74 73 60 71 68 78 64 81 67 59 56 57 54 46 48 53 50 47 34 30 35 35 37 21 32 23
23 19 28 23 32 35 38 20 44 33 51 41 58 48 52 67 70 76 85 106 111 97 102 104 102 109 101 110 111 115 106 102 110 122 106 102 98 96 90 80 70 79 76 86 70 85 71 65 74 68 66 52 50 49 41 47 40 33 23 33 35 21 33 33
35 30 28 31 36 31 27 34 27 33 48 36 46 54 55 69 60 65 72 83 91 107 88 102 100 109 96 107 117 119 126 135 140 131 113 114 119 114 93 90 87 73 71 86 89 70 64 69 73 71 50 51 54 36 48 28 31 21 27 34 37 37 21 27
30 27 36 20 27 37 24 33 28 27 47 47 43 47 47 62 55 78 71 72 88 91 77 92 77 82 92 110 109 126 121 138 135 150 138 117 122 106 111 88 76 86 83 75 74 83 82 58 55 68 47 54 46 39 40 31 27 39 29 29 23 23 37 31
38 33 27 31 27 26 20 32 35 36 49 53 56 47 49 65 64 71 63 64 81 74 72 75 71 96 98 105 112 121 137 139 157 154 132 139 132 116 105 107 80 77 83 79 71 68 75 76 61 69 56 46 42 37 35 30 25 33 22 38 33 19 31 27
27 34 36 31 28 29 21 34 29 46 49 43 38 49 47 51 58 58 67 60 68 69 64 67 69 88 100 109 119 115 129 146 155 157 153 133 124 109 106 103 90 83 68 79 74 63 68 66 67 68 57 54 40 54 36 39 26 23 24 38 35 25 26 23
31 25 26 23 25 19 32 37 38 31 40 32 44 43 50 64 49 53 63 76 57 64 75 55 68 86 104 111 106 132 137 144 158 146 144 130 121 107 106 101 79 84 65 73 76 59 56 57 51 66 57 51 38 50 29 44 38 33 23 29 26 36 37 29
22 26 21 30 26 32 19 36 20 26 45 31 41 50 50 49 51 62 68 63 62 57 54 68 59 70 88 103 114 112 123 135 142 146 138 129 127 120 98 100 85 79 78 55 61 71 51 65 51 52 42 38 39 36 35 31 35 30 30 31 23 31 30 29
32 20 23 21 23 22 28 36 27 27 42 48 35 39 44 61 55 56 52 57 54 69 48 57 51 69 80 82 105 113 116 118 131 127 131 122 119 115 102 87 68 62 72 57 60 51 59 61 46 53 44 44 36 29 27 26 19 19 33 29 22 30 36 19
19 28 30 30 31 24 36 26 20 21 35 40 44 46 36 48 42 56 58 62 49 51 47 59 50 56 64 76 88 105 101 98 104 120 106 100 112 89 88 68 78 66 65 51 46 52 52 47 49 38 35 45 46 31 23 30 18 24 31 29 31 22 22 22
28 23 35 24 21 38 26 23 27 20 21 41 28 42 41 41 37 47 42 49 59 50 55 40 44 55 53 65 83 90 92 93 88 96 107 101 100 90 74 73 58 51 62 42 57 44 48 48 41 53 45 49 43 26 35 36 37 27 23 36 27 22 34 19
18 22 34 33 29 32 25 38 26 27 35 30 33 47 44 32 46 48 48 56 57 49 48 40 45 56 47 62 67 65 76 71 80 87 79 80 75 61 74 64 64 47 38 56 52 38 43 53 39 38 29 39 32 22 20 28 32 27 33 20 20 22 27 25
30 27 33 38 36 29 30 32 30 27 21 32 32 42 37 28 47 47 40 34 52 50 49 32 31 47 38 45 62 52 51 62 65 73 73 63 51 49 47 54 40 43 48 33 47 51 38 39 34 43 35 28 30 31 34 25 24 18 34 20 38 36 33 37
31 18 37 29 37 36 37 24 33 19 24 18 26 41 43 41 39 31 29 41 43 32 34 34 46 31 47 47 45 55 39 56 52 64 53 56 61 59 55 36 44 39 48 32 29 43 29 37 33 38 42 31 19 35 28 36 28 27 20 23 33 29 29 20
23 19 20 32 24 33 24 34 33 28 25 24 24 38 20 33 23 30 35 40 39 43 40 31 35 42 25 24 39 35 33 54 52 51 47 47 42 31 42 47 36 28 25 38 39 29 26 41 26 30 19 19 32 23 19 35 38 37 28 25 32 25 27 30
18 35 23 26 20 38 23 22 26 27 28 22 22 36 24 29 23 36 27 24 28 34 37 31 31 24 18 21 41 27 35 48 44 39 49 45 47 38 24 33 33 33 28 31 38 41 21 24 30 31 21 18 38 33 20 38 22 18 32 20 18 25 30 30
36 26 18 18 34 19 22 31 32 33 24 25 33 32 36 19 18 27 38 35 34 24 27 29 37 37 27 29 20 18 24 40 30 33 28 34 30 32 37 34 23 20 36 29 30 35 38 34 27 22 18 34 19 28 36 34 38 34 18 27 34 37 21 23
33 28 37 21 20 19 35 38 32 32 34 20 25 23 25 29 30 20 29 33 19 35 38 23 25 36 30 26 33 18 36 32 38 36 31 23 34 26 22 36 34 34 22 23 25 25 36 29 26 34 37 38 35 24 35 34 34 33 37 30 32 38 28 32
20 38 32 27 35 38 28 25 28 19 25 29 19 34 19 23 25 25 21 28 37 29 18 32 23 26 23 18 25 26 29 38 25 38 30 38 28 30 27 27 38 37 33 19 19 23 38 33 31 22 21 20 31 26 31 31 27 27 24 19 24 27 33 36
30 24 29 20 32 37 19 33 33 28 26 25 18 27 26 36 36 37 26 22 25 34 36 31 35 24 21 21 26 38 27 30 30 23 19 30 29 25 27 25 30 35 32 24 20 29 36 33 34 33 28 37 32 38 23 22 18 23 37 18 23 26 28 32
33 27 29 23 21 22 21 34 22 36 24 35 32 38 30 34 29 36 21 33 18 35 28 25 24 29 29 29 25 23 23 34 18 33 37 31 37 35 25 25 20 36 32 35 20 25 29 21 24 33 33 19 21 33 34 29 33 32 19 33 24 24 37 21
30 22 35 18 26 22 23 24 30 29 27 33 23 19 33 23 23 31 29 27 23 21 30 36 32 27 18 30 23 31 32 35 27 32 38 34 31 26 36 20 23 32 34 28 23 35 18 32 33 30 36 21 24 33 23 22 27 25 30 31 26 35 21 35
18 25 31 23 21 20 26 23 18 27 22 26 34 38 21 22 33 31 29 25 20 20 26 24 29 31 24 22 31 29 21 24 20 38 36 29 35 31 19 20 26 18 21 26 27 19 20 26 35 28 23 23 27 22 32 28 19 18 38 25 27 37 37 33
37 33 20 21 25 25 37 34 29 24 37 35 23 25 31 26 35 19 20 27 23 18 19 33 36 38 21 23 34 25 37 34 22 29 27 18 29 36 27 30 21 37 37 35 27 32 28 23 29 26 22 27 31 18 25 38 28 18 21 20 29 32 38 22
37 37 35 31 37 37 34 30 35 23 29 23 37 35 27 24 36 38 22 29 37 35 26 20 31 38 36 20 36 30 27 21 19 35 34 27 36 32 25 22 33 25 27 35 19 33 28 35 19 35 34 18 33 38 25 32 20 37 30 27 38 26 30 21
36 34 33 38 27 32 22 22 37 23 24 25 29 18 32 32 25 27 37 25 22 30 19 23 26 30 32 26 26 37 35 21 23 18 30 36 19 25 28 34 23 23 21 35 19 28 35 23 32 32 29 18 18 27 24 25 33 29 35 28 33 19 18 27
32 32 36 30 32 32 38 33 24 23 22 32 31 31 29 29 19 31 28 25 37 26 19 27 38 33 30 36 26 22 36 38 27 18 21 26 28 19 35 29 32 37 20 27 31 30 26 18 38 25 20 21 33 25 22 26 20 26 28 18 26 20 20 26
36 25 21 38 31 25 30 35 32 25 34 32 34 19 21 19 32 22 38 34 28 32 36 24 19 31 22 33 21 30 30 33 19 24 33 37 26 30 37 25 36 35 30 37 31 29 34 37 28 21 22 20 35 30 25 21 33 30 37 37 34 32 32 21
36 32 18 37 19 27 24 25 36 25 24 32 29 26 32 38 38 19 28 38 26 38 25 23 29 26 29 33 32 20 21 34 26 18 30 26 30 31 25 32 24 24 31 31 33 36 32 23 38 33 30 37 37 28 22 33 24 22 23 31 34 26 18 36
36 18 29 33 31 18 32 22 28 19 19 37 36 31 26 30 33 20 19 25 29 23 33 34 20 38 20 29 24 30 37 20 36 31 38 21 30 36 27 30 35 19 36 27 34 34 33 33 19 21 34 27 25 22 33 38 33 32 37 27 29 18 22 27
29 22 36 21 25 30 24 21 19 31 25 35 33 21 38 37 38 19 23 28 19 36 34 29 24 24 19 23 25 25 28 24 38 21 22 38 18 29 23 26 28 22 30 20 19 29 19 37 31 32 30 35 30 30 22 34 36 38 31 20 24 36 34 35
28 28 25 27 23 22 24 27 33 30 32 26 28 23 31 24 36 29 28 34 25 32 37 32 33 30 22 22 26 22 28 23 35 32 38 23 21 34 38 32 35 37 21 34 25 20 28 18 28 32 33 34 21 25 22 33 33 18 28 29 26 36 38 35
23 28 28 34 30 29 30 37 27 22 32 29 18 31 23 22 23 34 24 36 36 29 29 37 26 32 22 28 28 26 26 18 26 22 25 24 31 38 30 21 26 33 27 26 35 18 22 27 33 37 24 18 38 33 33 23 27 37 19 27 24 32 25 37
19 27 27 22 37 27 35 19 23 32 32 23 27 34 20 37 30 37 25 19 25 25 21 30 27 25 22 38 21 31 26 38 23 34 20 37 27 26 25 29 36 38 25 23 25 22 22 25 26 31 35 19 22 24 36 21 19 22 37 26 18 22 21 21
