P2
64 64
255
26 19 25 20 19 18 14 26 22 14 17 14 21 14 17 25 21 25 21 17 20 21 14 23 26 24 22 26 16 25 16 18 20 17 18 15 21 14 18 15 24 22 22 24 26 15 18 15 17 22 21 26 23 14 16 26 18 26 26 16 17 17 15 21
14 15 15 17 16 23 26 17 14 18 23 25 23 20 15 25 21 20 18 17 25 26 15 15 21 18 25 20 23 22 15 24 21 22 25 26 17 23 15 22 15 22 23 24 18 24 14 17 23 26 18 22 24 18 21 14 15 19 15 25 19 25 14 20
23 18 23 15 23 19 26 20 18 14 24 19 14 24 24 24 17 22 17 19 24 23 14 16 22 19 20 22 16 14 19 20 23 20 15 23 22 15 16 16 20 26 25 15 25 23 24 14 21 21 22 20 24 17 18 20 23 19 17 15 16 24 25 25
16 14 22 17 24 23 18 17 17 14 21 18 21 17 15 25 21 26 23 25 15 23 19 17 21 14 14 21 24 22 25 26 19 18 18 23 26 23 18 23 21 20 21 23 25 16 24 24 16 25 25 26 17 16 17 16 22 22 25 23 14 21 15 15
19 23 16 16 16 21 19 22 22 15 26 26 23 15 25 24 23 18 26 15 24 25 21 24 26 14 20 19 21 18 22 25 14 14 20 14 17 20 20 23 23 24 25 20 21 20 16 25 15 19 14 23 18 17 25 17 16 25 19 18 16 18 23 24
19 16 17 14 24 19 26 14 17 21 16 24 21 18 23 25 20 22 23 19 17 18 22 25 14 15 19 26 15 22 16 14 25 19 20 15 19 21 26 25 24 14 21 20 20 22 18 20 25 19 15 14 24 21 24 15 25 23 21 21 19 20 20 18
16 22 24 26 16 17 19 23 25 16 17 26 16 18 17 16 14 14 21 18 26 18 19 22 16 23 19 14 15 15 14 20 24 25 26 14 20 23 20 25 25 21 26 22 23 23 14 21 15 22 22 14 23 23 26 20 15 15 18 21 18 14 23 21
16 26 25 23 20 15 15 18 20 21 23 20 23 15 16 18 17 22 25 20 19 22 21 15 17 14 19 16 26 16 20 15 20 15 15 24 26 19 22 17 20 23 16 22 21 17 24 25 22 20 15 16 20 19 25 19 26 24 16 23 22 22 24 24
14 22 20 17 23 22 14 14 16 20 25 20 14 14 22 16 20 19 23 20 20 24 26 22 25 19 19 25 18 20 16 19 25 17 17 25 23 16 22 22 24 20 18 17 25 21 25 15 24 21 25 18 23 23 24 22 15 22 23 26 19 20 23 23
19 19 14 16 20 16 24 15 23 15 14 15 20 16 16 17 23 26 17 14 26 24 22 24 24 22 18 18 18 14 15 19 23 17 22 23 26 19 18 20 21 16 25 17 20 23 16 17 15 14 21 20 18 14 16 18 24 14 23 15 15 24 14 15
20 16 18 19 14 15 23 15 18 20 16 17 23 25 17 26 14 20 21 14 15 26 20 26 14 17 14 17 16 21 25 22 21 15 16 26 25 26 23 15 23 24 15 15 21 14 18 23 25 17 22 25 21 23 22 25 21 15 16 26 26 14 20 18
20 16 20 26 21 24 14 24 25 15 26 22 15 19 14 24 24 23 20 21 25 14 15 24 15 15 15 19 23 24 22 22 17 18 24 14 15 17 24 26 17 25 24 15 18 18 18 18 23 26 24 22 26 15 26 17 26 25 20 24 18 18 21 16
23 21 18 14 18 26 26 18 22 18 18 20 17 19 18 19 19 23 16 24 18 23 17 15 15 18 19 26 14 22 21 25 26 20 22 19 22 16 14 25 21 25 14 17 15 26 17 17 15 14 18 23 14 26 21 14 20 16 16 14 25 20 17 19
16 21 21 26 25 22 23 24 18 22 16 21 20 21 15 17 15 23 19 24 26 16 15 23 18 24 15 17 17 16 19 20 22 15 22 23 22 21 15 25 22 24 23 22 22 26 14 24 14 17 14 26 20 22 22 21 26 14 15 24 20 22 24 22
22 19 16 26 25 20 24 17 18 14 16 14 25 24 14 21 21 20 18 25 15 26 14 21 23 26 21 24 25 26 23 22 26 21 22 21 22 14 16 26 16 23 16 17 26 18 19 16 26 26 17 24 26 15 22 20 17 25 21 20 21 15 26 14
23 25 25 24 21 25 16 23 18 19 15 17 20 24 17 18 19 18 26 24 16 23 14 14 21 19 24 21 22 16 15 20 19 25 25 17 14 24 16 24 24 17 24 25 15 23 15 14 25 26 21 25 21 20 21 14 25 19 23 20 25 16 15 24
14 16 26 22 22 19 16 19 25 22 19 21 14 20 23 18 19 18 26 18 17 26 17 17 21 19 22 14 17 23 16 26 25 18 20 22 14 18 18 22 22 26 23 21 18 16 16 17 21 19 17 23 19 18 20 18 14 16 15 23 18 18 26 22
17 16 15 24 24 23 26 26 26 20 22 21 23 20 14 25 14 18 15 23 21 19 22 21 22 14 24 18 24 20 14 15 22 22 23 15 14 22 19 15 26 18 19 24 22 22 17 16 24 24 24 16 15 16 24 24 24 19 14 23 17 15 14 16
17 14 23 23 25 20 18 26 15 17 19 24 23 15 25 16 17 24 18 26 14 16 20 14 14 22 23 17 20 24 21 26 25 23 26 16 18 16 15 20 22 20 23 24 26 16 21 16 19 15 24 17 26 26 26 25 25 18 20 24 22 15 21 26
24 14 15 15 19 18 19 24 26 16 19 21 19 24 19 19 21 27 29 21 25 20 24 27 25 26 17 17 26 16 20 16 26 22 14 16 24 17 15 16 20 29 29 22 27 21 22 19 23 18 16 21 26 15 26 15 17 14 20 20 16 14 17 21
17 17 26 14 25 21 22 15 20 22 14 21 15 21 22 21 30 29 32 28 22 31 22 29 31 28 27 15 19 20 21 23 17 26 23 16 21 16 18 25 22 25 28 34 33 22 25 32 29 20 21 17 20 18 20 19 17 18 24 15 25 23 24 21
16 19 14 16 25 17 24 19 17 18 24 22 19 20 21 23 34 26 27 33 35 29 36 31 25 31 24 27 26 20 18 27 17 28 26 18 24 25 26 34 23 29 37 31 31 30 35 26 31 23 24 23 18 21 14 16 22 21 21 23 20 22 25 19
18 14 20 19 17 16 25 26 18 22 15 25 17 29 26 31 31 39 32 30 30 31 38 37 39 28 31 26 34 33 28 32 31 28 35 30 35 37 37 31 30 38 29 34 40 40 36 35 37 30 33 25 24 18 24 19 26 22 25 17 16 15 23 14
21 14 16 26 16 14 18 18 20 17 22 29 20 34 33 36 36 35 33 44 34 42 44 43 36 45 35 35 34 35 39 30 41 32 36 37 40 40 40 40 37 36 36 33 37 40 32 36 40 27 27 29 26 27 22 25 25 25 25 17 16 16 25 23
17 15 22 14 22 17 25 26 25 18 21 20 23 35 28 42 45 36 44 46 43 48 40 47 41 43 52 50 48 47 45 49 37 40 51 50 54 45 51 51 41 49 42 46 42 40 45 42 37 43 29 34 32 28 27 26 16 16 17 25 25 18 20 24
21 21 17 21 25 26 24 24 17 20 29 32 36 35 42 46 36 41 47 45 45 45 51 55 59 55 54 54 51 52 59 51 52 52 59 59 51 56 56 53 55 53 48 52 51 44 43 40 37 42 33 39 30 26 19 20 16 18 26 23 23 16 15 24
20 19 15 15 23 22 19 20 16 30 23 35 39 42 46 44 40 46 54 47 54 48 55 57 62 70 66 64 60 69 67 56 56 60 67 62 62 65 71 62 61 58 64 51 54 56 54 51 39 48 43 36 28 35 30 20 23 20 19 15 24 19 17 26
26 22 23 23 19 17 18 24 21 23 28 35 35 41 45 48 52 54 52 50 63 57 68 73 68 76 79 78 67 69 65 74 64 67 67 73 69 69 75 74 66 64 67 57 52 58 48 57 52 49 48 41 33 28 31 26 22 26 17 26 14 23 15 22
21 14 25 23 17 18 19 18 19 30 34 39 35 46 45 49 55 59 52 56 66 76 76 79 76 82 80 80 75 76 83 83 82 84 76 79 82 87 87 80 85 81 71 76 71 62 61 51 56 46 50 41 33 31 36 23 18 16 17 15 17 15 15 20
26 23 19 19 24 25 14 20 18 26 33 41 39 46 47 55 47 61 62 66 73 81 78 89 83 89 93 84 88 92 90 88 85 90 84 90 85 87 94 81 90 85 84 75 71 71 64 51 57 44 43 49 35 38 33 24 29 16 16 18 23 17 23 14
16 18 23 24 21 21 17 22 21 28 37 34 43 50 46 56 59 63 64 66 81 88 86 84 87 95 90 96 100 98 94 101 90 99 88 88 98 101 93 93 97 85 91 81 73 65 61 60 52 49 45 41 34 42 39 34 27 22 20 20 18 24 16 22
21 21 20 24 21 21 14 17 24 23 28 38 39 44 51 57 58 57 73 79 89 90 90 96 96 100 94 99 98 103 103 100 107 103 107 98 95 106 95 92 100 96 96 89 82 75 62 58 63 53 46 44 46 38 31 33 32 21 20 19 18 17 14 20
18 14 26 16 16 14 20 19 26 30 39 34 41 42 52 54 60 64 70 74 94 97 94 94 95 99 101 109 108 110 113 112 110 114 108 100 109 107 109 102 105 96 92 93 90 75 75 56 57 54 53 49 35 35 39 25 24 18 18 17 24 26 26 20
26 15 17 20 20 24 19 28 26 23 32 40 45 41 48 53 61 54 74 83 91 92 101 104 103 98 109 107 104 109 116 117 111 109 107 110 111 105 106 105 102 105 100 88 90 81 73 65 55 59 49 42 47 37 32 23 22 22 24 17 18 26 21 14
21 25 22 20 26 25 26 20 28 30 35 43 42 44 52 57 59 61 68 81 86 90 98 100 104 106 105 109 107 118 118 122 127 124 121 119 116 110 113 110 104 99 91 94 86 77 65 61 50 54 45 48 39 37 27 32 27 26 18 14 22 21 15 14
20 21 19 26 24 25 16 22 24 34 33 34 45 40 51 56 51 65 62 72 77 86 92 98 104 99 113 112 111 109 123 128 124 121 121 116 118 104 107 110 101 101 93 84 88 78 65 56 51 52 42 47 40 38 27 25 22 25 23 21 20 22 22 16
25 20 21 16 19 19 24 24 26 23 37 31 36 44 39 49 50 52 66 71 77 91 97 100 97 106 99 111 117 118 119 119 132 123 114 112 110 107 101 103 95 99 93 86 78 75 68 60 49 52 50 47 37 30 26 23 17 22 18 25 19 19 25 14
26 14 14 24 25 16 23 17 24 28 31 27 40 35 37 43 42 55 65 67 77 77 90 91 99 94 100 110 110 116 109 114 122 114 109 114 106 101 102 102 90 87 81 82 81 64 58 52 54 51 42 40 32 29 31 20 22 18 18 24 18 24 25 21
18 26 23 21 22 18 16 14 24 27 22 37 35 33 45 44 45 53 62 69 75 75 84 86 87 88 99 104 106 112 105 105 106 101 113 110 108 101 92 99 92 85 81 72 67 60 57 46 42 39 45 35 34 25 29 19 23 26 22 26 24 24 21 15
20 21 14 23 19 22 23 25 21 26 23 24 37 39 34 45 43 38 50 58 63 67 80 87 85 88 87 90 97 99 94 94 102 100 104 97 91 89 90 93 86 86 83 69 62 60 48 46 41 38 39 32 29 29 30 25 20 15 15 24 19 21 21 21
26 17 25 22 14 21 26 22 14 20 18 30 28 34 31 38 35 46 40 54 60 65 75 72 85 84 91 84 97 93 94 93 90 97 90 92 90 85 89 88 83 81 68 71 63 58 43 38 35 41 39 26 24 27 26 20 22 24 21 25 14 16 17 26
25 19 21 23 23 25 19 16 26 16 27 29 25 35 26 38 33 37 37 46 48 53 65 74 71 79 84 85 85 85 85 76 88 80 77 88 79 77 78 75 70 65 65 53 52 52 43 31 37 30 29 34 22 19 21 23 16 21 24 25 22 26 17 15
25 16 19 17 26 18 17 21 14 18 16 27 19 29 32 35 28 38 36 45 44 52 52 66 59 75 70 79 75 75 71 78 82 73 73 80 79 75 73 75 64 65 60 50 48 44 28 35 28 32 28 20 27 23 21 20 26 15 18 22 24 24 21 17
23 23 21 24 23 22 14 21 17 16 22 18 26 26 27 23 26 27 24 31 38 43 53 50 53 61 69 65 69 64 68 76 71 66 74 64 70 68 67 64 59 57 51 50 35 36 25 29 28 27 25 29 22 16 21 26 16 24 14 23 23 18 19 25
20 22 16 25 23 17 24 15 18 19 22 21 15 21 25 25 26 26 24 24 31 40 40 46 55 58 57 58 64 67 61 61 58 64 58 56 54 60 57 51 46 47 36 38 28 29 24 23 30 20 16 22 18 14 22 16 25 14 20 21 21 17 17 23
25 19 22 17 20 25 17 25 14 18 23 26 20 25 21 25 19 22 18 25 23 29 32 38 36 47 48 45 53 49 52 64 55 54 60 50 54 55 41 42 40 37 28 28 21 22 21 18 19 20 18 24 24 18 20 22 24 24 15 20 25 17 24 25
22 14 19 24 18 15 18 26 14 21 22 14 18 18 20 20 25 20 20 15 17 28 25 29 35 42 42 44 53 54 55 51 56 53 46 47 41 46 41 40 35 29 31 28 20 14 19 20 16 19 21 18 21 24 17 24 21 26 16 25 19 18 22 26
16 15 19 24 24 19 18 21 16 21 25 18 15 17 24 22 17 18 20 14 22 21 22 29 36 38 34 41 35 38 49 48 39 47 38 39 47 34 30 27 29 24 22 21 24 17 20 15 24 17 17 17 17 18 15 26 25 23 26 26 23 23 25 15
19 16 25 19 20 17 19 16 19 25 15 17 16 24 23 25 24 22 19 18 19 25 20 26 18 26 36 37 37 39 32 42 44 45 43 35 35 33 25 29 22 24 16 21 17 18 17 18 23 26 15 16 17 24 20 20 21 25 21 14 18 14 17 25
25 18 26 18 15 16 18 21 18 20 25 18 26 19 19 21 24 18 25 17 26 21 25 21 26 16 23 22 27 34 36 27 32 38 34 34 33 29 28 18 21 25 26 24 14 18 14 21 17 25 19 16 16 22 22 24 25 25 26 23 16 26 24 15
21 24 24 25 21 14 17 23 26 16 23 22 22 19 23 15 20 18 26 17 22 15 16 19 25 26 14 17 17 31 28 30 23 27 28 25 25 28 18 17 20 22 15 22 22 19 22 26 21 17 26 23 21 22 16 15 14 26 21 20 18 24 23 19
17 19 26 21 25 26 24 19 21 20 24 22 16 16 21 23 22 20 16 21 25 22 24 24 19 24 21 19 17 26 19 19 20 20 21 24 26 14 17 24 19 14 18 18 17 15 21 20 17 24 14 25 24 14 25 23 15 15 24 14 16 22 22 21
16 20 23 26 15 21 19 17 17 21 22 20 19 15 19 18 15 14 14 22 22 21 23 17 18 25 23 15 26 24 16 15 23 26 21 23 22 17 24 22 16 24 14 19 14 17 17 24 26 19 14 14 16 18 17 18 16 18 19 23 25 20 17 22
15 20 16 18 15 25 16 26 20 23 18 19 19 20 16 15 23 15 26 19 21 24 17 18 14 14 20 18 23 14 25 25 15 17 21 26 21 26 23 19 23 20 23 15 22 19 23 20 16 18 25 21 15 19 26 16 20 21 25 21 21 25 15 26
25 21 24 15 25 20 16 15 18 19 18 20 15 22 19 25 19 17 18 24 26 20 23 15 23 24 14 24 14 21 26 16 16 25 26 20 15 26 21 23 22 23 19 21 17 17 17 17 20 17 21 26 24 19 19 16 23 24 22 19 18 21 19 20
15 24 25 24 20 14 22 18 23 23 26 15 20 19 16 22 25 14 22 18 23 22 26 18 26 17 19 24 26 16 24 23 18 14 24 17 24 19 25 25 25 20 23 14 18 16 14 17 16 16 22 24 26 14 15 19 26 21 26 21 17 26 24 14
16 14 16 19 19 21 25 23 18 19 23 21 24 23 21 25 16 15 26 18 20 19 16 15 16 19 23 17 17 26 23 16 22 22 22 21 14 17 15 22 26 24 14 18 21 22 18 26 15 22 15 17 26 14 23 17 22 23 20 19 15 15 15 20
22 19 15 26 15 18 20 21 15 22 14 20 25 24 17 20 18 14 24 21 22 14 26 21 26 14 20 22 18 25 26 19 26 24 24 19 15 14 21 21 21 22 19 24 25 17 22 20 22 18 19 15 14 16 22 23 19 19 15 22 18 21 15 20
22 16 24 17 16 14 16 22 24 17 17 23 24 15 19 26 15 17 24 22 19 20 20 21 18 23 25 24 21 23 19 17 21 16 17 18 26 16 26 24 20 19 20 22 17 25 19 21 23 24 26 19 18 17 20 17 24 21 24 19 21 17 26 18
19 26 24 18 17 24 19 26 16 26 22 22 26 25 20 23 18 15 18 21 23 26 17 24 24 24 26 19 22 23 14 24 15 19 24 26 14 20 25 21 17 20 25 14 16 15 17 17 20 16 22 26 15 15 26 18 14 23 26 24 19 25 20 18
16 20 19 16 18 24 19 19 17 24 21 18 24 21 26 20 22 25 23 14 22 22 16 25 18 21 21 17 26 25 16 18 20 21 17 24 22 20 21 16 23 18 15 19 24 16 25 22 17 15 25 18 20 15 19 20 18 20 25 23 25 26 23 24
15 19 18 22 25 15 19 18 21 24 21 15 21 19 18 24 26 14 22 21 14 15 26 26 16 17 26 14 21 25 17 18 23 18 17 15 24 26 23 20 17 19 21 26 17 23 25 19 24 16 20 22 21 26 15 18 16 24 14 23 25 18 20 26
15 24 21 19 18 16 21 17 16 24 15 17 14 14 26 16 20 23 21 14 24 20 15 21 16 16 16 24 25 14 21 15 15 16 19 18 17 18 23 25 16 17 25 23 21 14 23 21 23 16 25 17 21 23 20 15 24 19 22 25 14 18 20 25
21 17 24 26 14 18 19 19 15 25 18 22 26 26 17 24 24 22 15 22 26 14 22 21 14 20 26 19 16 25 26 22 22 24 18 19 21 25 18 15 14 21 24 26 24 19 15 22 25 22 15 23 24 23 22 17 16 18 16 14 25 18 25 18
