P2
64 64
255
26 25 23 24 15 26 14 20 24 21 16 15 22 18 23 14 15 18 16 16 17 17 16 23 22 15 15 19 24 16 17 20 26 17 18 22 26 18 22 15 26 16 17 18 25 14 17 24 23 16 26 18 24 17 23 26 23 23 15 20 24 21 26 16
19 17 24 24 18 22 25 15 20 23 24 20 14 26 23 25 14 24 23 15 25 21 17 23 25 22 26 25 15 23 16 14 18 25 17 19 19 16 26 17 21 14 23 19 20 26 17 24 17 14 26 17 14 14 17 15 15 24 24 20 18 15 24 26
17 21 21 16 25 16 23 23 19 17 21 14 25 23 21 25 25 14 22 19 24 18 15 14 22 16 24 15 17 24 22 26 16 17 17 24 23 24 20 26 16 26 26 22 14 15 21 23 15 23 17 26 17 23 19 22 18 16 15 16 22 17 20 21
22 19 19 25 23 25 22 18 14 14 16 17 23 16 14 24 25 20 16 20 15 24 17 17 17 26 15 15 21 20 14 19 15 18 17 15 19 21 23 20 19 16 16 16 19 14 17 14 15 21 24 17 14 25 16 20 16 26 20 17 24 24 18 17
17 24 16 17 16 25 26 23 20 25 22 20 23 16 19 22 25 21 18 24 25 14 16 14 26 21 15 15 26 23 17 17 25 15 25 15 25 17 18 21 16 26 14 26 21 21 15 22 20 17 26 15 21 15 15 26 24 22 20 17 21 20 20 14
22 19 18 19 14 20 23 22 24 20 19 18 21 21 18 15 20 26 16 16 23 22 15 23 25 19 24 14 15 25 14 17 20 19 20 20 24 22 17 21 23 24 20 20 23 15 24 22 15 26 15 16 26 26 24 18 26 14 14 25 22 19 21 26
15 24 20 18 22 26 23 24 14 26 23 18 26 18 26 23 14 16 15 19 17 20 26 25 22 20 14 16 16 24 19 23 26 15 24 22 19 20 23 23 16 17 19 22 26 21 23 16 14 22 14 25 26 21 19 20 19 26 24 25 24 25 21 23
26 26 20 24 22 24 22 19 22 15 22 22 19 22 15 20 26 22 22 18 25 19 23 23 17 22 19 15 26 18 14 19 23 25 16 23 21 18 16 26 26 23 16 20 16 20 24 15 20 14 26 26 18 25 19 24 22 22 21 20 18 23 25 16
21 24 14 18 26 23 23 15 20 25 17 23 26 26 25 17 26 14 21 20 18 24 19 14 15 25 20 16 16 17 24 17 16 17 26 14 19 20 26 19 17 26 26 22 16 18 17 25 14 15 18 18 24 19 19 25 25 14 25 24 19 15 20 25
17 18 15 20 20 23 21 23 18 19 25 22 18 14 14 17 14 22 24 15 21 18 24 14 23 18 21 21 26 18 17 23 15 21 25 18 16 20 14 25 20 20 16 20 22 17 25 23 15 25 17 16 23 15 26 17 20 18 25 23 15 25 26 24
22 17 14 20 18 21 16 17 19 22 18 22 16 20 23 25 18 21 16 19 19 21 16 15 15 24 20 22 25 22 15 17 24 14 18 16 18 20 15 24 15 14 26 24 19 25 17 19 15 20 20 14 25 23 26 19 14 22 21 19 15 22 19 24
24 15 15 21 15 14 14 21 21 24 25 22 23 20 17 18 19 21 23 20 19 16 26 17 18 19 23 23 26 19 20 26 14 26 23 19 20 22 14 21 16 16 15 19 26 21 25 15 18 15 16 22 17 25 21 25 14 23 22 18 15 25 18 15
14 21 15 20 22 26 19 22 26 15 16 19 25 26 26 22 16 19 26 22 15 15 16 23 26 19 14 22 20 21 22 22 22 15 19 15 17 24 26 20 26 17 21 19 19 20 24 18 16 25 26 18 17 21 26 14 19 26 18 26 24 24 21 23
21 17 25 16 15 21 26 16 26 26 23 18 18 15 14 20 15 22 20 21 16 20 21 16 17 17 20 19 19 16 22 17 18 26 15 20 17 26 14 21 16 20 16 23 24 18 22 26 14 25 25 15 20 20 15 18 19 14 15 15 21 17 25 15
19 22 14 20 21 24 22 19 20 14 19 25 20 19 17 21 23 15 20 17 14 21 26 16 25 17 22 17 21 14 17 26 25 26 16 23 22 17 26 20 16 15 15 14 22 14 15 20 20 15 19 23 23 18 21 19 21 18 22 21 24 18 25 18
26 17 17 18 25 17 22 18 23 15 21 26 25 22 24 26 20 25 20 23 21 26 17 25 26 16 17 25 15 25 22 14 16 18 21 16 16 23 23 16 19 18 26 15 18 15 26 16 18 19 19 15 22 26 14 22 16 17 25 15 21 20 18 17
24 17 20 18 26 23 26 18 14 17 24 17 23 15 14 14 15 20 21 17 18 23 16 16 15 17 17 26 24 14 26 24 16 26 22 14 23 17 22 19 23 20 21 26 14 18 24 24 14 26 20 15 22 18 19 23 25 19 22 19 25 25 26 21
24 17 19 20 19 20 25 22 20 19 16 21 21 26 16 26 25 17 26 17 15 24 26 24 14 25 23 18 23 26 14 16 22 20 18 15 15 15 24 23 18 19 16 20 18 26 22 22 26 17 21 24 25 21 14 26 15 25 17 25 25 14 22 15
17 16 15 26 21 19 23 26 25 19 21 14 18 17 19 15 18 15 25 25 18 16 17 18 14 26 15 26 16 26 20 26 22 16 25 19 20 17 19 21 26 23 23 14 14 21 21 25 26 20 18 14 19 14 15 23 24 15 19 16 22 16 24 15
14 23 16 20 24 24 25 23 18 20 22 14 20 19 15 23 22 27 24 22 20 26 27 18 18 20 14 25 21 14 19 21 20 20 25 26 16 25 15 15 20 29 23 25 18 23 18 24 26 26 19 15 25 24 22 24 23 21 25 19 14 22 17 20
24 15 22 14 19 15 14 23 15 16 14 15 23 15 26 27 29 27 24 30 23 23 32 23 27 20 19 17 24 18 26 24 14 15 17 17 25 27 19 21 28 30 33 32 23 32 24 21 22 21 17 17 26 26 25 26 21 22 20 17 26 16 19 22
26 22 20 19 18 22 14 25 19 25 18 15 16 23 27 22 24 29 30 36 30 33 27 28 34 24 21 19 23 16 16 15 22 25 17 21 22 20 25 32 34 30 30 31 27 27 35 28 25 29 19 24 24 20 26 25 21 23 19 21 17 19 24 21
21 26 15 22 24 18 21 26 15 26 16 25 28 26 25 29 27 30 28 40 37 32 34 38 28 33 34 31 27 17 27 22 19 15 20 17 31 29 29 35 34 36 37 40 39 37 32 34 33 34 31 24 17 15 15 25 18 17 22 17 18 23 19 24
25 24 15 14 16 22 26 25 18 21 26 23 29 33 29 37 34 33 37 44 36 44 42 32 41 38 38 26 25 26 22 21 19 25 17 25 24 31 29 34 35 42 41 39 35 37 34 42 39 36 28 33 30 22 19 23 16 22 17 20 22 20 26 14
17 17 18 14 17 16 19 23 15 19 21 32 27 31 36 33 33 45 39 42 47 39 48 47 34 44 38 28 34 32 31 25 14 29 21 28 38 32 43 36 36 47 44 47 49 41 37 40 37 34 37 29 28 29 25 25 19 19 18 15 15 22 19 15
22 26 15 19 25 24 20 14 21 17 29 30 31 30 38 37 39 39 41 51 52 52 52 50 41 47 45 35 39 33 33 22 25 19 27 36 29 40 34 36 50 40 51 41 42 46 48 45 42 34 35 32 37 29 20 22 23 18 15 17 26 21 19 18
16 26 23 18 16 24 23 25 18 28 27 36 31 37 39 46 39 41 47 51 47 55 44 47 43 50 45 46 38 30 35 33 29 22 28 31 40 41 42 39 46 53 54 49 50 54 47 45 39 40 39 43 35 27 26 27 14 14 18 15 15 22 16 23
16 17 20 22 23 15 25 20 20 30 35 35 40 38 48 43 45 46 57 55 53 49 60 49 52 49 42 44 36 30 29 26 34 27 26 32 33 41 49 51 57 57 56 56 59 57 59 47 44 50 48 37 39 36 23 32 16 25 18 18 16 18 15 26
17 15 16 14 20 18 22 23 19 25 32 29 33 41 42 50 45 51 53 55 56 62 54 60 48 54 51 40 47 33 39 28 34 29 33 40 43 47 51 53 57 55 61 59 54 62 61 49 49 50 50 35 32 38 30 21 24 23 16 21 21 17 23 15
15 24 15 23 20 24 22 18 20 29 37 42 40 46 50 45 48 61 65 63 68 63 64 63 59 54 49 41 45 45 30 36 41 41 39 34 42 42 55 52 52 64 57 63 59 62 55 53 54 50 45 40 40 37 31 23 29 24 17 14 24 22 14 25
26 18 18 26 22 19 25 27 20 24 39 31 37 44 52 46 57 65 59 67 64 66 65 57 64 56 53 47 47 40 40 44 43 39 41 34 41 45 58 57 60 60 64 60 71 63 61 65 61 53 54 38 43 40 29 25 24 23 21 15 26 21 17 15
18 22 18 21 19 20 16 24 20 30 29 35 47 46 54 47 62 60 59 73 69 68 64 64 55 54 52 51 48 44 45 38 40 36 44 45 47 43 55 56 66 66 61 71 71 70 64 65 60 51 44 50 41 34 35 23 20 24 18 15 26 14 25 17
23 26 21 14 22 20 23 28 27 24 40 37 45 40 46 55 63 66 59 65 67 67 70 62 63 51 55 53 45 37 42 36 46 42 35 36 40 54 48 62 61 61 70 72 72 64 64 57 63 57 54 49 47 38 38 25 26 27 14 18 16 22 25 19
15 25 18 15 25 18 14 24 28 28 28 37 46 42 44 51 53 54 67 70 70 72 68 63 63 57 49 55 51 37 34 38 34 33 35 40 51 55 47 55 59 69 72 69 74 72 61 55 60 49 52 50 45 33 27 29 25 21 21 18 19 22 14 14
14 18 15 24 21 16 17 26 26 28 27 35 34 47 45 50 52 59 56 61 71 64 59 58 61 61 56 45 41 34 34 39 41 44 42 38 44 49 52 55 60 64 71 67 67 59 57 63 56 54 52 40 44 31 33 28 27 27 25 24 20 24 17 17
18 24 15 14 20 18 14 21 23 31 36 32 33 47 46 56 54 63 53 67 64 58 58 63 57 49 51 50 46 41 34 38 32 36 31 38 49 52 45 57 51 58 57 59 61 55 57 51 48 52 49 43 35 38 29 27 25 21 26 18 14 21 14 17
20 20 26 24 19 14 18 16 26 25 35 38 38 41 49 42 57 60 61 61 59 64 52 58 55 51 48 48 46 44 28 31 36 33 38 33 47 49 48 55 52 62 55 58 57 59 62 58 48 45 44 35 32 36 28 30 26 18 16 21 17 16 26 25
21 25 14 22 25 14 21 16 20 22 35 39 40 41 46 43 49 55 51 51 53 51 49 55 52 48 49 47 37 32 26 28 28 25 26 35 41 47 44 47 57 58 60 61 55 53 49 47 51 44 48 42 38 31 33 30 25 25 18 16 23 15 21 23
20 17 25 20 19 18 15 24 23 21 31 29 38 31 41 37 40 44 49 47 47 57 50 50 43 43 44 44 43 33 35 27 33 33 32 38 33 40 37 44 46 44 51 57 52 48 51 41 51 44 37 42 38 28 26 20 18 17 26 20 23 25 17 18
25 17 24 22 27 17 20 26 18 20 34 34 38 40 45 40 50 47 52 57 45 48 54 45 51 43 38 35 36 40 28 24 29 36 37 34 39 47 40 51 53 47 47 46 57 52 45 45 48 45 45 41 36 34 25 26 24 25 24 23 31 25 24 24
26 32 24 26 33 27 31 26 33 30 30 37 41 45 44 42 51 46 51 54 52 55 52 47 51 53 47 41 39 42 40 29 34 34 40 41 38 46 48 53 50 53 59 57 55 60 49 48 47 49 50 46 44 37 36 27 31 30 36 36 31 37 35 31
34 28 35 33 25 33 28 29 34 32 37 32 39 37 46 50 41 45 51 55 46 46 53 48 53 53 47 41 47 46 33 39 39 29 38 40 40 49 51 47 56 50 58 51 49 50 49 49 48 45 44 44 40 42 37 36 35 40 44 37 35 35 40 45
23 20 26 28 23 28 26 31 33 31 27 25 33 34 29 42 45 35 44 42 40 43 49 37 47 44 34 36 29 32 31 35 23 25 25 36 37 41 34 47 39 46 39 45 43 48 42 45 39 46 37 37 37 32 35 34 37 37 26 30 33 27 38 31
21 25 25 29 24 22 19 28 26 23 18 18 20 21 29 35 30 31 38 31 34 29 40 39 38 36 30 31 28 25 25 26 24 23 25 20 31 24 25 33 38 29 36 33 40 38 33 36 38 30 32 27 23 28 31 19 22 29 27 20 26 21 22 30
20 24 26 16 26 14 25 22 17 25 24 19 16 25 17 26 21 21 26 26 26 30 33 33 24 20 25 18 20 22 19 24 21 16 26 21 26 17 24 18 31 23 32 26 29 24 27 22 26 29 23 16 16 15 18 18 23 20 16 14 24 17 26 18
26 25 23 14 14 14 25 17 17 18 18 18 16 18 17 21 18 24 21 19 30 23 22 19 20 23 16 26 24 21 22 19 14 20 14 25 20 24 24 17 22 26 18 30 29 17 23 20 25 24 21 16 15 15 18 22 14 20 18 20 24 14 17 20
15 14 26 22 15 19 22 23 25 24 18 19 23 21 20 15 21 19 16 24 18 20 24 21 26 22 24 22 25 26 22 21 14 22 16 26 22 15 25 20 25 15 19 14 17 17 21 16 26 20 16 18 22 21 25 26 26 19 23 15 21 20 14 14
22 24 16 20 18 22 16 18 19 24 25 23 19 18 14 24 20 23 21 24 18 24 16 23 15 14 23 25 21 17 20 24 26 23 17 22 14 24 14 19 18 19 21 25 23 26 24 14 23 21 22 23 21 20 16 26 15 17 17 14 25 23 25 26
23 20 22 25 22 21 20 14 23 20 20 17 25 21 17 21 18 14 26 22 21 22 17 16 19 19 21 21 15 17 26 16 25 17 21 20 22 20 19 24 25 16 19 16 24 18 24 21 14 15 19 26 17 15 16 14 22 21 20 21 26 19 16 19
17 23 22 19 23 21 23 21 17 16 14 24 14 18 25 22 15 19 21 14 23 24 19 26 17 26 19 21 23 23 17 23 22 25 15 19 19 20 20 19 20 23 26 23 18 15 23 14 14 23 23 20 26 21 14 14 19 22 26 19 23 19 26 15
15 21 22 23 26 20 20 21 21 19 18 15 24 23 16 24 20 22 26 24 16 17 24 24 23 21 22 14 22 16 23 18 14 23 17 25 20 26 19 18 26 15 25 24 24 17 15 18 21 25 14 22 15 22 19 19 16 16 14 20 25 20 19 18
21 14 26 18 20 25 14 25 25 25 15 14 17 24 17 19 22 18 19 20 16 20 25 25 20 16 24 20 16 24 24 23 14 26 23 19 17 22 15 19 24 17 26 22 16 23 23 17 23 15 26 25 17 17 14 26 21 25 21 15 14 23 17 15
21 15 17 14 24 25 17 14 15 23 25 25 18 17 25 17 22 15 25 25 15 26 25 20 21 19 21 21 25 14 20 23 21 16 15 20 23 25 23 22 16 22 23 15 19 15 20 26 16 14 15 16 26 20 20 16 23 14 21 22 26 22 20 22
23 16 24 21 21 26 14 17 19 20 23 20 15 23 23 18 24 19 18 21 19 24 25 16 24 14 18 20 18 21 23 15 17 23 22 14 22 24 21 18 26 26 18 23 19 23 26 23 23 17 17 26 17 17 16 14 14 19 26 14 21 21 14 14
22 19 22 26 24 19 15 19 25 23 18 15 14 25 18 19 15 19 23 17 23 16 21 16 18 17 15 23 25 16 18 15 21 19 16 23 22 16 20 22 18 21 24 16 23 22 26 15 15 19 23 25 23 15 16 17 15 17 25 15 26 22 17 16
18 16 24 14 20 14 26 17 20 23 17 22 22 20 16 14 15 21 21 25 26 15 16 14 20 19 16 14 15 26 14 23 18 21 22 23 26 17 23 20 25 21 16 20 22 23 14 21 24 19 26 22 21 26 21 22 25 21 25 24 26 19 19 18
18 23 17 25 17 24 20 16 15 20 23 26 22 14 17 23 26 18 24 24 26 17 22 18 18 16 25 17 14 15 20 15 17 19 18 16 25 14 18 26 22 19 20 17 26 15 17 23 22 25 26 18 26 18 24 26 19 14 16 24 18 23 18 18
22 16 16 22 16 18 16 25 23 16 24 25 21 18 18 19 24 25 24 21 20 14 17 22 15 16 20 18 23 23 15 21 22 14 25 20 15 19 14 15 20 21 26 21 21 15 15 22 17 15 15 23 25 26 21 14 18 15 19 26 25 22 21 22
22 15 20 24 26 26 24 15 19 14 15 18 24 15 23 16 24 14 25 23 20 24 15 16 23 15 20 21 15 20 23 14 23 26 19 16 18 16 22 22 25 17 21 25 24 22 20 22 22 23 15 24 15 21 16 25 21 26 26 21 14 15 15 23
20 25 26 14 23 15 20 21 22 22 14 15 21 18 24 14 15 25 25 25 15 21 20 24 19 25 20 16 20 24 16 22 21 15 24 25 21 22 26 19 19 15 18 25 15 16 16 16 15 21 16 21 18 17 25 14 17 26 20 19 24 16 22 23
24 16 23 20 20 18 18 20 25 21 21 16 18 21 20 15 23 14 19 20 20 26 21 25 23 23 24 26 15 24 14 18 25 21 15 15 20 17 18 14 14 16 25 26 24 16 22 16 25 24 24 19 18 16 16 22 14 20 19 21 17 23 19 18
22 17 19 22 22 22 17 19 22 25 14 18 15 14 22 17 15 16 15 18 23 16 17 22 16 15 14 15 20 18 17 24 19 26 16 14 19 21 19 24 26 17 26 24 14 26 21 20 18 25 26 14 16 25 17 22 20 18 23 24 22 17 15 14
22 25 21 18 20 16 17 16 19 17 26 18 26 19 16 25 14 24 20 18 20 16 20 20 15 18 15 23 22 15 24 20 25 14 21 19 26 17 15 16 22 15 21 21 15 17 23 19 15 20 21 25 23 15 15 24 19 15 19 21 17 20 17 15
19 14 24 16 18 25 18 26 24 24 19 15 18 17 16 25 23 15 25 21 14 19 26 20 22 18 14 14 22 22 17 23 21 26 17 22 20 24 24 25 14 26 20 16 22 15 25 19 26 19 23 20 15 16 21 22 26 16 14 24 19 20 18 20
