P2
64 64
255
18 24 24 15 15 24 23 25 20 16 14 19 24 14 16 18 20 19 19 19 15 17 23 25 23 17 16 21 15 18 20 26 26 26 26 14 21 26 14 22 19 25 15 18 24 14 21 23 22 25 16 26 26 18 18 15 18 26 23 16 16 17 14 20
14 25 15 18 21 22 15 22 21 24 16 26 20 25 22 18 19 16 16 17 26 25 17 25 17 19 20 23 17 15 16 26 25 20 23 21 19 26 25 19 16 19 24 16 18 22 18 18 20 26 20 15 22 25 23 16 24 25 22 25 26 15 15 24
16 25 15 19 17 19 19 18 18 17 14 18 14 20 21 26 21 20 24 23 20 14 20 17 21 19 26 23 21 22 19 20 18 22 23 22 16 19 20 18 24 25 17 16 24 16 16 24 21 16 22 18 17 16 16 14 20 18 25 15 21 19 17 19
26 26 22 17 20 17 20 24 19 18 19 18 22 21 24 17 26 22 25 20 17 25 26 18 18 23 17 18 17 25 21 26 15 25 21 15 23 18 20 17 14 26 16 16 22 23 18 15 18 15 16 14 14 25 17 21 14 22 16 17 16 26 24 15
17 18 14 25 22 15 18 22 18 20 19 14 26 17 20 14 22 17 14 18 18 22 17 26 16 20 23 14 14 14 23 25 20 23 14 23 15 26 19 20 22 19 25 20 14 17 15 20 14 23 19 17 22 19 18 14 26 15 26 25 17 25 25 22
23 14 24 19 16 14 22 26 15 22 17 17 24 21 19 25 18 23 23 17 18 24 16 25 18 16 14 21 19 24 19 23 24 18 21 16 17 22 16 26 17 25 25 19 16 21 14 17 18 25 23 15 17 22 22 19 17 14 26 17 21 21 26 26
16 16 26 18 22 24 23 19 22 19 14 23 24 17 26 19 25 15 20 15 17 18 25 23 18 26 14 17 21 23 21 15 14 17 24 23 21 18 21 15 16 25 21 19 16 16 21 15 23 26 14 19 15 21 21 22 14 19 18 19 20 19 20 18
22 15 15 15 20 26 16 16 19 21 20 19 22 22 21 18 23 26 14 25 15 18 22 25 23 19 19 14 21 14 24 18 21 17 25 25 20 17 26 23 23 19 19 22 23 23 14 24 23 20 22 17 20 19 19 17 26 25 18 26 22 26 24 25
24 22 17 24 16 23 16 24 26 16 24 17 22 19 17 24 16 16 24 22 24 18 19 19 16 23 18 18 20 23 17 25 24 25 15 19 24 23 14 26 22 24 17 24 23 15 21 18 19 20 19 21 16 25 20 19 24 23 26 14 15 16 18 17
14 14 16 20 22 21 21 17 22 20 16 19 25 14 16 25 26 26 17 17 19 25 18 17 17 22 16 21 20 19 26 16 25 17 21 25 26 17 21 24 26 24 15 16 22 26 14 18 25 24 20 16 26 25 14 21 20 18 18 22 17 26 17 22
16 25 23 16 20 20 21 25 16 18 15 21 15 19 26 17 21 18 25 20 16 25 21 25 15 17 17 26 25 15 26 17 15 24 24 17 14 25 15 22 26 14 21 14 26 14 18 23 18 16 18 20 16 17 22 19 18 25 26 22 14 20 19 25
22 17 19 19 22 24 14 22 17 17 25 14 23 14 23 14 22 15 21 26 22 23 21 24 17 19 16 26 26 16 19 24 14 16 25 17 19 25 20 20 14 23 26 21 20 24 23 14 16 14 24 20 17 18 22 23 14 14 21 15 23 25 18 22
21 20 14 16 23 16 24 25 19 19 26 24 19 24 21 26 19 24 16 25 20 21 22 23 23 24 19 23 16 18 17 20 20 16 16 15 17 16 15 23 26 20 18 14 26 25 17 23 20 26 26 20 26 14 16 22 21 17 14 24 14 22 22 20
18 26 19 23 14 18 26 23 15 22 20 26 17 17 20 16 23 20 15 23 25 24 18 23 26 18 19 26 18 26 16 26 24 15 18 24 18 16 15 26 19 24 23 25 25 25 19 26 20 24 22 25 19 16 18 26 26 26 15 19 22 16 18 21
26 15 16 16 25 19 15 24 15 23 26 14 21 17 16 19 23 23 18 23 17 24 19 22 17 19 25 17 19 25 14 16 15 16 26 24 17 24 18 21 24 14 22 19 23 19 22 24 19 22 21 14 17 21 23 18 15 18 23 22 21 26 17 25
21 22 14 23 18 15 21 14 22 23 16 22 17 23 14 22 14 15 21 14 19 16 21 14 20 23 15 17 21 17 18 25 17 22 23 26 21 23 19 14 16 21 14 22 25 24 19 18 15 22 14 21 22 21 17 20 22 15 19 22 15 26 17 24
23 25 15 24 23 16 22 15 14 23 18 21 25 23 23 22 20 21 21 21 26 19 20 17 18 14 22 25 23 17 18 19 19 14 26 24 26 14 17 15 25 14 18 26 25 23 16 16 20 15 26 15 20 23 19 18 26 20 14 26 15 19 26 20
14 25 16 23 26 16 19 24 15 15 14 25 23 25 17 14 24 14 21 18 22 23 24 19 17 15 25 26 15 20 19 17 25 15 24 26 25 23 18 25 18 16 15 18 17 14 25 17 19 25 24 16 16 24 17 26 19 14 17 21 18 16 25 22
23 24 21 20 16 14 18 19 18 19 24 23 26 15 24 15 26 25 18 18 25 26 15 14 25 14 23 17 24 23 17 18 19 21 14 22 16 14 15 15 21 14 17 15 14 19 25 16 16 24 19 17 20 14 17 23 15 18 22 17 14 20 21 21
14 15 22 21 14 25 18 21 25 21 15 26 19 23 26 22 24 20 22 23 21 18 20 29 28 17 17 19 21 16 26 22 14 22 22 15 17 20 26 26 26 28 24 20 28 28 17 19 24 14 18 15 23 16 20 19 20 26 20 25 16 21 22 18
23 26 18 18 19 21 15 21 17 20 14 23 16 19 15 19 25 29 22 30 22 30 25 21 32 18 28 25 26 18 24 16 18 17 24 16 21 25 18 21 31 23 33 32 28 30 21 20 18 26 16 15 25 21 22 21 24 18 23 18 21 16 24 21
20 20 26 15 19 24 17 19 24 26 25 24 16 26 29 26 24 24 36 26 37 31 31 35 28 26 21 25 24 18 23 23 21 19 22 14 24 20 30 28 26 26 32 30 26 27 25 24 30 23 27 19 26 19 17 22 19 23 22 20 20 25 14 25
19 26 16 24 19 26 14 25 22 19 25 18 24 24 32 25 33 34 39 39 34 34 29 38 30 38 31 27 32 29 15 20 15 20 22 21 28 28 27 31 35 40 29 33 31 31 37 30 27 24 23 24 19 15 16 17 15 21 21 14 20 14 15 25
16 15 15 18 21 25 14 20 16 20 18 27 27 27 26 32 36 35 43 34 43 43 43 38 32 34 27 30 31 24 21 24 25 22 25 32 25 34 32 31 40 40 38 34 43 45 35 42 32 39 26 29 20 29 16 17 18 22 19 20 18 23 24 17
16 23 18 14 26 22 16 24 19 19 22 31 31 35 40 35 38 34 48 43 44 42 38 42 36 38 42 40 31 33 24 17 16 25 24 25 33 32 43 33 34 48 38 38 49 42 38 42 42 31 37 31 30 24 24 15 18 15 23 21 23 23 15 14
24 18 18 23 26 20 19 20 18 18 27 27 36 37 38 42 40 43 40 43 52 46 42 41 47 39 41 41 32 29 27 28 30 30 30 29 38 37 44 40 44 46 47 47 46 50 40 41 43 40 43 33 28 31 19 20 18 24 20 21 14 15 18 20
21 19 22 19 14 17 24 17 21 27 24 25 33 35 42 45 40 46 53 53 56 53 45 51 44 39 37 39 37 33 27 27 24 28 28 34 32 41 39 48 52 54 44 48 50 45 46 51 43 48 46 41 34 32 26 19 17 20 25 21 18 25 19 15
16 25 18 17 24 22 25 15 28 23 35 38 36 39 37 45 51 56 59 50 51 54 51 52 56 49 47 38 43 42 34 37 27 37 31 34 38 37 48 53 52 55 57 52 57 50 52 50 44 47 45 40 34 31 25 26 24 20 24 24 24 21 18 16
17 17 23 17 17 19 18 18 26 30 29 38 44 37 41 52 48 48 52 54 55 55 55 53 49 46 48 39 43 43 30 33 28 33 33 32 47 41 43 46 55 61 52 60 55 54 61 59 55 47 50 40 43 33 35 32 28 24 18 20 18 16 15 16
18 23 17 23 17 14 15 21 23 28 35 41 40 37 41 51 57 62 58 55 62 69 58 62 59 58 49 52 43 36 39 41 38 40 30 33 38 41 53 47 61 60 57 69 61 55 61 58 56 56 53 44 45 34 26 28 26 24 16 25 16 21 14 20
25 26 18 20 21 17 14 15 28 23 38 43 40 40 42 55 55 63 66 60 64 64 59 61 54 53 56 48 41 46 44 42 34 38 38 39 45 50 55 60 53 66 62 72 72 67 67 55 51 54 51 38 45 42 28 34 19 16 25 18 21 20 18 24
19 26 22 17 17 20 25 27 23 26 35 43 45 50 54 51 61 55 67 62 71 72 67 66 61 56 55 46 47 37 36 40 32 39 33 36 48 49 56 61 59 60 69 71 68 68 64 63 51 52 44 43 41 37 28 29 25 28 15 14 24 17 16 25
21 23 21 19 21 14 23 18 30 35 37 42 45 51 53 55 52 60 63 68 68 71 65 68 55 59 51 43 50 39 37 45 39 34 34 47 43 45 55 53 55 68 75 72 74 72 61 57 63 47 44 42 35 36 35 27 28 28 19 25 19 25 24 18
21 14 21 22 17 15 19 23 32 33 35 33 35 43 49 52 59 59 66 71 74 64 66 69 57 58 49 50 49 44 42 39 34 39 45 35 51 54 56 58 64 61 62 76 73 74 61 65 61 56 53 43 41 34 33 35 21 23 17 26 17 24 14 19
17 16 17 16 21 26 19 20 20 31 28 42 40 50 49 53 61 57 62 62 61 60 60 59 60 50 49 49 49 40 32 32 36 38 33 43 44 48 50 56 54 56 70 68 63 64 65 58 50 48 47 49 45 39 38 30 30 20 16 18 22 21 19 19
16 15 20 19 14 16 14 25 23 33 35 34 40 38 52 47 57 56 60 57 63 67 61 56 61 52 48 40 47 43 41 39 41 36 41 34 44 51 45 55 61 54 63 60 66 64 56 52 56 49 47 42 33 32 30 26 21 21 16 20 14 26 19 24
18 16 18 15 16 25 22 14 18 30 26 35 40 38 50 50 52 48 61 56 54 65 64 58 60 46 42 41 43 39 28 29 38 28 35 38 40 39 44 46 56 60 64 58 65 54 53 56 51 52 43 44 38 33 30 31 22 17 24 25 23 23 18 21
18 18 15 19 15 16 14 25 20 27 30 30 32 35 40 48 50 53 52 56 52 54 49 47 48 49 41 48 33 39 31 34 33 32 26 40 36 46 41 49 45 57 54 57 54 48 55 54 44 46 38 39 31 30 33 30 19 21 25 17 24 17 23 22
25 25 16 22 24 15 23 14 26 21 22 35 30 41 45 38 47 48 53 50 46 51 51 48 43 39 47 43 40 40 31 24 31 30 35 36 37 39 47 49 46 55 49 51 49 56 46 49 47 38 42 36 40 28 32 29 23 15 26 22 26 15 17 22
24 17 25 24 18 18 29 19 27 20 26 31 37 41 44 42 44 50 46 50 51 49 56 53 52 50 38 47 38 38 39 35 28 28 27 35 37 44 44 43 53 55 47 50 46 46 53 55 43 47 41 36 39 31 33 25 28 20 20 24 29 22 30 30
27 28 33 21 32 28 22 31 28 31 30 33 41 35 41 43 44 46 50 55 47 49 57 52 43 47 47 47 43 34 35 35 31 29 33 37 36 46 44 51 46 47 55 59 60 52 55 50 44 53 45 44 39 44 38 35 29 36 29 30 35 38 33 39
26 36 33 24 36 24 30 35 31 26 33 38 41 42 43 42 44 54 50 45 56 46 50 49 51 54 52 48 48 36 38 38 32 31 32 43 49 48 47 44 53 51 57 49 60 55 56 55 51 51 48 44 47 39 38 38 38 43 37 37 39 33 45 33
20 30 27 27 28 32 23 22 24 28 32 31 36 34 30 40 39 39 39 46 48 42 42 46 35 36 42 38 35 27 35 32 32 23 29 32 36 44 41 39 47 49 47 48 52 41 43 39 41 40 36 34 35 32 28 32 37 38 27 28 38 26 26 33
17 21 29 19 19 24 18 19 20 28 28 27 19 21 30 30 32 30 37 32 41 32 39 29 35 31 33 32 29 30 18 18 26 27 28 19 27 25 32 28 38 29 33 34 42 42 29 39 28 32 29 26 25 31 26 29 29 24 32 24 23 22 24 27
19 15 16 16 19 23 18 21 22 19 21 25 21 23 26 26 24 27 21 33 30 33 31 30 25 27 26 23 22 23 19 22 16 20 24 24 25 18 29 28 29 26 22 33 27 29 22 28 23 26 24 17 14 17 14 17 16 18 26 21 22 15 14 25
20 15 22 17 17 16 26 24 23 22 17 21 17 18 20 17 18 27 18 19 26 24 19 28 26 16 25 24 17 17 20 26 23 14 22 14 21 23 22 20 20 25 28 24 28 24 24 19 24 21 26 22 24 22 16 18 18 21 15 24 24 20 26 19
17 14 20 23 16 16 19 19 17 19 17 25 17 15 23 16 16 14 24 16 22 17 16 20 14 26 16 22 21 26 16 26 14 25 20 14 21 19 21 21 20 18 14 18 16 20 16 16 24 20 14 21 18 17 17 14 14 24 18 14 21 26 16 16
14 21 15 25 21 20 17 18 18 15 20 15 18 18 25 23 24 16 19 26 21 18 16 18 25 22 15 16 19 15 25 17 23 17 20 23 25 22 23 23 15 20 22 24 19 14 22 24 19 15 17 17 20 25 20 23 14 23 21 24 23 21 19 26
16 23 19 21 15 20 19 24 14 17 23 14 14 19 19 16 21 22 25 18 16 21 19 20 18 21 19 14 24 23 15 17 20 22 26 18 17 21 18 20 26 25 20 18 22 14 17 14 18 20 22 19 26 17 25 17 15 26 19 15 22 18 17 23
20 22 25 15 15 21 24 20 25 18 21 20 17 25 23 17 22 14 24 20 25 16 17 20 21 22 20 25 18 26 23 16 19 26 20 23 24 23 22 17 26 18 17 17 14 22 18 17 20 26 25 18 22 20 24 22 14 14 14 23 17 14 25 14
23 23 26 24 14 20 24 24 15 26 21 16 25 19 24 19 17 21 26 21 17 17 20 19 16 21 25 16 21 16 26 19 16 26 19 22 14 26 14 18 19 23 15 17 21 14 15 23 24 15 17 25 21 26 20 21 17 19 18 20 18 26 18 19
20 14 17 15 14 21 20 22 17 15 23 19 22 21 18 24 20 15 25 17 20 25 18 17 22 25 23 14 26 17 17 19 17 24 21 26 17 18 18 16 20 21 20 17 14 26 17 26 20 14 20 20 22 14 16 19 22 18 20 23 25 22 15 14
25 18 21 18 20 23 22 19 26 16 18 23 16 24 22 14 24 15 20 14 22 16 15 20 23 14 19 23 25 14 16 26 17 20 18 25 22 23 18 19 16 22 15 18 18 17 21 15 18 19 23 26 24 22 26 20 20 25 16 18 26 25 23 21
19 14 17 20 26 17 20 14 23 26 17 21 21 24 15 26 21 22 14 16 22 15 15 26 18 22 18 22 17 19 15 17 20 25 15 24 17 23 26 26 20 14 15 23 17 18 15 14 20 17 22 22 26 17 20 21 14 15 19 18 21 23 25 14
16 24 19 15 20 21 15 17 24 22 19 21 17 15 15 17 21 24 21 25 20 24 24 20 16 26 21 15 18 24 25 15 20 14 24 18 22 15 15 19 14 19 16 17 15 20 18 18 23 19 18 21 20 25 19 23 25 26 17 17 21 15 26 14
26 18 14 18 24 22 20 16 14 16 21 25 18 26 17 23 25 24 16 21 16 26 18 19 21 26 14 14 26 23 17 26 20 18 20 23 24 19 17 26 20 23 25 15 25 25 19 15 14 22 16 14 21 25 22 24 25 25 26 25 19 18 19 21
18 24 22 24 23 26 22 17 17 16 23 14 15 23 23 22 20 16 21 19 22 23 26 19 17 16 14 17 16 16 25 24 18 20 18 25 20 17 14 14 24 18 25 20 19 15 14 17 25 14 24 15 16 19 15 22 24 16 17 22 19 23 16 22
17 18 26 25 17 17 21 21 22 26 20 16 19 24 22 23 26 26 17 22 17 20 20 16 17 17 18 21 14 20 14 17 15 18 14 26 20 19 20 16 14 26 19 17 17 23 18 18 15 15 26 24 18 22 15 20 25 25 26 23 24 20 23 21
20 24 20 14 20 19 26 21 16 18 17 25 19 19 26 24 21 19 19 15 24 17 17 16 16 18 22 15 16 20 15 16 19 18 19 14 22 22 16 26 19 26 16 24 22 24 25 25 18 15 15 21 24 17 19 26 14 24 16 25 15 16 14 17
24 20 14 15 15 21 21 23 25 26 20 18 20 15 25 14 17 18 17 16 17 17 26 15 21 16 18 19 21 25 22 17 19 24 18 20 19 16 15 19 23 24 19 16 14 22 18 22 18 17 25 21 15 21 26 21 24 14 23 21 25 18 25 17
14 25 26 14 23 26 21 22 23 24 25 19 16 22 20 19 26 15 21 20 16 19 20 25 15 23 20 14 20 15 15 19 20 22 16 24 23 18 16 15 23 14 25 20 19 23 21 15 21 18 24 25 15 25 22 25 20 20 16 22 18 17 23 16
15 20 26 14 22 19 19 17 17 25 16 20 15 26 16 20 21 19 14 25 26 18 20 24 16 25 15 14 23 15 17 24 16 17 20 24 18 22 18 25 15 25 21 26 23 25 16 23 19 17 15 25 26 22 24 24 18 24 15 16 20 15 14 23
25 18 19 25 24 19 14 22 24 25 25 19 15 23 17 17 24 22 21 20 22 23 21 18 20 21 19 23 25 17 17 16 23 23 25 15 16 16 20 20 21 14 26 22 24 18 15 18 15 21 20 18 17 23 26 19 22 15 24 21 21 17 19 15
22 16 21 15 14 23 24 18 18 17 21 26 17 18 24 16 21 23 14 14 21 20 22 21 16 21 23 23 21 19 18 19 14 17 17 26 18 14 21 24 24 14 20 21 17 21 25 20 16 18 20 26 18 23 15 17 25 14 19 16 21 14 17 25
