P2
64 64
255
32 34 33 32 27 38 19 18 37 29 37 18 30 33 33 37 22 36 22 30 35 26 30 31 18 23 30 35 23 35 37 19 22 20 36 29 37 35 23 19 22 22 19 31 23 34 36 28 30 31 26 31 30 32 35 34 29 31 31 22 24 34 26 32
32 38 24 35 19 25 30 34 28 32 33 35 26 26 19 25 23 23 26 25 33 19 18 24 30 38 21 30 23 31 32 18 24 36 33 31 29 22 26 27 38 33 28 21 26 19 30 22 32 37 31 22 32 20 24 24 38 30 30 32 26 37 27 27
22 37 27 33 27 26 19 23 29 38 25 20 23 21 20 36 26 35 18 29 28 26 18 20 18 32 38 36 25 25 38 25 34 38 38 38 23 21 30 19 21 24 24 37 30 19 21 25 22 37 29 25 36 21 36 30 18 38 30 31 23 38 37 30
18 24 36 32 31 36 38 32 25 26 29 25 36 20 35 36 35 30 31 19 33 27 18 30 32 25 35 28 27 36 19 32 37 26 27 22 34 34 34 28 30 22 19 32 21 35 22 26 25 25 25 26 24 27 33 18 24 25 29 29 21 36 30 31
33 34 27 36 32 37 33 36 36 32 22 25 23 23 36 28 21 31 22 37 30 32 37 33 24 25 19 34 21 29 18 36 36 24 18 29 25 24 38 20 23 22 28 23 36 23 37 27 27 36 18 24 32 35 38 37 29 30 19 37 31 34 33 20
20 36 22 38 34 35 25 20 36 27 32 37 26 32 19 18 23 33 19 34 30 29 30 21 24 29 32 29 31 31 19 36 31 20 20 28 25 38 21 30 36 35 38 34 35 21 26 18 21 26 33 23 24 38 30 30 31 38 25 38 34 18 35 19
34 25 18 36 19 36 32 36 35 35 32 33 23 36 36 29 38 32 32 31 31 27 33 29 32 28 31 31 30 25 22 18 25 23 25 34 33 32 38 33 27 21 26 23 29 26 27 19 20 29 24 21 36 30 32 36 34 29 32 22 34 30 27 37
28 27 21 21 29 37 21 20 23 26 29 23 35 35 25 32 24 21 38 36 29 34 35 32 28 30 36 37 38 19 28 23 19 22 23 31 20 18 30 22 34 38 36 31 36 30 26 26 30 30 28 27 28 18 26 35 31 37 22 34 38 34 22 28
29 31 28 18 22 32 33 18 30 19 20 38 33 34 29 35 22 32 35 23 32 20 28 24 20 22 35 19 26 33 28 36 35 28 18 30 23 32 23 29 30 38 30 19 19 19 34 28 22 29 23 37 28 27 20 35 37 21 37 32 24 25 26 33
30 33 34 20 35 28 38 19 24 35 25 22 32 24 22 27 35 27 32 30 20 25 37 20 36 37 25 28 30 19 35 22 34 25 27 28 38 20 32 26 19 18 34 27 23 34 34 29 31 35 25 22 36 26 26 22 23 27 26 34 23 30 36 34
24 28 27 24 36 24 38 21 35 30 38 26 28 22 38 27 18 28 25 36 33 32 20 27 36 25 20 29 37 28 33 23 31 28 33 27 26 30 21 25 25 23 24 24 18 18 18 26 26 29 38 22 31 35 32 18 26 22 36 30 32 31 20 27
33 33 25 21 20 31 31 30 23 38 30 20 36 22 25 18 32 34 21 36 22 27 29 34 35 31 33 21 30 33 19 18 24 22 34 26 29 36 34 18 38 34 27 38 37 29 18 21 38 27 31 24 25 38 22 29 37 36 38 24 24 20 23 38
29 19 32 25 21 19 37 33 26 25 23 27 21 37 20 23 25 25 22 34 28 22 32 28 34 31 25 20 23 33 24 28 19 36 23 35 21 22 31 27 36 38 31 38 35 35 29 18 22 23 36 34 37 32 36 27 21 36 24 28 20 24 27 37
29 18 34 26 19 31 19 34 37 30 20 28 33 33 27 21 37 37 36 25 27 27 24 24 33 34 35 35 23 29 28 19 37 26 31 37 38 25 27 35 18 30 18 25 21 26 28 35 33 22 19 37 27 34 26 25 27 37 28 31 20 30 25 20
21 30 29 22 36 28 29 31 25 36 35 18 28 34 23 31 31 21 28 32 33 24 36 25 24 30 28 34 28 36 33 25 33 38 25 33 35 30 19 36 26 18 31 31 31 28 34 38 25 27 28 21 29 29 24 21 29 37 28 36 30 22 18 37
31 22 30 24 32 18 38 33 37 23 23 18 22 33 34 18 38 24 22 21 19 35 25 27 25 35 29 30 32 35 30 19 37 19 31 19 29 32 21 20 29 29 35 25 35 26 25 26 20 23 30 24 29 22 33 29 29 26 27 19 21 37 36 25
30 37 23 31 38 37 32 35 36 33 29 38 31 34 18 27 33 21 26 18 19 24 28 26 28 38 30 29 36 21 25 32 18 34 26 38 19 22 36 27 27 19 38 28 24 32 38 23 18 23 35 25 25 30 26 29 25 26 29 26 30 23 25 20
22 38 26 32 27 33 25 21 34 24 31 36 21 27 27 33 36 37 23 34 29 34 27 31 22 18 23 35 19 32 27 21 18 26 31 24 32 21 21 21 31 25 27 35 33 38 23 37 32 21 21 36 35 22 33 19 30 33 25 21 38 21 24 28
28 23 23 37 27 25 38 38 37 19 24 20 28 24 27 36 24 28 25 38 21 38 38 18 30 26 20 26 30 29 36 20 29 38 26 18 23 19 36 35 25 36 34 21 22 28 25 37 30 24 37 37 35 38 20 27 30 18 24 30 23 22 28 26
35 25 37 35 37 35 19 20 33 25 30 23 20 37 38 26 19 32 40 37 23 32 23 22 20 23 27 24 25 28 26 36 31 30 19 38 37 30 29 27 34 29 21 29 36 21 38 39 22 32 32 35 31 32 30 26 26 34 35 33 35 38 27 35
28 23 32 26 22 36 37 31 18 27 29 23 26 19 32 23 38 26 45 37 44 30 28 45 35 23 29 25 19 18 27 24 21 34 19 29 30 27 24 23 36 39 45 32 38 39 35 42 37 35 38 22 30 18 36 19 37 30 36 36 23 30 25 22
35 28 37 34 31 38 38 18 19 28 24 35 31 23 29 25 46 34 45 36 32 42 33 44 47 37 28 39 37 37 35 36 35 115 30 36 40 27 43 34 42 37 32 39 33 31 38 34 31 33 28 28 25 20 28 38 20 22 36 37 38 29 30 35
33 28 25 35 37 32 19 28 19 36 22 31 25 32 34 35 45 51 51 51 43 44 37 40 39 47 33 44 30 31 25 37 117 20 29 35 43 40 46 36 40 47 49 52 43 46 32 46 33 31 45 24 30 22 32 21 26 34 30 19 31 36 33 19
30 18 36 27 37 29 34 20 23 34 37 28 30 41 30 45 38 37 47 54 39 53 57 47 48 47 48 39 37 26 27 32 111 20 27 126 28 31 44 33 51 41 47 37 50 49 50 47 37 51 45 28 24 24 37 37 35 27 29 28 38 18 23 37
21 30 18 22 37 21 30 25 19 27 22 34 47 43 43 47 48 48 51 59 60 46 46 40 46 53 42 37 39 40 26 24 33 108 34 38 135 32 53 56 45 53 51 44 50 46 55 40 56 38 48 48 28 40 29 35 35 30 24 33 27 30 36 30
30 21 37 18 36 30 24 20 22 37 41 33 37 34 48 41 41 48 55 56 47 58 46 62 47 44 43 48 47 47 41 111 32 121 44 131 38 49 50 49 61 46 51 57 52 54 47 55 41 48 55 44 43 32 34 33 37 25 29 22 37 27 24 18
30 31 24 27 34 21 29 24 24 30 29 36 49 50 48 58 52 60 48 55 67 53 53 62 64 48 43 50 46 32 32 127 44 28 129 121 45 40 49 51 56 67 49 59 58 67 51 57 63 50 53 41 40 38 33 33 23 20 22 21 24 35 23 23
21 21 32 23 25 20 38 19 32 40 41 31 50 48 51 59 54 68 56 54 71 57 55 67 51 48 56 43 56 37 33 117 127 42 34 128 127 45 57 54 54 65 63 53 67 59 56 62 48 48 58 37 47 48 42 41 34 18 36 19 22 23 25 30
21 37 25 18 29 30 27 32 37 31 47 48 49 59 59 62 54 71 54 69 70 72 65 59 58 59 63 52 53 37 32 48 215 39 128 55 55 133 54 59 68 61 58 71 69 56 60 62 59 53 61 58 46 45 32 31 22 23 20 25 21 23 31 31
37 20 19 38 22 30 20 34 35 30 48 44 43 56 61 53 59 68 76 62 70 63 64 66 72 66 48 51 42 46 139 135 50 137 131 39 52 141 68 63 62 72 64 81 76 65 73 74 52 51 46 44 47 47 37 45 37 34 25 24 19 31 19 29
37 37 23 38 22 31 19 31 33 47 40 41 49 54 63 61 53 62 62 66 66 83 65 65 65 59 52 57 54 132 37 53 217 47 36 129 44 136 67 68 71 76 71 68 81 66 70 60 65 64 56 54 44 49 36 29 29 33 35 35 34 19 25 31
29 37 19 22 24 24 29 21 26 46 50 41 55 54 47 63 66 67 73 82 76 81 70 82 66 66 55 59 59 39 134 53 138 123 55 141 45 135 57 54 64 73 78 82 81 82 64 58 66 68 48 58 44 39 33 39 41 33 31 25 22 33 34 31
28 34 36 21 28 28 22 24 38 40 42 44 49 52 55 52 60 70 64 70 75 72 79 83 68 70 65 53 47 45 130 51 132 124 38 142 48 67 150 62 71 70 79 79 86 69 66 79 68 51 65 55 54 44 35 47 43 32 22 33 21 19 34 33
29 33 35 30 33 28 25 33 33 32 47 44 56 46 48 51 62 71 71 77 72 86 73 81 72 71 68 56 63 41 127 41 138 50 139 143 43 56 150 70 59 75 85 77 71 69 68 58 72 62 56 59 39 44 51 33 42 39 37 34 24 25 25 34
42 25 39 24 24 34 29 33 47 48 53 55 55 58 59 72 61 78 73 69 78 81 74 85 69 67 62 62 57 47 46 216 56 63 128 63 139 63 162 65 69 70 83 91 73 77 83 66 70 74 69 65 51 64 52 47 36 44 46 43 29 45 34 35
48 32 41 45 49 44 31 36 52 50 59 53 54 54 76 79 83 77 70 72 83 83 90 72 86 73 82 78 56 56 139 64 145 62 50 153 158 165 82 74 81 75 90 96 84 79 87 93 87 67 72 78 65 67 67 60 53 49 38 49 46 55 54 45
45 41 52 36 42 51 54 36 52 56 67 62 66 74 62 67 78 75 77 90 84 84 88 94 94 82 83 67 69 152 57 71 70 149 68 75 251 75 89 88 82 91 92 84 86 101 91 87 87 84 82 88 65 67 59 60 55 64 51 50 50 56 52 69
59 50 48 57 44 54 47 53 60 49 54 74 67 73 84 89 75 86 79 92 87 90 101 96 95 87 77 84 75 161 82 80 69 65 152 85 255 168 80 95 96 94 99 89 101 104 104 90 91 85 92 94 85 87 80 83 78 79 68 64 80 76 63 68
55 48 50 36 40 45 54 42 38 48 53 57 69 76 63 65 73 70 74 73 78 85 87 73 80 73 72 69 63 146 71 68 65 55 148 66 157 237 86 78 77 82 79 92 87 90 83 75 88 83 85 83 71 76 63 73 69 68 54 68 71 58 67 55
33 39 32 32 40 50 37 50 47 43 46 41 50 64 51 72 68 76 74 79 69 65 71 77 68 56 59 51 145 58 45 41 43 55 49 133 66 233 159 66 71 69 74 66 77 70 70 72 71 65 59 59 57 48 59 54 44 56 48 52 47 58 48 50
24 36 24 44 44 29 39 28 27 40 38 38 39 57 50 56 50 63 53 55 53 52 67 62 52 52 45 49 47 133 46 41 45 47 50 45 136 137 146 140 68 53 63 61 53 60 50 67 48 59 49 60 58 45 46 49 30 49 43 49 37 45 47 46
20 18 21 27 20 35 33 29 38 21 31 30 31 32 49 35 36 50 48 38 48 38 40 49 55 46 37 46 28 122 24 27 24 19 35 38 33 250 121 49 45 49 46 54 44 49 55 49 41 43 44 44 34 33 25 28 30 30 29 26 35 36 27 26
37 21 35 35 31 26 19 28 36 33 18 20 33 35 44 32 46 44 35 40 49 47 42 47 43 37 44 37 36 31 115 35 34 36 19 39 201 112 131 31 31 41 34 42 51 52 45 51 39 30 30 38 33 26 21 29 27 23 35 28 24 32 33 23
31 28 33 20 32 18 38 32 31 34 31 37 25 39 39 30 45 32 46 35 41 42 47 40 43 35 35 23 32 115 20 34 20 20 30 33 109 198 37 121 30 45 40 35 49 37 40 45 32 36 29 24 22 35 25 21 28 26 30 34 33 28 31 31
23 36 18 32 22 32 24 22 36 36 34 32 22 35 32 25 35 33 33 45 38 42 27 42 39 35 30 21 18 115 32 37 33 30 18 25 118 208 109 38 29 28 31 33 36 25 34 24 37 38 36 25 34 18 22 21 38 30 23 21 20 23 37 36
30 29 36 38 23 30 21 21 36 25 32 33 22 20 30 34 39 30 22 35 40 36 21 36 33 28 27 33 28 109 29 27 36 35 20 103 24 18 203 122 20 25 28 30 40 22 28 29 35 32 34 20 32 34 30 36 36 34 25 24 32 32 30 21
19 31 26 30 37 28 19 31 26 19 24 26 23 19 20 29 29 35 25 18 32 36 37 31 22 37 28 26 20 18 108 18 34 38 105 28 22 118 32 115 115 24 28 32 38 32 24 20 21 26 26 28 28 35 33 25 18 25 28 34 32 20 22 20
33 38 34 26 30 35 25 28 29 18 26 34 25 28 32 38 37 31 28 19 25 25 36 27 26 37 35 24 36 106 22 31 24 107 19 38 105 29 26 38 203 27 19 19 20 28 21 32 34 28 31 32 34 28 26 20 36 37 37 38 24 30 36 34
22 19 19 20 21 23 38 30 32 31 27 22 21 18 35 37 38 34 34 20 22 19 19 19 20 35 24 22 121 28 35 35 18 27 119 23 103 24 21 24 195 25 24 26 32 19 34 22 25 30 32 35 35 34 23 33 33 22 19 37 21 24 27 18
28 33 23 19 34 22 35 38 32 33 34 30 21 30 22 37 36 35 33 24 18 31 20 24 31 28 34 104 23 20 32 24 27 22 25 197 25 35 35 18 106 114 34 37 19 24 34 29 37 33 24 26 36 19 23 18 18 34 33 20 32 26 24 27
33 21 37 18 38 37 28 34 23 34 38 30 35 38 34 20 26 25 34 33 38 28 30 26 20 22 29 26 111 36 30 26 24 37 115 120 26 28 36 27 18 123 117 21 28 34 36 23 25 23 18 35 24 21 35 38 34 27 19 25 30 34 32 35
38 26 19 26 20 23 26 19 24 31 18 21 25 28 26 36 35 31 21 31 38 30 29 24 24 35 30 108 24 33 27 21 24 113 30 115 26 19 38 33 34 117 117 29 26 21 25 22 36 29 19 32 18 22 36 29 24 31 24 18 32 23 20 18
20 26 31 23 38 29 25 19 22 24 26 30 22 25 24 28 23 22 27 25 26 21 25 27 32 26 23 34 108 31 25 35 32 33 191 26 27 22 29 29 122 107 21 32 27 23 24 29 29 32 18 26 32 36 24 36 20 37 30 26 20 36 26 30
26 21 29 21 34 33 29 24 19 37 24 27 38 30 36 37 25 34 36 27 27 18 27 35 20 26 18 115 38 24 34 25 36 27 113 19 23 34 20 113 22 116 28 22 29 35 30 27 24 23 28 34 28 33 32 22 32 33 26 24 38 33 28 33
31 29 22 38 23 38 30 35 38 23 20 29 29 35 32 35 22 35 36 19 28 33 24 27 37 19 18 33 123 36 37 30 35 104 30 36 35 31 25 22 199 37 18 34 24 24 33 34 31 21 36 30 30 26 20 28 37 37 22 29 37 30 27 22
29 34 29 23 36 23 24 25 38 32 38 22 33 30 29 30 38 18 38 21 28 36 27 31 30 35 22 20 24 105 30 21 115 28 27 31 24 23 19 33 32 117 20 18 25 35 26 38 32 24 20 29 24 35 27 18 37 26 34 23 20 38 29 23
34 24 23 30 37 36 23 28 36 22 24 27 28 26 25 34 33 27 35 23 25 32 19 26 36 38 26 37 19 18 117 32 21 109 32 33 32 32 19 28 35 119 19 31 38 24 19 26 24 36 19 35 24 36 23 27 21 25 28 27 23 34 19 20
36 20 38 27 36 36 34 21 19 22 31 19 27 27 36 21 29 20 28 30 19 36 32 24 34 19 24 36 28 19 25 32 114 27 30 38 29 37 34 38 114 25 32 28 28 32 33 25 36 21 28 19 31 32 36 21 26 25 18 28 18 24 29 18
25 34 38 22 33 31 35 24 34 27 30 21 19 33 30 18 19 20 29 21 35 30 18 32 26 36 23 31 35 24 26 111 20 27 27 31 37 33 25 119 28 33 38 36 29 34 31 29 35 35 31 27 22 27 22 33 37 22 20 25 23 36 31 26
34 20 22 32 31 35 20 21 22 21 34 21 29 27 34 22 21 31 32 21 24 18 28 33 25 34 36 29 23 38 36 18 116 28 19 22 34 29 28 26 35 23 37 24 24 26 18 34 35 19 29 33 33 28 23 31 25 31 33 36 30 28 30 22
20 24 29 27 20 29 24 35 33 25 37 23 35 21 25 35 37 23 29 29 27 26 18 37 28 19 38 20 22 36 29 33 105 36 35 19 18 35 26 37 36 30 19 28 27 19 37 27 32 28 29 36 19 27 26 35 20 35 19 33 21 25 37 25
27 36 34 27 35 18 29 23 26 24 33 35 38 32 37 26 29 20 21 24 26 22 23 38 26 18 22 32 27 26 22 19 25 29 29 23 29 31 35 33 38 27 25 32 21 20 32 35 22 33 25 33 37 32 21 25 25 22 33 31 29 23 23 34
18 19 26 38 18 28 28 37 33 23 30 26 28 30 38 29 18 31 35 27 18 38 37 20 35 32 38 28 20 38 35 29 29 18 31 20 24 26 33 36 36 38 37 21 30 18 33 36 24 30 30 23 25 19 21 30 31 25 29 38 35 28 28 32
33 23 22 26 30 36 34 24 28 35 22 35 37 29 29 33 30 34 29 26 27 33 22 30 32 32 37 36 24 30 19 19 21 38 37 19 19 18 21 21 31 30 36 29 24 37 31 27 38 31 27 24 34 31 38 26 32 35 24 27 38 20 18 33
