P2
64 64
255
27 23 37 18 19 27 23 27 33 36 20 23 32 34 21 21 33 36 23 22 36 31 23 33 22 21 23 27 31 28 33 34 35 36 31 20 26 27 36 23 30 26 18 18 31 30 27 34 20 20 35 36 23 19 21 20 24 21 35 29 32 29 32 26
32 35 31 24 24 32 36 25 35 30 21 19 24 18 29 33 37 25 27 27 19 27 30 30 33 18 31 18 19 33 25 22 27 19 18 29 29 31 24 22 32 25 25 23 35 29 25 23 38 37 35 35 19 18 19 23 20 27 31 23 20 28 23 28
29 21 32 20 20 30 28 29 22 29 37 36 27 23 34 32 36 30 27 33 28 35 26 34 38 31 36 22 30 33 20 20 25 25 31 34 22 38 35 27 34 32 30 37 34 18 18 26 19 25 27 22 29 38 21 27 18 28 19 33 36 37 30 20
29 26 24 25 38 32 19 25 34 26 18 30 31 32 33 34 30 28 34 24 28 21 33 30 31 18 26 29 30 18 26 35 21 38 29 20 26 35 22 26 26 35 36 20 24 24 23 31 36 21 34 22 34 26 23 32 37 37 25 26 31 36 23 29
28 34 25 30 31 24 21 22 25 26 26 19 33 38 31 21 25 33 27 37 26 33 25 24 33 32 30 25 23 31 20 28 29 24 31 22 37 36 30 34 28 32 34 37 30 22 32 19 36 38 31 20 31 32 23 33 37 20 32 27 21 29 28 31
33 23 24 26 21 31 27 30 27 29 33 26 31 30 18 29 30 36 36 21 18 25 18 31 29 20 21 29 20 22 21 26 32 34 26 28 26 23 32 32 32 30 33 20 28 37 36 18 28 18 25 34 31 28 20 29 18 33 37 25 27 32 18 32
31 22 20 26 21 23 18 25 18 21 33 18 24 22 20 24 26 18 28 37 32 29 37 20 22 18 22 35 18 38 23 37 23 37 18 23 38 30 18 21 38 24 31 38 23 22 29 28 22 38 36 18 20 20 35 34 18 28 36 22 23 30 35 27
29 25 24 18 26 32 34 38 36 21 34 25 31 20 30 19 24 18 24 24 34 28 37 28 34 31 34 22 29 28 30 36 31 18 27 22 27 35 32 29 19 19 22 22 38 36 25 37 36 31 19 28 34 22 30 21 20 21 30 19 20 25 25 33
30 28 37 34 26 32 23 20 34 32 19 18 20 29 30 34 26 23 37 32 20 24 27 24 30 24 34 29 23 34 28 35 25 36 32 22 24 19 22 29 32 23 18 37 32 34 18 24 25 36 37 29 34 27 18 32 30 25 38 35 31 26 21 21
37 19 19 35 19 24 35 34 25 21 21 28 30 21 18 37 29 22 34 28 23 38 27 23 35 25 18 20 26 28 22 24 25 38 34 25 28 38 19 33 37 28 29 29 27 30 19 36 38 29 30 33 25 35 23 22 27 22 33 31 24 34 35 29
28 29 34 37 35 22 38 27 28 28 38 33 20 29 35 28 31 34 22 37 36 23 26 23 37 38 29 24 26 19 31 23 25 32 36 33 31 26 35 38 32 28 30 21 35 20 29 38 23 30 33 27 33 31 30 28 26 30 36 30 20 22 32 25
33 18 18 25 31 33 25 32 23 23 25 22 21 33 19 27 29 19 22 31 31 27 24 27 22 30 23 28 19 23 35 36 29 22 27 29 27 28 29 29 33 25 24 19 28 21 33 18 36 36 26 18 24 20 28 23 26 26 20 37 28 25 29 37
27 31 21 32 22 27 22 20 31 23 32 19 38 34 35 37 23 28 31 27 21 20 26 26 31 35 24 28 36 21 27 19 30 33 24 18 23 20 32 28 19 26 32 21 19 21 20 21 30 36 26 31 23 18 20 23 27 29 37 18 24 24 36 36
25 20 38 29 19 22 36 28 21 22 31 25 24 30 25 36 38 25 24 31 21 33 20 32 20 31 36 26 30 21 35 20 18 25 26 22 31 24 36 26 29 31 23 37 38 30 34 26 22 34 24 21 27 22 31 31 29 29 30 30 24 23 38 31
18 30 31 37 29 38 21 30 30 32 24 28 29 27 37 29 29 32 18 31 23 38 34 27 21 25 23 36 37 18 28 26 21 28 18 31 33 32 25 33 26 18 34 35 26 31 33 23 32 37 22 19 24 32 24 28 20 33 26 28 21 31 23 36
35 31 19 34 33 24 26 21 27 29 20 33 28 27 22 38 22 32 26 26 38 38 38 19 36 36 18 33 20 23 22 21 31 29 27 30 21 33 27 22 21 19 28 18 18 34 28 29 19 29 23 28 29 29 35 31 30 37 18 34 23 32 31 37
36 18 27 23 20 26 36 30 25 27 25 25 25 35 38 21 37 33 28 20 21 20 25 31 22 24 25 28 37 28 24 23 21 36 22 26 22 19 25 27 33 38 24 19 38 28 24 27 25 25 23 23 32 28 25 20 37 31 37 35 31 36 30 20
34 19 30 24 36 23 22 21 19 21 28 35 32 38 22 34 30 30 18 25 34 25 22 37 27 31 33 18 37 29 31 32 21 33 20 31 36 19 18 36 22 23 26 32 20 28 38 19 27 33 24 31 37 34 31 26 26 26 23 36 37 27 32 21
38 37 19 18 32 29 35 24 35 27 36 21 25 25 32 27 29 22 35 26 37 21 24 27 46 35 43 32 36 21 28 27 23 22 34 30 29 20 22 34 21 38 32 24 27 31 24 18 26 33 18 30 34 38 37 30 32 28 32 25 37 24 22 38
28 37 20 31 36 33 25 26 24 33 28 35 24 34 30 23 27 36 33 25 39 23 44 48 45 46 59 47 55 51 42 29 26 27 22 21 21 26 33 34 26 27 33 33 28 27 21 29 29 25 31 29 18 31 29 33 36 36 18 36 29 31 33 29
31 37 32 25 35 23 21 25 25 26 28 34 20 26 33 25 34 40 39 42 40 37 58 69 76 79 76 70 65 49 53 25 21 24 23 34 38 37 38 25 42 38 26 34 36 45 27 30 32 25 22 18 28 31 37 20 34 26 31 26 23 36 32 19
34 35 18 24 32 35 20 21 35 35 36 38 19 25 26 27 33 37 38 42 49 60 62 64 87 85 96 91 74 74 44 49 40 26 28 29 21 30 33 35 30 33 41 48 37 31 30 39 28 31 24 26 19 33 30 19 29 29 26 38 20 22 32 38
20 19 36 23 21 38 20 20 33 20 37 24 26 43 35 31 49 42 39 35 46 67 75 76 85 100 101 100 83 65 66 47 32 29 37 40 39 44 47 39 48 43 48 40 41 49 35 41 34 36 40 27 22 20 19 23 29 20 36 24 21 23 18 23
19 26 29 36 24 22 33 27 21 35 38 21 37 32 40 37 45 46 54 50 66 68 85 94 102 117 113 102 98 86 60 62 46 34 21 28 31 37 36 48 50 36 37 39 54 46 45 50 49 50 47 27 44 22 21 31 30 37 19 18 22 34 18 33
19 26 19 20 36 36 35 26 20 26 40 27 31 47 46 53 44 46 55 59 55 72 85 111 106 129 142 111 103 99 73 51 35 29 30 47 42 48 45 40 53 60 55 58 54 58 53 41 45 49 37 48 46 34 23 38 26 24 23 37 21 21 36 24
26 27 29 20 34 21 36 30 36 39 30 37 33 49 51 42 40 43 58 48 60 72 97 98 117 116 122 120 112 87 77 60 41 33 34 41 51 46 56 43 59 45 49 46 47 55 52 43 45 52 50 47 44 38 31 29 30 31 24 36 29 28 38 29
24 37 32 38 32 36 19 20 38 32 25 35 52 50 51 51 44 57 58 54 63 73 91 104 108 125 115 111 97 87 72 47 42 27 48 41 53 56 42 47 60 47 61 68 60 50 48 48 55 49 39 43 34 38 29 32 38 19 30 22 25 29 24 30
34 18 23 21 34 35 34 27 34 39 42 51 38 50 52 52 63 68 57 66 76 68 93 98 108 97 96 92 95 78 68 48 40 31 34 43 42 59 50 62 57 63 65 55 55 54 64 56 48 56 61 55 54 51 39 33 40 34 32 24 38 29 28 31
28 28 33 37 24 24 30 19 25 26 30 36 36 43 63 57 66 56 70 60 74 75 85 92 94 89 93 94 85 66 56 47 33 37 45 38 42 44 62 61 69 77 78 75 63 65 69 58 69 56 50 59 42 45 34 37 25 26 33 28 22 18 34 18
18 27 38 28 28 18 32 33 37 33 36 37 53 53 57 49 59 55 76 70 76 66 73 75 91 88 85 70 66 58 56 42 54 40 45 52 47 53 76 74 75 79 80 97 82 91 81 75 58 51 49 41 47 42 38 30 42 32 33 18 30 35 28 38
34 33 36 21 18 29 30 32 29 31 44 35 44 50 64 54 58 60 70 75 76 66 63 65 82 77 72 74 66 55 38 46 36 37 43 38 59 74 71 78 83 86 109 110 89 100 79 74 66 54 58 47 49 53 32 37 39 22 21 26 29 22 29 25
27 35 30 22 33 21 38 28 27 40 48 51 59 45 57 71 72 62 62 75 70 83 69 76 63 56 65 62 47 59 37 45 38 41 46 65 76 80 93 98 97 104 111 109 108 95 99 79 69 72 64 61 39 48 43 33 27 32 35 23 19 29 31 22
22 18 37 33 35 34 37 38 41 45 52 38 52 63 66 64 57 79 76 74 89 85 91 72 69 77 68 66 52 50 53 44 45 56 45 60 75 81 102 98 117 116 122 129 120 105 115 87 77 83 54 57 43 38 43 40 33 26 22 33 34 36 23 34
36 28 32 22 37 27 38 39 34 36 43 49 47 46 48 68 58 64 86 89 87 100 84 95 90 85 78 60 56 41 48 37 54 43 65 64 69 92 107 100 119 126 119 126 131 129 117 106 99 80 62 62 58 49 36 37 27 29 23 35 29 21 33 30
29 33 36 29 19 27 37 20 35 43 32 49 41 46 54 65 70 71 87 96 106 103 102 104 96 85 73 58 56 42 40 49 50 56 49 64 72 102 100 105 132 129 140 138 126 121 122 102 86 77 66 51 44 36 31 32 23 32 26 38 32 22 36 21
23 18 24 23 36 25 18 34 27 38 48 52 39 52 45 63 77 77 85 90 102 110 94 109 88 97 84 67 50 41 45 48 44 49 60 81 81 89 112 114 123 146 134 148 127 123 106 106 88 81 63 48 43 47 33 46 28 28 34 37 34 30 31 27
36 31 37 19 27 32 36 36 36 25 44 48 47 55 58 51 63 89 87 101 99 107 101 115 97 93 88 63 68 55 39 48 49 45 67 76 92 101 100 127 134 138 144 150 135 129 125 99 101 76 68 47 44 47 49 38 25 23 26 26 28 38 38 24
19 29 31 22 36 35 31 38 38 25 45 48 42 37 58 68 75 80 83 95 111 104 125 114 95 103 74 68 65 52 43 44 43 57 63 66 79 103 102 126 128 139 154 147 131 118 106 96 91 84 76 51 42 34 35 41 29 25 24 25 38 27 19 24
38 34 32 30 19 22 32 32 27 38 27 32 47 39 47 56 60 87 84 101 110 108 119 116 107 101 80 64 60 45 40 43 36 36 65 73 76 91 98 115 128 143 144 144 119 108 119 100 87 74 66 59 50 43 28 37 24 38 20 23 24 38 28 38
23 22 24 18 27 22 25 22 32 29 31 38 32 41 40 58 61 77 96 103 98 119 127 107 97 88 86 72 69 40 42 39 41 42 59 66 68 85 106 97 125 119 135 119 108 102 111 98 79 82 57 44 42 29 29 39 22 23 38 22 18 23 27 38
30 20 31 38 29 30 29 20 19 30 39 32 46 30 35 44 59 80 80 97 110 119 113 108 104 93 69 65 56 46 27 35 27 45 50 53 66 73 90 96 111 115 115 111 114 93 84 83 83 70 57 51 34 32 36 36 29 28 33 36 24 28 24 22
36 30 28 19 31 20 26 34 24 33 23 36 27 40 46 46 58 70 79 85 82 96 97 106 83 88 68 71 43 41 31 38 24 28 42 48 55 75 70 90 102 96 99 91 95 97 82 69 57 55 40 38 44 40 31 19 23 34 25 37 27 26 33 29
33 33 27 29 33 36 31 33 20 28 38 25 39 37 44 39 50 66 70 86 81 79 90 81 83 80 69 56 35 31 38 37 18 18 32 48 56 63 68 86 88 89 84 87 79 79 78 69 51 60 34 31 37 36 31 27 30 21 19 34 22 24 35 20
34 26 30 21 29 20 33 27 18 33 21 32 21 25 32 40 39 55 66 64 72 80 76 82 70 65 51 52 47 29 38 32 36 35 18 25 36 48 66 71 73 81 74 80 74 58 64 64 46 37 37 40 35 35 31 35 20 32 30 30 26 27 27 24
26 24 31 27 26 22 25 28 20 32 32 29 30 33 28 35 28 34 48 62 51 58 55 63 58 59 48 40 22 23 26 20 33 34 34 29 29 32 44 45 59 67 63 66 52 52 62 51 37 26 24 18 26 20 36 23 26 31 31 27 33 38 24 21
28 31 18 35 35 34 23 26 27 33 28 27 19 38 19 32 37 21 30 50 44 56 55 45 35 49 39 21 23 21 30 27 29 37 29 38 32 26 34 40 43 56 56 43 47 48 50 27 25 23 20 38 18 34 38 32 26 25 18 26 32 27 19 22
34 29 38 21 29 18 20 25 25 28 37 18 35 34 38 26 29 19 24 41 31 38 43 32 39 39 33 38 35 37 33 38 21 20 18 18 18 30 19 30 26 42 26 41 34 30 22 27 19 28 30 22 18 28 34 27 26 29 38 38 30 22 27 24
25 32 23 33 21 30 38 38 20 24 23 25 20 28 23 34 22 21 19 34 37 22 25 34 36 30 20 22 27 23 29 35 32 26 21 19 38 27 28 27 36 19 33 37 23 31 32 30 25 18 32 20 24 36 37 21 19 25 27 31 30 35 21 34
32 36 23 33 24 32 37 20 30 24 33 33 23 36 23 23 24 35 23 19 38 27 25 26 27 37 38 27 31 36 29 34 28 27 37 22 18 30 26 26 21 22 30 34 36 31 33 34 30 20 25 27 35 29 32 37 21 23 25 30 36 26 28 20
19 31 22 38 28 22 35 24 30 23 38 18 37 38 36 35 21 26 24 28 28 34 33 26 32 20 27 37 19 26 30 20 33 25 34 19 35 24 20 22 30 32 31 34 19 20 27 35 34 27 28 24 25 25 18 19 34 24 36 20 35 26 28 34
34 38 24 38 28 29 35 21 34 23 20 35 18 25 38 29 20 37 26 20 38 29 36 31 21 19 27 32 24 37 18 30 34 32 21 32 23 37 37 31 29 28 21 19 38 25 37 27 22 24 22 23 32 28 37 25 27 36 25 35 35 21 27 30
38 20 32 28 31 21 26 18 24 27 27 25 24 31 19 34 37 38 37 29 19 26 36 30 23 26 25 33 29 30 36 20 23 18 35 23 38 29 30 33 20 38 23 19 25 23 29 20 23 32 32 22 26 24 25 35 28 37 21 23 27 19 30 32
32 32 23 25 29 22 33 27 23 31 21 31 36 26 33 32 28 35 33 29 37 31 23 28 34 20 20 30 30 38 28 32 32 23 29 33 24 29 34 33 36 23 20 30 34 25 29 35 35 30 32 20 21 33 36 24 26 27 38 22 37 25 21 26
23 34 38 26 34 33 36 30 35 25 27 34 25 32 20 25 24 31 36 26 27 32 38 26 31 28 36 35 28 27 21 35 30 22 24 28 27 22 25 32 22 19 24 34 23 22 27 28 19 19 30 26 20 18 19 37 25 37 24 27 36 26 38 23
30 38 28 23 37 28 29 27 29 24 35 24 22 21 34 33 32 21 22 24 18 34 29 25 18 31 20 21 28 32 23 23 27 37 25 37 33 30 32 22 20 18 29 31 30 18 31 21 36 28 18 29 32 22 36 20 29 32 30 27 20 36 32 22
19 38 22 23 27 21 23 22 24 27 25 34 27 24 18 35 18 22 28 25 25 33 24 22 19 35 21 33 37 26 28 24 34 30 18 25 26 35 28 21 36 29 22 26 22 38 21 37 29 30 37 34 31 24 29 38 26 21 38 21 36 22 33 38
29 29 34 28 32 21 37 38 35 19 21 24 19 18 37 25 25 22 34 22 31 19 37 34 32 29 28 32 33 24 33 22 33 32 38 35 18 27 32 30 27 29 35 21 29 23 28 25 21 33 24 30 30 23 24 27 18 22 26 38 30 31 22 26
33 27 37 23 32 29 24 18 30 27 33 29 21 23 28 31 38 26 20 20 21 36 23 35 23 20 18 19 18 21 20 35 27 28 24 21 33 21 18 25 23 20 38 33 19 30 37 38 23 29 37 33 23 27 27 35 26 29 30 21 24 36 29 23
31 26 36 29 20 26 25 26 27 24 30 20 26 34 26 33 38 37 32 29 26 23 25 32 21 21 35 20 31 36 38 33 33 26 28 32 37 19 23 23 24 36 32 34 35 20 36 25 27 35 36 20 37 27 20 28 25 34 31 37 20 34 29 26
23 30 30 37 24 25 29 29 33 24 31 20 24 35 30 33 27 23 22 21 27 20 34 22 31 22 32 27 29 23 31 21 19 32 24 37 34 25 29 35 34 23 19 33 25 30 26 33 38 30 37 28 28 27 31 23 33 23 28 27 27 30 25 32
30 31 30 37 32 34 33 30 31 27 23 35 38 30 23 20 22 33 38 37 20 23 31 19 18 37 37 27 34 19 35 20 27 26 28 19 21 26 35 27 31 23 25 28 32 22 34 22 33 24 27 35 37 22 22 36 36 37 30 33 38 33 24 27
23 31 21 18 21 27 29 18 33 33 30 24 33 35 25 19 27 35 21 38 20 35 33 29 31 38 25 22 21 18 19 31 22 20 35 33 21 31 22 36 24 29 25 37 29 36 36 28 24 18 27 38 37 22 27 24 23 38 21 18 31 24 31 27
23 28 38 27 35 34 21 28 24 33 26 31 31 37 32 31 31 38 25 20 33 34 26 29 36 31 35 26 31 31 24 25 33 34 31 33 34 22 33 21 18 38 18 29 20 31 28 34 31 36 18 36 31 28 24 35 29 34 38 24 26 32 32 38
37 33 22 18 23 31 32 24 19 18 31 25 34 31 21 29 21 19 22 28 32 37 19 28 22 23 33 35 28 32 23 29 20 31 20 33 32 25 29 23 31 19 35 27 19 19 25 30 36 29 31 36 18 37 23 27 26 35 23 22 21 35 26 26
