P2
64 64
255
26 24 18 26 19 22 21 14 25 15 22 26 26 23 24 24 17 25 25 19 25 19 26 19 20 20 16 25 18 18 15 21 20 23 16 22 17 17 26 16 20 18 15 20 18 26 19 18 24 17 25 17 23 14 25 24 22 24 18 15 18 16 19 23
26 20 18 17 22 22 17 15 25 16 16 26 16 17 16 19 24 18 23 17 23 17 21 18 24 14 18 21 26 22 25 24 20 16 18 25 16 22 22 21 16 26 22 23 25 14 21 25 18 15 26 15 16 16 26 14 20 19 14 20 22 19 15 19
15 22 23 19 24 18 22 19 15 24 22 21 26 18 26 23 18 25 22 19 21 14 14 15 18 23 23 15 25 20 22 23 18 21 14 25 25 21 16 25 23 19 23 14 15 24 23 15 17 20 21 23 22 23 21 21 17 21 21 20 26 23 19 14
16 20 23 24 22 26 16 20 14 21 25 20 24 22 24 16 15 25 19 17 22 24 17 15 16 24 16 16 22 22 22 24 15 26 15 25 17 16 18 24 21 23 18 21 16 15 25 14 14 16 19 18 16 23 15 19 14 25 20 14 26 19 26 26
21 25 15 23 18 14 15 21 16 14 17 22 22 15 15 18 14 25 23 14 17 20 15 24 20 17 22 21 23 23 25 17 25 26 21 25 17 21 25 15 24 19 21 22 24 26 15 18 25 16 22 18 25 18 21 24 25 14 21 19 22 14 22 16
17 15 14 18 17 15 19 21 18 23 19 19 15 18 20 25 23 22 22 15 19 23 19 17 17 14 25 26 17 21 21 20 20 14 26 14 21 18 20 26 25 19 25 15 22 19 22 25 25 22 26 25 19 18 14 16 18 24 16 14 20 25 22 17
25 25 22 26 19 20 25 18 20 17 18 24 24 19 21 25 17 23 19 20 24 14 18 22 22 18 18 17 24 25 15 17 15 22 19 26 15 26 19 15 16 18 17 17 15 26 26 18 19 24 24 22 15 17 15 25 20 15 16 25 24 18 25 16
24 15 20 17 25 14 14 24 20 14 26 21 26 20 23 25 23 20 17 17 18 15 16 23 15 20 17 21 26 15 19 21 25 25 16 15 19 25 22 16 14 16 25 16 23 20 17 17 25 25 26 15 19 22 16 17 15 24 25 24 21 24 18 14
18 21 26 15 21 19 18 17 26 17 22 26 16 22 21 18 21 24 23 14 19 26 17 24 19 19 15 26 23 23 24 15 26 22 22 25 24 15 20 25 14 22 21 17 21 15 19 20 16 17 25 18 16 24 19 21 26 14 15 19 23 25 16 17
15 20 25 22 25 24 17 15 14 25 20 19 15 20 15 14 23 20 20 17 15 17 26 23 21 17 18 24 16 20 24 15 23 20 25 23 16 19 16 26 15 19 20 24 20 25 19 16 17 21 19 23 17 21 26 19 15 22 20 20 22 14 21 14
21 19 20 23 17 16 21 22 22 20 17 22 20 19 18 22 16 18 22 26 18 22 21 17 26 25 15 23 24 17 18 20 23 14 19 16 21 22 23 23 20 20 21 25 14 21 22 21 22 20 24 23 23 19 25 25 25 24 18 22 20 16 22 25
19 14 23 16 21 15 16 17 14 23 19 22 15 23 17 23 20 18 18 16 22 14 25 17 23 20 24 24 16 24 26 22 21 16 23 24 19 17 15 24 23 26 19 18 22 25 21 22 21 14 14 16 22 23 14 15 22 20 16 18 23 25 14 26
17 21 26 23 16 14 16 21 15 23 24 23 19 25 20 24 26 17 22 21 16 22 14 18 23 14 18 15 16 20 23 20 26 20 23 17 23 15 18 20 23 21 26 25 23 20 22 24 16 18 25 20 20 24 14 19 23 23 21 19 18 15 14 23
14 24 26 21 24 23 19 19 20 20 22 22 15 25 15 16 22 21 18 26 24 21 21 20 18 24 24 24 21 21 24 20 21 24 15 24 18 26 22 21 14 16 16 18 16 17 18 16 21 22 18 25 14 18 25 15 25 26 18 20 20 25 14 16
15 22 17 20 20 20 15 17 21 20 21 22 14 18 26 17 19 23 15 21 18 15 20 15 26 21 14 19 18 26 25 22 18 15 21 16 24 20 21 25 19 25 21 22 22 23 24 17 19 21 25 14 15 20 23 14 16 19 18 25 19 14 25 22
23 21 26 26 22 16 19 16 23 21 16 21 18 16 23 14 17 18 14 26 15 18 19 26 23 25 18 20 19 14 20 14 20 16 16 16 18 19 19 24 26 20 22 14 25 21 15 18 23 20 16 18 21 25 17 21 25 16 20 22 20 24 24 20
25 14 20 20 25 23 25 24 19 19 21 17 19 24 26 20 26 19 15 21 19 25 15 22 16 19 26 26 14 16 26 25 19 23 23 18 20 23 20 21 16 17 18 25 22 16 23 15 16 16 24 19 24 17 18 14 25 26 21 18 23 16 17 19
21 21 25 17 24 15 18 15 24 18 19 24 14 26 18 23 17 22 19 26 16 25 23 16 24 16 14 19 14 16 16 15 22 18 14 23 23 22 17 25 20 15 20 14 17 23 18 22 21 19 22 19 15 16 25 19 17 20 19 16 24 22 16 26
15 14 19 17 19 21 19 20 21 21 26 19 18 23 18 20 25 22 17 26 19 21 14 14 14 18 18 17 15 25 15 26 19 17 21 24 15 20 17 18 17 16 23 19 15 14 17 20 25 26 25 16 20 14 15 25 18 25 24 17 18 15 21 19
24 16 15 26 26 14 26 15 20 17 19 15 17 18 24 21 19 22 23 20 22 20 27 26 23 21 19 15 20 19 19 22 18 21 17 19 25 24 24 27 24 19 29 23 28 23 19 23 15 17 16 22 25 14 21 21 14 25 17 22 19 18 17 14
14 21 16 20 15 21 24 16 14 15 14 19 19 22 18 26 28 27 24 23 32 34 21 26 24 19 19 26 21 25 26 24 21 18 18 14 16 17 19 27 32 30 26 31 29 23 23 24 23 17 22 24 20 18 16 22 21 23 23 21 19 20 21 14
25 14 21 23 25 18 21 22 23 25 24 24 15 24 26 32 28 35 33 30 37 28 29 28 29 33 29 23 26 18 14 23 15 24 17 24 22 25 23 23 35 30 27 37 37 29 31 35 32 28 27 17 19 18 17 17 24 18 23 14 18 24 18 19
17 18 14 19 18 19 22 16 19 19 16 17 20 20 32 34 36 37 36 40 41 35 41 37 33 38 32 22 31 22 20 19 20 16 19 21 28 28 35 36 33 30 35 29 40 34 37 34 30 31 24 24 23 22 24 22 18 21 18 25 16 24 18 26
15 19 17 21 22 18 18 23 23 20 18 29 24 29 26 35 38 40 42 35 44 37 33 41 41 36 34 29 24 24 25 24 19 17 17 21 26 37 34 39 38 36 39 37 36 45 32 40 38 34 37 32 24 27 21 14 23 17 16 26 20 23 14 23
20 24 24 22 21 17 25 16 23 17 21 28 27 31 33 34 38 34 45 44 45 40 37 41 36 40 43 37 36 32 28 21 19 26 23 34 31 30 36 40 36 39 37 47 45 47 40 46 34 42 32 28 30 25 17 21 24 22 23 21 25 20 26 26
19 16 22 16 24 23 22 26 16 19 21 27 27 29 31 40 44 49 39 49 48 45 43 47 45 41 40 40 31 26 22 23 21 24 26 32 31 32 36 39 47 47 49 49 46 53 42 46 38 44 34 32 37 23 26 16 23 16 17 20 25 21 24 24
22 17 26 22 24 23 19 21 20 28 30 29 36 43 44 46 41 45 53 49 52 49 52 49 47 40 40 45 31 34 26 30 24 27 26 33 35 36 47 50 42 50 49 54 49 56 55 46 44 43 37 33 31 37 25 26 21 19 15 19 16 20 19 19
23 25 19 23 14 24 14 18 18 28 31 39 35 35 38 46 53 55 50 49 53 53 49 53 53 46 41 42 40 36 32 32 24 34 29 35 42 44 47 50 55 56 56 49 61 53 54 57 54 41 39 37 42 30 29 26 27 20 15 21 24 15 18 26
24 24 18 22 23 18 16 19 25 25 34 33 39 42 47 53 55 49 50 59 57 58 64 57 60 45 54 41 38 39 39 32 30 40 31 39 47 43 46 49 56 59 54 63 60 54 52 50 49 54 44 37 42 36 28 32 28 15 25 18 23 21 23 20
15 21 23 15 23 22 16 17 23 25 27 35 41 39 43 51 52 51 53 65 58 67 55 54 51 53 54 48 46 40 35 37 41 31 34 39 42 42 55 52 50 56 61 62 59 55 56 56 50 50 48 46 45 33 27 25 19 20 18 24 15 23 21 21
15 21 16 14 23 20 23 24 21 25 27 37 43 48 46 48 61 54 61 71 66 67 59 67 53 61 50 50 46 41 34 41 39 43 36 44 40 54 52 57 53 57 60 69 72 68 63 59 50 55 53 43 44 36 30 24 28 20 21 18 19 17 26 21
26 21 20 16 21 15 21 25 21 35 39 41 35 41 46 58 63 59 64 74 68 75 69 68 61 59 49 48 40 40 39 44 36 42 42 38 43 49 50 50 60 66 64 76 65 70 70 60 59 52 51 44 35 40 35 33 23 20 21 21 18 16 24 23
18 15 22 22 21 22 24 20 25 33 34 37 37 44 55 52 63 55 64 66 76 70 65 71 66 53 53 48 50 44 38 40 46 33 38 40 49 54 57 52 64 61 66 75 74 74 67 55 53 56 44 50 40 40 32 35 25 24 26 22 14 17 22 18
23 25 15 14 19 19 25 21 32 23 27 38 40 41 47 53 60 66 68 62 73 64 66 66 57 52 56 55 51 42 43 39 37 34 39 46 50 49 48 57 62 70 61 71 66 63 60 58 62 50 53 49 45 34 30 35 24 24 26 25 21 18 24 26
17 22 16 18 20 23 16 18 20 31 33 42 46 47 45 57 49 61 59 60 68 61 61 58 56 56 51 46 50 39 44 33 36 44 36 45 46 47 54 55 62 62 66 62 66 70 60 54 61 57 53 43 34 39 33 28 29 19 24 26 26 24 25 21
20 26 23 17 26 16 17 27 27 32 34 37 42 42 53 50 53 63 56 62 63 63 64 62 62 49 55 50 41 39 35 42 36 31 30 44 47 52 48 57 61 58 56 66 58 59 64 62 50 51 44 40 36 40 32 23 26 24 18 15 17 18 16 16
25 20 21 20 25 21 26 17 25 31 27 31 40 39 50 45 45 60 52 62 54 64 62 59 60 53 49 42 45 37 34 35 31 36 28 37 46 43 50 53 59 58 53 60 58 57 54 59 53 52 49 40 40 40 26 30 27 20 24 16 23 23 15 25
25 23 21 18 17 16 21 21 17 26 35 34 40 37 47 43 44 55 47 52 59 53 56 59 50 47 47 36 37 40 26 30 29 37 31 30 34 42 48 45 53 47 59 53 57 58 57 55 53 46 48 35 40 30 26 28 22 22 17 15 16 14 15 21
22 24 22 17 24 15 22 22 19 26 23 26 36 42 42 37 49 53 48 44 53 55 52 52 42 51 39 37 38 38 29 30 24 26 30 39 31 42 45 48 51 48 48 52 46 49 55 42 41 42 41 38 33 36 21 20 20 17 14 15 20 25 25 18
27 25 20 19 23 23 29 24 19 31 29 26 38 33 47 49 50 50 50 47 54 47 56 50 47 41 41 35 35 36 39 30 32 24 38 38 44 46 48 49 48 49 52 52 54 57 46 48 54 50 39 38 32 38 28 31 30 24 29 24 32 22 24 22
27 20 22 33 28 32 30 31 32 28 31 32 43 39 44 50 43 49 47 52 56 49 48 49 49 51 47 40 39 36 33 31 27 29 30 34 40 48 52 46 48 47 49 56 57 54 56 48 44 46 41 43 44 37 40 33 30 35 29 37 31 34 34 39
30 28 32 26 30 28 36 35 25 31 36 32 42 34 49 39 42 51 45 52 52 48 52 53 53 53 47 44 46 40 38 38 37 29 42 45 46 42 53 53 50 57 52 57 61 55 51 56 54 49 49 43 45 38 34 32 35 39 40 41 35 33 37 35
30 23 22 20 22 27 22 31 25 29 29 27 33 27 34 40 46 41 44 43 40 43 40 48 38 47 40 38 29 31 32 28 34 27 26 27 39 40 40 44 43 40 50 42 51 49 40 50 39 39 36 34 29 34 28 27 35 31 31 38 27 37 37 32
22 29 19 29 24 24 20 23 22 21 26 25 26 30 23 34 35 30 30 36 38 41 39 35 38 37 30 33 26 28 21 24 18 21 27 27 23 24 28 36 38 39 34 32 41 41 41 38 27 31 31 23 25 19 27 26 21 26 21 27 22 32 24 22
26 16 18 19 18 17 20 25 15 21 14 25 25 25 22 26 22 32 33 28 34 23 22 21 28 22 28 17 24 26 18 16 17 19 18 17 21 16 21 27 26 28 28 24 24 29 33 31 21 24 20 21 17 25 21 16 16 21 21 24 24 14 15 18
14 14 14 24 19 25 26 14 23 16 24 17 24 26 20 15 19 19 24 21 19 22 18 18 21 16 19 16 21 26 16 25 17 15 26 23 23 17 22 16 27 29 28 23 21 20 20 16 23 26 19 16 20 18 21 24 25 15 15 16 20 25 26 14
19 18 22 17 26 24 14 26 16 20 20 26 25 25 21 23 26 26 17 17 20 17 20 18 19 24 19 18 25 19 23 23 18 26 19 24 25 17 16 18 16 25 15 21 18 24 15 20 26 26 23 24 22 21 21 19 19 23 22 20 22 15 23 24
17 23 17 22 19 24 14 18 24 24 26 19 18 17 22 17 23 17 18 23 21 16 22 22 26 17 22 26 26 20 22 14 23 20 25 14 26 19 23 20 15 15 21 16 16 24 19 18 14 23 18 26 26 26 19 16 23 24 15 16 23 21 23 16
26 19 14 22 17 25 19 21 15 16 24 25 26 25 25 23 16 20 26 22 23 26 14 24 22 17 22 21 15 16 14 19 21 24 19 15 22 25 15 19 19 17 15 19 21 14 22 22 24 21 24 20 19 26 22 19 15 23 24 14 16 16 21 17
23 24 23 25 16 23 22 14 24 19 14 21 23 23 24 21 24 21 19 22 16 22 15 17 22 25 21 15 17 20 21 14 21 25 25 16 21 16 22 17 24 19 23 19 16 20 23 17 20 19 26 26 14 23 22 17 20 22 17 18 21 21 14 21
23 18 16 20 18 19 26 22 22 25 18 17 18 15 14 22 21 21 19 15 16 15 24 25 19 14 14 18 19 26 21 24 22 21 17 17 21 22 24 19 23 17 16 19 14 18 14 16 25 26 14 25 26 23 20 17 17 22 24 15 21 21 16 15
21 14 24 14 26 18 17 23 22 23 19 24 14 20 22 18 20 25 22 21 21 24 18 24 17 26 23 17 14 26 15 20 20 25 20 24 24 17 20 20 26 19 16 19 23 17 17 16 15 21 18 16 19 14 15 24 23 14 20 20 16 18 19 17
23 23 26 18 14 20 16 15 14 15 21 24 15 16 24 21 16 21 23 22 24 17 22 19 24 20 15 25 20 18 18 17 24 14 19 21 21 21 16 23 23 24 18 14 25 19 26 21 19 23 22 20 18 20 16 21 26 24 19 15 23 21 25 23
20 15 15 25 19 15 20 17 26 19 18 16 23 24 22 25 22 20 14 23 15 18 25 16 23 15 26 20 21 21 18 19 23 15 18 19 19 24 26 23 19 15 19 16 24 16 25 23 15 21 15 26 25 23 14 25 23 15 20 22 18 20 24 26
15 16 25 20 21 21 22 23 18 24 26 17 22 18 26 19 23 19 19 17 14 26 16 26 25 15 17 24 26 14 16 20 24 17 20 23 26 20 18 20 20 23 23 19 15 22 16 24 22 24 15 17 14 21 26 18 15 16 18 25 16 23 21 17
24 19 22 20 25 25 25 15 22 23 21 14 19 17 25 18 20 20 26 19 20 20 19 22 24 23 19 14 18 16 17 14 25 26 24 18 24 19 17 24 25 26 24 23 19 23 24 15 16 23 21 19 14 19 14 21 16 24 19 22 21 15 16 25
25 25 19 26 21 22 26 20 20 25 22 20 24 17 24 18 25 16 25 15 20 20 17 26 15 17 20 18 19 17 20 25 14 24 21 17 24 20 17 21 25 22 22 24 25 19 14 21 19 19 14 17 18 18 24 18 24 21 17 19 18 26 25 17
15 23 21 26 21 17 19 15 18 14 23 25 18 18 15 20 19 22 16 22 16 26 23 14 18 26 22 24 18 20 25 21 16 19 26 21 21 25 15 15 25 21 18 22 17 15 21 18 16 20 19 19 14 23 25 17 26 23 19 19 22 21 16 20
15 14 18 14 14 14 16 19 24 20 20 21 15 20 19 24 18 25 26 26 26 23 18 19 17 19 21 26 26 20 26 16 26 17 25 23 14 23 24 25 25 16 16 19 14 22 23 24 24 15 26 23 21 19 17 19 14 18 23 24 18 20 18 15
21 24 21 17 26 20 26 26 17 26 21 16 23 24 17 16 15 16 14 22 16 22 20 18 25 19 21 23 26 14 16 14 15 14 19 17 15 20 15 18 18 16 23 26 19 17 23 19 25 17 24 18 25 26 18 15 23 25 24 20 20 21 21 19
18 26 16 14 15 22 15 16 18 26 21 18 26 22 17 19 26 18 15 21 15 21 26 24 18 16 22 22 22 24 19 14 19 18 25 25 14 26 25 14 16 20 26 16 16 14 26 17 21 23 21 25 20 20 18 14 14 23 20 22 24 24 22 24
15 20 19 23 19 26 14 22 26 20 25 16 22 17 26 23 21 19 19 20 18 22 17 18 25 17 22 22 26 24 24 24 15 25 21 14 24 16 17 20 22 21 25 18 14 26 21 21 21 23 21 17 24 16 23 15 26 17 24 17 25 17 23 24
14 20 22 19 26 25 20 17 16 14 26 19 18 23 26 18 19 20 14 18 23 17 23 15 25 20 23 16 15 19 15 26 21 17 21 21 17 23 23 14 22 16 16 24 15 16 25 24 18 20 15 14 20 23 14 17 22 18 26 16 17 24 18 19
26 21 24 26 19 21 21 21 18 22 26 18 18 26 14 24 25 17 26 21 17 23 20 17 15 25 14 15 24 23 15 17 25 25 17 22 17 22 22 17 22 23 21 23 18 19 25 26 14 19 18 17 18 26 14 14 21 19 21 14 21 16 16 18
