P2
64 64
255
16 14 16 15 26 15 15 15 26 18 21 20 24 25 26 22 16 15 26 23 21 24 19 23 14 14 17 22 16 19 21 21 23 23 20 21 18 18 14 19 17 15 24 22 22 15 22 17 24 15 20 23 23 16 25 16 26 26 19 20 23 19 21 22
24 25 26 24 15 26 23 16 20 23 24 17 14 18 20 26 18 24 26 14 19 16 21 17 24 25 24 14 21 20 24 22 23 14 16 26 19 23 21 25 24 17 22 19 19 24 20 26 15 21 26 20 19 19 17 17 25 20 14 20 24 25 16 18
21 24 21 25 21 20 19 17 17 21 25 16 25 26 19 19 22 23 20 25 16 19 18 14 19 26 20 15 16 23 19 24 18 26 19 16 21 19 23 21 18 21 26 22 19 21 16 15 18 21 15 25 17 20 18 23 18 16 20 19 15 25 24 21
26 15 19 20 19 25 19 20 26 20 26 23 21 19 19 18 24 26 16 26 22 22 23 22 23 20 24 17 20 26 25 21 22 17 18 25 20 18 20 26 14 18 24 14 22 19 17 22 20 18 25 24 18 17 14 25 21 16 23 23 19 26 25 14
19 22 25 15 23 17 24 20 15 21 23 16 14 24 18 15 23 18 14 21 16 25 15 14 24 18 17 17 21 19 19 18 16 22 15 24 16 22 16 18 14 23 15 20 26 19 15 16 26 24 16 21 16 18 24 18 21 20 20 15 21 21 17 25
19 24 21 16 17 24 25 23 16 15 21 17 18 16 18 18 17 21 21 20 17 22 25 22 22 24 17 14 16 23 17 18 20 24 23 22 26 24 21 22 17 24 21 25 21 22 23 14 16 16 20 23 24 15 22 15 16 18 23 24 26 14 14 19
15 21 14 14 22 17 24 21 24 16 20 22 22 16 26 21 22 16 15 24 23 16 18 20 19 17 23 23 18 15 24 25 15 24 21 25 25 14 18 15 20 22 18 15 15 18 23 14 26 20 16 14 26 16 20 14 19 26 20 23 20 17 14 17
21 19 18 18 16 24 18 21 18 17 22 16 22 14 19 21 15 14 22 19 24 26 19 14 24 16 26 14 26 15 16 23 15 21 14 23 19 20 21 18 20 17 25 23 18 26 20 23 16 21 24 24 19 22 23 21 18 23 14 21 15 16 17 15
26 23 18 22 24 15 24 19 21 14 14 19 17 22 25 21 26 22 14 14 18 14 18 25 25 18 17 19 17 16 24 25 24 16 21 19 21 25 16 24 23 20 17 21 15 22 14 18 16 17 22 16 25 26 24 24 19 24 15 14 23 21 24 21
19 17 22 20 14 25 19 20 14 23 26 22 23 25 17 19 25 17 19 25 18 26 18 19 22 15 15 23 17 15 21 20 17 23 23 16 15 23 22 25 16 21 25 23 26 25 22 17 21 23 17 14 24 25 26 14 16 25 20 23 23 21 14 17
21 26 22 20 20 15 16 20 18 20 22 17 20 14 25 24 26 14 25 18 23 18 17 23 19 18 26 16 16 21 16 17 15 22 25 19 18 16 17 23 18 26 21 18 22 15 22 17 26 18 17 22 24 15 18 22 15 19 18 24 16 21 24 14
15 17 21 22 22 15 18 20 15 19 19 22 24 20 16 25 14 26 20 18 21 19 20 21 17 22 25 16 17 22 24 25 16 14 21 14 17 14 20 24 21 15 15 25 20 18 22 22 18 20 16 26 14 24 22 15 24 19 25 25 21 15 18 17
18 25 24 25 20 17 24 16 17 21 15 21 14 20 23 18 26 22 16 16 19 14 22 21 15 17 21 14 22 16 22 16 14 16 22 21 25 22 20 21 17 22 19 17 20 26 16 25 22 17 19 18 20 14 24 25 22 18 24 18 14 22 18 26
24 19 25 24 21 14 19 16 15 26 23 24 24 15 19 18 25 17 26 15 14 19 21 23 18 25 21 25 17 23 15 17 26 23 26 21 22 15 25 16 16 26 23 19 24 16 14 25 18 16 20 19 21 22 15 17 21 17 22 23 15 18 15 23
17 16 26 23 14 22 20 26 16 16 16 19 19 18 21 17 14 17 22 21 16 18 24 17 16 15 26 16 16 22 18 23 17 21 21 14 24 21 18 22 20 18 19 20 25 15 23 14 22 26 16 22 16 15 19 26 24 23 14 24 22 23 23 19
20 16 26 21 21 15 14 24 26 23 15 21 17 22 16 19 15 22 22 16 21 24 23 24 21 16 19 18 20 24 25 19 26 22 20 26 16 24 19 15 18 24 24 15 24 20 21 14 24 25 14 16 15 14 25 17 15 21 21 22 20 26 21 18
17 26 19 26 15 26 22 15 19 21 16 25 25 20 19 20 17 14 25 21 22 18 19 15 26 15 21 15 25 18 26 22 15 26 19 21 14 15 25 21 16 22 25 23 15 16 26 18 20 14 18 14 14 15 17 25 24 16 16 18 19 24 22 22
22 19 25 15 16 15 26 17 17 22 17 25 20 26 26 22 16 21 18 14 17 15 14 26 14 19 15 18 15 21 16 22 26 20 23 14 15 19 23 14 14 19 18 17 25 17 15 26 21 21 23 25 24 16 17 15 14 25 25 19 26 16 14 14
17 14 17 14 14 17 14 25 17 20 20 14 17 16 23 14 22 17 14 26 25 15 20 18 18 18 14 15 23 25 25 23 17 14 20 16 14 15 15 22 23 26 21 25 14 18 17 14 15 20 16 26 21 18 26 24 26 15 18 25 22 24 25 18
25 25 23 17 16 15 17 18 19 17 16 25 20 23 19 15 23 19 18 17 23 24 17 17 16 19 20 19 20 20 18 26 20 18 22 21 20 16 20 15 27 20 19 29 26 20 21 17 27 14 19 21 21 25 20 22 18 24 26 23 25 25 14 23
25 15 24 17 20 26 15 24 16 21 22 25 19 20 15 18 23 32 30 32 27 33 31 22 30 25 27 16 20 16 25 18 16 14 23 23 25 22 28 24 31 24 27 26 22 30 22 29 21 27 27 16 26 16 14 14 21 23 24 18 26 16 22 26
23 17 16 25 21 22 24 16 23 26 24 14 24 26 22 27 24 34 25 33 28 37 29 36 28 30 31 25 19 17 26 23 27 29 17 15 22 19 21 29 31 35 29 35 34 33 25 30 34 27 31 28 25 17 17 26 25 15 20 19 25 26 18 23
23 25 23 21 23 18 16 25 25 22 20 15 17 30 24 30 26 30 31 33 33 38 40 34 36 26 35 29 36 24 35 23 29 29 23 24 34 32 29 35 27 38 35 39 36 38 33 34 32 30 33 27 17 16 26 20 22 18 26 15 17 24 25 19
21 14 22 20 24 14 21 24 23 18 23 27 20 29 28 39 36 37 33 44 45 39 39 39 35 45 42 40 42 45 39 34 34 39 31 43 42 42 35 33 40 33 44 42 34 36 42 33 38 27 26 23 22 26 26 17 26 18 20 15 15 22 18 25
14 15 15 18 18 21 22 16 16 23 25 32 34 30 29 42 39 46 41 42 39 47 39 47 42 53 55 46 46 42 41 49 43 44 51 46 45 46 44 51 50 43 49 37 39 46 48 45 37 32 32 30 27 22 24 19 15 14 16 22 26 23 20 16
22 26 19 16 23 21 14 18 19 23 24 22 31 32 39 46 43 48 48 50 46 48 53 55 59 55 53 56 54 50 51 51 55 53 54 52 54 52 61 54 52 46 53 52 42 48 51 42 44 43 33 39 35 26 22 21 22 15 22 21 25 20 23 19
14 21 26 15 21 26 16 21 19 29 21 29 38 39 40 42 42 42 54 52 53 48 63 56 69 67 70 61 60 67 59 64 63 63 69 63 68 66 60 68 59 56 63 52 56 52 44 44 46 49 36 33 39 29 22 26 20 17 17 14 18 23 26 23
18 18 24 14 15 17 16 18 24 32 35 39 34 34 48 41 43 50 58 54 61 66 67 65 77 74 76 72 77 68 65 66 71 75 67 75 75 74 72 76 72 75 66 67 52 56 49 53 50 49 44 45 36 38 23 27 28 23 24 22 18 21 23 24
26 14 20 25 20 20 26 16 18 31 30 29 38 45 46 49 54 58 57 62 62 71 68 80 78 84 80 76 77 80 84 80 77 75 76 83 84 82 77 84 80 80 73 64 59 61 53 58 45 45 39 42 44 31 37 32 19 16 21 21 19 19 22 17
14 19 19 15 16 18 19 25 25 24 32 33 38 46 47 56 57 62 57 61 72 80 76 86 81 82 91 90 90 88 87 89 86 91 92 90 94 85 93 89 85 87 83 82 72 60 57 61 56 50 53 47 37 30 35 31 26 17 16 22 23 22 20 23
21 21 14 17 21 25 19 20 24 33 36 35 43 50 46 50 55 60 65 65 84 80 90 88 89 95 89 92 94 88 99 96 96 96 90 88 100 92 89 94 94 94 87 79 77 74 57 61 61 50 53 48 39 31 33 32 25 27 23 17 21 17 22 22
19 16 22 16 25 16 21 24 31 29 28 39 42 50 53 57 52 62 72 75 79 87 95 96 102 97 96 104 101 100 98 98 109 107 99 103 102 102 96 95 101 91 90 90 84 83 64 65 57 56 43 43 37 35 29 33 20 21 23 15 22 15 21 25
20 24 22 22 23 25 22 26 27 24 36 40 47 51 47 58 54 65 65 83 88 98 97 102 105 99 108 105 103 110 109 115 117 114 105 108 111 102 107 96 107 96 92 99 87 85 76 57 63 54 52 42 36 31 30 29 24 24 18 21 19 17 24 21
16 22 24 24 21 18 14 16 28 24 35 33 37 40 45 47 51 64 76 85 82 92 103 98 96 98 104 109 112 111 116 116 120 112 109 108 103 108 104 102 96 97 100 96 94 78 76 58 60 59 51 47 46 31 34 32 29 25 20 18 18 26 15 15
17 16 16 21 18 23 16 23 25 33 39 37 40 49 44 54 52 61 74 81 89 87 92 102 102 104 107 107 117 116 117 115 126 121 119 107 111 108 113 107 108 96 101 91 91 79 67 54 61 48 42 44 44 33 33 28 26 22 15 21 26 14 20 22
22 26 17 19 18 23 24 18 29 25 30 38 43 40 50 49 52 60 69 73 83 91 93 97 96 98 103 106 110 111 114 128 131 127 119 109 107 104 108 101 101 96 99 87 80 71 65 65 54 56 47 39 44 31 33 22 25 18 15 22 19 21 25 21
19 17 23 17 19 20 19 22 25 33 36 30 38 40 44 45 50 59 60 76 73 83 97 99 96 107 108 113 109 117 119 121 127 121 121 111 113 107 101 97 102 89 93 81 81 67 67 53 49 44 43 47 41 37 33 31 17 26 16 21 23 19 22 15
19 18 20 20 17 22 23 20 16 32 23 34 35 37 41 43 50 48 62 71 72 87 85 97 96 101 107 101 111 115 117 114 118 110 115 112 112 106 102 98 98 85 87 85 79 70 63 52 51 47 48 34 30 36 33 22 22 24 24 16 22 22 24 25
23 16 23 23 18 16 21 19 21 18 32 26 34 40 43 43 49 45 53 58 72 78 75 87 89 93 95 98 107 106 112 105 111 110 113 101 106 105 97 100 91 83 79 80 72 67 60 45 44 44 37 39 38 33 30 25 17 18 23 21 25 21 24 18
22 15 23 23 17 26 25 14 18 23 21 23 37 34 41 37 45 40 54 65 65 65 77 87 85 92 94 97 101 95 100 99 104 101 102 105 91 90 89 87 90 84 71 77 71 63 53 50 46 43 43 30 29 32 20 18 25 25 24 26 24 15 16 18
22 25 21 25 23 19 22 15 23 14 23 20 35 35 35 36 44 42 50 49 54 67 68 75 75 78 86 89 96 97 93 89 85 90 97 96 92 88 90 85 81 76 67 62 64 48 49 40 35 33 35 29 25 28 28 14 14 17 19 18 20 25 16 17
14 15 19 15 15 15 17 17 16 16 26 28 28 29 25 34 37 33 44 45 57 55 68 67 70 82 73 82 89 80 82 82 80 87 80 80 79 84 73 73 69 72 70 62 59 50 34 33 30 35 26 33 32 24 20 20 26 18 14 15 26 16 26 21
23 23 25 18 14 20 23 17 22 19 17 24 29 28 33 34 37 37 30 42 52 57 52 67 61 65 68 67 71 76 80 81 80 77 81 75 76 70 75 65 63 63 51 50 40 35 34 37 35 25 31 25 17 21 20 22 25 20 24 23 19 17 14 16
23 15 25 17 17 15 18 14 16 23 24 16 21 21 31 22 28 34 31 36 37 44 46 54 56 56 63 63 63 60 63 76 66 65 63 68 68 60 57 58 54 54 54 42 37 38 25 32 25 28 22 24 17 21 22 23 20 17 14 19 21 15 14 20
18 17 23 16 21 14 23 18 14 20 16 23 17 21 18 21 27 20 30 21 37 36 36 44 48 48 55 58 53 65 67 59 63 64 69 63 54 57 59 52 51 42 46 43 30 26 27 26 18 23 15 20 20 18 14 21 25 14 25 18 25 22 14 23
20 22 19 18 26 20 20 18 25 15 25 20 23 22 19 21 27 20 29 22 29 36 38 42 40 44 43 53 52 61 55 54 58 56 54 57 57 50 45 47 45 35 32 29 24 21 17 23 21 19 24 19 19 19 17 17 23 20 23 14 22 17 15 24
25 25 20 21 17 19 18 20 25 21 23 25 16 18 21 16 26 25 17 20 17 18 32 30 36 40 39 46 51 55 46 51 51 53 53 47 53 40 45 39 40 35 26 20 19 17 22 22 14 26 23 24 14 24 22 26 16 25 16 14 15 23 26 21
21 19 15 23 24 19 22 21 24 15 26 19 14 24 24 25 19 22 23 20 19 17 28 22 26 28 35 37 45 45 49 49 44 42 46 42 38 33 40 31 25 20 26 18 15 24 19 14 23 25 17 17 22 24 25 18 21 26 15 22 22 20 24 18
18 20 24 15 24 16 19 15 17 15 19 23 17 14 25 15 15 17 24 18 18 22 14 25 26 26 37 36 34 43 39 44 34 40 33 38 33 30 25 32 25 24 14 14 16 26 17 24 21 16 23 24 20 25 26 14 19 15 26 17 18 25 24 24
16 20 14 14 23 21 20 16 21 15 21 15 20 20 24 17 20 17 19 15 23 19 21 18 20 21 30 21 26 35 31 30 39 39 28 28 27 27 23 26 24 22 15 18 24 23 15 20 26 19 14 26 22 16 22 16 21 22 20 15 21 17 20 17
25 16 17 16 26 18 24 20 18 18 21 21 14 20 25 16 20 15 18 23 14 25 21 21 25 26 26 23 17 22 32 22 28 29 23 31 29 20 16 15 21 21 25 21 16 18 20 15 26 14 17 19 22 14 22 18 15 25 14 18 16 16 16 21
23 19 24 15 26 18 21 18 16 22 25 20 14 22 16 18 20 22 22 20 15 26 23 23 24 17 18 22 24 20 24 16 21 27 22 19 18 15 20 14 21 20 24 24 23 26 18 24 19 14 14 24 23 26 16 15 22 16 22 21 26 18 18 17
23 24 16 17 14 16 14 19 19 23 23 26 15 25 22 16 21 26 15 18 14 16 23 14 16 26 21 19 15 23 14 21 23 26 24 18 17 23 17 17 26 19 16 21 20 25 26 20 15 15 23 17 23 17 18 22 14 23 18 15 17 15 21 26
18 18 26 20 18 17 15 21 15 24 21 16 25 21 25 18 24 19 20 23 22 18 24 22 21 15 15 26 14 25 20 18 20 17 18 18 16 21 20 16 22 18 21 24 22 23 16 24 21 16 16 26 26 23 17 22 23 23 20 14 16 18 17 25
14 15 25 20 26 24 15 17 23 16 19 23 26 23 23 19 26 21 22 23 22 15 17 19 21 18 18 24 21 18 23 20 21 17 20 16 22 20 22 18 15 19 15 20 21 22 23 25 17 15 18 25 26 25 15 21 19 15 15 18 22 23 16 16
25 21 17 15 24 24 23 20 16 24 23 14 21 22 23 21 26 26 17 24 17 25 26 16 14 23 15 19 21 14 25 17 20 20 14 14 19 18 17 26 16 19 17 25 17 14 25 24 20 20 23 17 16 14 24 15 26 18 25 19 24 24 24 15
16 14 26 22 25 19 24 15 22 21 17 25 26 20 23 25 14 26 14 26 24 20 15 23 14 25 19 19 23 20 20 17 21 23 21 25 24 18 17 17 19 19 22 23 15 17 20 22 19 19 23 21 22 26 20 14 17 14 14 18 15 16 16 16
18 16 24 26 25 15 17 14 14 18 14 17 26 24 20 25 15 24 23 25 16 14 15 24 15 15 24 15 25 19 15 18 20 17 22 17 15 24 17 23 15 26 18 15 16 26 20 14 24 19 21 23 16 16 23 17 24 21 22 22 18 23 15 19
20 17 14 14 22 19 25 26 24 16 15 24 26 14 26 20 15 26 17 14 23 26 24 21 25 22 23 20 22 25 24 18 17 15 14 22 15 26 22 16 21 25 19 20 23 14 14 25 21 20 24 25 20 19 20 17 25 22 14 15 24 18 15 17
15 18 17 25 25 19 21 21 14 23 22 26 15 24 23 14 25 19 15 15 16 18 17 20 23 23 15 19 17 23 21 25 18 22 21 19 21 19 23 26 19 19 15 25 16 26 15 19 23 24 17 14 24 25 15 19 25 24 19 19 23 16 22 18
14 21 18 14 23 22 19 23 14 24 17 15 22 22 17 22 19 24 19 22 18 17 22 25 19 16 15 16 26 18 17 24 21 20 24 16 20 16 14 14 20 22 22 19 20 25 17 25 26 14 15 16 17 24 24 26 16 25 18 19 24 15 19 18
26 14 26 22 25 21 14 14 26 21 14 18 19 24 15 24 20 20 18 21 14 21 14 20 17 20 15 23 17 25 17 18 19 20 25 22 26 25 17 23 14 26 15 17 21 21 23 26 21 16 21 16 14 26 21 24 14 22 21 16 26 18 19 17
15 25 21 17 18 16 15 19 14 14 19 26 21 25 20 14 22 21 20 25 19 15 26 17 23 24 22 26 24 17 16 21 21 19 24 22 17 26 15 18 14 26 14 15 23 22 20 26 17 26 22 19 25 25 22 18 18 19 21 25 25 17 26 24
17 18 20 19 25 21 21 22 21 14 22 26 21 18 21 19 18 15 19 26 21 20 25 19 18 19 20 16 23 20 15 15 15 14 24 15 16 20 20 21 20 14 25 25 19 20 25 18 21 24 16 18 14 21 21 24 26 22 14 16 24 17 26 15
