P2
64 64
255
29 27 31 37 33 25 30 36 36 28 34 25 27 25 18 32 24 22 29 36 30 19 29 33 23 22 33 24 21 34 21 38 24 19 18 33 29 37 25 28 27 32 29 20 25 35 21 28 30 25 33 23 29 21 29 32 24 34 34 38 38 18 26 28
18 26 33 18 37 31 28 36 37 19 26 26 21 26 38 22 19 29 23 38 30 30 32 36 20 19 26 18 19 20 32 37 26 26 29 28 29 36 25 37 38 36 24 33 25 21 18 27 30 37 23 36 22 29 36 38 20 32 31 29 26 25 31 30
21 18 35 25 20 28 37 30 37 21 31 21 20 20 21 20 32 18 23 27 29 27 22 32 26 21 20 19 31 28 33 37 36 36 29 23 26 31 19 31 24 34 36 20 28 21 36 23 36 27 31 38 18 32 35 19 27 33 34 35 33 34 20 33
20 36 33 36 27 24 26 22 29 36 30 21 31 27 37 27 34 22 36 33 35 27 28 22 24 38 35 25 35 24 28 28 31 32 19 27 38 32 35 38 38 22 32 20 32 27 34 20 18 30 34 22 20 22 20 29 18 18 33 34 22 34 38 28
30 36 26 35 34 22 27 32 29 27 21 38 37 35 30 34 37 20 36 23 21 33 36 23 22 19 30 38 38 35 21 26 32 30 36 26 28 32 26 20 31 25 35 25 30 36 25 24 29 38 37 34 19 29 33 38 29 35 23 27 18 35 30 35
37 23 36 28 29 24 28 31 32 21 22 29 30 19 26 20 31 29 22 31 28 24 21 37 35 26 18 21 22 38 21 33 38 38 22 20 29 22 28 18 18 28 21 22 36 34 20 35 35 32 35 24 37 28 18 30 30 26 18 32 21 28 27 36
35 35 27 23 20 35 33 37 26 23 23 29 35 38 34 38 31 38 36 22 38 26 25 25 24 25 31 20 28 25 18 25 30 21 25 33 31 32 34 21 20 37 26 34 21 36 27 20 29 20 34 21 20 31 26 25 36 23 27 33 33 30 20 33
38 23 33 33 35 38 19 24 24 19 21 28 26 35 18 31 28 31 20 27 38 25 28 34 37 27 22 28 31 33 25 35 23 22 20 26 32 35 20 27 18 23 21 21 26 33 20 21 33 37 30 28 29 29 32 32 36 30 23 20 38 19 22 30
21 26 34 19 18 31 28 32 38 23 37 23 22 22 35 20 25 27 18 37 18 31 22 18 28 30 29 38 24 19 22 22 26 24 32 25 19 31 37 18 32 19 26 34 31 33 25 27 30 34 18 22 36 32 21 32 24 19 34 23 26 32 34 24
35 18 29 26 32 20 36 28 37 19 23 31 24 19 30 21 24 36 35 18 21 37 32 26 20 29 27 35 22 24 30 26 23 20 36 31 25 26 19 37 36 36 37 24 18 19 35 21 30 38 18 25 37 35 19 34 20 22 20 34 30 18 23 31
32 31 34 36 34 38 29 35 32 31 22 23 23 34 34 37 38 35 23 19 31 28 28 38 37 38 25 34 32 33 38 24 36 27 28 26 38 28 38 37 18 29 22 26 34 37 27 19 31 19 34 21 35 28 18 33 38 22 37 29 35 18 32 23
24 32 32 29 28 24 34 34 19 19 26 21 37 28 22 18 27 20 28 28 19 18 18 28 30 31 25 21 26 20 18 21 28 28 27 35 27 29 29 27 27 38 31 18 31 21 20 35 29 33 30 35 23 35 22 24 38 28 28 25 29 20 30 24
38 19 36 32 33 37 37 37 35 34 33 18 24 28 26 38 19 35 27 27 23 23 26 19 19 30 38 20 35 22 24 22 28 24 24 34 27 32 22 23 30 18 37 25 23 35 28 28 38 31 30 37 24 23 34 31 22 34 37 27 30 34 33 31
33 30 30 32 18 21 37 38 24 27 38 26 23 33 33 27 36 25 27 24 23 25 26 20 35 18 25 34 37 37 23 30 32 32 29 37 28 29 22 27 22 35 29 37 24 35 31 37 37 23 24 34 20 18 21 18 19 28 35 27 32 21 22 18
18 32 38 32 38 34 36 26 37 23 31 31 21 32 21 38 38 35 33 37 36 36 34 28 28 27 27 23 22 21 30 21 31 29 35 19 21 21 27 22 36 32 28 20 30 31 21 34 37 25 18 20 19 22 23 37 22 22 37 24 24 27 28 36
38 25 21 24 33 38 26 32 23 34 32 24 28 32 26 27 29 25 29 23 24 18 33 29 36 28 27 28 21 26 34 34 36 35 29 38 34 36 33 22 20 32 21 21 20 29 37 20 35 20 25 24 18 24 34 28 38 25 28 29 20 34 22 18
21 37 22 18 27 30 26 35 36 22 19 22 29 25 22 38 20 28 21 31 28 38 28 19 27 24 25 29 27 35 23 27 21 35 22 33 25 25 34 18 24 18 35 18 22 26 36 19 36 38 26 38 30 28 21 20 38 27 27 25 32 27 37 31
27 32 23 24 19 19 38 24 30 23 36 18 33 24 37 38 23 24 35 24 21 36 29 28 33 38 35 21 22 19 29 29 38 23 22 29 20 20 27 28 26 29 20 28 32 18 25 29 38 24 30 26 23 20 21 22 21 35 29 34 21 34 18 30
37 28 33 35 29 25 36 21 24 38 21 23 27 30 20 34 36 24 28 22 32 38 36 36 28 32 31 18 23 18 21 19 33 20 37 34 20 19 26 22 30 32 23 22 29 27 27 33 19 31 29 26 28 24 22 34 28 36 31 21 27 33 20 30
23 31 22 22 24 33 33 30 35 18 34 18 21 31 36 28 25 30 30 21 23 40 39 35 36 26 27 18 21 36 30 28 21 28 30 24 23 19 27 33 26 32 24 25 28 29 31 31 27 31 36 21 34 36 37 21 37 27 23 27 32 37 27 34
19 24 28 26 18 24 29 38 20 30 20 29 25 33 23 31 29 42 26 28 42 44 33 29 25 27 34 19 27 27 25 28 22 23 36 19 38 24 27 26 32 30 27 42 39 30 28 42 26 38 34 33 25 31 25 21 18 18 37 31 31 32 37 28
38 26 20 20 28 25 18 21 37 26 29 25 24 29 34 28 29 27 48 29 43 29 48 46 45 32 37 37 20 21 29 34 36 26 37 37 28 27 33 37 44 43 43 41 42 34 45 46 32 42 33 38 29 26 38 33 36 20 36 36 20 30 24 19
29 21 27 37 19 31 24 26 32 20 33 20 37 33 38 38 37 39 36 52 47 50 38 44 33 32 41 35 32 48 40 32 31 44 29 29 38 46 47 46 35 43 46 49 41 40 32 50 43 31 29 31 31 21 22 24 35 21 28 21 27 32 38 18
26 19 34 35 21 36 29 21 26 30 24 40 32 36 29 34 50 39 56 45 54 51 54 52 50 55 45 58 58 56 42 33 47 38 53 52 57 43 46 39 55 46 57 41 39 48 37 45 43 31 44 32 24 41 37 32 29 29 35 29 32 23 29 35
26 37 24 25 23 23 30 38 20 35 27 39 31 36 39 41 49 43 53 60 47 47 52 46 52 58 62 47 63 55 62 49 45 57 54 54 66 54 57 48 56 46 46 54 57 49 41 52 52 50 43 35 32 32 28 21 28 36 19 26 34 20 37 25
22 21 23 37 22 33 33 30 31 24 33 30 42 32 51 45 59 57 52 64 55 47 66 53 72 62 57 66 59 59 63 62 65 64 60 73 66 69 76 62 63 66 51 64 47 65 51 53 47 39 38 37 49 32 29 36 27 21 37 28 31 34 25 33
36 22 24 38 23 36 31 19 37 31 28 29 43 45 56 56 55 45 47 66 59 61 59 77 67 76 70 83 72 65 79 75 64 63 76 81 82 72 74 70 81 62 68 71 59 58 66 51 43 56 57 35 34 30 37 35 28 24 27 38 28 30 22 37
22 28 31 31 20 22 18 21 36 24 31 46 53 47 42 51 46 58 55 61 62 60 79 81 80 86 81 72 88 78 73 70 81 77 68 83 84 78 90 84 70 69 72 65 60 60 71 49 53 49 50 57 50 32 33 28 30 23 34 31 29 22 37 21
36 38 33 19 34 36 34 25 39 45 48 42 51 52 58 50 63 57 62 61 66 78 77 84 78 88 81 98 82 79 95 92 90 94 94 92 98 96 82 96 89 80 90 75 75 59 64 52 68 52 51 41 36 33 44 45 27 25 24 36 30 36 27 37
36 35 27 32 21 32 33 28 29 35 34 43 41 53 62 54 68 71 77 77 80 87 87 100 103 85 96 88 93 92 97 94 103 102 90 94 94 102 93 103 95 87 92 94 88 66 73 55 53 48 50 54 57 45 36 27 26 23 38 24 38 36 35 34
29 30 28 28 22 24 21 25 37 28 46 52 46 51 51 54 61 67 65 81 83 94 96 92 109 106 111 103 104 111 93 96 101 103 101 106 106 93 101 109 93 108 91 93 83 72 77 71 55 63 57 45 39 41 39 27 41 31 25 18 19 24 22 24
22 34 38 19 21 26 21 22 36 35 34 54 53 49 49 70 69 65 74 85 87 108 97 108 96 112 107 105 117 114 111 109 101 118 102 106 110 102 116 113 100 97 99 92 91 95 68 78 73 56 63 49 50 39 42 47 27 33 22 38 37 29 23 18
37 20 26 37 29 22 25 37 25 46 49 54 53 43 63 70 64 76 80 91 97 98 95 114 107 118 103 108 106 110 125 125 112 114 109 104 105 119 111 117 102 106 105 92 97 92 82 65 63 67 62 50 58 37 37 45 40 21 21 37 34 35 27 32
21 36 22 23 32 34 33 31 34 41 42 44 41 58 52 57 74 73 83 97 103 109 100 117 117 108 113 112 121 108 118 127 116 119 116 114 115 122 122 112 109 104 109 95 89 92 75 71 62 54 67 48 44 37 32 36 43 27 21 22 26 30 23 21
25 38 29 25 36 22 28 30 33 31 39 54 40 47 50 70 69 76 79 81 99 97 109 102 116 110 124 116 122 116 116 132 133 127 127 128 119 109 123 118 103 114 107 106 98 87 72 74 67 67 53 57 46 46 44 37 37 31 23 22 33 26 35 33
18 23 33 21 27 35 29 19 36 41 50 35 53 50 64 54 51 71 68 92 85 107 99 102 102 105 115 127 112 114 117 121 140 123 132 124 129 110 125 111 118 103 98 101 86 93 76 66 64 64 64 58 52 43 45 35 25 19 35 22 28 33 18 21
33 24 18 34 36 20 34 35 32 43 29 47 55 53 47 62 62 70 81 71 79 84 104 104 110 116 117 118 116 125 116 127 137 127 130 124 118 119 103 116 97 104 91 91 80 82 74 60 55 60 56 42 48 45 29 30 35 23 34 37 36 19 18 20
27 33 36 18 18 23 26 38 29 27 38 39 47 47 41 46 48 53 67 69 78 88 104 91 113 115 116 107 125 118 114 123 117 120 113 118 114 104 111 103 111 93 102 84 82 83 77 55 52 62 59 47 39 48 47 39 23 21 34 26 27 31 23 19
34 34 38 18 37 28 38 27 31 26 44 46 32 38 39 49 61 57 69 81 80 93 83 94 101 112 108 100 115 118 112 106 107 121 121 114 102 112 108 109 106 87 79 83 87 62 73 46 62 41 40 46 42 36 35 38 24 37 36 24 18 28 24 38
38 30 31 22 28 19 18 21 18 39 35 39 36 51 38 40 56 59 68 75 80 82 92 81 87 93 94 100 104 106 113 102 99 105 113 108 97 112 111 105 87 86 92 79 80 57 56 55 55 39 43 32 35 34 28 30 34 18 23 32 32 22 34 34
27 38 35 23 33 27 38 32 22 38 41 35 43 45 44 53 55 58 62 65 70 68 80 93 88 85 100 96 109 93 103 100 94 92 101 107 103 103 90 96 80 77 88 72 74 70 58 50 42 54 33 40 38 30 23 18 20 36 27 37 33 18 24 22
24 26 33 34 23 23 20 32 30 28 21 36 25 34 43 46 35 36 56 54 62 67 64 83 85 91 93 98 96 90 90 93 100 95 91 82 100 81 86 88 91 83 73 58 61 63 54 44 49 31 35 47 39 21 33 26 30 19 38 19 27 31 25 23
37 30 27 23 26 28 18 20 23 37 38 39 33 25 35 34 37 31 40 45 62 57 74 77 68 71 79 75 82 79 93 80 82 87 93 88 81 75 81 79 76 69 67 51 49 50 40 42 39 39 30 32 32 26 38 28 31 23 28 35 26 32 19 23
21 25 28 23 31 36 34 35 26 26 20 20 25 33 27 44 38 30 40 43 48 62 62 54 58 77 73 78 68 73 81 83 78 77 69 79 72 82 70 68 64 63 66 50 55 33 34 33 28 39 26 28 31 29 37 35 32 30 31 28 18 26 23 21
28 38 28 28 26 19 20 32 25 19 22 28 36 33 26 23 40 36 26 44 39 51 47 53 58 61 66 59 68 65 76 78 75 78 62 77 69 65 67 65 59 64 43 46 33 26 45 38 33 33 19 34 25 37 21 28 22 31 29 25 32 36 26 28
20 21 36 37 38 38 19 20 25 24 34 31 36 33 20 21 25 30 26 30 42 31 35 37 56 59 46 62 65 71 67 65 64 74 70 72 63 50 51 53 56 48 52 47 32 22 41 22 26 25 38 18 36 24 27 37 37 22 24 35 34 22 35 22
24 20 37 19 28 35 28 23 27 34 25 29 22 28 25 32 29 34 36 29 28 27 26 29 45 50 54 56 51 58 58 65 68 68 60 61 48 50 44 42 35 31 33 40 30 28 36 18 30 19 36 30 26 23 38 21 23 21 23 36 34 37 30 30
30 36 35 35 21 21 25 22 19 36 30 35 33 28 21 21 37 29 37 30 27 22 37 35 41 48 47 49 57 51 44 62 61 44 61 49 43 56 54 48 33 39 24 27 38 29 19 26 35 34 27 38 20 23 25 31 32 31 32 25 24 18 30 23
31 21 20 28 28 20 29 27 21 31 19 31 36 34 22 35 30 23 34 32 36 34 23 29 38 41 31 34 37 53 39 56 40 53 36 49 43 38 41 27 28 30 36 26 25 28 36 32 21 23 26 26 26 33 22 35 34 18 34 36 26 36 26 33
26 29 34 32 33 21 25 20 25 32 19 23 26 33 25 33 33 24 31 19 37 37 34 33 26 24 43 36 38 38 47 49 38 43 47 41 46 25 27 40 28 28 30 19 19 23 36 28 26 28 18 32 21 27 18 36 18 22 18 22 38 38 30 21
37 20 32 19 29 25 29 20 33 18 27 32 27 27 32 37 23 37 36 18 18 25 27 25 36 24 23 33 34 43 31 41 37 34 25 30 32 25 27 34 34 33 38 29 31 38 24 24 32 37 32 26 29 22 33 30 36 32 22 32 20 20 37 38
36 35 23 21 29 22 37 30 19 23 28 37 33 18 34 20 28 25 23 23 30 31 27 32 27 22 37 18 37 29 20 36 27 26 24 31 35 29 31 32 18 34 31 34 28 27 35 32 35 33 34 27 27 29 38 26 22 30 31 32 29 26 38 18
31 31 35 36 24 23 27 36 32 29 32 30 31 26 36 26 37 19 36 25 28 23 23 27 32 34 31 26 25 35 22 33 21 20 25 36 36 33 35 36 33 20 20 35 34 25 35 27 26 34 29 38 23 24 21 25 28 26 22 34 19 28 34 22
18 36 38 34 28 29 30 35 29 25 22 29 34 37 24 24 21 23 23 30 30 20 21 23 29 28 34 32 22 27 30 35 24 20 25 34 38 30 35 18 33 38 20 22 25 28 19 30 19 20 20 26 35 23 32 24 37 34 37 22 18 19 36 24
32 24 21 25 29 21 18 31 18 29 24 18 22 20 27 37 20 33 29 27 21 35 33 32 31 20 21 36 36 20 37 36 23 26 19 32 20 36 37 36 27 23 20 34 31 36 33 32 27 35 26 37 28 30 20 27 18 27 32 32 38 32 34 29
20 32 18 28 32 23 20 20 32 29 26 29 28 26 29 34 31 20 22 21 35 25 31 25 31 37 37 19 34 28 20 33 35 31 26 36 22 34 38 34 29 34 37 18 20 27 33 22 19 31 32 38 30 25 21 26 29 18 22 21 31 22 37 22
19 20 20 27 28 33 20 35 33 18 37 32 30 23 35 31 38 29 23 38 19 32 29 29 22 25 23 32 38 24 30 19 20 25 21 24 29 33 36 23 22 22 28 30 37 26 19 28 25 28 26 38 21 28 23 25 29 35 24 18 36 24 31 23
37 18 30 23 34 32 24 31 36 21 23 38 22 36 29 24 20 33 36 24 20 25 31 38 38 26 25 33 33 30 37 19 18 22 24 30 33 29 38 21 31 33 34 18 38 33 20 24 23 22 18 27 26 21 38 36 26 32 25 28 25 25 25 18
32 24 35 25 30 21 24 23 32 32 36 28 27 25 30 38 37 23 38 30 37 25 19 37 19 30 32 38 21 19 23 25 25 31 24 25 26 22 27 32 24 24 27 22 38 37 31 23 20 37 26 19 27 38 24 21 36 21 30 26 27 18 33 28
23 32 36 22 38 28 31 20 31 37 35 23 38 28 32 38 38 19 18 36 18 20 36 24 29 24 37 26 26 27 26 23 18 23 31 20 30 32 35 33 19 36 18 30 29 21 31 30 22 26 32 25 33 34 21 24 30 21 32 31 21 27 33 33
24 31 36 23 19 25 25 20 30 36 30 26 28 27 31 26 35 26 35 26 18 31 27 26 28 18 30 20 29 23 29 29 31 20 24 38 27 35 28 19 34 37 23 29 30 37 33 28 24 26 28 32 18 27 30 34 21 20 25 24 32 30 22 20
29 26 30 31 30 22 35 25 26 33 24 22 26 31 34 27 33 20 32 22 23 24 36 35 28 23 20 24 31 35 36 38 38 26 30 32 27 24 18 22 26 22 27 28 37 29 28 31 26 30 19 18 25 33 33 32 31 18 33 36 22 25 35 36
32 38 37 38 36 20 23 18 23 27 30 38 22 26 36 21 22 36 23 29 36 27 21 18 18 36 20 26 35 18 34 31 24 38 25 34 21 20 22 28 37 34 28 26 33 21 18 25 18 22 37 35 21 33 21 29 25 33 24 25 32 18 33 29
29 33 25 30 37 22 24 28 26 25 32 21 30 30 28 35 37 38 25 33 19 34 36 23 26 21 28 27 37 23 21 38 19 35 21 38 18 21 29 26 37 24 32 20 21 30 29 33 26 28 25 21 20 28 33 30 19 27 31 27 38 29 20 25
