P2
64 64
255
26 19 15 26 19 25 14 23 23 22 25 18 24 17 19 19 17 15 20 22 22 15 17 16 18 14 16 25 20 14 25 20 21 17 14 20 19 15 20 17 25 16 24 23 19 18 16 18 17 15 17 23 14 19 26 25 24 14 25 16 20 14 18 18
16 25 16 17 24 14 20 21 15 24 26 21 26 20 16 25 23 23 15 16 21 17 25 25 16 20 18 17 25 14 14 15 21 24 17 19 17 24 23 26 19 21 20 18 21 18 19 24 17 14 18 24 26 15 26 17 15 20 21 26 22 21 21 15
14 25 22 20 23 19 20 23 21 21 26 19 15 21 14 22 16 20 21 24 20 16 25 23 24 16 23 26 24 15 16 26 19 23 26 18 20 19 20 26 17 18 20 23 23 14 19 21 21 17 19 15 19 25 19 19 22 23 18 22 22 19 22 20
15 25 17 21 18 20 26 18 19 18 17 22 20 20 20 23 26 20 22 22 20 18 22 17 23 17 21 16 21 18 26 18 16 18 17 22 15 25 21 25 14 17 26 24 20 19 24 20 19 17 20 20 26 18 19 22 19 26 16 24 24 26 26 22
22 14 15 24 24 14 23 16 18 17 24 22 21 26 24 15 20 14 14 18 16 16 19 16 21 22 23 23 25 23 19 22 19 17 22 25 14 21 25 23 14 21 19 23 24 20 19 21 17 22 23 25 22 19 19 14 21 17 18 18 23 22 16 18
25 26 14 25 16 18 21 21 24 24 18 19 16 26 14 20 14 14 16 23 21 26 17 25 24 14 19 21 24 18 16 24 26 16 22 17 23 21 15 23 19 20 22 19 14 26 20 20 18 20 21 17 20 14 23 18 17 22 17 18 14 25 25 24
16 21 15 22 26 15 20 14 23 19 23 25 15 14 26 24 22 14 19 15 21 16 21 16 26 23 26 15 17 21 18 17 21 20 24 20 16 20 23 18 23 22 21 18 24 16 15 17 21 16 21 25 20 25 26 14 18 20 20 22 14 15 21 24
20 14 19 24 20 22 16 23 15 17 20 23 19 16 17 16 26 23 21 16 19 17 15 24 25 24 15 24 20 25 23 20 21 15 17 14 26 15 26 23 22 21 25 24 24 22 20 19 21 15 26 25 26 17 24 25 23 14 24 20 23 26 25 24
16 22 19 21 17 15 26 23 18 23 22 16 17 19 17 18 18 25 14 21 14 16 24 15 18 23 24 22 14 25 26 14 23 15 20 19 17 23 17 25 22 19 18 22 14 22 22 20 17 24 24 21 20 15 25 18 23 21 15 17 23 20 24 22
17 21 15 20 23 17 20 18 25 18 23 17 17 22 14 21 20 14 23 25 24 15 20 21 20 22 16 17 15 21 22 16 22 22 19 26 14 19 23 20 24 18 18 26 21 21 24 22 16 23 24 14 25 14 18 16 18 17 17 21 15 22 21 26
15 24 22 18 22 24 19 25 20 22 24 25 14 26 18 25 14 22 17 23 20 17 21 21 15 18 25 25 23 21 17 24 20 15 19 18 25 15 18 22 18 22 22 15 18 18 26 14 14 14 25 14 16 24 24 22 17 17 21 17 20 26 22 25
22 14 25 24 23 23 24 16 20 24 21 17 21 15 18 26 17 23 20 19 23 25 14 19 21 26 14 15 14 15 14 21 22 17 24 26 24 26 17 14 16 17 25 16 25 19 17 21 14 25 22 21 26 19 19 15 15 21 21 17 18 15 22 14
14 18 14 26 19 26 19 15 24 23 18 19 19 17 17 20 24 23 25 17 14 22 21 24 21 20 19 17 25 15 16 20 16 19 16 19 25 23 20 26 20 25 25 21 15 26 17 20 16 22 19 19 22 15 19 22 18 22 18 20 15 21 22 20
22 18 25 14 18 17 16 23 19 18 16 26 24 23 14 21 24 19 26 17 21 24 17 17 16 20 15 24 15 16 19 23 14 22 19 17 22 22 20 16 21 20 19 17 21 20 22 18 19 24 20 26 16 16 19 22 17 19 16 16 15 22 23 22
23 19 26 24 24 18 16 15 16 21 19 24 14 22 21 26 20 15 19 26 16 18 20 22 26 20 26 25 21 16 26 20 22 20 26 25 17 17 15 23 25 20 24 25 22 15 21 19 15 25 19 20 18 15 20 21 18 20 22 21 22 18 22 25
15 19 18 26 26 14 25 22 24 23 15 15 25 24 15 24 14 26 23 24 14 19 20 24 14 21 14 14 22 21 22 22 19 15 17 22 25 22 26 17 18 22 19 25 25 17 14 15 23 22 16 18 19 16 15 19 23 23 21 22 19 19 16 20
14 25 21 16 18 23 26 16 15 17 15 25 25 25 20 26 16 17 25 23 14 16 17 24 26 21 19 14 25 15 19 21 21 16 21 16 26 26 15 21 20 24 14 23 20 25 16 22 22 15 20 18 17 16 21 19 24 19 19 16 19 21 17 22
14 18 24 23 26 17 20 23 22 18 16 26 20 16 22 21 14 14 20 17 15 22 22 16 14 18 16 19 26 22 20 21 20 15 20 23 19 17 21 24 18 23 16 24 26 14 24 25 14 17 20 24 19 21 21 23 17 21 19 17 15 14 16 19
20 17 19 26 19 19 17 19 18 20 16 20 16 20 23 19 19 14 26 24 19 23 14 17 18 21 18 17 25 21 25 18 22 24 22 19 26 20 24 16 23 15 21 15 22 26 22 16 25 15 24 21 26 19 23 26 20 24 15 23 18 26 22 16
22 23 15 22 26 18 18 15 22 26 26 26 14 21 16 18 27 18 19 24 26 23 17 27 27 15 26 19 16 25 25 24 24 25 15 17 17 25 26 16 21 26 19 25 26 29 28 27 27 19 16 15 24 18 20 18 15 23 23 16 24 15 14 24
15 21 14 14 26 17 21 16 26 14 19 20 24 18 22 27 29 23 32 27 33 25 28 22 25 23 21 15 15 25 18 15 15 19 14 16 17 21 27 26 23 31 29 25 30 24 26 21 28 23 16 17 18 24 16 25 21 21 16 25 19 26 22 18
26 18 17 21 20 24 15 17 17 15 23 26 16 22 19 28 27 33 26 32 26 29 28 29 23 22 20 26 19 15 19 25 17 20 14 21 16 27 29 31 26 36 32 33 28 33 26 34 26 31 27 17 26 23 15 22 16 19 23 24 16 20 22 19
22 22 14 26 18 15 25 14 17 21 22 21 25 32 23 32 31 30 28 30 35 35 34 35 38 29 29 33 24 24 25 19 20 14 19 22 29 29 29 36 37 38 41 31 32 34 34 32 30 34 32 25 17 22 22 15 15 25 21 26 17 19 26 18
21 17 25 21 19 18 21 14 18 26 16 21 25 30 26 28 36 42 37 35 34 33 33 35 41 38 35 31 27 30 25 15 14 16 22 26 31 25 34 35 41 43 45 40 33 40 35 42 33 35 26 33 32 20 18 17 21 19 18 18 23 23 19 25
20 22 14 22 17 21 26 24 21 24 29 24 25 31 35 35 43 38 45 44 46 41 41 41 37 33 39 32 30 24 21 18 25 17 27 25 35 37 43 35 36 42 44 45 39 37 36 42 34 43 30 34 31 23 27 24 22 23 21 21 14 21 24 20
18 15 14 19 20 14 21 26 23 26 21 24 38 30 33 44 43 47 49 45 45 51 51 41 41 37 46 33 39 35 24 30 23 21 34 32 40 41 39 46 38 45 53 46 48 46 46 42 41 43 35 37 30 26 26 19 15 22 24 15 25 26 18 25
22 15 20 23 16 20 17 18 16 29 25 34 32 34 36 49 40 45 45 44 45 46 45 46 43 41 47 40 34 28 30 32 34 29 29 40 32 41 37 41 50 54 48 46 56 52 53 41 40 48 39 40 31 33 21 22 23 26 19 22 20 15 15 17
25 14 26 26 24 22 24 22 21 30 34 28 36 45 48 50 52 49 53 52 55 55 50 59 48 50 49 46 44 41 37 26 28 26 33 41 40 39 49 53 46 48 58 55 56 50 48 46 45 44 43 45 40 33 24 21 22 21 26 16 22 22 15 24
24 24 14 20 25 14 16 21 21 21 27 39 36 46 51 46 52 49 58 62 58 60 53 62 59 55 50 46 46 35 39 30 39 37 40 44 47 46 51 55 55 53 53 64 65 52 61 58 53 44 48 35 39 38 37 29 17 16 14 16 21 22 15 23
24 16 24 25 21 19 18 17 28 25 29 40 41 38 51 55 55 60 61 60 57 61 65 57 53 54 49 44 45 45 33 34 32 36 34 33 40 41 45 52 50 55 59 62 59 60 54 60 58 53 44 42 39 39 38 33 21 20 20 26 17 24 14 17
15 19 14 24 20 24 14 20 23 34 30 31 44 48 44 52 50 62 57 64 61 71 61 64 59 52 51 44 45 37 39 40 39 36 42 45 40 45 58 54 58 61 65 71 63 65 62 55 56 53 54 44 44 32 28 30 20 17 20 21 14 14 20 16
16 16 17 14 16 17 25 23 31 27 35 37 37 48 50 47 51 55 58 65 76 67 62 69 57 55 50 52 42 37 41 38 40 35 37 42 47 53 52 54 56 62 62 76 74 74 60 60 57 48 45 43 46 37 36 25 24 27 19 21 18 18 22 20
14 26 23 17 23 21 17 18 31 36 38 40 44 50 44 50 55 60 65 69 79 69 67 64 65 53 56 52 43 37 42 44 45 37 39 45 40 47 58 51 56 62 71 73 73 73 68 61 55 54 54 41 42 41 36 36 28 26 24 16 26 22 25 14
23 26 17 22 20 15 26 21 31 33 36 38 45 43 50 58 51 65 69 72 74 72 62 69 58 50 55 50 46 47 45 42 42 41 43 42 49 48 58 59 54 63 67 68 67 68 66 63 60 57 55 46 39 41 38 27 30 16 23 22 24 20 25 25
23 26 14 22 16 26 18 16 20 30 38 31 39 46 46 49 57 55 67 67 64 72 67 65 58 50 56 54 38 43 37 36 41 37 34 45 39 54 50 50 63 62 65 71 63 65 60 57 51 49 47 50 36 32 31 29 22 15 19 21 22 25 24 14
26 15 17 24 24 25 16 22 19 28 32 37 42 42 44 55 49 63 62 66 62 67 62 55 57 52 52 49 43 38 34 38 34 40 35 36 45 43 46 56 53 63 58 68 68 62 54 52 55 56 49 37 39 36 38 27 26 26 19 25 17 25 17 16
22 15 18 19 19 25 18 16 20 29 29 28 35 46 49 52 52 55 60 58 65 53 53 57 55 50 44 40 44 44 39 28 38 33 35 44 36 48 49 47 53 61 57 62 58 56 62 58 53 46 39 38 43 33 34 29 27 17 18 19 17 15 15 20
23 21 19 24 18 23 20 18 19 26 23 39 38 38 38 48 51 47 50 48 55 53 60 49 51 46 42 40 39 42 28 27 32 31 31 30 40 47 47 46 53 47 56 56 57 56 47 54 54 48 43 35 31 27 32 23 28 23 24 21 23 14 19 25
24 22 20 26 14 24 19 15 15 21 23 29 38 43 45 37 39 47 54 52 55 51 55 46 49 51 41 39 32 37 31 27 26 31 29 36 40 41 43 39 42 53 55 50 45 54 50 50 43 47 35 43 35 28 24 20 15 20 21 23 26 15 20 17
24 25 29 20 23 23 23 26 22 29 32 30 31 34 38 39 40 45 46 56 45 51 55 53 49 42 45 36 34 34 31 33 24 29 36 36 34 41 50 43 43 45 52 50 47 47 47 56 51 42 46 38 35 40 30 29 32 21 30 23 20 32 20 29
30 26 24 22 31 31 23 21 27 27 32 31 36 43 48 51 53 48 53 50 51 53 55 52 54 50 40 49 44 34 37 38 30 34 30 39 43 46 46 43 49 50 53 60 52 53 59 48 50 49 41 48 41 37 31 38 37 35 33 37 29 35 39 34
34 35 28 32 27 31 26 25 32 27 31 30 39 43 43 49 50 49 46 54 53 58 47 47 53 52 44 51 44 46 39 36 30 37 39 43 43 50 51 53 55 57 49 60 56 49 48 48 47 50 50 40 39 39 35 40 38 36 42 34 36 41 35 42
23 20 31 22 26 22 31 24 22 22 21 23 35 39 41 40 39 43 41 40 48 43 38 43 45 36 34 40 31 38 35 28 29 34 34 31 38 44 38 42 38 45 44 48 52 49 39 50 43 45 43 36 36 37 28 29 27 34 34 27 29 29 28 31
17 22 26 18 28 21 18 26 18 17 26 26 19 25 31 32 38 38 39 33 41 37 31 38 29 36 33 34 20 30 29 26 29 19 23 26 26 26 31 27 39 32 41 42 41 30 35 39 35 30 30 34 26 19 27 21 29 28 29 32 31 22 29 21
22 16 18 24 21 16 22 26 24 20 21 14 26 23 24 23 26 29 21 31 34 27 21 27 21 19 21 19 20 16 24 26 26 14 25 15 18 17 22 23 28 26 25 34 23 28 23 27 25 27 19 18 15 20 18 16 22 15 14 15 15 14 17 18
14 14 22 26 22 23 15 19 17 16 22 15 16 22 16 14 21 20 23 23 28 29 25 19 18 25 26 16 25 19 17 17 24 23 25 19 25 14 21 18 18 24 18 23 18 17 19 19 22 15 24 21 19 14 24 14 23 17 18 18 17 18 16 23
25 19 26 19 15 18 21 24 22 24 24 26 26 14 19 23 14 15 16 19 26 19 14 20 26 24 25 18 23 22 25 26 14 19 15 24 23 24 14 16 17 19 17 17 21 16 22 18 18 16 15 16 17 20 23 14 23 19 22 16 19 22 23 18
14 23 24 22 21 25 19 20 24 18 17 15 23 25 23 20 20 22 26 25 21 17 18 22 19 18 22 15 16 21 25 26 24 24 25 23 22 14 17 20 18 24 17 18 26 19 22 20 24 15 19 21 21 26 25 19 18 20 18 25 24 15 15 21
14 21 19 19 22 26 18 21 26 24 24 16 21 15 23 26 17 26 17 26 19 15 25 21 24 21 15 17 19 15 18 19 17 26 14 23 19 21 25 17 24 15 21 22 26 26 22 25 24 15 15 18 22 20 21 17 22 25 20 25 20 26 20 25
17 23 20 16 18 17 17 19 23 15 16 23 22 25 20 21 18 22 24 21 21 19 24 17 20 16 25 19 18 25 16 25 20 21 19 15 17 15 25 20 17 20 21 17 23 18 25 22 18 19 22 17 22 25 20 19 18 23 16 19 16 18 23 26
18 23 19 25 20 16 16 14 14 17 24 14 25 19 20 19 22 25 22 14 21 15 14 22 14 26 14 18 24 24 17 15 14 23 14 14 16 20 26 16 14 16 20 15 21 23 23 22 15 20 24 14 20 24 25 25 21 24 23 19 24 18 17 14
23 26 16 25 18 21 24 16 21 16 20 26 18 23 15 16 26 20 19 19 25 15 20 24 16 14 16 15 22 21 26 17 17 25 20 20 23 25 26 18 19 20 16 24 23 15 15 17 22 19 15 26 17 24 14 21 17 25 21 21 25 16 14 23
18 21 21 19 23 25 26 17 19 15 15 15 16 17 20 23 16 16 16 23 22 21 25 19 21 20 20 15 25 22 16 16 18 18 24 19 17 21 22 14 25 14 16 19 15 23 20 16 18 22 16 23 16 17 25 14 25 25 16 21 15 25 25 18
18 17 23 16 23 19 14 26 16 19 18 18 21 14 26 15 23 26 22 14 14 24 26 19 14 15 21 14 18 14 20 26 25 16 23 16 22 14 18 21 25 14 25 15 21 19 19 19 24 14 23 16 19 18 21 17 15 17 19 20 18 18 24 23
24 23 24 25 19 17 21 15 24 23 14 26 14 14 19 24 18 23 19 20 14 24 25 22 24 15 22 17 18 16 14 19 19 24 20 17 23 17 25 23 14 20 15 18 17 17 17 14 19 14 26 24 26 24 17 15 16 19 19 20 15 19 25 25
15 22 14 25 14 22 17 22 22 21 25 22 22 24 15 26 22 15 17 16 15 20 19 15 24 17 18 20 17 25 16 15 26 19 25 15 20 14 20 15 14 18 22 26 14 23 25 21 16 14 15 14 22 20 15 20 16 21 19 15 20 24 16 24
25 14 19 14 26 14 23 18 23 16 26 22 19 24 18 19 17 15 24 14 16 15 16 22 26 24 21 17 18 25 19 22 14 25 14 19 18 25 21 15 24 22 24 20 14 24 17 26 16 19 26 26 23 15 24 24 14 21 19 21 20 23 14 21
17 18 25 21 26 22 18 17 17 26 25 15 22 23 14 14 14 14 18 24 16 15 20 15 14 18 16 24 16 19 15 15 14 18 20 15 16 16 15 19 20 22 14 21 18 24 18 16 14 22 25 26 25 14 23 19 14 24 21 21 14 24 23 18
14 14 25 24 15 18 14 18 16 15 16 26 15 14 23 18 20 15 21 25 20 25 25 24 20 24 17 22 19 15 24 17 17 21 23 15 16 21 19 26 25 14 22 17 26 19 16 22 15 26 21 24 24 14 22 19 26 25 19 18 17 23 24 17
24 21 24 24 19 21 15 19 26 14 25 25 20 24 16 26 26 17 24 20 23 24 21 19 26 21 25 23 19 25 18 25 19 23 21 26 22 25 26 16 17 21 22 20 19 25 21 18 24 26 18 26 19 17 21 15 26 23 15 17 23 20 26 17
18 16 26 15 25 23 25 19 14 19 18 17 14 16 18 24 23 24 21 26 18 15 24 19 26 21 21 20 24 21 23 19 20 14 20 26 21 14 19 14 24 22 16 24 20 22 14 20 18 24 22 23 21 16 15 21 15 20 17 20 22 23 19 21
20 26 19 22 24 25 22 25 26 21 21 22 23 25 14 20 25 14 16 24 16 18 21 16 26 22 25 24 22 21 15 24 20 16 20 24 16 23 20 17 24 15 19 14 18 18 25 26 17 25 16 26 18 25 14 16 17 26 26 25 20 23 18 19
17 18 17 22 23 16 17 14 14 18 25 21 23 14 26 24 20 26 17 19 18 14 23 18 21 22 19 25 17 15 17 25 15 19 26 21 25 16 17 18 15 14 20 25 21 25 21 21 14 18 17 20 19 19 21 23 26 17 24 22 16 20 21 26
17 15 24 21 25 24 19 26 24 20 15 24 22 14 15 21 19 24 23 24 21 18 22 22 17 18 22 19 19 18 20 15 26 18 22 16 26 15 19 20 24 25 19 26 25 18 22 22 20 14 14 16 26 21 21 17 21 18 14 15 19 20 20 16
