P2
64 64
255
26 21 21 23 24 19 28 23 30 28 29 22 22 29 32 31 29 32 24 20 21 36 34 38 21 35 35 35 25 37 21 24 34 24 21 24 31 19 25 21 21 38 34 23 29 35 31 23 21 30 26 38 30 38 29 22 37 30 26 29 21 19 28 29
38 20 29 30 36 32 31 29 33 22 24 35 21 38 22 20 22 37 37 38 36 31 26 34 31 27 33 19 22 33 20 33 37 38 23 20 36 26 25 19 26 22 18 18 22 28 23 34 18 31 31 21 32 35 30 23 37 23 38 30 26 25 33 19
28 29 18 36 36 35 21 31 29 35 28 34 20 22 30 27 24 25 29 25 35 28 30 29 29 31 29 33 29 27 18 20 23 30 33 27 23 33 22 27 32 20 29 23 31 18 21 33 21 21 38 25 34 24 22 25 30 31 24 24 38 23 22 25
36 23 38 38 36 20 31 38 36 20 18 24 33 27 18 28 21 32 36 22 29 38 33 25 35 19 18 33 24 32 26 20 34 25 30 26 32 34 22 23 34 22 27 24 27 24 31 27 29 20 27 35 24 29 29 37 24 28 33 28 31 30 35 27
20 38 34 27 29 34 36 23 28 38 21 34 22 22 37 23 32 31 24 32 35 32 36 28 31 28 33 29 33 36 36 29 18 30 20 26 19 25 36 20 27 30 24 23 33 26 26 26 32 22 26 37 19 26 26 28 32 32 38 25 36 26 36 35
31 37 19 35 27 26 29 29 18 38 37 37 21 29 27 20 25 35 22 18 38 23 25 20 30 24 25 34 37 28 30 18 30 26 26 36 25 20 23 38 26 35 32 33 22 26 22 31 22 18 35 19 26 26 26 38 21 27 32 19 37 32 21 30
35 29 23 36 37 24 20 24 21 32 18 18 34 23 26 26 28 35 36 33 33 24 25 28 18 25 32 21 24 20 24 21 22 19 36 34 27 37 29 23 29 22 37 23 23 18 36 34 24 19 38 37 36 30 22 30 19 31 20 26 22 37 33 32
25 29 25 37 29 18 36 33 27 28 36 21 20 25 31 33 38 27 21 30 28 37 34 35 25 31 26 27 35 37 26 37 28 28 20 37 27 23 23 24 19 27 35 36 22 35 18 26 21 23 23 27 28 27 34 36 30 35 37 24 33 30 37 31
36 23 35 19 28 27 22 30 36 28 35 22 23 25 33 26 34 19 25 37 37 32 19 34 36 29 37 22 34 24 27 18 32 32 23 19 23 28 35 18 20 31 24 20 37 29 25 30 23 35 23 35 31 29 33 18 27 36 29 30 34 24 21 27
31 32 27 37 18 19 23 38 31 21 35 34 27 18 38 24 35 35 25 33 32 32 19 20 37 32 18 20 22 23 21 18 34 19 22 35 28 23 30 25 35 27 23 34 27 38 35 31 23 36 38 37 29 27 28 24 32 24 32 24 22 28 35 18
28 19 32 29 27 32 21 23 36 29 30 33 28 22 31 33 20 23 30 30 27 35 19 23 27 38 32 22 30 26 19 31 18 29 20 37 32 36 22 30 32 22 35 26 19 21 19 26 26 33 21 33 31 21 32 27 35 19 27 20 24 38 38 29
28 30 35 35 25 35 25 19 33 35 19 24 35 23 33 20 38 37 37 19 22 18 37 31 26 24 38 28 30 37 34 35 37 35 21 27 37 28 18 26 35 26 36 26 22 34 32 34 25 31 28 38 27 36 31 36 28 29 27 27 30 31 20 22
20 24 32 21 38 35 37 35 31 26 34 27 30 34 32 33 19 22 18 26 24 36 24 22 19 34 27 37 37 34 25 36 27 20 36 20 37 35 31 22 26 37 30 23 21 36 21 26 19 34 26 19 36 35 32 33 30 35 19 37 27 36 34 25
34 25 23 22 30 29 29 24 27 38 38 21 19 23 27 38 28 32 20 21 33 33 27 33 37 25 20 35 28 19 35 28 34 26 19 28 35 21 30 30 22 30 36 36 25 25 38 20 35 23 25 33 28 26 34 23 27 28 35 27 33 23 37 37
22 30 22 28 35 22 24 28 20 38 32 29 37 32 24 29 35 33 25 20 36 32 37 18 28 23 22 30 19 31 35 27 26 28 30 35 27 20 33 29 28 32 18 28 35 38 20 18 22 30 20 26 26 28 32 22 33 31 35 34 38 36 19 32
20 36 20 33 29 26 37 26 33 34 38 36 21 19 23 25 19 20 21 25 19 27 30 38 25 26 21 27 26 20 38 19 32 35 28 24 32 23 22 19 19 34 30 20 23 35 20 30 18 32 32 29 35 24 21 24 18 18 34 31 25 23 27 26
35 24 21 30 27 25 32 29 35 20 32 36 25 33 30 20 38 38 25 25 33 21 27 29 34 32 33 32 35 35 21 26 33 28 30 32 25 22 33 23 35 25 22 28 35 22 21 31 31 25 32 34 24 34 31 23 26 26 23 37 20 30 34 24
24 27 31 19 32 26 37 24 22 30 29 22 28 35 35 25 21 18 23 35 35 32 38 29 37 34 34 24 28 22 34 20 20 33 38 38 38 36 24 36 27 20 18 35 21 33 24 32 33 19 18 31 23 38 34 35 29 37 38 22 31 21 28 20
22 26 22 30 27 26 24 20 21 33 25 25 36 22 33 19 26 22 29 32 25 19 20 37 18 22 38 20 23 33 38 34 35 29 36 22 29 19 36 24 35 22 31 34 29 24 18 36 35 23 18 34 26 30 20 25 35 31 23 21 28 28 23 22
22 38 27 34 30 22 34 23 36 35 23 18 28 23 29 34 38 34 25 25 42 27 34 27 28 29 22 34 26 37 24 33 31 37 33 30 33 29 23 30 30 22 28 30 39 31 38 31 30 21 38 37 35 24 20 31 30 37 34 18 19 25 23 26
30 34 22 21 24 28 30 21 32 38 20 20 24 25 24 30 35 38 33 36 40 26 41 35 37 38 34 24 32 26 21 25 23 36 25 30 28 27 34 29 39 27 33 29 41 33 30 40 24 34 27 23 24 21 36 30 38 29 25 21 26 23 33 21
23 25 30 18 28 27 24 33 36 32 22 31 23 32 30 24 36 36 35 49 43 45 39 45 38 44 43 33 39 19 23 19 26 113 31 35 24 29 34 35 41 33 34 32 46 33 44 30 36 37 38 32 29 37 22 34 23 24 19 20 34 33 33 37
29 38 32 23 24 28 28 36 26 19 33 30 22 24 40 47 37 50 52 43 37 35 48 49 44 39 34 33 40 21 22 19 20 104 38 28 36 38 36 37 33 36 35 34 51 49 32 31 41 42 42 30 40 28 26 25 27 37 24 20 34 33 25 23
26 32 36 28 19 19 23 32 18 31 19 33 33 28 47 38 34 40 37 42 52 57 45 55 54 36 37 38 27 40 110 32 38 19 122 38 32 33 33 48 48 49 54 43 43 37 43 39 52 36 43 47 31 33 22 26 20 22 37 38 23 32 30 24
30 23 35 31 20 18 20 26 36 23 41 33 44 35 43 51 44 47 45 49 53 41 50 58 52 52 41 36 49 120 36 35 38 25 29 127 37 52 52 54 58 56 41 56 46 49 45 44 38 45 34 33 31 24 27 26 20 21 33 25 37 36 28 36
29 38 31 29 34 32 36 33 30 31 35 39 43 36 46 58 55 43 59 50 47 45 58 46 49 41 43 43 39 36 215 37 24 38 128 29 35 49 40 41 55 44 55 45 48 59 50 43 43 58 55 37 34 33 27 36 24 21 35 33 24 24 34 36
33 27 26 35 38 29 27 27 23 28 33 29 47 51 41 47 57 45 50 48 67 63 50 58 51 55 55 48 52 37 129 110 30 36 34 117 37 38 52 59 52 57 68 52 58 48 51 64 55 52 55 47 35 40 41 23 33 32 30 29 26 33 18 33
18 32 37 18 25 38 28 19 22 32 32 43 34 38 44 64 66 66 54 61 62 58 52 63 55 49 49 50 39 139 45 124 34 42 116 129 55 43 52 53 63 69 72 65 62 69 57 68 59 55 42 40 42 50 43 42 39 19 36 27 21 20 27 18
21 28 23 20 36 30 18 21 41 34 42 36 54 55 48 51 58 67 60 66 61 59 75 62 58 64 63 49 139 54 36 124 40 43 119 141 41 56 51 55 65 57 64 77 63 65 68 63 55 66 52 49 49 40 33 45 33 35 18 36 30 37 22 27
35 30 18 26 32 18 24 28 42 39 30 50 53 47 51 54 61 66 58 76 75 66 63 73 56 63 63 61 46 218 51 45 126 41 129 56 135 59 54 58 63 65 60 68 79 74 77 65 51 62 63 42 40 51 48 46 40 38 31 26 30 20 37 35
34 38 25 23 38 18 30 35 38 27 41 43 49 51 60 63 53 60 74 71 66 74 63 63 57 59 69 60 232 43 39 53 138 134 41 39 139 52 63 68 70 75 77 74 80 80 75 74 56 63 47 62 45 54 32 40 38 22 34 29 18 38 32 33
21 33 20 21 34 26 36 34 39 41 36 41 51 60 49 55 62 76 75 78 70 77 72 71 65 59 51 60 145 135 50 45 128 133 48 45 51 147 68 66 72 82 79 68 76 83 68 65 74 61 53 57 46 35 46 27 35 39 18 30 22 36 19 25
20 20 29 19 19 34 32 35 44 36 41 51 49 45 62 71 71 71 82 79 78 76 69 80 76 64 65 50 129 130 42 134 49 136 52 50 140 48 55 71 66 78 79 88 87 69 78 66 66 62 52 53 43 52 47 31 27 28 19 25 27 37 35 30
21 30 33 19 35 35 26 23 30 43 48 41 58 51 62 70 60 78 80 71 83 78 81 67 70 57 71 59 221 54 39 123 139 50 51 135 60 59 58 63 68 65 77 82 71 70 71 72 72 53 57 55 45 36 50 40 44 30 32 30 27 34 30 19
38 30 36 30 27 26 32 44 42 52 45 46 59 55 52 68 75 83 82 77 89 77 85 67 67 79 62 234 49 65 46 131 133 45 60 52 137 56 73 61 68 69 90 76 86 87 85 68 76 68 67 70 51 51 56 37 52 29 36 32 45 27 42 36
35 36 44 34 36 44 39 41 48 58 49 48 68 64 63 80 66 75 77 82 82 80 76 89 88 81 158 147 74 53 69 139 144 66 68 58 162 68 80 87 87 91 92 84 86 84 85 89 70 77 66 75 56 54 54 57 61 48 56 55 44 42 52 41
44 52 39 50 48 36 35 49 45 63 50 56 66 71 79 67 81 75 79 85 96 87 84 89 78 74 81 245 68 61 146 146 76 75 69 155 83 71 74 76 90 95 83 101 98 92 98 82 89 87 74 76 73 79 62 75 71 55 65 57 62 66 67 55
48 53 47 55 57 42 46 45 46 49 53 58 75 74 75 86 84 85 89 91 95 83 97 89 82 91 88 157 154 72 237 73 80 73 160 79 78 94 82 101 87 97 105 108 103 94 101 100 88 87 96 89 88 70 67 67 75 72 65 61 65 78 77 71
52 35 55 38 42 44 40 44 50 58 55 51 69 68 73 67 68 69 74 75 80 81 82 86 74 70 168 164 76 155 153 59 64 154 74 76 80 82 88 80 78 77 96 97 82 88 81 75 73 72 73 68 66 68 62 67 51 53 69 71 58 53 61 64
43 44 47 33 39 34 31 35 39 42 54 46 45 62 59 57 56 75 61 67 78 63 79 78 74 64 72 236 61 150 62 127 130 49 59 59 70 61 63 62 71 70 69 65 77 66 80 68 80 61 68 54 64 65 59 52 54 44 59 43 53 53 45 46
25 37 24 44 41 34 28 39 36 27 42 32 53 40 41 52 44 54 52 51 64 58 53 67 62 57 53 127 222 40 33 39 124 117 35 56 39 50 46 61 64 56 57 54 64 63 68 61 54 58 47 56 44 42 43 37 29 42 45 31 36 41 39 36
26 23 35 36 31 30 18 20 31 22 33 41 43 32 34 32 51 39 36 43 44 47 54 44 37 40 42 210 112 31 40 113 36 120 40 43 32 46 51 45 43 40 40 53 45 54 49 54 48 33 38 30 30 38 32 23 26 32 32 29 31 32 39 26
32 31 32 34 32 22 34 30 22 21 38 23 39 32 35 34 31 35 37 52 43 39 36 35 40 47 40 204 118 37 122 38 35 26 105 35 34 34 33 33 42 41 49 34 45 52 38 45 50 37 40 34 22 25 21 33 22 24 20 20 29 29 38 33
27 32 26 32 36 30 26 33 35 24 36 32 21 27 43 25 33 39 31 49 43 45 35 44 31 40 42 115 105 123 123 33 18 116 25 25 21 31 38 31 45 46 40 34 46 40 34 29 29 29 39 32 37 18 33 29 28 30 28 31 30 31 31 34
29 18 24 21 29 37 31 36 37 29 31 20 23 25 19 30 33 33 27 30 34 35 36 40 38 40 30 28 208 21 118 109 112 28 22 24 29 28 26 40 35 32 44 41 33 36 40 43 22 31 33 32 38 23 37 23 22 29 34 31 29 20 34 30
38 31 32 29 24 19 37 23 38 27 20 28 33 29 26 38 28 22 29 39 32 41 27 37 32 22 24 27 122 116 29 190 24 119 37 32 26 21 22 30 33 36 24 24 40 29 37 25 32 18 34 21 18 21 36 23 28 31 37 32 25 34 31 33
22 19 34 30 33 33 27 28 20 26 30 32 32 28 22 22 25 30 22 23 25 33 19 27 18 24 23 108 18 120 112 31 118 37 119 19 36 31 38 27 31 24 21 25 26 27 34 26 19 34 26 33 23 22 19 37 19 27 34 33 24 28 35 32
34 37 27 36 31 20 21 21 27 22 37 27 18 33 18 38 19 37 31 29 32 29 19 33 36 30 38 30 110 116 113 23 113 108 36 22 32 23 24 18 29 33 27 22 27 23 25 38 19 26 27 38 29 18 22 18 35 20 31 25 29 26 20 30
22 32 26 24 35 31 26 20 31 19 24 32 26 36 36 32 30 37 28 21 22 38 28 31 26 34 38 19 200 117 28 118 30 121 35 33 22 25 37 34 20 28 30 33 31 19 31 27 21 23 29 24 23 29 29 27 29 33 32 30 37 31 25 27
28 34 24 29 28 27 22 34 26 35 31 30 30 31 34 19 27 32 19 33 19 24 25 38 28 38 22 31 105 194 34 104 20 112 34 20 35 33 29 29 22 32 32 29 21 18 33 20 19 37 33 31 30 36 36 23 20 26 28 22 28 32 29 35
38 25 37 24 19 31 20 35 19 37 19 25 19 37 29 29 20 37 22 38 24 32 23 32 25 19 20 105 121 103 23 22 190 34 35 19 21 25 21 34 32 27 27 28 38 35 28 28 29 32 37 34 32 36 36 35 36 30 31 34 35 23 26 18
22 37 32 34 32 23 35 32 29 24 26 25 34 23 28 24 37 18 20 38 25 29 35 36 36 21 33 24 188 121 24 198 35 33 24 21 19 32 22 21 32 37 26 27 33 19 27 19 37 25 28 20 29 30 29 37 24 30 25 22 18 31 37 31
21 27 37 21 38 28 21 29 20 34 23 38 35 29 20 27 18 31 23 28 33 28 34 26 21 24 23 30 208 116 23 37 199 35 37 29 29 25 36 35 32 30 22 33 31 19 31 35 24 19 28 24 29 37 24 21 26 32 22 27 27 28 26 30
36 37 38 20 24 25 31 24 22 18 27 22 30 24 26 21 28 20 38 26 19 29 37 38 19 19 30 20 33 208 110 110 28 21 30 20 30 22 27 37 35 28 31 32 36 30 24 30 32 23 27 38 33 33 19 21 22 19 36 34 21 37 31 35
28 19 30 31 37 33 32 38 37 22 18 29 29 34 24 29 38 36 32 22 31 19 33 29 23 30 35 30 112 120 115 119 29 36 28 23 23 36 33 31 18 19 25 31 18 30 37 18 32 27 19 27 19 22 32 23 34 27 18 22 36 34 31 22
38 31 23 35 26 32 21 24 21 19 28 26 33 24 22 28 36 34 18 23 36 27 24 30 34 21 22 26 27 121 104 103 25 31 21 36 36 31 29 23 20 36 20 32 36 26 31 37 28 26 34 31 24 35 37 19 28 33 26 28 25 34 32 37
37 23 24 29 23 24 30 27 20 29 35 33 23 38 34 34 32 26 21 33 31 37 19 19 34 25 24 22 107 24 105 106 20 34 31 21 27 35 33 32 35 31 37 36 34 26 18 33 29 19 32 31 35 36 24 33 32 23 21 31 33 18 35 27
29 29 18 22 26 30 32 18 37 20 25 26 24 28 29 25 22 18 38 20 22 24 22 31 21 25 35 18 19 121 23 119 23 37 32 30 34 37 24 24 29 35 20 35 31 29 28 25 35 19 31 31 34 29 18 25 27 31 36 31 29 23 21 24
38 27 37 31 20 19 23 24 29 22 28 32 35 18 35 26 34 19 36 29 36 26 28 21 28 34 29 33 21 25 194 27 37 33 33 38 36 20 30 37 19 25 30 28 36 31 38 23 33 25 20 30 33 36 29 18 27 33 21 18 38 37 22 35
34 25 35 20 25 21 20 29 26 29 30 21 20 21 19 21 24 18 20 23 29 35 33 30 23 32 18 34 22 108 34 20 36 26 21 25 31 36 28 35 18 30 19 21 20 38 22 30 22 34 25 28 34 24 28 38 33 20 28 29 29 26 28 19
34 24 23 20 38 25 23 25 25 29 36 30 26 32 29 32 36 23 22 32 22 37 20 29 26 20 24 26 117 36 37 20 28 25 30 37 21 30 37 35 37 29 28 20 38 32 23 35 29 20 18 19 31 23 21 36 30 34 18 37 29 30 23 21
21 32 38 19 31 36 31 21 25 26 30 31 23 28 21 19 18 20 27 22 18 38 21 38 23 18 30 36 36 36 29 31 20 27 32 26 36 32 20 22 25 30 29 24 21 32 31 22 31 27 26 22 20 23 31 23 37 32 38 29 35 32 18 22
29 21 24 30 38 30 18 35 31 35 22 38 31 22 19 30 18 30 27 20 30 27 31 30 25 30 33 23 23 29 18 28 30 25 26 20 20 20 27 33 35 35 22 19 35 26 35 32 26 25 18 28 34 32 35 20 29 19 32 23 26 33 24 32
31 18 18 32 32 38 31 38 38 32 27 21 22 25 18 28 38 35 25 27 27 20 24 33 23 36 28 22 26 18 30 24 30 28 22 21 30 34 19 32 35 28 35 19 33 36 27 23 25 20 20 20 33 18 24 20 18 23 22 32 27 22 37 27
