P2
64 64
255
18 23 20 14 23 16 23 15 18 16 23 23 23 25 17 22 18 23 19 15 14 19 23 15 19 22 14 24 14 18 24 23 23 18 14 20 17 14 15 23 26 26 26 20 17 20 14 14 21 16 26 17 19 19 15 25 20 25 23 25 19 16 26 16
16 16 23 14 15 23 21 26 16 26 22 23 19 16 14 26 24 23 21 19 25 23 24 15 24 18 20 25 19 25 14 24 17 14 18 17 23 22 26 23 23 25 19 25 22 14 19 14 22 22 19 25 20 16 21 14 19 19 23 17 25 24 21 20
23 20 25 16 26 18 19 16 19 26 24 24 24 20 18 15 21 23 19 23 14 16 17 26 18 17 23 15 17 14 22 22 19 26 21 18 15 16 25 23 26 14 24 22 25 20 22 25 17 14 22 19 23 25 23 25 25 22 19 20 23 15 24 15
21 14 26 22 21 23 17 19 19 20 21 24 26 25 26 26 19 22 26 25 15 18 20 16 25 19 22 20 20 23 20 16 15 20 14 20 20 19 22 26 19 18 20 25 22 18 15 23 24 15 23 18 16 23 23 19 25 19 24 26 21 21 14 26
26 23 22 22 25 16 20 15 26 18 25 15 25 19 16 18 20 23 16 14 25 21 22 25 20 23 17 23 23 26 16 18 22 19 25 15 22 23 17 17 21 18 26 15 21 23 24 21 23 21 20 19 15 25 23 20 15 20 14 15 25 26 26 24
25 25 19 14 25 20 26 14 23 21 25 22 15 26 25 15 22 23 24 26 25 16 18 23 23 25 21 15 21 18 16 24 17 14 23 15 21 16 22 16 14 19 17 15 21 18 19 15 26 24 20 25 21 19 18 19 17 17 17 18 14 21 23 25
21 15 24 16 21 20 14 15 26 14 16 26 25 25 26 17 14 18 20 20 14 21 24 18 26 19 22 25 22 16 21 17 16 22 21 16 14 20 15 21 19 26 16 19 15 14 19 21 25 18 14 15 25 23 18 20 14 17 19 24 22 20 21 19
20 15 21 19 16 25 24 19 17 24 15 24 23 24 15 24 22 16 19 23 19 14 15 20 24 18 26 17 20 22 23 20 15 25 22 17 24 26 19 19 24 19 14 20 17 15 18 26 14 19 24 25 19 19 14 25 26 23 19 14 21 24 24 14
18 24 26 25 18 18 15 25 15 19 23 18 23 16 19 25 26 19 14 24 19 18 26 14 24 22 21 14 20 23 21 22 18 26 26 23 15 21 25 15 16 18 22 25 25 17 23 25 19 23 15 19 18 25 19 17 23 18 25 19 19 24 20 24
19 14 18 20 25 22 24 23 22 26 15 21 15 23 19 19 22 24 23 20 17 21 19 25 20 19 24 20 26 14 20 20 16 26 20 18 15 23 16 22 24 20 21 26 23 14 15 19 26 25 23 19 22 19 21 18 19 19 14 14 18 17 25 17
20 19 17 24 25 21 22 17 18 15 21 16 18 21 14 18 20 24 24 23 25 23 15 15 23 18 23 19 15 26 25 16 25 15 16 19 18 14 17 21 20 21 21 18 23 16 23 22 23 17 23 19 20 21 20 18 18 19 15 21 17 25 22 22
14 19 21 18 14 23 17 14 14 16 17 26 17 26 22 21 25 19 26 24 14 21 21 16 17 17 18 15 18 16 23 16 26 22 14 17 22 16 19 23 20 18 20 16 14 19 24 14 25 23 16 17 17 24 16 17 24 17 26 15 16 17 26 25
16 15 15 23 19 14 14 21 14 26 17 14 22 20 20 16 19 17 19 25 15 15 25 25 17 15 24 17 25 16 14 19 22 18 24 17 21 22 22 23 21 21 24 15 24 21 21 15 14 17 18 15 19 14 26 16 17 14 23 25 23 16 17 18
22 16 19 18 24 18 16 19 16 22 14 24 14 14 20 22 18 17 14 20 14 19 23 17 20 15 18 23 25 25 25 24 20 16 21 14 23 15 25 18 14 20 18 19 26 16 15 24 25 18 15 15 23 14 17 15 22 23 14 25 19 16 17 25
25 23 20 26 25 22 26 14 16 22 25 26 26 20 18 20 15 21 20 16 24 15 14 24 19 24 23 25 26 16 26 24 20 26 19 19 19 19 25 21 15 16 24 14 16 15 26 21 17 17 23 23 22 25 21 24 23 19 24 14 25 19 17 20
26 15 17 18 23 25 16 20 24 23 21 24 21 23 23 24 20 14 15 21 19 16 26 18 20 17 15 14 21 15 20 15 16 18 14 15 17 25 16 15 21 23 23 23 14 17 14 24 23 16 14 26 20 18 20 18 16 25 19 16 23 14 22 16
22 21 25 15 14 26 23 20 19 17 18 26 24 17 19 21 16 25 26 17 25 18 14 18 19 22 24 21 20 20 16 22 25 21 14 21 16 16 17 20 16 18 14 17 25 19 18 19 14 19 26 24 16 24 26 26 26 22 19 21 14 23 19 22
14 24 16 26 23 19 23 22 24 20 22 19 25 25 21 19 20 25 25 19 26 24 14 25 23 22 19 15 21 16 22 22 19 23 20 20 16 25 22 26 21 26 26 14 17 26 19 19 21 25 15 23 21 17 24 18 21 22 26 15 18 25 25 26
20 14 23 16 21 21 17 23 23 17 17 24 26 24 24 17 26 14 15 17 22 22 26 17 23 19 19 24 23 19 16 26 21 25 19 22 15 20 24 14 18 18 17 20 23 19 26 24 14 16 19 26 18 19 23 19 23 23 17 22 14 17 26 14
22 18 22 22 14 26 26 23 22 25 21 25 22 24 17 23 18 26 26 21 30 27 29 21 24 16 16 25 17 24 21 22 14 16 20 20 14 18 15 16 23 23 21 21 25 17 19 21 23 25 14 18 26 23 18 24 14 14 25 22 16 22 17 14
24 24 23 20 20 22 19 24 14 16 22 21 15 23 23 24 19 22 30 29 24 34 29 32 30 27 28 22 19 15 14 22 22 15 23 22 26 18 29 19 26 33 32 28 27 30 32 26 30 18 21 21 18 20 20 26 19 17 18 15 14 24 20 19
16 15 14 20 16 19 17 25 25 15 19 26 16 29 22 20 27 30 33 36 25 34 30 29 31 34 21 28 26 25 20 14 17 19 22 14 18 28 26 27 29 33 25 35 36 32 24 27 27 24 31 29 25 14 17 17 19 21 19 19 24 15 18 14
20 23 23 19 26 24 21 16 25 19 22 26 24 26 32 36 28 35 30 35 34 37 40 34 33 32 31 34 27 28 24 15 21 24 19 20 27 22 36 33 33 38 40 36 36 30 31 29 34 34 27 24 22 25 23 19 20 18 19 24 25 25 24 24
22 18 19 20 14 26 17 21 15 23 24 25 21 27 27 27 34 36 36 38 33 36 37 39 43 35 38 36 23 32 22 24 20 16 22 30 30 37 31 41 34 43 43 44 41 34 36 40 36 37 25 27 31 22 20 23 18 16 21 15 25 26 25 22
21 19 22 18 15 25 24 23 22 24 27 28 31 32 30 35 34 38 48 42 49 44 47 48 35 37 31 32 27 35 29 29 21 22 29 25 31 28 39 38 44 37 41 49 40 37 45 40 45 39 39 29 24 30 17 20 14 23 14 16 26 18 22 24
18 18 25 26 20 14 14 15 24 20 24 30 37 34 43 45 41 38 46 44 48 50 47 39 48 47 36 43 37 25 34 24 30 28 26 25 31 35 40 37 45 48 50 48 46 42 40 47 46 46 35 37 33 28 23 18 18 21 21 18 26 24 25 22
21 16 18 17 20 19 24 17 26 24 22 37 31 43 42 46 45 47 49 47 54 56 47 52 53 51 42 34 38 37 27 30 25 21 29 38 36 41 47 49 51 43 54 55 45 51 52 43 40 41 46 33 37 26 24 30 15 17 19 22 20 23 15 25
15 21 15 20 15 21 26 21 18 28 24 38 40 41 39 41 51 47 50 60 51 58 57 50 57 43 41 36 44 33 35 36 32 34 32 38 34 39 45 45 48 51 60 52 60 59 59 57 51 50 44 38 40 35 31 22 24 25 18 21 18 25 23 18
20 26 22 17 25 14 21 24 17 32 26 38 41 35 47 45 54 51 58 53 61 56 57 50 51 45 45 47 47 38 33 32 34 28 39 33 44 46 53 53 56 59 54 60 55 55 59 55 52 48 49 44 42 30 27 32 19 14 19 17 14 20 20 14
16 18 24 25 26 15 18 24 22 26 26 41 41 44 52 46 51 57 59 65 60 59 60 54 62 54 55 49 41 45 42 34 34 40 32 39 48 48 44 51 60 56 57 62 61 61 55 53 47 53 42 48 45 40 29 33 18 15 18 20 17 18 20 18
17 17 18 16 25 17 24 25 28 34 35 33 38 42 54 48 61 65 57 63 64 64 62 56 55 57 54 50 42 41 38 40 32 36 39 38 45 43 53 49 57 66 59 71 69 68 59 55 56 53 43 46 42 37 33 25 27 15 16 20 21 14 19 20
18 20 16 24 20 16 21 27 27 27 35 34 39 46 54 47 51 55 59 72 75 65 70 69 65 60 52 54 49 41 33 43 41 36 42 47 46 51 58 50 56 64 67 67 69 73 62 60 56 48 46 49 46 37 35 31 21 26 18 26 19 15 17 24
17 21 26 16 21 23 23 24 21 24 32 32 37 48 55 54 59 65 71 64 68 75 71 61 61 61 58 53 46 43 34 40 40 45 34 45 43 47 47 61 66 68 66 68 69 73 64 55 51 58 47 41 46 33 36 35 31 27 20 20 23 14 16 25
22 23 22 16 25 15 18 25 27 27 37 36 37 45 55 51 55 62 68 70 70 72 66 62 57 58 58 53 46 36 40 38 34 36 40 46 49 45 58 62 56 64 64 66 65 69 66 58 59 59 52 40 45 37 33 34 28 23 16 14 18 25 15 16
18 18 19 25 18 16 17 26 20 24 33 42 36 49 51 50 58 55 56 70 68 64 64 63 62 51 47 43 42 43 39 32 39 34 40 38 45 51 52 49 61 60 69 67 67 70 57 60 51 56 54 42 34 39 30 26 21 15 23 24 24 14 19 25
19 14 25 24 21 23 17 26 24 27 38 30 40 49 43 46 56 53 62 60 69 65 57 65 55 49 54 45 37 45 38 42 41 30 35 42 42 51 51 59 57 59 66 58 58 65 59 62 54 50 42 40 42 31 35 25 23 22 14 15 22 16 21 21
26 20 22 18 23 16 17 16 22 25 37 33 32 41 40 42 46 48 57 53 61 59 63 57 51 48 47 45 41 32 38 30 30 37 34 37 46 39 53 50 57 51 63 61 62 64 53 55 51 51 46 35 34 37 36 24 17 26 25 16 17 19 20 26
16 16 22 26 16 24 15 14 26 24 24 28 40 33 37 43 47 53 47 60 58 49 58 56 45 52 45 40 38 39 31 25 28 28 34 40 41 41 39 52 53 57 58 61 51 60 56 53 43 48 42 40 38 30 24 25 21 15 24 24 23 18 26 23
19 20 17 14 25 22 20 21 25 23 24 31 34 39 44 37 43 46 49 46 49 48 46 43 46 44 48 40 33 38 34 28 25 23 28 34 32 46 44 49 49 47 56 56 55 52 45 53 49 37 45 35 35 28 26 18 16 21 20 17 23 23 17 19
27 24 25 27 21 25 29 29 26 31 27 27 30 37 46 42 50 53 46 45 52 47 48 45 44 50 42 44 34 35 30 34 32 32 37 38 37 41 50 41 46 55 53 49 50 49 45 52 42 50 38 40 38 30 35 28 26 28 26 28 31 29 20 31
28 28 25 23 32 31 33 31 33 30 28 28 34 39 41 39 51 44 47 46 51 56 55 50 45 52 51 47 35 36 39 30 28 27 41 34 47 49 46 51 55 49 51 57 49 59 56 55 55 49 43 39 44 44 39 29 37 35 33 27 35 37 31 35
35 29 26 27 34 33 33 29 29 30 30 30 38 39 42 51 44 49 53 48 57 58 46 51 54 49 49 50 42 38 35 30 35 37 35 47 48 41 54 46 56 50 53 53 53 53 57 55 58 52 43 50 48 40 45 41 33 34 34 43 35 44 38 34
29 32 22 32 26 23 23 33 26 25 31 23 30 38 33 35 36 41 38 42 44 46 46 46 41 46 44 34 36 28 35 29 32 26 36 29 31 33 39 47 44 38 41 46 40 43 48 49 46 45 39 38 29 27 37 38 34 32 27 32 36 37 35 36
22 21 25 26 29 23 21 20 22 25 19 19 29 29 22 27 29 35 40 41 33 33 39 30 31 35 33 25 23 26 22 29 21 28 28 20 24 30 33 31 38 32 41 35 31 36 32 31 30 34 35 30 25 30 19 24 27 28 23 26 23 23 28 27
19 18 24 24 18 19 21 14 20 24 18 18 18 14 26 26 26 32 26 24 34 31 25 33 24 23 23 15 19 14 15 15 21 19 24 22 15 27 18 28 25 28 27 28 34 32 21 20 26 22 25 24 16 22 19 17 23 21 22 16 26 21 25 14
25 18 17 18 21 17 20 17 17 19 14 26 16 22 25 26 18 25 29 25 23 20 22 23 22 21 16 24 20 25 15 19 25 17 26 20 14 21 18 18 23 29 18 30 20 28 21 17 19 21 26 25 15 17 25 20 15 15 22 20 24 25 19 23
17 19 16 19 15 17 24 16 17 25 17 14 19 24 17 26 19 17 14 24 22 21 19 15 25 22 21 20 14 26 23 24 15 25 22 14 20 15 25 23 21 19 25 25 15 23 18 19 20 24 22 14 15 17 17 17 25 18 22 18 21 14 18 22
26 18 17 19 20 15 21 18 14 14 17 17 19 20 26 19 15 26 22 14 25 26 22 22 18 26 16 26 21 22 18 21 22 24 24 22 20 25 21 16 21 23 20 19 19 17 25 18 20 20 22 24 21 19 16 25 18 19 26 25 25 22 23 23
19 21 17 14 20 16 19 23 22 24 24 25 22 14 20 16 22 15 15 23 24 18 18 18 19 16 20 22 15 14 16 18 21 23 25 21 19 26 19 19 20 14 20 18 25 20 19 14 14 21 17 23 24 14 20 16 22 25 26 22 21 26 22 16
24 25 24 26 25 24 14 24 26 22 15 20 21 14 16 15 21 25 14 15 24 22 20 24 18 23 16 24 22 18 18 16 23 22 26 15 18 25 26 25 25 18 26 17 21 14 25 14 22 15 22 23 25 20 14 20 17 21 20 15 22 18 20 14
18 22 18 21 23 16 21 18 23 18 23 26 16 14 16 16 24 18 26 25 14 16 19 21 22 15 24 16 21 24 26 20 24 23 16 18 22 21 15 22 17 23 20 24 24 24 25 19 21 25 21 14 22 17 19 18 24 14 19 18 24 16 18 16
26 20 20 25 14 15 24 18 14 22 15 21 17 16 21 25 25 20 17 19 25 18 14 24 17 22 20 17 19 25 19 18 15 16 22 22 16 23 23 18 24 26 26 21 20 26 21 18 21 23 14 18 19 25 18 19 17 22 24 21 20 21 24 19
24 15 20 17 22 26 18 26 20 14 14 23 18 24 15 21 20 19 20 25 14 14 26 22 20 17 21 19 24 24 24 21 22 23 20 24 23 22 15 23 14 20 22 23 24 19 24 24 18 19 15 26 20 14 22 21 14 26 20 14 21 20 19 21
23 17 18 23 15 26 26 22 23 18 16 19 26 14 14 24 19 20 23 25 24 17 14 26 18 25 20 18 24 14 17 26 21 23 24 17 23 23 24 18 19 23 22 25 14 16 24 15 21 17 21 14 20 16 20 17 20 20 26 24 16 23 24 25
21 14 19 15 17 14 15 20 23 17 24 17 18 18 16 26 16 20 18 19 19 20 16 26 19 25 20 24 25 15 24 18 16 15 23 15 24 16 21 25 22 19 22 20 25 19 15 14 19 24 23 21 14 14 16 25 20 20 21 17 14 19 16 17
26 15 24 19 16 19 21 16 20 25 26 17 14 18 25 22 19 24 21 22 23 26 15 25 24 20 16 25 21 26 15 22 25 15 22 24 25 14 26 14 16 25 18 21 24 22 17 18 25 17 24 22 22 15 26 23 26 20 24 18 18 21 25 22
24 23 20 24 24 21 22 21 17 24 21 14 25 20 20 26 26 26 15 19 21 15 23 14 26 21 17 19 23 21 18 21 21 23 14 16 20 20 20 23 20 18 19 15 25 18 21 15 24 23 16 25 17 26 18 26 23 25 26 21 23 15 16 21
16 20 14 26 21 14 22 18 25 24 21 21 15 22 14 20 16 19 19 22 14 15 14 25 24 17 14 22 18 24 20 22 24 14 23 26 23 23 22 22 23 16 14 21 20 21 25 25 24 14 16 16 23 24 17 21 20 17 19 19 15 14 24 17
20 20 24 14 26 18 15 25 26 26 14 24 17 19 15 23 22 17 24 18 23 18 21 24 25 21 25 23 26 19 14 24 24 26 17 18 24 14 15 25 21 22 19 20 21 23 24 26 17 19 26 14 20 16 20 23 18 24 16 26 22 14 23 21
26 19 15 15 22 21 22 22 18 25 21 21 17 20 23 15 25 26 25 22 17 24 15 22 19 23 16 24 23 20 21 17 26 26 17 20 14 23 21 19 23 22 14 15 19 14 18 26 18 23 22 17 23 18 24 17 23 15 16 18 24 24 18 24
18 15 17 19 22 21 26 19 24 22 17 25 14 26 26 24 19 23 23 20 20 21 24 21 21 15 17 21 24 22 15 15 22 21 25 18 25 19 23 20 18 14 24 17 25 18 22 20 17 16 25 21 16 26 22 23 25 22 17 20 15 19 23 15
16 14 20 18 21 14 16 24 15 14 22 19 21 25 16 26 23 14 24 16 24 23 23 19 16 14 19 16 16 23 25 18 16 19 20 17 25 19 26 22 14 16 20 19 24 18 24 18 21 23 16 25 26 14 20 17 24 24 16 18 16 23 19 17
20 23 20 23 14 15 26 18 20 16 14 14 20 17 26 16 14 14 20 25 17 23 26 25 19 17 22 23 17 21 24 26 23 25 17 16 23 19 26 22 19 14 20 17 26 25 23 15 21 25 23 16 19 21 21 25 19 17 26 19 19 25 24 15
26 20 25 23 20 15 17 25 19 15 17 20 20 21 24 17 19 17 16 26 25 23 26 25 17 18 26 16 20 18 20 20 18 25 25 25 20 23 18 14 18 16 24 19 23 18 14 19 21 24 16 25 20 17 18 25 15 15 24 23 18 18 20 23
