P2
64 64
255
36 30 24 20 24 38 27 38 28 37 34 34 31 31 38 18 25 24 29 20 36 23 29 30 31 23 21 38 29 35 37 19 20 23 27 23 27 31 25 28 27 27 35 23 21 27 37 20 31 18 21 31 25 30 36 24 23 23 28 36 34 30 24 31
34 26 28 35 20 22 25 34 24 36 37 19 21 34 22 34 29 24 23 30 37 21 28 36 31 19 31 23 32 34 23 29 36 19 34 28 35 31 18 19 21 20 29 28 29 28 38 22 38 26 22 38 31 21 25 32 38 24 23 33 23 29 31 31
26 28 21 32 30 32 33 35 34 26 25 27 36 36 24 29 32 31 28 30 27 19 31 33 19 34 30 23 19 27 26 27 37 25 35 38 23 32 26 22 38 24 29 25 29 35 20 21 38 25 26 27 25 37 18 20 20 24 32 30 36 29 38 19
23 27 19 36 21 20 20 25 27 19 28 21 30 31 31 25 38 25 21 35 21 38 29 32 25 26 25 37 35 37 28 20 23 24 24 37 34 38 18 27 25 27 18 19 22 27 19 37 32 28 31 27 34 30 20 27 33 29 37 22 36 32 33 32
30 36 36 28 36 21 38 21 27 18 33 19 36 38 26 22 28 29 38 22 38 25 31 20 37 20 36 28 25 28 22 18 25 28 29 37 24 18 25 19 19 19 37 20 37 37 32 25 30 20 29 22 22 30 32 24 27 29 27 37 21 33 22 32
32 24 36 20 23 31 30 18 34 21 22 34 24 32 18 24 30 29 35 33 18 33 24 18 18 23 19 19 31 31 36 21 29 26 25 32 20 26 19 30 20 31 37 32 32 31 37 24 27 20 36 19 31 32 34 22 25 21 24 33 25 36 20 19
36 22 38 31 27 26 35 24 35 28 34 36 30 19 26 19 27 36 20 25 30 23 26 37 36 19 22 28 31 25 22 28 35 29 27 34 20 28 31 20 19 27 18 21 32 37 37 27 32 21 26 37 38 21 28 20 32 20 21 33 35 27 37 37
18 21 23 29 20 20 34 35 26 33 24 31 34 18 37 27 26 28 35 19 18 28 18 26 21 34 36 37 32 19 24 26 25 18 37 37 27 37 34 29 19 36 37 19 19 32 36 21 21 38 24 20 28 22 32 25 20 32 37 35 38 25 36 18
31 25 21 27 33 29 28 24 23 37 22 25 28 28 38 25 18 24 24 30 18 28 29 25 22 24 36 28 26 26 37 35 20 25 18 34 27 32 18 21 25 35 38 36 36 20 22 31 37 22 20 23 19 23 30 32 32 32 32 21 29 18 28 29
31 27 33 31 26 38 36 26 22 31 22 27 33 35 25 34 27 33 29 20 21 22 26 24 25 28 30 30 38 33 22 35 34 31 38 36 18 31 22 38 18 18 33 21 23 25 20 37 18 33 31 36 34 20 35 19 25 34 29 18 30 35 35 35
18 29 23 20 26 20 26 31 23 21 29 34 37 23 25 18 31 23 24 24 29 35 23 33 23 37 36 36 36 24 34 36 31 28 34 29 21 21 22 19 24 26 36 33 21 21 28 32 19 24 23 25 20 26 24 35 23 34 20 25 31 38 24 37
18 36 33 35 20 26 26 38 30 25 20 31 27 35 24 32 24 29 29 31 22 24 28 18 38 34 37 33 24 19 25 32 34 38 33 32 25 21 29 21 35 31 37 32 22 18 35 35 35 19 25 22 19 23 23 33 37 27 18 37 25 19 26 31
30 18 25 20 19 20 20 18 34 22 29 26 30 29 37 34 34 21 23 37 30 38 35 34 23 25 24 18 31 28 28 24 18 22 21 27 26 28 23 35 29 31 19 18 25 36 33 29 24 35 19 26 28 18 37 23 31 34 34 31 31 36 30 29
32 26 28 23 37 25 19 26 21 27 30 35 23 23 19 22 26 26 32 28 31 30 20 19 37 34 29 34 22 38 25 24 18 25 18 29 22 26 18 38 32 24 21 38 29 37 37 38 31 31 36 25 18 23 36 26 19 26 26 29 28 38 24 19
32 20 24 35 20 18 29 31 21 21 31 32 24 22 37 36 29 34 38 30 28 26 25 36 32 35 28 33 35 32 32 35 24 28 22 18 25 26 23 34 27 23 34 26 28 37 23 31 36 19 30 18 24 26 32 33 26 29 29 25 18 32 26 29
37 20 24 21 25 19 19 23 31 23 20 30 28 31 38 36 27 33 35 32 26 27 25 18 30 21 34 32 34 21 28 22 32 21 23 36 26 22 25 22 22 34 24 31 32 24 27 21 25 18 21 28 32 25 28 18 27 29 26 32 30 21 30 32
36 37 28 37 35 35 27 28 34 23 18 19 25 18 37 33 38 24 31 25 38 25 33 25 31 28 35 28 31 27 27 35 20 19 30 22 22 35 22 27 32 27 27 18 18 28 26 33 19 28 19 18 18 36 29 37 38 19 20 29 29 36 38 35
35 25 28 18 18 20 35 30 37 34 29 18 23 19 24 27 35 23 23 35 25 31 28 21 20 29 30 21 24 18 22 34 32 18 26 21 26 28 26 30 32 28 26 24 35 35 23 38 23 36 32 21 27 24 19 23 38 35 25 20 35 29 26 30
29 27 38 29 20 27 19 38 31 20 22 30 21 20 19 26 38 30 30 32 30 22 29 30 28 34 30 30 27 25 27 28 35 36 38 36 31 37 36 30 32 38 35 18 24 36 24 31 36 31 32 18 38 28 21 25 38 36 28 21 29 24 26 20
22 22 20 30 32 29 38 31 25 29 21 26 31 35 19 18 33 24 22 35 26 34 38 23 29 21 24 27 25 35 22 21 35 30 26 24 38 25 35 28 28 24 38 30 34 26 22 35 30 35 22 32 28 28 33 23 23 31 23 22 29 38 18 36
38 21 19 26 18 35 29 33 30 26 30 28 23 33 36 25 27 44 45 45 26 29 36 41 26 29 22 37 27 36 33 33 23 38 38 36 37 37 26 27 41 39 35 42 45 32 36 26 26 33 22 34 34 28 21 30 29 18 33 28 23 33 35 38
38 18 37 20 31 36 31 33 24 35 31 31 21 39 34 32 45 29 45 40 46 45 37 46 44 45 32 41 25 32 19 34 23 18 36 19 26 25 34 29 39 30 43 43 42 35 36 36 30 29 36 40 18 38 35 19 28 28 32 23 26 32 26 28
21 22 20 31 27 20 25 28 23 34 20 23 39 30 34 35 37 40 41 48 36 43 34 44 35 49 32 43 40 21 36 21 26 26 35 37 30 39 47 37 33 39 45 39 40 46 37 47 36 29 42 24 28 37 25 28 26 22 27 34 18 33 27 35
28 30 33 36 21 21 19 35 25 32 33 31 40 32 45 45 34 36 54 51 52 57 44 36 36 44 47 39 27 31 31 19 31 24 22 27 32 30 44 51 43 49 50 56 45 42 37 44 39 47 35 47 41 28 39 37 38 20 20 18 35 34 38 24
23 25 19 35 20 20 36 19 25 36 36 25 38 48 34 51 47 42 53 48 46 42 52 43 47 40 38 38 38 36 38 41 31 39 36 31 30 51 47 46 58 42 43 52 55 53 48 57 48 50 36 50 45 28 33 35 25 38 38 35 19 35 36 27
36 33 33 22 28 35 28 24 20 29 34 37 35 41 41 58 60 47 55 60 47 60 46 54 62 51 55 43 35 41 41 40 41 32 43 48 43 54 44 40 49 47 55 63 54 58 59 48 44 47 55 41 35 35 40 22 36 28 26 30 30 25 36 20
32 37 36 33 26 25 20 32 36 23 36 38 49 35 50 55 52 61 53 60 65 60 61 47 53 51 54 58 36 52 40 28 31 43 42 44 38 45 56 58 52 56 59 65 67 51 47 58 43 46 58 50 40 33 33 34 18 35 34 18 28 33 34 32
20 35 24 20 23 36 33 21 36 24 42 37 45 39 57 53 64 65 60 61 69 64 68 54 55 53 53 41 42 37 32 46 33 44 43 54 40 41 54 57 69 58 60 71 69 64 70 54 49 62 50 41 41 37 45 30 21 32 30 20 18 19 36 24
30 35 38 24 36 33 38 34 25 34 35 38 54 51 62 54 68 56 59 57 70 74 72 72 56 58 55 43 52 37 34 39 57 45 58 66 58 67 65 51 70 54 58 66 74 65 74 60 50 54 44 57 56 49 30 32 27 33 20 23 23 23 32 28
28 22 21 35 26 28 35 38 35 30 48 44 55 52 45 51 63 59 72 77 61 62 63 73 63 70 60 57 45 59 61 67 69 63 71 78 64 66 62 61 66 62 73 78 76 73 68 67 65 50 51 53 37 52 48 29 28 22 37 33 38 31 31 27
30 32 20 38 24 22 29 24 23 29 44 51 46 46 46 56 71 65 78 68 80 70 81 68 74 60 62 66 53 69 67 75 82 73 81 85 74 77 89 87 63 78 63 75 70 82 72 62 72 67 57 43 50 37 43 43 25 20 30 18 18 29 28 33
36 32 37 20 29 24 38 30 30 40 48 45 52 44 54 60 58 74 72 85 75 82 69 68 62 74 67 70 71 84 86 93 98 86 103 99 101 105 89 82 78 81 76 83 82 77 79 70 55 61 60 63 41 41 31 41 30 38 33 28 28 28 30 26
28 32 25 36 19 30 19 21 38 42 37 36 52 44 47 57 67 74 77 77 81 87 86 82 76 73 72 80 101 104 104 104 111 99 108 106 108 107 107 90 96 89 77 76 91 81 78 61 72 52 65 52 53 38 51 40 29 25 28 25 35 28 20 22
29 31 36 36 28 26 18 22 35 30 31 51 41 57 59 54 68 67 65 83 85 84 94 81 84 83 98 100 113 117 118 115 128 117 124 128 116 130 124 105 106 90 86 85 76 67 68 62 55 64 66 44 53 53 40 27 37 20 29 26 19 27 34 30
35 18 31 21 26 30 35 33 25 33 45 35 50 45 51 57 56 68 65 67 74 71 88 87 107 96 117 108 128 122 140 136 139 143 138 150 131 142 128 110 105 97 88 69 83 69 70 67 64 54 61 45 46 51 38 43 23 19 29 38 31 28 21 20
37 35 38 28 18 28 32 37 37 30 44 45 56 59 64 67 69 62 67 69 75 78 80 91 101 102 124 136 130 133 133 160 154 158 161 157 161 148 140 126 117 106 81 71 65 66 61 61 51 64 57 54 52 52 34 41 34 30 23 36 20 32 33 37
23 20 34 22 29 35 38 33 38 37 44 48 47 53 55 47 53 57 63 67 65 83 102 92 112 114 115 147 144 137 157 153 166 177 173 171 164 164 147 136 118 107 85 78 78 73 61 69 62 66 54 55 43 39 46 26 36 22 18 32 31 20 35 32
33 21 34 38 19 35 28 30 20 44 33 45 39 46 57 46 46 60 71 71 66 90 93 109 111 114 123 150 152 152 167 156 180 167 186 179 163 166 158 147 121 109 102 79 83 69 59 61 60 64 56 51 36 35 32 39 31 25 24 27 29 29 36 35
21 27 24 21 37 18 27 26 29 24 45 45 33 49 42 41 51 62 59 67 63 71 82 104 113 108 140 147 141 152 152 152 177 174 175 158 169 168 145 130 118 104 91 81 64 59 67 53 59 42 38 44 45 49 36 32 26 23 36 24 25 30 22 34
35 33 33 35 24 30 36 32 38 21 41 31 37 39 49 40 41 62 59 56 62 73 90 101 90 113 113 133 130 145 149 161 166 155 157 165 158 165 144 137 130 112 91 76 81 58 59 54 48 42 38 44 44 38 31 24 26 27 25 34 26 25 20 38
33 34 23 38 30 32 33 19 30 25 24 24 28 34 40 40 42 53 56 50 52 57 79 88 85 94 104 120 132 130 129 135 140 154 155 151 161 158 150 137 112 110 90 86 81 73 46 45 46 44 37 46 38 26 36 32 37 26 29 34 24 37 26 36
27 38 24 18 25 38 26 32 37 36 21 26 24 28 47 39 44 41 49 48 49 54 74 70 72 90 86 93 96 121 118 121 126 133 144 135 154 157 129 133 114 104 91 70 77 69 56 47 45 44 35 29 25 41 33 20 28 25 19 30 27 37 33 21
20 22 25 29 35 20 26 34 35 23 22 26 34 43 32 36 41 40 47 45 43 47 51 61 72 82 83 68 90 99 113 110 104 126 120 119 129 150 120 120 101 91 84 81 74 67 48 50 44 37 35 30 21 39 20 38 30 21 36 22 30 35 22 30
18 32 31 23 38 18 35 36 35 35 25 21 21 30 38 40 32 40 33 39 45 33 49 49 58 62 55 70 66 72 93 81 104 104 96 119 125 125 118 111 95 78 84 64 56 58 35 46 44 31 36 23 31 36 36 28 38 21 31 18 28 19 36 33
35 36 18 29 38 38 19 21 20 29 21 25 37 26 26 31 32 38 44 29 40 39 30 49 53 56 48 56 52 60 54 73 72 87 86 90 90 98 89 85 74 80 69 73 47 45 50 32 30 29 37 32 18 26 27 31 23 18 22 36 24 31 18 18
33 38 25 30 21 37 28 21 18 23 21 25 22 18 18 22 32 34 32 26 42 24 39 31 35 27 30 30 36 50 42 57 64 64 73 68 91 82 88 86 77 68 67 63 56 45 27 35 38 37 32 20 29 38 25 36 20 20 37 18 28 20 30 31
36 37 22 23 19 36 35 24 36 20 21 31 18 21 35 20 28 37 18 20 20 32 27 35 19 27 24 20 19 38 46 44 50 64 58 78 81 67 68 76 66 59 50 48 47 39 36 30 36 19 25 36 20 25 28 26 35 24 29 26 29 21 22 32
36 35 38 37 19 19 31 29 28 30 26 30 29 26 20 28 29 26 38 22 27 27 23 24 37 21 19 28 33 37 49 54 59 51 50 61 67 57 61 73 51 58 51 47 39 34 29 18 24 38 28 33 31 37 32 18 36 24 21 29 34 32 22 33
36 34 28 35 30 32 21 35 23 25 31 28 32 32 33 20 38 24 36 20 24 19 30 21 36 37 27 19 22 37 37 40 47 57 49 56 52 62 60 55 60 60 41 34 37 21 33 20 26 34 23 29 35 36 31 31 27 38 24 38 19 18 35 23
38 21 25 32 28 27 30 34 38 19 32 20 31 20 25 35 35 25 26 18 19 38 24 28 29 22 23 33 22 31 29 44 32 36 47 51 48 43 49 59 47 44 43 25 37 36 25 33 33 38 24 30 31 28 18 29 38 30 24 36 35 37 30 30
20 19 22 21 21 22 36 29 21 36 19 30 35 23 32 30 20 31 30 35 30 37 35 30 33 22 35 20 38 38 28 18 24 28 30 44 33 52 37 50 30 26 24 33 24 37 20 22 32 19 35 20 21 30 33 36 18 32 30 35 37 29 24 30
31 25 32 35 34 29 38 36 34 21 34 38 20 36 30 26 24 26 22 25 38 36 28 30 29 36 33 37 32 25 18 24 33 20 35 38 34 41 44 25 38 33 34 34 29 24 27 24 28 25 21 26 34 38 21 32 29 35 22 36 24 21 30 33
37 20 24 20 35 24 31 37 19 34 36 21 28 18 23 25 28 32 36 32 33 38 27 23 21 30 27 38 37 23 28 18 23 38 18 22 31 21 35 24 33 22 25 35 38 19 30 25 34 18 21 27 36 25 30 30 27 37 21 25 29 34 38 24
28 22 25 23 20 33 28 30 35 34 35 20 30 30 22 18 25 29 28 33 28 30 34 38 20 22 30 20 33 30 24 34 32 31 25 34 37 23 26 23 31 32 35 25 36 18 32 23 19 38 20 20 36 33 36 35 21 22 30 18 37 22 29 19
32 20 32 38 27 20 33 35 30 25 25 19 21 19 33 35 24 33 30 37 27 23 24 22 27 21 31 28 38 33 21 26 33 20 19 30 18 29 25 36 19 19 36 22 19 26 35 19 35 19 27 19 27 18 26 18 23 23 33 18 23 31 31 30
36 35 21 34 22 23 28 18 26 20 29 35 19 18 28 27 33 25 36 24 33 19 28 37 36 30 38 23 27 33 29 31 32 28 33 19 33 20 20 22 36 27 28 20 27 28 28 18 35 33 24 32 21 38 24 33 37 20 25 25 22 25 36 38
24 33 34 25 31 32 18 27 36 28 32 38 20 19 23 25 23 28 25 29 22 37 18 27 21 34 36 24 26 37 18 37 34 22 36 22 33 32 25 24 23 24 19 20 26 37 33 23 35 28 34 25 20 36 24 35 28 33 21 20 25 22 20 24
19 32 23 18 37 34 38 33 19 36 33 36 19 23 35 24 36 19 38 37 19 24 25 26 33 27 20 24 34 18 33 21 27 27 27 25 35 25 25 36 33 29 33 22 35 28 32 31 38 22 20 34 29 23 19 33 33 25 30 38 20 22 38 18
29 25 20 37 19 34 20 21 34 29 38 34 22 36 35 28 27 38 18 37 26 26 30 33 30 18 23 29 24 34 29 28 28 22 38 21 25 32 37 34 38 21 20 21 24 26 36 18 27 25 35 22 34 19 32 36 26 32 31 26 20 27 37 29
25 22 31 27 29 23 32 26 38 32 19 32 35 30 25 30 18 36 23 34 27 31 37 24 34 19 21 22 26 24 35 28 36 35 32 30 36 24 37 38 28 26 32 20 26 18 32 37 25 33 24 23 28 18 20 29 24 34 24 30 35 19 37 30
34 29 18 33 30 18 31 21 26 36 34 36 18 31 38 28 25 24 36 38 30 18 30 20 21 28 28 21 23 35 38 30 20 20 36 37 30 22 37 20 26 19 29 23 18 22 18 37 33 31 19 38 24 37 18 19 30 24 21 28 36 20 33 23
29 27 30 28 36 24 34 31 27 34 27 25 22 19 24 31 18 22 35 35 19 22 26 25 29 20 35 35 18 37 31 18 33 19 24 35 36 21 31 27 37 38 35 33 20 31 29 19 38 31 30 27 38 30 35 35 31 23 22 22 32 26 20 19
37 32 34 32 32 37 38 31 36 26 27 26 30 23 23 19 36 27 38 34 25 36 24 22 20 34 38 21 20 31 35 25 38 32 32 29 29 33 28 28 27 25 36 19 33 22 27 21 32 28 29 19 22 19 37 28 24 36 23 36 21 29 19 38
32 24 20 30 31 24 27 24 22 22 37 30 20 20 19 37 24 21 35 27 34 21 30 38 25 19 37 21 31 31 24 23 22 18 33 33 26 19 21 25 22 21 23 20 27 37 28 20 21 27 23 27 34 32 31 21 30 21 23 30 27 38 25 19
