P2
64 64
255
21 17 19 21 14 21 14 23 22 23 26 19 24 25 22 24 15 15 19 20 15 21 19 15 14 14 23 14 23 18 19 19 20 17 16 19 15 19 20 26 19 25 20 23 16 21 26 20 25 16 23 26 26 17 23 20 22 19 26 19 25 25 15 17
18 21 14 18 26 21 23 24 15 23 26 23 20 23 26 26 26 21 16 25 25 14 26 19 17 15 21 17 15 16 24 19 16 15 18 25 15 18 15 20 19 23 22 14 23 20 19 19 21 19 25 14 21 22 26 26 23 26 14 18 26 19 15 24
17 22 26 19 25 21 21 26 19 16 24 22 26 18 26 24 20 14 25 23 16 14 17 22 17 25 15 18 15 23 22 15 20 20 19 25 24 17 14 24 16 23 19 22 25 14 26 24 22 19 23 18 20 18 17 26 22 19 22 22 19 16 24 14
26 14 15 26 14 17 23 16 25 18 17 22 18 21 16 22 19 19 24 18 16 22 22 25 20 16 16 16 22 17 18 14 20 24 17 19 24 25 21 24 19 20 23 26 16 24 25 22 25 16 17 14 22 19 25 21 23 15 22 21 24 20 19 21
17 16 20 16 25 26 23 19 25 17 22 25 17 19 18 24 16 16 19 21 14 25 16 18 24 20 26 21 20 16 16 24 24 16 18 22 21 14 18 14 18 20 25 14 20 24 14 19 20 22 20 21 25 17 22 23 18 25 25 23 15 25 21 24
21 26 21 19 19 17 26 18 24 18 16 17 16 19 24 19 23 21 19 17 23 22 25 18 24 15 23 19 26 18 14 20 16 15 26 16 18 14 15 25 26 24 14 24 20 21 15 23 26 19 18 22 15 14 23 22 25 17 26 23 18 15 19 21
25 14 24 20 15 20 14 25 18 22 18 23 17 24 17 23 17 26 16 20 17 15 17 21 16 23 16 17 20 18 26 21 21 16 22 25 20 19 22 25 18 21 22 19 22 15 18 24 15 17 18 22 14 23 19 15 17 24 17 19 19 15 23 19
16 18 20 24 14 14 25 24 26 23 22 26 22 20 15 16 16 14 26 24 26 24 25 19 22 17 24 20 21 14 17 22 22 19 17 22 19 26 16 24 15 21 25 21 16 25 16 21 15 23 24 18 20 24 14 25 22 23 22 23 25 16 14 21
26 15 20 14 19 18 16 26 26 17 25 21 14 19 17 16 25 22 20 25 23 14 18 14 26 23 26 18 24 21 15 15 18 25 25 23 16 14 15 16 17 21 20 25 19 17 24 23 15 23 20 22 15 22 19 16 26 14 23 25 15 19 18 23
25 21 14 18 21 22 23 25 26 18 24 19 15 23 19 21 17 19 15 23 18 24 23 22 24 17 20 23 25 18 19 21 17 16 21 24 17 17 16 15 26 20 26 23 16 17 19 20 19 17 25 23 14 21 20 21 16 20 15 16 25 25 26 16
20 22 20 22 14 14 16 21 18 18 21 24 16 18 26 14 22 20 19 23 19 15 22 20 23 22 21 14 24 16 25 19 20 21 17 23 23 26 20 26 25 23 18 17 18 24 16 21 14 19 22 26 23 19 23 17 23 26 25 24 19 15 21 20
14 16 21 24 14 19 22 24 26 18 25 22 19 14 19 18 16 14 21 24 26 21 21 26 21 24 23 24 22 21 22 25 18 18 20 15 16 24 20 25 22 21 24 23 20 20 26 17 24 22 21 26 18 25 21 22 23 22 17 15 23 18 24 24
23 19 22 21 17 26 15 18 19 19 23 15 17 18 17 19 15 21 15 19 23 24 20 21 22 17 22 24 25 20 14 22 22 24 22 26 26 25 22 16 22 18 21 17 17 14 14 17 14 20 26 14 20 25 16 23 18 26 22 23 24 16 24 23
16 19 17 19 21 26 20 18 24 23 25 18 20 21 15 14 22 23 14 17 20 16 15 22 25 14 22 17 14 14 25 21 22 16 15 16 23 14 14 23 21 23 21 18 20 19 23 26 20 14 18 23 14 21 14 15 18 15 16 20 19 26 18 22
26 20 15 16 15 23 20 21 15 21 25 26 23 22 15 26 22 14 21 19 14 16 15 14 18 17 24 19 26 15 23 18 24 19 18 22 16 24 20 26 20 19 26 14 15 24 15 24 18 21 22 15 14 16 16 23 22 15 22 19 20 14 19 17
24 19 26 19 21 19 21 24 19 26 23 14 18 24 26 14 24 19 23 26 24 24 25 24 26 14 24 26 19 18 14 14 17 17 22 20 26 24 14 20 21 14 14 17 22 24 22 16 25 15 15 22 24 25 23 16 17 24 14 19 26 22 23 14
19 22 16 19 15 22 16 15 20 15 25 14 14 19 20 25 26 16 19 25 22 20 18 24 22 22 24 14 25 22 17 17 17 15 20 19 21 18 17 21 25 14 15 22 21 14 18 25 17 19 14 21 21 21 21 21 20 19 25 22 19 15 22 23
15 17 26 25 23 14 26 21 24 22 22 21 21 23 26 23 17 20 15 16 18 18 19 21 18 15 21 25 22 18 23 17 17 22 18 20 23 20 24 25 15 19 22 21 22 14 17 25 16 19 20 24 23 25 22 15 19 15 20 14 21 26 26 17
15 18 15 24 19 18 21 22 14 24 26 17 25 17 21 18 24 18 17 24 18 23 14 23 25 20 15 24 22 23 23 22 22 17 23 23 25 19 15 21 19 25 20 21 18 26 17 19 18 19 22 17 22 18 16 24 21 19 23 18 15 25 23 21
26 21 19 20 21 19 22 23 21 23 20 17 21 19 19 19 21 22 17 29 27 29 18 21 18 25 19 24 17 26 14 16 24 16 14 14 24 20 16 24 28 29 20 18 25 22 19 20 21 22 20 22 25 25 24 26 23 14 20 22 25 21 22 20
21 26 26 24 15 24 17 14 26 20 25 17 20 17 18 19 30 20 28 25 25 29 24 28 28 20 25 20 24 24 26 14 26 21 19 23 24 18 22 26 23 30 26 28 27 24 25 32 23 27 17 25 14 25 17 24 23 26 16 18 20 16 17 20
14 19 17 18 23 23 18 21 20 21 21 25 26 18 28 30 23 34 25 35 33 37 28 24 32 27 21 22 24 17 23 20 17 18 19 21 24 24 20 29 24 33 37 36 37 29 36 33 28 31 19 28 14 14 26 14 26 22 18 26 21 17 16 17
21 17 24 17 22 18 25 18 18 15 16 15 26 31 30 27 37 35 37 30 40 33 39 29 38 33 33 28 28 32 27 26 23 25 26 25 28 29 29 27 35 38 38 37 33 35 34 35 37 34 27 32 19 25 15 24 21 17 17 22 22 19 21 14
19 19 26 25 17 19 21 23 19 16 22 28 29 28 35 27 32 39 34 42 44 41 38 32 41 42 44 43 36 41 42 34 33 32 37 36 34 43 43 41 43 35 34 34 42 34 42 40 30 33 32 32 28 27 19 22 20 20 23 21 19 16 16 22
19 25 26 18 20 20 14 24 17 15 18 26 30 34 39 37 33 38 39 41 38 49 37 42 51 43 48 52 54 54 51 48 46 39 42 53 54 52 50 43 43 51 38 38 38 37 48 36 40 37 31 30 35 25 22 26 19 16 17 17 22 26 17 18
19 18 22 16 16 22 24 24 20 27 20 32 27 37 32 44 41 41 44 45 53 52 54 47 59 61 56 63 61 60 54 56 46 58 56 62 51 63 52 58 60 57 45 47 49 52 41 48 37 40 34 29 29 24 25 21 16 14 26 17 15 21 19 16
23 20 18 17 20 16 20 24 19 28 25 33 37 37 41 41 40 41 44 48 49 53 63 59 58 71 66 69 67 62 60 57 60 66 67 64 61 70 64 71 62 57 56 50 51 52 47 48 41 48 38 40 34 32 32 20 16 18 16 24 25 26 15 15
25 25 20 16 20 14 15 21 22 31 33 30 31 36 46 42 46 53 59 53 52 57 65 70 69 73 76 77 73 73 73 67 70 74 74 71 74 76 74 67 67 64 60 64 57 49 59 48 48 44 49 36 33 37 31 28 16 14 25 16 16 14 18 15
25 25 17 25 20 16 23 15 20 29 28 38 40 44 48 44 55 59 56 55 68 64 78 76 73 76 75 88 81 77 79 80 77 76 72 77 75 81 75 84 74 79 75 71 67 53 54 60 53 49 46 36 36 38 28 22 25 19 25 22 26 19 16 25
22 18 22 26 17 16 20 26 23 32 34 33 39 37 43 56 57 51 65 63 71 82 79 78 91 89 93 83 91 90 90 91 90 91 85 89 91 94 90 84 86 82 84 75 68 68 61 55 53 53 45 39 39 35 37 23 18 25 22 23 25 14 18 21
24 17 19 16 14 22 20 15 20 27 38 33 44 41 45 51 61 62 66 68 81 87 82 91 91 93 89 92 97 96 97 93 94 95 97 91 96 100 93 98 88 95 92 81 80 77 58 53 53 56 47 38 45 36 36 24 29 15 22 24 14 22 21 26
18 21 15 25 25 24 23 19 29 33 33 39 38 41 48 47 57 57 63 78 78 89 91 93 92 96 97 105 98 100 97 103 102 108 100 95 106 100 101 98 91 100 88 96 81 77 71 56 55 50 52 41 38 36 36 29 23 20 25 19 19 18 19 22
23 14 15 26 21 26 19 25 28 30 34 38 43 50 52 57 63 61 73 85 88 90 102 97 97 101 97 110 100 109 110 113 107 107 106 110 101 110 108 97 105 97 101 88 84 77 72 63 51 56 52 40 37 43 36 24 30 26 20 21 25 25 25 16
26 16 17 17 23 17 17 18 22 29 36 34 36 41 55 51 59 64 70 86 87 94 102 99 106 108 108 114 107 111 106 117 109 119 106 107 112 113 103 107 106 95 93 93 83 75 76 56 58 49 46 49 42 40 31 25 31 28 23 17 25 19 17 18
22 17 15 14 25 22 22 26 19 33 38 37 40 40 49 50 59 58 74 74 79 96 99 106 107 103 108 108 117 107 116 124 122 117 118 112 112 116 102 111 109 101 102 94 89 77 70 65 61 58 46 45 43 38 34 32 22 21 20 24 19 16 16 16
24 16 21 17 16 25 22 23 25 26 35 31 42 48 53 53 48 64 67 70 81 95 97 97 97 109 113 104 115 116 115 124 131 116 122 117 113 103 101 110 101 103 89 94 84 72 63 61 54 55 45 43 41 37 38 34 20 15 20 19 16 24 24 17
16 19 21 17 26 19 24 20 29 32 29 35 44 37 43 54 56 56 70 75 81 87 97 89 97 108 110 104 113 111 111 127 127 121 113 119 115 113 99 97 103 93 88 88 83 72 65 62 52 50 40 36 42 37 31 31 29 14 17 17 14 21 18 17
26 21 22 14 14 14 15 15 19 21 33 36 37 44 41 44 51 57 55 64 76 76 83 87 98 96 96 107 108 109 109 121 117 112 112 111 112 99 96 93 92 93 81 84 76 65 56 52 50 45 47 38 33 31 27 26 24 17 15 22 19 22 14 21
23 23 24 24 14 24 16 25 19 21 27 28 38 42 34 39 40 46 54 60 71 75 81 82 88 93 98 101 106 105 101 105 107 104 106 108 108 99 103 92 94 89 83 80 74 66 59 42 51 42 39 32 35 27 27 23 23 17 24 16 18 24 22 16
20 25 16 17 23 26 18 14 18 28 30 34 35 30 33 36 44 44 55 60 69 71 73 87 91 85 90 99 91 95 100 98 100 101 99 96 91 99 90 90 82 81 79 66 71 61 47 48 48 40 35 30 36 23 21 19 26 23 15 19 20 14 17 24
19 23 16 14 23 15 21 26 17 16 21 20 33 34 32 38 37 36 49 58 58 61 67 73 75 86 91 89 95 90 93 90 83 86 93 97 85 84 86 88 73 70 74 68 65 55 40 38 37 31 36 26 27 22 28 23 19 23 17 26 15 16 24 22
20 22 19 23 19 19 18 22 18 17 27 20 28 30 37 39 36 38 34 41 54 61 70 64 77 72 83 77 84 85 89 81 85 82 78 79 82 77 82 78 79 66 61 59 52 50 36 40 31 29 31 31 20 22 22 14 19 14 17 18 14 21 15 26
14 17 22 18 15 22 24 16 14 19 24 22 22 31 23 29 37 29 28 47 41 47 51 63 68 70 76 74 73 70 70 75 70 70 75 71 71 67 67 66 68 65 56 57 44 47 31 39 36 36 30 27 24 19 24 26 18 25 20 21 16 14 19 25
16 19 18 20 26 14 14 14 24 15 22 19 26 22 27 21 24 30 25 32 45 48 46 57 57 57 65 69 68 72 70 75 66 65 68 65 60 62 60 59 53 50 47 41 44 32 30 30 32 29 31 22 14 26 26 18 24 17 21 24 26 19 21 26
20 14 17 25 22 18 14 26 19 20 16 21 26 17 20 28 29 25 30 27 30 33 45 45 50 57 58 54 52 57 68 67 61 58 66 57 57 58 60 51 45 40 41 38 28 28 24 23 25 24 19 15 26 25 18 20 21 22 20 18 26 20 15 18
18 26 22 23 19 23 23 15 14 25 25 16 18 24 15 22 24 18 28 22 27 33 35 32 47 39 48 55 51 54 53 57 62 56 63 55 53 52 43 44 35 40 33 24 31 28 21 22 19 23 17 18 14 14 18 26 14 20 17 26 25 14 23 18
26 15 17 23 19 26 17 19 26 19 22 14 18 18 17 18 17 21 24 21 18 26 31 33 32 38 45 38 50 47 52 51 51 48 55 50 44 49 40 35 40 29 23 18 17 22 24 25 14 17 24 18 14 20 17 21 16 18 16 25 19 24 16 23
23 26 16 14 26 23 19 26 22 14 22 24 19 20 18 22 15 21 15 22 19 16 28 22 36 36 31 39 42 39 42 48 41 41 44 43 37 38 38 38 31 29 16 25 14 16 16 20 25 25 18 25 15 24 21 15 16 20 23 16 14 14 17 21
15 18 20 14 23 16 23 19 17 24 19 16 25 25 24 14 14 22 23 19 16 17 26 23 27 22 29 36 41 40 42 37 44 42 33 37 37 31 37 25 22 15 19 19 24 17 17 22 15 21 17 17 20 18 19 23 22 16 25 23 16 17 15 21
23 20 24 20 25 14 20 23 17 19 21 17 19 26 17 22 22 14 25 22 21 24 16 17 26 25 27 33 27 35 34 32 38 35 27 31 28 32 30 18 19 15 15 25 24 21 15 20 23 23 20 16 26 19 17 21 21 15 16 26 14 16 21 20
18 14 16 23 25 19 24 14 15 24 19 20 20 23 26 23 26 25 15 23 17 18 17 19 26 24 19 23 18 28 32 28 28 25 20 31 25 21 18 15 17 23 24 21 26 19 16 20 24 25 23 26 15 26 22 23 18 20 24 15 21 25 19 26
19 15 22 18 22 14 15 26 15 19 16 21 23 14 18 24 22 17 20 22 21 25 21 20 26 20 14 17 14 22 21 25 19 23 25 20 19 26 19 20 26 16 16 26 14 23 19 26 16 17 19 21 18 22 15 16 26 23 26 24 16 21 20 25
20 17 25 15 15 15 23 18 14 19 17 16 22 19 23 25 17 20 14 26 14 15 15 18 26 22 20 20 17 19 16 14 17 19 17 20 26 20 18 25 14 14 20 21 20 24 22 17 25 25 18 17 14 18 22 25 21 22 14 22 25 19 16 20
26 15 26 23 25 14 20 24 23 26 18 26 24 20 25 16 21 17 14 22 26 14 26 25 26 23 14 18 24 24 19 14 22 21 23 18 15 19 24 17 25 18 16 26 21 24 22 21 21 18 16 15 25 19 19 15 21 25 14 18 22 24 25 16
20 22 20 15 22 16 16 21 23 26 22 20 20 26 23 24 16 26 19 24 18 15 25 24 22 14 23 18 24 25 22 17 15 22 18 24 22 22 19 17 16 18 14 24 20 18 20 19 18 15 25 26 15 20 16 17 24 14 26 19 23 24 23 16
22 19 19 26 15 18 25 18 17 15 14 20 18 15 16 19 17 25 16 20 25 20 16 17 26 17 15 25 25 14 24 14 24 23 26 17 23 26 15 18 20 24 22 17 21 24 20 22 23 17 15 22 17 15 23 20 17 23 23 22 24 20 15 25
23 19 25 17 21 17 24 16 23 21 21 14 19 26 22 24 18 16 17 19 15 23 22 21 20 17 15 19 16 24 24 21 22 25 22 23 24 17 16 21 26 23 26 16 24 18 17 20 19 18 21 17 24 23 21 16 16 14 17 17 24 25 25 24
25 15 17 20 19 26 15 26 16 20 25 16 26 18 19 18 15 26 16 25 23 18 22 22 15 14 21 26 17 15 24 23 24 14 18 16 20 22 26 17 22 17 21 18 20 26 23 24 26 26 20 26 26 17 26 16 26 16 14 17 15 23 24 17
15 25 22 25 21 18 21 19 23 18 19 19 20 17 18 17 25 23 17 16 16 26 26 21 22 20 23 17 25 22 21 17 21 17 14 23 22 14 14 22 22 24 19 18 21 18 14 24 15 16 20 19 24 19 21 20 22 17 21 17 18 15 18 19
18 19 20 14 16 22 24 22 16 25 15 18 20 16 24 25 26 26 26 23 19 21 21 18 19 22 22 21 19 26 18 21 18 23 15 25 16 19 21 20 23 26 26 26 14 16 18 24 18 22 20 18 18 23 26 19 25 19 22 22 22 14 22 15
24 16 18 24 26 16 21 21 22 21 25 23 19 26 15 22 20 19 21 26 20 21 26 16 23 19 22 26 25 23 14 16 16 25 18 22 24 18 16 16 15 24 25 22 25 17 23 26 22 21 15 25 19 22 19 19 26 20 14 19 14 19 17 25
22 20 22 16 23 18 15 18 14 19 24 21 22 22 25 26 14 22 22 16 25 19 22 15 20 14 21 19 24 25 23 26 23 25 18 25 19 22 20 21 17 19 25 26 15 18 18 25 22 22 24 25 19 19 18 18 17 24 17 23 15 26 26 26
26 24 18 25 14 17 23 21 17 16 24 25 16 18 26 26 17 18 23 25 20 25 20 23 20 24 26 24 15 15 26 22 16 15 23 22 19 24 23 22 15 15 25 26 19 17 14 17 14 23 24 23 22 26 22 18 26 17 23 21 14 26 16 26
20 14 16 14 15 17 14 17 17 16 17 26 26 24 17 25 25 24 20 22 17 18 24 24 14 18 18 25 17 25 25 14 18 15 21 21 23 14 16 21 17 18 25 20 19 19 15 22 22 23 21 20 24 23 18 23 22 24 17 18 14 23 22 25
