P2
64 64
255
22 23 24 22 23 23 17 14 23 15 15 26 22 24 26 24 15 16 17 18 14 18 16 17 22 14 18 23 17 17 23 14 25 24 20 16 14 16 21 14 24 17 18 22 21 14 16 15 21 14 19 25 16 24 24 14 23 16 21 23 26 19 18 23
24 21 25 18 22 15 25 20 22 21 24 17 18 18 24 18 14 19 15 19 24 19 24 20 19 20 18 16 26 19 23 23 19 16 15 15 20 17 18 23 17 15 15 20 14 23 16 20 21 23 23 14 15 24 21 14 22 16 24 16 26 14 25 18
23 18 24 22 16 15 22 15 26 15 20 21 23 26 14 23 20 14 22 18 26 18 23 22 18 23 20 16 16 24 23 17 26 16 19 14 24 25 26 14 23 14 25 26 16 17 20 18 14 17 23 22 15 14 14 22 20 25 16 26 19 15 15 25
15 25 16 17 19 14 18 14 26 14 21 16 18 15 17 25 16 20 17 14 16 22 17 17 23 23 24 24 23 15 23 20 22 17 17 24 15 19 25 17 20 25 19 23 26 25 16 20 21 17 20 17 21 18 17 17 18 24 15 24 26 15 18 24
21 20 16 15 25 16 17 26 15 22 23 18 18 17 14 14 21 26 21 25 22 17 17 20 14 14 16 20 24 24 24 20 15 18 26 14 14 22 20 17 21 22 23 23 16 21 19 25 20 14 25 22 24 17 23 14 25 18 25 16 17 21 25 18
25 14 20 17 14 26 17 20 26 22 19 25 21 24 16 17 25 25 24 18 16 19 16 21 25 14 15 24 22 19 14 20 20 26 17 16 19 17 24 26 14 22 24 24 25 18 17 18 23 25 18 20 24 16 22 15 21 24 22 24 25 22 16 16
23 24 25 23 17 15 26 24 23 19 18 23 19 14 23 26 26 14 14 18 20 17 14 22 19 16 18 25 14 22 14 20 26 20 14 19 24 16 17 16 24 17 25 18 14 23 18 17 19 21 19 24 14 21 22 25 19 23 25 17 18 16 25 15
16 18 17 23 26 23 24 18 14 21 19 25 25 21 20 21 15 15 16 18 14 23 23 16 17 25 18 21 14 19 19 19 16 18 26 17 22 18 18 22 19 23 17 16 17 14 21 15 20 20 24 16 26 18 18 16 21 17 26 17 16 16 16 23
26 14 14 15 23 15 18 24 16 19 26 16 25 26 25 20 19 25 15 25 26 21 26 19 18 16 26 26 15 15 18 23 14 25 15 20 19 19 16 16 14 24 23 25 21 18 14 22 20 18 18 25 14 14 18 17 16 22 15 25 18 18 24 21
24 18 16 20 20 15 15 22 14 24 19 17 20 16 20 24 20 24 19 20 20 18 26 26 21 25 23 21 22 20 16 17 21 20 14 14 15 15 14 25 24 20 26 25 24 14 17 21 22 21 14 24 14 23 16 25 23 18 16 21 26 21 18 23
17 26 26 15 18 24 23 26 18 22 14 18 15 23 20 26 24 18 23 15 23 24 22 22 18 23 21 19 16 18 21 18 15 21 17 25 25 16 23 18 19 14 25 25 21 19 21 22 24 20 16 19 23 26 21 21 26 19 17 17 14 26 15 18
15 26 21 17 22 23 24 16 15 26 16 25 22 23 14 23 18 21 20 20 14 14 19 21 21 17 23 16 20 26 24 24 22 18 16 15 16 20 17 21 14 17 15 20 16 19 23 22 17 20 18 22 20 16 21 23 22 25 20 24 22 17 16 15
24 18 15 21 22 19 17 21 19 15 23 21 25 14 15 22 19 21 14 15 22 25 25 17 18 19 20 16 16 20 14 25 15 21 23 15 19 19 23 19 23 21 26 20 15 16 23 14 20 18 19 16 26 15 23 24 22 15 19 24 16 17 24 21
20 21 14 15 24 15 22 15 24 19 16 18 26 16 17 15 14 25 25 24 25 26 24 18 19 15 18 25 22 23 26 18 17 21 15 17 26 22 21 25 23 19 24 21 15 20 16 17 20 19 16 18 14 17 19 25 16 23 18 16 19 16 20 21
16 18 15 17 24 14 24 23 15 25 17 22 15 19 15 23 16 26 20 14 18 14 23 17 25 23 15 20 20 14 19 21 19 25 20 25 23 14 14 21 15 17 25 16 15 15 14 18 15 22 26 21 18 16 17 21 23 14 19 15 23 19 23 25
14 22 26 17 20 24 15 23 25 24 14 15 18 25 16 19 18 20 25 19 18 26 21 20 17 23 14 18 15 17 22 26 15 18 16 15 19 21 14 15 14 14 18 20 23 18 21 22 15 14 18 23 26 18 18 18 18 15 20 21 20 17 19 24
15 17 25 17 14 21 21 15 19 18 25 16 24 16 14 16 20 23 14 23 26 26 23 26 23 15 23 20 20 22 18 24 15 23 24 19 26 18 24 17 20 21 17 19 20 26 16 17 25 15 24 16 22 21 19 16 20 20 21 25 18 14 19 16
25 18 26 26 18 25 20 23 22 24 23 15 20 20 23 15 16 16 25 15 21 24 15 25 22 17 16 19 15 15 20 18 21 18 21 17 21 22 16 26 21 16 23 22 14 21 26 14 15 21 24 18 15 16 17 20 22 24 17 22 15 26 20 18
24 14 17 21 18 18 23 16 23 17 15 20 15 15 17 26 21 18 21 20 17 20 21 16 23 18 25 22 15 22 14 15 15 22 20 24 22 22 19 19 22 19 25 15 24 18 22 22 21 24 22 25 16 16 21 18 14 17 15 23 15 21 19 14
15 16 26 14 23 18 25 14 15 21 23 15 22 26 15 20 20 23 19 17 26 25 17 29 23 24 15 24 25 19 15 20 19 26 22 16 23 14 22 16 22 20 29 26 26 21 24 17 23 15 24 26 15 19 18 23 16 18 16 26 15 23 17 15
15 17 26 19 21 19 16 21 22 24 20 23 17 24 23 24 26 27 23 25 23 32 28 22 24 30 17 27 21 18 24 14 22 20 15 15 26 22 20 29 31 31 32 27 24 22 21 28 23 25 16 15 22 15 19 14 20 23 16 26 19 14 25 15
14 20 19 18 14 24 24 14 22 24 26 23 22 22 23 32 29 29 32 29 28 33 28 25 25 27 24 19 19 18 28 17 19 22 28 23 27 22 22 27 23 35 33 29 33 27 34 34 29 30 21 25 16 22 18 20 24 18 14 25 19 20 20 19
17 15 22 15 22 15 21 21 21 23 23 21 29 20 31 35 33 29 34 30 37 38 34 34 37 26 25 37 37 26 32 31 23 29 31 33 29 36 28 29 38 28 29 29 35 36 33 35 31 32 22 31 26 22 14 20 26 24 18 18 19 24 15 19
18 22 15 19 22 20 18 17 21 14 24 21 25 27 25 36 30 35 43 44 44 45 37 38 32 36 36 46 37 33 34 30 32 35 39 37 39 42 44 40 37 34 33 44 36 41 42 38 33 30 34 25 23 29 19 21 14 20 19 23 14 20 24 14
17 23 23 19 21 25 23 24 24 17 29 23 34 35 37 42 36 45 39 45 40 38 48 45 51 46 55 53 55 42 51 47 47 43 49 48 54 54 48 53 40 49 43 43 42 37 46 44 34 42 31 32 33 26 28 25 15 25 20 23 21 21 22 15
25 26 18 18 18 25 25 19 16 19 28 32 33 28 40 39 38 46 41 41 49 52 56 58 59 58 56 53 57 54 56 53 49 56 53 62 52 55 64 60 53 58 47 52 51 52 49 42 47 37 43 38 36 29 30 27 22 17 16 23 15 25 18 25
16 24 16 19 22 16 20 23 24 30 32 27 30 37 38 42 49 46 44 49 51 58 59 60 62 60 60 70 60 59 58 59 64 62 68 67 65 62 68 67 57 66 59 57 52 51 45 44 48 41 36 37 30 34 26 24 22 14 21 20 14 18 25 16
24 22 22 15 21 15 20 26 28 32 35 36 35 44 38 45 49 55 47 57 63 67 67 69 78 69 79 75 72 73 68 76 67 76 70 78 74 77 75 76 74 75 68 65 51 55 56 47 46 42 40 42 41 33 23 32 20 17 22 14 14 26 20 17
18 19 22 26 20 23 23 20 20 28 27 34 39 45 50 44 56 57 56 60 67 72 80 74 78 85 78 87 77 79 72 74 81 86 75 77 80 86 75 85 81 75 74 66 60 61 55 50 53 50 46 44 36 39 27 21 21 18 22 24 23 20 26 25
19 17 14 18 18 16 22 15 29 24 31 39 45 48 44 53 55 54 55 70 70 77 80 84 90 82 90 94 83 84 91 85 94 85 81 81 91 92 93 81 87 89 84 74 73 65 53 63 53 55 52 38 40 36 27 23 18 18 19 18 20 14 18 19
22 26 17 18 24 14 14 15 26 31 33 42 42 44 46 55 61 62 59 76 72 82 93 86 97 89 89 97 89 99 96 99 96 100 90 89 90 94 100 88 87 94 88 79 79 69 69 53 61 48 44 48 39 41 33 28 31 18 25 25 21 24 19 21
25 14 19 25 23 17 24 16 20 31 31 37 46 51 44 54 59 63 66 83 79 93 95 96 102 98 96 97 95 101 99 101 106 98 105 98 104 105 96 92 97 101 88 93 88 72 73 54 56 58 48 46 36 32 30 35 26 27 23 24 20 20 26 18
25 22 20 16 15 21 21 18 22 29 39 32 38 50 50 58 52 63 64 79 84 90 98 93 103 108 99 104 108 103 113 104 117 115 104 106 109 101 102 98 99 105 94 94 94 85 73 55 52 56 46 51 37 32 33 34 29 23 18 22 15 24 17 14
23 26 21 16 19 16 23 19 32 23 33 42 46 42 46 55 59 59 67 78 85 94 99 98 98 102 101 107 111 105 106 112 117 116 107 114 109 114 104 106 103 100 92 90 94 76 73 54 53 53 51 44 47 36 35 25 21 20 17 16 16 25 15 21
16 22 16 21 21 21 24 26 25 24 38 40 38 49 44 58 56 55 63 80 80 87 97 99 106 104 112 107 105 112 119 121 119 115 118 111 108 114 102 108 107 96 96 91 84 73 68 55 58 47 45 44 43 32 29 28 19 21 21 16 15 19 20 17
14 19 18 20 20 25 14 24 30 32 26 38 43 44 50 52 56 59 65 78 83 90 96 92 101 101 106 110 110 114 119 121 128 121 121 109 107 111 101 99 104 102 96 87 84 71 67 59 53 44 48 42 36 34 27 31 20 23 14 19 18 24 25 20
17 19 19 23 21 24 21 21 27 29 28 34 33 38 49 43 53 53 62 67 79 80 92 91 105 99 100 105 109 120 110 127 127 119 113 110 113 110 100 107 102 93 90 82 77 67 59 51 51 54 49 43 42 30 25 25 29 21 15 26 22 26 25 18
26 19 19 14 24 23 18 14 28 31 30 31 34 43 44 51 48 51 66 68 74 86 81 91 91 95 101 99 105 111 114 121 112 117 117 109 112 108 98 103 92 88 90 76 72 74 59 56 45 51 46 38 39 33 33 26 18 18 24 20 24 16 17 17
19 24 26 15 20 26 25 18 26 29 31 27 30 42 44 45 47 51 55 59 75 76 86 85 92 93 96 102 106 110 105 101 113 105 110 100 103 98 104 95 88 91 77 77 72 57 57 45 47 39 41 42 34 31 23 24 15 18 20 23 26 25 20 25
16 24 19 21 24 22 20 26 18 17 23 27 28 39 37 46 46 45 51 65 67 67 73 75 82 92 96 90 97 97 105 103 94 95 93 94 99 99 92 95 85 76 77 70 60 64 47 45 39 40 34 33 30 24 28 19 22 26 24 14 15 22 21 18
15 16 18 14 20 15 25 18 18 22 25 24 27 34 34 36 42 34 47 55 64 68 66 71 80 78 81 89 85 89 97 92 87 95 95 93 86 91 83 84 81 75 70 61 62 53 44 34 38 36 36 28 27 32 20 25 20 19 24 16 19 18 24 17
24 23 14 26 26 21 18 25 19 23 18 23 31 30 28 28 37 37 42 50 52 60 61 63 75 77 74 76 83 86 78 86 86 81 84 80 83 79 78 72 70 67 63 59 48 46 37 35 36 30 34 26 23 27 23 17 26 21 21 15 21 19 22 16
23 20 15 20 17 19 16 16 23 23 19 19 28 29 22 36 37 32 40 39 40 52 52 62 63 71 74 72 79 76 70 81 78 76 78 77 78 68 66 75 69 62 56 51 52 36 35 32 31 34 34 27 18 25 15 15 18 19 18 18 16 18 16 18
21 19 17 22 25 22 18 25 22 18 16 17 22 28 23 30 25 32 36 36 45 48 49 59 60 57 65 71 60 67 67 76 68 65 69 61 69 61 69 67 60 56 50 49 33 39 26 32 22 25 30 20 14 17 20 18 26 26 23 21 23 20 15 15
25 23 15 21 17 19 15 17 15 22 19 23 23 24 15 21 27 24 23 33 39 41 45 46 50 56 56 60 61 61 66 65 59 61 59 56 54 56 57 55 51 44 37 39 29 27 24 25 25 17 25 24 24 23 23 15 24 20 23 22 19 15 25 23
15 18 19 22 26 23 23 15 26 17 26 18 16 16 24 22 17 19 26 26 24 28 40 41 38 38 45 53 55 59 59 55 62 55 55 60 56 46 42 47 40 32 35 25 25 26 18 26 15 24 25 26 26 17 14 24 19 16 21 16 22 21 22 16
19 25 20 25 18 20 25 25 15 18 15 26 25 22 22 18 24 24 15 16 22 20 28 29 30 37 48 44 44 45 46 53 46 52 52 54 46 40 37 44 39 32 26 22 16 21 18 26 23 21 14 18 25 20 21 25 26 23 14 24 22 24 15 24
23 15 15 23 14 25 20 18 22 20 16 16 14 23 15 15 25 16 14 21 21 16 24 26 25 31 36 35 47 40 49 49 47 44 40 48 42 36 30 33 30 22 18 22 24 15 19 15 16 21 18 15 26 23 15 22 25 21 22 25 17 20 19 21
16 23 19 17 16 19 19 26 17 14 16 17 18 25 23 22 24 24 15 24 23 16 15 23 23 23 35 27 33 39 43 33 39 42 43 31 39 30 36 25 20 15 25 17 21 15 16 22 20 19 18 23 18 24 26 19 26 23 20 15 25 23 20 23
25 17 15 18 14 25 21 22 26 25 15 14 16 15 25 19 14 19 22 20 19 17 18 23 18 22 28 32 26 36 31 31 39 27 28 30 35 32 27 26 16 23 23 25 20 23 14 22 21 16 14 21 21 18 14 23 17 18 15 20 24 25 19 17
16 24 16 25 14 17 23 19 14 21 24 25 26 17 16 23 16 21 14 24 24 23 15 20 20 24 18 23 22 30 27 31 22 23 29 23 28 16 22 24 24 25 17 15 26 24 24 23 21 17 23 17 22 18 15 17 22 15 22 19 18 20 17 15
21 14 25 20 16 26 23 19 20 21 23 26 24 23 23 16 16 22 21 21 25 24 16 26 18 26 16 22 19 26 16 26 16 25 16 14 25 14 25 16 25 26 18 16 14 20 25 19 25 26 21 17 15 24 23 14 24 23 18 17 18 25 25 23
22 16 16 15 16 18 22 26 17 19 16 21 25 19 20 22 20 15 18 21 22 20 17 20 19 17 21 15 19 19 22 25 17 17 20 14 14 19 18 24 18 17 14 19 22 23 22 14 19 15 15 17 21 26 17 22 14 20 22 20 18 26 16 15
24 20 21 22 26 24 21 20 22 20 22 20 18 26 25 22 24 20 19 23 24 19 25 20 25 16 18 26 24 25 20 17 25 24 24 22 16 19 18 21 22 15 21 15 17 25 18 19 24 26 17 17 19 26 20 26 24 25 25 24 17 16 20 26
14 17 25 22 22 25 22 15 15 18 21 15 24 26 24 24 15 19 22 19 17 26 17 21 26 16 16 23 21 14 18 16 24 18 25 24 24 18 22 25 23 17 23 15 23 26 19 17 16 19 18 23 20 26 22 23 15 23 25 24 14 23 21 14
24 16 17 15 18 15 25 21 15 16 19 14 24 25 20 23 15 21 24 15 26 25 17 19 17 18 16 17 22 19 24 17 25 26 18 25 25 24 18 20 16 25 18 25 20 25 21 15 14 17 16 24 19 14 16 20 25 23 22 22 25 18 22 23
19 18 19 20 19 24 21 24 24 20 17 17 15 23 15 15 18 23 24 19 22 14 18 18 19 22 15 25 23 19 15 15 17 18 23 17 19 26 19 18 21 15 16 18 18 17 19 26 18 18 18 23 25 23 25 17 26 25 19 14 25 23 14 25
21 15 16 24 18 23 23 16 21 23 15 20 26 14 21 16 15 24 21 15 19 24 24 20 22 22 25 18 22 19 21 26 26 21 15 25 21 19 22 23 24 25 21 25 14 26 19 23 24 17 14 15 14 19 15 17 26 20 16 22 16 25 25 16
26 14 19 16 26 14 26 24 21 22 19 18 20 25 19 14 20 14 24 24 21 24 22 22 17 16 14 17 26 21 19 17 25 15 24 20 20 18 24 24 15 25 14 19 17 19 22 26 24 16 17 25 20 14 14 24 24 14 26 14 16 22 23 26
23 22 23 22 15 21 15 20 14 19 14 22 23 18 25 18 25 19 17 14 18 17 22 20 18 26 22 15 18 26 21 21 14 24 24 26 15 22 26 21 14 19 24 20 20 19 20 25 19 25 21 21 15 19 18 25 14 18 16 21 14 24 24 21
19 19 24 20 17 26 18 25 26 19 19 25 15 15 25 21 19 25 19 15 17 16 26 26 20 20 18 19 21 23 20 20 21 23 17 15 20 25 19 18 20 25 17 23 19 19 18 16 17 19 17 19 26 17 16 26 16 15 21 22 17 22 23 17
25 25 19 19 26 14 21 14 20 18 16 15 24 14 18 18 17 24 14 22 22 16 25 25 20 17 21 21 22 18 26 16 19 16 26 15 17 22 25 16 19 19 21 19 14 19 19 15 18 23 19 23 17 21 20 25 25 15 24 21 21 26 23 19
23 18 17 19 25 25 20 16 23 19 26 19 22 23 15 20 23 16 15 17 21 18 14 25 20 14 16 17 22 19 18 18 24 21 22 24 22 24 24 22 22 18 22 16 23 16 16 25 14 18 18 21 24 18 24 20 18 19 17 17 14 24 17 17
19 24 14 25 18 20 24 18 22 26 21 15 15 18 24 19 18 14 15 15 14 25 15 18 17 17 16 18 15 16 22 23 21 26 18 16 22 21 19 16 16 19 23 21 15 23 16 21 26 17 16 18 16 17 16 18 16 26 25 18 24 16 16 25
