P2
64 64
255
27 36 19 29 23 30 25 24 25 25 36 28 38 35 38 27 22 21 31 25 27 21 32 22 37 18 31 28 18 35 18 18 21 25 33 35 34 37 29 34 34 23 21 31 37 28 37 28 24 27 20 21 35 26 35 37 23 25 25 29 32 32 34 34
34 29 29 31 38 20 29 28 21 37 34 28 26 32 21 23 20 36 26 32 35 34 20 20 30 37 23 33 24 22 38 36 21 23 26 38 28 26 33 20 27 26 28 25 29 36 18 29 28 32 29 37 28 18 22 19 35 24 36 32 34 36 35 30
33 18 28 23 19 26 25 33 18 29 30 36 27 32 29 30 26 28 28 34 23 32 37 31 30 22 31 21 24 21 33 38 20 29 19 28 31 34 25 28 31 36 20 32 30 29 21 24 18 19 20 20 36 25 32 36 36 22 27 29 27 35 21 29
24 28 19 37 19 18 29 26 20 28 26 27 29 25 19 35 25 29 21 38 36 35 35 36 24 29 35 24 34 38 33 31 34 28 26 25 28 29 19 33 32 18 32 18 21 31 36 20 37 28 38 34 27 22 36 24 27 21 21 31 37 36 27 31
21 36 37 33 27 26 20 30 18 26 19 34 38 33 25 21 19 18 31 26 19 29 22 24 23 23 24 22 28 31 19 24 22 18 19 38 19 30 33 25 28 25 19 25 21 33 24 22 18 23 20 37 18 29 37 37 30 37 22 30 22 25 33 30
24 19 30 35 34 29 18 22 36 37 26 23 35 30 36 28 32 23 33 32 19 31 34 19 28 32 38 20 25 35 33 18 38 25 22 34 31 23 31 28 30 26 20 20 32 21 28 38 28 26 33 32 27 25 25 22 38 34 26 28 23 27 34 32
27 19 22 22 37 24 18 34 21 21 28 31 36 30 30 28 32 18 37 27 27 37 33 26 25 32 27 23 20 30 28 23 21 21 28 23 19 37 28 25 18 34 19 30 30 23 29 18 31 35 31 18 21 18 29 19 27 31 29 22 21 23 22 29
35 30 19 20 36 19 32 20 22 18 18 23 38 29 32 18 36 27 33 19 29 32 19 24 24 20 30 25 33 21 20 36 25 29 23 32 28 30 36 27 27 30 22 38 35 38 25 31 37 27 20 23 35 27 20 26 34 35 20 19 28 37 38 25
25 38 30 28 35 34 35 19 20 31 19 33 32 25 35 32 31 27 26 30 22 31 19 31 28 21 22 21 20 19 19 36 28 21 27 31 20 20 25 22 28 24 27 34 23 30 22 36 33 29 19 19 38 38 33 31 35 27 37 25 24 27 35 32
22 27 26 33 38 20 24 31 26 18 21 26 27 21 29 33 24 38 19 29 38 25 18 37 33 19 25 26 18 27 27 29 31 34 26 24 28 36 20 32 28 24 35 30 33 37 27 34 26 24 32 38 20 21 19 29 34 18 28 23 23 25 19 28
18 25 30 18 27 32 37 36 32 30 23 25 32 28 25 29 20 38 27 26 29 21 35 24 38 30 18 33 33 21 31 23 38 38 18 30 37 19 35 37 35 33 34 20 24 36 36 19 29 23 23 31 31 33 21 25 18 33 29 22 18 37 35 29
19 18 20 18 23 22 36 33 30 23 23 28 28 25 36 34 28 24 37 32 32 37 22 24 27 24 30 22 25 20 18 36 22 21 18 30 22 26 28 26 33 28 29 38 35 37 19 24 19 23 36 38 21 19 29 31 38 27 25 24 23 31 34 21
26 25 24 36 22 18 33 29 37 20 21 33 28 32 33 36 19 29 24 34 21 35 31 25 34 37 19 19 37 38 26 21 21 31 38 34 33 20 34 30 36 38 20 27 29 22 36 35 34 20 26 29 23 28 19 26 27 28 26 18 21 23 19 21
38 21 38 31 36 29 18 24 28 24 32 19 25 18 19 31 24 36 22 18 36 21 37 20 30 29 29 18 28 33 22 34 31 37 33 20 32 30 23 20 29 28 20 22 32 25 26 21 21 24 25 27 31 29 35 30 24 19 31 21 30 28 22 27
36 18 18 29 27 22 22 32 26 37 25 27 18 36 37 23 28 18 31 33 18 19 29 20 31 18 26 33 23 27 18 34 38 27 27 35 36 33 38 21 19 18 32 38 36 22 22 26 21 27 24 33 20 35 35 21 21 35 20 21 23 21 24 36
27 28 28 35 27 29 35 28 19 18 22 22 31 21 35 20 35 26 38 35 18 23 21 25 29 29 35 21 37 29 31 30 38 19 30 30 30 32 36 22 33 33 22 34 22 25 31 27 26 37 38 28 32 34 19 35 36 24 21 24 35 27 25 33
20 31 35 36 20 30 33 28 20 35 27 20 18 34 29 18 23 24 31 30 19 34 30 30 25 38 38 32 24 20 37 38 33 32 19 37 32 33 29 32 26 37 30 27 23 36 29 21 27 31 21 26 29 34 30 29 23 30 23 35 20 22 26 19
35 38 35 34 22 36 25 31 28 26 27 20 23 32 25 29 20 21 28 28 30 26 20 30 36 29 19 37 33 25 34 30 37 38 22 18 35 38 23 25 23 27 29 38 22 25 18 28 33 37 33 36 34 34 29 22 29 27 36 32 21 20 35 29
33 33 20 24 37 37 23 36 26 28 25 33 22 28 35 28 38 20 20 24 23 27 31 36 24 33 26 19 37 34 23 36 27 20 25 22 22 34 36 30 18 30 37 20 22 26 27 22 25 24 35 27 31 34 31 38 27 21 32 28 24 37 27 31
29 22 27 21 19 23 37 34 20 29 31 20 31 33 19 33 37 25 28 33 35 31 26 21 24 36 28 25 18 29 38 38 26 32 37 20 35 31 31 29 36 23 24 34 39 40 33 33 27 27 20 32 32 32 31 20 24 23 33 26 36 38 31 32
28 37 36 28 29 31 28 27 26 34 21 27 27 27 22 39 39 44 34 35 31 40 29 33 44 36 41 28 18 23 20 33 20 20 35 24 30 35 22 42 41 45 37 38 30 40 25 42 42 21 28 20 19 24 21 31 35 31 36 33 22 38 20 22
34 38 23 19 37 27 29 38 38 26 22 28 19 33 27 32 39 37 47 31 33 29 30 34 46 38 25 30 33 27 24 38 36 30 29 18 30 31 29 45 42 38 49 49 37 39 31 37 35 39 43 28 23 34 28 31 23 28 31 24 25 28 19 36
36 30 32 38 27 29 29 19 25 38 29 21 29 38 32 28 43 51 52 38 48 35 43 49 39 38 46 40 41 31 24 20 29 32 26 39 43 46 37 39 43 46 47 34 48 41 46 34 31 29 30 27 30 36 19 18 20 24 29 26 26 20 36 38
23 27 31 27 24 30 37 30 27 30 33 34 33 40 35 51 46 51 41 38 51 43 57 44 53 40 49 30 45 44 31 35 25 27 41 25 38 39 39 34 41 47 42 45 56 40 50 53 44 36 33 27 44 33 25 33 35 29 31 30 30 33 24 18
33 37 23 22 18 28 38 24 21 23 27 27 47 49 50 48 52 57 54 42 41 46 58 55 40 39 55 35 48 44 24 24 36 25 38 34 40 50 41 57 41 46 54 58 54 41 55 38 46 44 45 41 27 33 24 32 29 26 35 36 26 20 19 21
33 20 18 19 25 28 37 35 33 34 29 40 40 34 37 52 57 49 62 50 54 58 52 43 54 53 47 53 44 38 36 33 25 40 42 29 52 43 45 58 60 53 57 50 61 61 49 51 40 44 35 43 36 28 33 35 33 33 28 18 30 36 33 38
35 35 32 35 33 31 36 31 27 33 29 42 43 43 40 55 43 59 56 68 55 67 52 51 45 50 41 50 39 50 39 38 44 36 30 38 42 53 47 50 48 50 62 64 53 64 63 47 44 45 55 54 44 32 27 22 30 20 26 38 23 33 19 32
23 29 34 19 38 28 29 18 25 37 34 33 49 48 42 47 54 50 61 63 57 66 52 64 58 63 46 43 47 40 34 43 37 37 49 39 56 52 61 62 59 66 56 63 63 52 60 52 54 58 53 57 48 38 45 29 26 29 29 21 24 24 23 28
31 19 36 25 23 37 25 35 32 26 47 49 53 41 43 66 60 66 55 76 57 73 65 60 68 63 49 61 39 56 35 38 49 34 47 50 41 61 54 64 60 56 71 60 68 62 66 53 54 66 58 58 49 46 47 28 40 27 23 34 22 28 27 28
23 26 24 31 32 27 33 37 23 46 45 48 57 47 50 54 59 61 73 62 72 67 69 60 59 70 62 61 53 56 49 51 50 52 43 47 49 57 56 66 68 65 66 77 66 65 66 65 63 48 55 61 49 34 45 26 35 21 29 37 34 37 29 25
31 23 28 27 32 38 22 24 24 35 38 52 54 53 61 51 63 67 76 74 84 72 64 68 73 70 51 65 56 54 50 38 53 38 55 39 45 54 67 69 67 76 79 77 71 65 70 75 69 61 60 58 58 53 46 43 27 37 28 31 22 24 18 37
26 36 26 25 38 37 18 38 42 38 50 54 44 49 63 58 64 74 72 75 73 79 77 82 59 72 55 49 53 54 54 38 54 51 57 40 50 54 62 55 63 64 84 77 70 71 75 67 71 58 66 57 45 52 37 33 29 21 25 22 34 36 28 19
20 20 35 22 32 37 27 38 24 35 37 35 46 58 48 58 74 69 81 84 88 73 87 83 65 63 56 62 54 57 44 37 49 42 57 41 53 65 52 55 60 75 74 83 82 80 75 65 68 53 49 53 47 48 47 30 35 37 28 21 34 19 24 36
32 26 35 33 30 38 30 28 30 33 46 49 42 44 50 67 64 75 72 83 84 77 73 62 76 64 59 48 61 43 44 47 51 44 42 39 58 53 66 66 69 77 83 71 75 78 77 73 65 61 65 61 42 37 31 43 40 22 31 35 30 38 28 20
23 21 30 18 26 37 26 39 42 41 37 49 48 57 57 51 73 68 60 63 76 83 78 67 67 58 57 63 44 53 48 49 37 36 42 40 42 56 61 58 74 63 81 72 69 83 69 62 57 56 48 61 47 48 51 34 26 25 31 34 32 24 34 18
20 37 36 28 37 18 32 29 36 33 50 41 50 58 65 49 67 69 68 62 63 79 65 63 71 51 62 52 46 52 52 41 45 35 52 38 55 47 67 63 64 58 61 77 70 62 70 65 51 51 52 60 38 34 37 29 29 26 21 28 23 25 20 19
37 36 36 29 33 35 26 30 41 30 49 48 39 59 57 56 64 54 72 66 77 76 60 67 71 65 47 46 44 38 33 39 49 52 51 38 57 48 59 58 56 70 59 76 67 68 62 56 61 61 48 56 54 51 48 37 37 38 18 31 30 21 33 22
38 23 36 27 30 30 38 27 28 28 38 41 54 50 55 47 66 63 60 62 59 69 64 71 54 51 43 58 49 36 41 34 34 29 33 36 45 51 46 63 65 70 60 68 62 53 58 53 54 61 58 45 54 51 31 43 34 33 21 30 36 28 29 35
25 18 24 26 28 35 35 38 23 32 31 29 40 47 48 43 62 56 65 64 52 57 58 67 65 49 45 53 44 34 42 37 43 29 43 47 48 56 44 51 61 58 64 68 50 49 56 48 59 60 41 39 36 32 33 40 24 35 28 30 37 35 28 21
36 36 30 34 34 21 34 35 22 34 39 35 49 40 50 48 51 47 48 62 63 58 55 63 50 48 46 44 56 41 50 30 33 37 46 43 56 41 50 48 62 59 61 63 59 55 58 51 62 63 42 51 41 44 31 30 39 35 40 32 35 35 34 34
28 26 34 42 35 35 37 45 35 37 45 39 45 45 53 60 48 63 53 67 53 52 59 51 66 46 49 58 41 51 40 50 32 42 37 49 55 44 50 57 65 57 65 70 59 69 67 57 67 48 53 47 39 44 34 40 46 38 32 36 35 45 51 40
47 36 43 48 46 37 34 48 42 40 33 49 47 45 50 57 62 53 51 53 57 57 60 55 52 56 49 53 46 38 53 50 51 47 55 45 51 54 48 48 58 54 54 63 67 62 57 56 57 55 62 63 48 54 44 55 42 46 51 40 46 54 57 37
35 32 37 24 39 40 38 42 40 41 43 36 33 46 38 55 56 50 51 58 45 59 60 56 39 47 55 39 43 33 46 41 36 46 32 48 53 48 56 42 61 54 62 59 48 63 56 46 44 47 45 51 41 38 42 31 40 48 46 46 43 31 30 49
33 26 29 27 40 40 25 36 29 23 39 40 33 41 40 27 48 49 43 51 44 36 34 52 38 34 37 29 42 35 28 30 33 27 30 27 42 46 43 41 46 43 41 37 53 52 44 40 42 36 33 26 31 43 32 24 26 35 28 24 27 39 39 30
38 24 23 35 38 31 19 20 29 36 32 33 31 35 39 40 24 44 29 29 39 33 30 36 26 24 28 32 26 22 34 38 36 21 22 24 21 34 23 38 33 44 40 27 29 33 35 32 24 23 30 26 20 33 38 20 23 23 31 38 18 25 38 18
36 28 31 32 36 30 28 25 36 38 24 29 33 23 27 37 36 39 26 23 42 40 31 38 25 22 36 27 31 18 31 32 33 26 29 23 21 24 24 26 39 32 24 39 37 36 35 23 22 24 38 20 32 27 21 33 20 22 34 24 24 21 30 37
24 20 25 19 36 26 31 38 26 37 31 34 24 31 24 31 23 28 26 30 30 32 27 36 26 30 21 27 33 30 38 28 24 33 28 35 30 21 18 38 30 29 38 26 21 24 20 38 23 33 36 29 26 28 19 28 25 21 29 20 18 28 30 20
38 23 31 35 31 22 19 25 24 20 26 35 31 36 24 30 18 21 31 32 34 24 38 34 32 30 26 26 27 27 18 29 36 19 27 26 37 36 30 35 22 26 34 22 38 37 26 30 23 32 32 31 18 35 34 24 28 23 36 27 30 20 21 29
18 20 27 38 28 22 22 25 19 31 26 30 30 32 24 35 32 32 20 28 21 19 36 26 37 28 29 28 34 34 27 22 26 38 37 19 27 35 20 35 31 20 20 27 22 19 31 25 33 31 37 27 21 35 28 29 20 38 36 29 20 28 30 26
25 18 35 38 37 24 24 28 18 38 28 25 38 30 20 33 24 33 34 32 22 35 19 26 19 19 27 21 32 22 20 37 23 27 33 26 21 38 27 23 18 28 38 30 29 33 33 20 33 36 36 25 35 32 38 30 34 27 38 25 36 20 32 31
34 34 20 29 29 36 27 35 20 21 35 28 25 24 29 22 26 25 32 30 30 27 30 19 18 32 33 35 29 35 37 18 37 22 18 35 28 34 32 22 29 28 38 32 31 19 18 33 34 20 29 21 27 19 29 31 28 25 18 25 30 30 25 20
24 27 24 35 22 24 24 25 22 24 24 35 23 36 37 23 20 29 25 31 25 24 21 33 30 18 36 29 23 20 31 20 37 25 25 30 23 26 38 33 21 36 25 21 18 19 22 30 35 24 35 30 21 28 31 20 35 18 33 21 20 18 20 31
23 26 38 30 19 31 27 28 37 24 24 30 30 36 21 32 32 25 24 33 31 29 33 36 32 29 26 18 31 22 33 35 24 27 21 19 25 35 21 38 19 36 21 26 38 27 22 33 20 18 27 27 24 36 18 24 21 22 32 34 24 35 38 30
25 28 29 20 33 27 18 29 38 23 34 18 34 28 26 20 31 38 27 18 19 28 19 37 33 31 29 29 18 29 28 31 23 31 34 31 28 26 23 35 20 30 18 35 34 30 20 22 31 24 27 26 35 24 19 18 24 37 32 38 18 27 20 32
20 38 21 18 36 32 19 18 20 19 24 35 29 38 22 37 37 37 23 27 38 32 20 38 36 37 21 19 34 38 38 36 20 26 29 18 35 18 33 23 36 24 31 32 25 28 31 36 33 38 18 21 36 30 20 24 31 33 33 33 27 34 38 18
23 23 35 33 34 18 29 37 28 27 31 20 34 32 27 35 35 19 31 24 35 22 32 36 32 35 34 38 33 36 19 25 27 29 32 22 18 18 26 31 33 28 35 24 33 38 33 20 37 21 18 32 34 29 37 35 27 26 31 34 36 37 33 23
35 37 38 21 38 36 26 28 28 21 25 24 20 23 28 25 34 19 32 31 29 36 38 29 30 37 35 31 27 35 34 36 24 25 18 24 38 31 31 23 31 32 26 34 35 33 24 24 31 19 30 28 22 33 32 19 26 27 25 31 31 34 32 20
35 36 26 19 32 34 18 34 35 23 36 20 34 27 26 27 38 38 25 29 22 29 18 24 21 29 34 38 35 36 25 20 22 35 33 35 38 19 27 34 33 30 37 24 38 30 19 30 37 19 18 37 22 38 29 34 36 38 18 32 38 25 21 33
18 38 29 23 26 37 25 30 32 35 32 33 38 25 24 32 38 25 35 22 38 32 31 18 24 33 37 33 18 33 21 38 23 18 22 32 34 35 21 34 21 33 19 24 32 20 28 24 33 38 27 33 31 35 22 34 30 34 28 28 22 18 21 22
31 19 18 23 37 34 37 31 23 31 35 26 36 29 32 28 18 38 28 22 20 21 20 33 20 21 29 26 20 30 19 38 31 29 33 31 28 26 21 23 33 28 38 33 33 31 23 23 31 35 32 22 33 20 28 33 22 36 28 18 29 21 22 22
32 31 35 29 36 21 33 24 34 37 25 25 38 20 30 33 36 37 29 20 29 24 18 19 26 37 38 25 36 28 26 32 25 29 37 18 19 21 29 27 33 25 28 33 18 21 35 32 36 31 18 22 37 35 26 29 18 32 31 32 23 29 36 38
23 22 36 18 29 36 21 23 36 19 30 25 37 36 28 35 24 38 28 31 30 20 23 31 31 21 26 29 26 27 34 20 30 37 19 26 18 18 19 29 31 31 26 36 27 30 32 29 35 21 18 36 20 29 32 36 26 29 27 28 25 33 20 22
33 38 36 32 19 25 38 27 30 31 32 22 33 33 30 38 21 25 32 24 29 31 31 26 31 28 35 30 34 31 28 24 21 19 27 25 28 20 35 24 22 29 20 29 20 31 25 23 38 30 35 25 32 23 22 32 23 32 20 20 27 34 34 37
24 35 21 38 21 37 26 23 30 21 22 29 24 18 19 19 24 34 37 31 38 29 34 35 38 24 32 35 18 27 20 21 23 33 23 32 33 38 29 36 30 36 31 31 23 29 23 29 37 35 38 31 34 30 19 24 26 23 26 27 20 35 38 19
