P2
64 64
255
24 24 26 18 21 18 14 20 14 23 15 17 19 16 25 20 25 14 20 24 22 21 24 18 14 25 16 20 24 21 19 25 24 20 25 22 25 17 24 17 19 15 20 18 20 22 23 16 14 25 26 24 26 20 17 18 18 15 24 17 21 20 17 19
16 21 15 24 19 15 22 22 23 26 25 21 21 22 17 22 22 17 15 22 26 16 14 16 25 15 26 16 22 25 19 16 17 15 24 25 26 22 16 23 26 19 21 24 23 16 20 20 25 15 25 21 16 26 25 23 15 15 15 18 26 17 20 17
15 21 17 17 23 15 23 24 20 19 16 16 18 19 19 21 17 19 24 21 15 26 14 15 21 16 19 26 16 18 20 26 20 18 17 20 26 18 18 19 15 18 25 26 16 23 21 26 14 16 20 26 15 17 25 18 19 21 16 15 26 14 16 16
19 16 15 23 17 15 24 24 14 24 19 24 24 26 26 26 16 14 16 15 18 24 17 22 17 16 16 21 15 15 17 24 20 21 22 20 14 22 19 26 23 25 19 24 22 23 24 16 25 19 17 20 26 26 20 16 26 26 22 20 25 24 25 22
14 20 24 20 14 15 15 14 25 23 23 18 22 16 19 14 26 23 22 18 19 19 14 22 21 24 14 25 24 18 26 25 24 15 19 18 21 14 16 24 21 22 19 24 16 20 17 24 24 14 16 17 22 15 14 24 16 18 14 22 21 26 14 23
16 24 25 16 15 26 19 17 25 20 19 19 19 17 19 21 16 20 21 23 26 22 17 18 16 20 25 23 25 22 22 23 25 26 20 19 18 16 19 14 25 15 20 14 20 16 21 24 16 18 22 20 25 16 21 19 15 26 20 15 25 22 14 19
21 19 18 21 23 24 15 15 24 14 18 21 23 14 14 24 24 23 20 15 26 26 25 20 16 16 16 14 19 19 14 21 23 26 15 26 25 23 15 22 16 16 20 20 23 15 18 16 17 21 14 14 17 15 20 17 18 23 20 23 14 24 17 21
26 20 18 22 24 14 24 23 17 19 17 17 15 22 17 19 23 25 24 14 24 15 14 26 16 22 16 22 18 17 15 22 23 15 18 21 17 21 26 23 25 15 21 22 18 16 26 22 17 19 20 22 26 26 25 17 16 17 14 20 17 19 22 25
26 26 15 17 21 23 15 16 19 21 17 16 18 22 18 25 25 16 25 26 23 26 17 23 18 26 16 24 15 20 26 16 26 21 15 21 25 19 25 25 22 14 22 23 19 17 18 26 20 23 21 16 15 16 20 17 22 16 20 19 25 24 24 21
19 21 17 18 22 18 26 19 16 17 25 25 24 22 19 26 21 25 20 17 21 22 20 15 23 26 19 25 25 23 23 22 15 23 14 21 23 26 16 17 19 24 17 23 15 14 21 15 19 24 16 25 17 23 14 16 21 23 25 18 14 17 21 14
25 26 25 24 14 14 24 16 18 22 17 14 14 17 20 19 17 21 21 24 23 14 24 23 16 19 19 16 21 26 17 22 18 26 18 22 16 14 16 15 17 22 14 14 14 14 14 26 24 17 25 20 22 20 18 26 20 16 23 17 24 18 25 25
24 21 16 23 20 24 20 18 25 19 14 15 25 15 15 22 19 19 14 14 16 17 15 22 15 17 18 17 20 23 25 15 19 23 22 17 26 15 21 26 21 14 26 20 19 24 14 18 24 24 24 16 24 23 14 16 24 20 19 22 18 22 18 20
23 17 18 15 14 24 18 19 18 23 25 25 23 23 18 17 17 22 15 16 14 19 17 26 26 22 25 25 15 20 19 17 26 22 20 24 17 25 24 24 19 26 17 17 23 23 18 23 15 14 25 16 19 18 24 15 24 15 14 16 20 25 14 22
21 18 14 22 17 15 24 26 15 25 14 21 15 19 14 14 15 14 19 21 17 16 22 17 14 20 20 25 25 19 25 22 18 18 15 17 23 21 20 26 26 22 25 24 26 17 22 18 26 25 17 19 24 22 16 22 15 23 21 26 24 26 20 26
22 21 16 14 19 19 16 20 22 16 19 16 22 22 24 22 20 26 18 23 14 26 25 15 19 26 22 22 14 23 21 15 17 21 25 18 23 19 20 23 24 23 23 21 19 24 15 26 19 21 14 26 15 26 14 17 17 14 24 18 20 14 22 14
18 24 18 25 18 25 17 17 21 23 22 22 18 17 17 14 22 19 22 16 21 23 21 15 26 25 21 19 25 17 21 14 16 17 22 24 15 20 17 18 19 23 21 25 23 23 26 16 21 22 23 14 21 24 16 15 25 16 17 24 25 22 25 25
21 17 25 22 20 26 25 22 15 20 22 25 24 16 23 26 20 14 19 15 21 18 22 21 22 16 25 23 23 26 20 17 17 21 14 16 14 18 21 15 15 22 18 22 16 25 21 24 14 21 22 16 17 17 16 14 24 26 18 14 25 18 26 26
14 14 20 21 25 19 21 16 22 25 21 23 22 23 16 17 18 17 25 15 24 24 25 17 18 26 25 26 14 23 18 24 20 22 20 18 17 25 14 23 14 25 19 14 17 16 19 17 25 17 16 26 19 14 23 25 23 15 17 14 24 22 25 14
25 24 26 24 20 22 17 17 14 18 19 26 22 24 17 21 18 15 18 19 16 14 16 18 21 18 22 22 22 23 25 18 16 24 14 22 19 16 19 24 20 24 26 25 18 25 22 19 22 23 20 20 22 17 17 18 25 20 23 20 26 19 19 20
20 15 15 24 24 19 21 19 22 23 25 26 24 25 16 14 19 22 21 28 22 18 24 18 17 25 26 25 20 23 14 14 23 19 21 26 24 24 16 20 25 24 29 21 30 26 27 20 21 21 19 20 15 26 21 16 16 25 19 23 14 26 15 24
26 17 14 14 19 24 16 21 25 20 17 18 24 17 17 29 21 32 29 28 24 27 24 28 22 25 26 25 15 14 26 23 21 22 23 17 18 17 24 23 21 24 21 22 33 22 33 28 18 20 23 23 24 25 21 23 17 26 22 21 20 20 25 23
22 19 17 23 18 22 20 20 18 21 22 20 18 29 23 28 29 32 35 29 34 37 36 29 32 22 23 20 27 21 23 22 20 23 25 18 16 25 23 25 29 34 32 37 31 36 31 31 26 28 25 26 17 23 16 18 14 21 20 14 19 20 14 16
14 18 23 20 22 21 22 16 14 18 18 15 24 21 34 26 35 38 40 35 31 40 30 32 31 32 33 33 30 28 33 23 35 25 32 36 34 34 26 29 31 30 37 32 34 40 35 27 31 27 22 23 17 16 17 24 19 14 26 24 21 25 19 26
15 21 26 17 25 22 15 16 14 14 23 28 31 31 28 38 34 42 36 41 40 36 44 44 40 44 42 45 44 38 34 31 39 36 41 42 37 39 34 35 33 42 38 40 39 35 32 38 29 28 26 24 28 20 27 19 17 25 25 15 20 25 22 26
14 26 18 19 26 20 17 18 23 26 29 25 34 29 35 41 35 42 44 44 47 47 45 51 43 48 50 55 51 49 48 42 41 42 50 50 55 51 52 47 49 49 49 41 37 42 41 34 37 38 28 30 27 26 26 14 22 24 19 18 26 21 26 23
26 23 20 18 24 24 20 23 22 23 21 33 28 35 41 38 45 38 46 49 42 44 46 57 50 53 52 62 63 54 56 50 51 47 57 60 59 59 56 62 58 51 51 51 49 49 51 47 45 34 43 39 38 30 25 17 18 20 24 22 18 23 18 23
16 26 17 18 15 16 23 24 15 21 24 36 39 34 34 37 45 41 45 45 48 57 61 57 57 69 72 72 70 67 68 61 60 62 63 64 60 67 68 66 68 66 54 48 57 55 44 50 40 41 41 42 28 28 23 27 24 18 23 21 26 16 26 21
25 16 18 14 18 21 23 18 28 28 24 38 36 44 38 52 42 51 57 56 62 62 62 65 75 70 69 68 78 75 69 74 67 70 71 69 75 78 70 70 72 65 63 59 63 52 56 48 50 41 39 45 33 31 31 20 26 19 16 19 26 17 14 21
19 15 19 18 22 26 26 25 23 25 34 40 44 40 40 45 52 50 54 59 68 66 74 73 77 77 75 78 76 75 83 80 82 77 73 75 78 82 82 85 82 74 69 75 65 56 59 51 46 43 42 47 38 35 30 23 19 17 23 18 21 24 24 26
24 16 21 23 21 20 16 20 24 33 29 32 39 43 45 49 52 63 57 69 70 81 84 90 84 83 84 92 86 89 81 93 92 94 87 85 87 83 93 88 89 81 80 72 69 60 57 59 48 49 46 46 45 35 33 31 25 21 25 19 16 14 25 20
17 26 20 18 14 19 17 18 30 31 38 36 42 39 43 48 53 63 66 68 76 79 87 85 96 87 94 94 101 95 96 94 94 94 88 93 89 100 98 98 91 92 87 89 77 77 60 54 53 49 44 41 44 37 29 32 22 23 23 14 23 14 17 15
21 25 18 18 22 16 20 21 20 33 34 38 46 50 46 55 60 58 64 80 88 88 96 94 93 94 105 97 102 100 103 98 104 105 106 99 98 95 104 98 95 101 94 93 87 80 66 61 63 58 55 41 42 42 35 35 21 18 17 22 26 26 22 19
25 21 19 14 14 25 18 24 30 29 36 39 40 43 43 48 58 66 69 84 94 98 92 102 102 106 98 110 109 109 104 108 112 111 110 109 103 100 109 100 95 101 100 90 85 74 65 61 52 51 50 48 46 40 40 24 24 27 14 18 14 16 15 17
17 19 25 22 21 20 19 24 29 23 31 40 35 44 54 51 53 57 68 74 88 90 96 103 106 108 103 104 105 108 107 114 114 111 109 116 104 110 109 109 105 104 97 98 91 85 66 56 57 54 53 49 43 32 36 34 29 23 23 21 25 18 26 18
18 25 25 20 25 22 26 22 28 26 32 34 36 41 54 52 49 60 68 72 83 87 100 96 108 109 109 110 109 109 117 123 117 120 112 109 116 104 105 100 100 104 99 86 87 73 63 55 52 56 53 42 46 42 28 34 30 24 23 22 21 26 20 14
20 26 17 25 20 26 22 19 27 26 26 35 40 39 48 45 49 54 64 78 83 85 97 104 107 98 104 104 106 111 119 128 129 128 112 113 114 105 103 104 95 93 87 85 86 78 66 57 52 46 46 38 43 31 33 24 22 20 23 19 24 23 24 14
15 23 20 14 24 19 16 24 24 27 29 29 36 45 41 45 55 58 63 69 73 89 95 100 102 108 110 104 117 118 113 120 123 118 111 120 109 108 106 99 93 99 90 79 73 78 66 54 49 42 49 44 44 39 28 33 27 18 19 22 22 25 19 25
16 19 15 25 20 19 14 14 25 31 29 39 41 34 39 42 53 53 67 74 77 86 84 90 90 100 104 104 107 105 107 111 114 114 117 115 112 108 98 95 91 89 91 87 69 70 56 47 42 45 45 43 35 29 25 22 20 19 17 15 20 14 20 15
24 21 14 22 19 25 26 20 16 21 22 30 31 41 35 48 40 53 56 59 73 71 76 80 89 100 102 100 101 103 108 102 105 113 101 105 106 100 102 99 85 83 75 73 64 64 60 48 46 42 45 34 39 25 28 26 24 14 17 23 16 21 24 23
18 20 17 19 15 18 17 20 18 19 31 29 34 39 39 41 46 48 53 55 68 77 71 81 88 83 87 93 100 93 103 95 100 99 100 97 95 90 94 95 79 83 78 75 66 65 54 50 45 42 33 38 28 23 26 27 20 23 14 17 22 24 15 21
25 26 18 23 24 20 17 18 17 16 17 31 24 31 32 41 34 41 41 59 56 60 67 72 81 85 85 85 90 92 93 87 89 93 88 98 86 85 85 77 85 77 71 65 63 52 47 43 39 37 35 27 32 31 19 23 14 17 25 22 22 14 15 17
21 23 26 17 26 22 14 24 16 15 18 21 27 33 35 38 35 41 42 50 49 64 59 69 76 80 85 86 81 82 82 88 81 83 82 81 78 82 80 72 78 67 70 57 50 50 36 43 30 39 31 28 30 17 17 15 16 24 23 18 26 23 24 22
25 15 18 26 20 17 14 22 19 15 18 15 21 30 29 35 37 37 28 35 46 49 52 67 59 70 71 69 75 76 70 72 76 76 79 78 75 68 71 70 71 62 53 49 43 44 31 27 28 26 24 22 23 15 18 21 16 23 23 17 17 14 19 21
19 18 23 15 25 21 22 26 21 17 25 25 19 23 24 31 23 26 36 30 44 43 53 49 62 63 63 60 64 65 71 70 65 64 64 70 72 67 65 55 55 54 55 49 39 36 29 26 30 31 23 28 18 18 20 16 24 21 18 24 26 26 23 23
19 22 14 20 23 16 26 18 14 22 24 25 19 23 19 22 27 26 27 23 30 39 43 41 48 51 54 61 63 61 66 68 67 58 69 65 54 50 59 54 56 48 43 40 38 23 25 31 20 20 20 26 17 16 14 23 15 14 18 17 20 16 20 26
20 18 23 21 26 25 18 14 24 15 25 14 20 23 19 18 20 23 24 28 31 25 30 44 38 49 41 54 54 60 57 53 59 55 52 60 57 45 46 39 47 39 28 26 30 20 28 24 26 18 17 20 14 25 22 24 22 21 24 15 14 21 16 25
23 22 21 17 19 21 21 14 14 25 19 23 15 18 14 16 22 19 24 21 16 17 21 37 29 37 43 43 50 54 50 57 55 49 45 51 50 48 37 38 40 28 22 16 21 20 14 15 26 20 16 15 18 20 21 22 22 18 25 22 22 20 14 16
16 26 15 20 26 21 25 16 22 26 26 17 21 26 15 25 17 24 21 22 19 14 17 30 36 34 41 35 46 46 50 51 39 44 42 37 45 40 33 27 32 25 25 26 17 18 15 18 14 14 23 21 19 17 15 14 15 26 19 17 25 15 22 18
16 23 16 22 14 24 26 23 21 18 15 19 18 19 25 24 14 17 26 24 26 22 17 18 23 26 28 36 39 41 43 39 40 34 39 37 29 34 36 24 28 23 17 18 14 22 14 14 21 17 24 17 20 18 25 20 24 17 23 14 20 18 22 20
21 26 26 23 24 15 22 17 20 16 22 15 22 23 25 26 16 20 19 17 19 22 14 19 19 27 24 22 34 32 28 27 30 31 31 28 28 22 19 20 26 25 20 19 18 14 20 26 24 19 22 18 23 21 25 18 15 15 24 16 23 26 23 26
25 19 15 20 14 20 15 17 19 16 25 16 18 24 15 22 25 23 15 23 18 16 25 14 18 21 23 25 17 20 29 29 29 28 22 22 22 20 24 23 26 21 19 22 26 19 22 21 16 14 24 22 17 16 17 25 26 26 22 20 17 21 17 15
22 14 14 21 25 15 16 22 17 18 22 22 16 18 26 17 20 15 15 24 26 18 26 24 24 22 26 15 21 25 16 21 25 15 19 26 22 15 26 14 19 26 21 16 25 15 25 15 17 23 26 18 26 23 18 21 21 22 21 17 22 16 15 19
14 19 16 18 17 21 22 22 22 26 16 23 16 24 22 19 24 20 17 16 14 25 14 26 17 22 16 15 20 17 26 24 16 22 17 14 24 24 22 26 16 25 19 24 25 21 17 25 20 21 15 14 24 16 24 18 15 23 14 21 17 15 19 24
23 26 26 26 22 26 19 26 15 19 14 23 25 24 22 25 26 22 22 21 24 15 18 26 22 17 22 22 21 17 24 16 16 25 17 18 24 18 21 20 15 24 16 14 17 24 23 18 17 22 22 19 25 15 17 22 21 19 15 21 20 20 21 21
25 21 16 16 23 23 24 25 15 23 22 26 24 25 21 24 26 22 18 20 26 26 16 14 21 21 25 26 22 26 17 21 24 19 16 16 24 25 19 16 25 14 25 23 23 24 21 20 20 25 21 15 23 21 20 23 22 23 15 25 16 16 22 25
20 14 18 19 19 25 22 20 21 18 23 25 26 14 16 24 22 26 15 17 23 18 19 18 25 22 21 19 14 20 17 16 19 14 18 22 24 26 17 25 21 25 16 19 15 14 25 19 16 21 26 14 17 21 18 24 20 21 25 24 25 20 23 22
26 20 17 23 20 25 21 18 26 15 18 14 15 23 20 19 21 24 23 20 20 22 24 17 21 21 18 17 17 18 21 18 24 20 23 20 26 24 17 16 16 14 22 16 26 18 15 23 23 17 19 14 15 24 21 25 23 16 16 20 20 23 15 23
22 18 24 15 21 19 19 19 25 21 20 19 20 14 24 19 26 20 25 17 19 18 25 26 21 22 20 18 25 15 23 16 19 21 24 21 15 18 23 19 26 26 25 20 20 26 24 19 24 22 14 24 24 18 22 24 14 21 23 25 21 22 20 14
19 26 25 24 22 22 16 18 16 20 26 15 16 14 19 17 14 14 15 24 26 25 25 16 15 25 24 19 15 18 19 20 16 24 23 23 26 14 18 17 23 22 16 22 24 20 19 19 22 24 21 15 20 22 23 15 14 25 19 24 19 22 19 26
17 23 22 22 26 16 17 19 19 16 19 16 15 23 23 19 24 23 23 17 24 17 15 16 21 26 14 15 25 23 24 17 19 16 16 14 25 14 26 21 20 15 26 18 20 16 20 15 21 23 14 24 16 26 14 21 18 14 16 14 20 18 21 20
14 21 17 16 25 20 16 24 24 16 14 20 15 18 26 15 18 17 20 14 22 19 15 26 17 21 21 26 17 25 18 26 16 20 19 18 26 24 21 14 22 14 17 17 17 15 23 23 23 24 15 18 23 23 25 20 26 18 26 16 17 21 15 16
26 19 18 24 18 25 24 24 15 18 21 21 15 20 16 25 16 18 22 15 16 14 14 23 15 21 19 25 22 15 20 25 21 16 19 22 20 14 23 14 25 21 21 17 25 15 17 17 25 20 17 18 22 26 21 21 20 18 26 21 16 20 25 15
21 20 20 19 18 21 14 19 21 15 19 14 15 15 18 18 19 22 21 14 20 25 15 16 21 21 20 23 20 22 23 21 26 20 20 22 21 16 23 16 19 20 16 17 18 14 14 18 23 19 16 15 20 20 16 23 22 26 26 18 25 25 23 18
21 17 15 24 20 23 23 21 17 19 19 26 14 26 25 22 15 16 26 14 22 22 21 16 24 14 24 20 18 17 15 16 15 24 20 18 17 20 17 20 21 25 16 21 25 21 23 16 19 16 18 14 18 25 20 17 15 24 16 24 15 16 19 14
