P2
64 64
255
21 15 20 22 18 20 14 14 17 25 24 25 20 23 21 24 23 25 14 15 24 26 26 23 16 18 14 15 21 25 14 25 24 24 25 17 14 14 17 17 17 21 23 25 22 21 25 17 22 14 19 19 21 15 17 18 19 20 18 18 18 22 15 20
17 18 17 22 16 14 22 26 14 22 20 15 26 20 21 16 25 14 15 24 18 15 20 20 15 23 16 18 24 20 24 25 15 19 23 26 24 17 21 25 23 19 16 20 16 15 19 14 18 21 23 14 25 22 21 16 17 23 20 21 16 14 15 24
21 15 21 21 21 16 26 19 24 14 15 15 14 24 15 18 24 16 25 22 15 21 24 17 20 24 22 19 20 22 19 24 21 16 22 16 26 18 15 24 19 26 21 15 18 26 23 17 18 17 22 21 24 26 15 16 18 15 20 17 26 23 22 23
24 14 18 23 17 23 17 19 18 19 20 15 24 20 15 19 25 24 18 20 15 24 16 17 18 22 20 18 26 24 20 21 25 14 25 17 14 22 15 18 18 14 22 20 18 22 15 20 20 16 14 14 16 24 18 19 14 24 24 24 21 24 23 26
17 22 20 15 14 22 21 14 16 14 20 23 23 23 17 25 20 15 14 22 16 26 18 15 17 24 22 23 19 23 24 14 18 21 24 19 18 24 15 21 18 14 21 21 25 17 21 23 19 16 26 25 23 24 16 21 21 22 23 20 14 17 25 21
26 26 17 24 15 25 19 18 15 21 19 18 14 25 19 15 24 24 15 26 17 18 20 15 24 23 22 18 14 16 14 18 18 15 22 25 24 15 24 20 20 24 15 23 23 17 23 18 24 19 22 23 19 20 20 23 20 15 21 20 21 15 20 17
23 22 22 19 24 24 14 22 21 17 20 22 20 18 20 26 22 26 22 25 24 22 17 24 20 14 17 25 25 22 18 21 25 17 24 19 20 21 20 17 23 24 25 24 20 25 22 23 23 26 24 18 22 24 20 15 18 17 26 14 24 21 19 25
20 16 18 19 26 21 23 18 20 18 26 26 23 17 14 25 20 17 15 25 22 19 15 18 25 26 20 21 17 26 24 14 17 25 16 26 21 23 23 20 20 17 18 26 18 23 14 22 19 26 24 22 21 22 25 19 16 26 15 17 17 22 20 20
24 24 24 14 20 24 15 21 18 24 22 17 21 15 24 24 20 20 19 19 25 14 20 19 23 14 21 19 26 24 25 26 19 17 24 20 26 25 18 24 23 25 18 21 19 16 24 23 23 26 22 26 24 14 25 22 26 25 14 22 16 21 24 25
17 18 25 25 15 16 15 26 25 23 26 24 16 25 20 19 23 17 26 24 26 17 20 15 14 23 17 20 15 24 17 23 24 14 21 25 14 23 14 22 20 17 14 14 18 22 26 19 21 17 17 15 16 24 26 22 22 16 23 23 20 16 21 17
15 25 21 25 19 18 15 14 26 26 23 22 23 23 16 16 23 14 20 19 21 14 22 16 22 20 25 25 22 17 25 17 24 15 16 18 20 20 18 23 26 22 16 20 18 17 15 19 26 26 18 15 18 20 17 21 23 24 15 22 24 24 18 26
25 17 26 21 26 20 16 14 14 14 20 20 20 19 17 21 21 21 19 15 20 21 22 26 24 20 14 20 22 22 15 22 21 23 23 15 19 25 18 17 24 23 22 14 23 16 22 25 26 26 21 18 26 25 24 26 22 16 19 17 26 16 24 24
14 22 16 24 20 23 20 14 16 18 26 19 24 22 19 18 14 24 21 22 19 15 26 21 21 17 17 19 20 15 26 17 26 16 18 14 16 19 26 20 20 14 21 22 16 20 24 21 18 18 26 21 17 23 18 26 20 24 22 14 20 22 18 26
16 15 17 19 25 19 18 20 14 18 20 26 18 15 19 14 16 23 24 19 19 22 20 16 25 21 22 21 17 24 26 16 24 23 16 19 18 18 26 14 19 26 19 22 25 24 22 21 21 21 14 23 26 25 16 23 21 18 19 16 19 24 26 24
23 16 25 25 17 19 19 20 21 25 25 17 23 22 14 22 15 26 20 17 17 24 17 25 18 23 21 14 24 25 15 14 20 19 25 26 22 24 20 15 15 15 22 24 14 19 16 16 18 22 19 21 18 18 26 15 19 17 20 26 16 18 15 17
25 17 17 21 14 24 21 17 23 23 25 25 15 15 18 23 24 24 25 18 22 18 14 14 17 24 20 24 21 24 15 24 18 23 23 17 24 16 19 18 18 19 22 18 16 16 20 17 26 16 20 17 16 20 17 24 20 21 18 14 21 23 14 21
18 20 18 23 25 25 23 26 18 14 25 22 19 17 15 18 15 14 15 18 24 19 25 17 22 20 23 21 15 26 16 15 26 17 22 25 18 16 21 25 22 14 15 17 15 21 26 14 14 23 16 14 14 17 26 16 22 21 17 16 26 26 23 18
16 14 26 22 17 23 19 20 14 18 18 24 17 23 17 14 18 21 20 18 14 24 22 26 16 15 19 18 17 15 24 21 23 14 26 22 14 16 26 23 22 19 18 23 24 18 18 23 26 15 14 21 15 21 16 18 23 15 25 19 19 26 25 22
16 15 17 23 21 25 17 22 25 26 25 17 22 16 22 20 19 14 20 25 14 24 16 15 26 22 23 17 22 14 14 16 19 21 16 22 14 20 23 17 16 17 21 20 20 19 20 17 20 20 20 18 22 15 22 21 20 17 23 25 25 22 26 25
14 25 24 23 18 14 18 17 26 22 16 25 21 22 18 14 26 18 23 22 26 30 21 28 19 15 20 25 19 24 21 24 14 22 19 23 23 19 15 16 27 25 25 21 18 29 19 26 17 20 20 25 26 26 17 22 15 14 18 24 20 26 24 16
18 14 21 22 24 16 23 20 26 24 17 21 17 14 24 22 24 27 29 29 27 29 23 26 22 27 28 26 17 16 18 20 18 23 25 23 17 27 20 29 26 29 21 25 29 27 24 30 25 23 21 18 24 22 18 14 19 18 19 17 18 24 23 23
24 15 17 24 23 20 26 14 22 21 22 20 17 23 29 31 32 25 28 37 35 34 31 27 27 32 30 22 20 19 18 19 28 20 20 15 19 21 21 23 28 36 29 37 37 34 36 28 31 28 26 23 14 24 15 14 18 16 16 26 15 18 18 20
20 19 16 22 20 17 14 24 26 16 14 17 26 29 25 24 32 28 35 33 38 39 30 34 30 28 27 36 28 27 26 24 23 29 27 35 28 26 31 33 27 29 34 33 41 33 29 33 28 28 30 31 28 15 25 23 21 20 19 19 25 14 16 20
15 20 22 26 26 18 22 14 26 14 25 28 32 32 25 28 32 37 33 35 40 44 37 32 32 38 34 40 44 39 36 30 29 29 37 36 46 45 37 43 33 38 42 42 36 37 43 40 31 33 30 33 24 24 21 17 26 17 26 19 20 17 16 23
25 15 21 16 26 23 16 19 16 26 20 29 23 38 35 39 36 39 44 41 49 44 40 50 46 42 50 45 44 53 47 41 39 42 48 44 51 52 43 43 42 49 44 47 42 37 44 45 33 36 28 32 27 23 26 21 18 19 15 16 17 24 21 15
25 17 17 24 17 25 14 20 22 23 28 25 30 38 39 46 39 47 40 48 52 41 55 57 61 57 55 59 51 51 50 51 54 58 51 52 55 52 60 62 57 47 44 49 47 45 40 43 45 39 32 39 28 23 26 25 25 17 18 16 15 15 15 22
16 22 14 25 22 24 25 23 24 18 33 31 29 43 44 45 40 42 52 49 49 55 63 65 63 70 72 67 66 69 59 64 56 56 69 66 71 70 71 71 68 55 60 51 50 44 46 41 50 46 44 32 28 31 24 23 24 17 25 18 24 20 22 26
23 22 24 23 21 22 19 23 25 26 25 35 32 39 42 46 42 50 47 50 57 63 60 63 77 71 72 79 69 76 66 69 71 64 76 77 75 74 71 69 74 71 68 60 62 53 51 52 52 48 40 41 31 38 25 23 23 19 21 26 22 20 23 26
20 20 15 17 18 24 19 21 26 23 31 40 39 38 40 47 52 53 50 62 63 76 78 75 78 78 84 82 77 86 80 75 86 86 79 77 86 78 77 83 73 71 72 69 60 55 55 56 47 50 45 43 44 33 31 30 22 14 20 23 15 23 24 26
15 20 26 25 26 21 15 15 19 33 35 30 43 37 53 47 57 60 63 71 76 81 81 80 87 86 82 93 94 92 92 88 92 87 81 82 94 92 94 82 79 79 78 83 69 59 65 59 58 54 42 45 41 41 29 29 22 19 15 19 24 15 25 22
22 17 23 24 16 16 19 18 31 34 34 34 46 49 54 53 50 60 61 66 73 89 90 84 97 94 93 94 89 91 94 96 92 100 93 95 96 90 90 98 95 88 86 80 82 75 67 63 58 57 52 44 44 40 30 30 30 25 14 19 19 19 20 19
22 25 24 21 17 22 21 19 26 23 30 39 35 46 54 47 60 58 73 74 80 90 88 91 94 95 96 97 100 103 98 108 101 105 107 96 97 103 97 95 93 101 93 96 79 83 73 56 57 53 48 47 43 33 27 25 30 24 14 24 25 24 15 23
21 21 16 21 21 18 25 20 24 31 35 41 43 39 44 49 52 55 72 76 85 90 93 99 101 104 107 103 102 111 106 110 114 110 107 103 102 101 99 108 98 99 92 89 95 82 74 63 57 48 43 39 45 41 28 36 20 27 23 26 14 16 24 14
19 22 18 18 18 16 24 27 22 26 30 39 47 44 46 52 58 55 66 82 94 88 91 106 102 105 107 103 106 113 114 116 119 112 106 114 103 112 110 107 103 97 99 96 93 86 73 54 53 58 45 48 42 35 32 28 32 27 24 18 22 14 23 16
21 24 19 20 22 14 19 17 23 25 34 42 37 43 51 51 56 55 69 74 91 92 97 100 102 99 108 105 116 114 112 120 126 124 111 108 108 107 103 104 97 100 94 92 86 81 68 64 56 46 50 49 41 43 28 26 23 25 20 18 24 26 15 24
22 20 17 18 24 24 22 26 26 32 37 37 34 37 45 50 51 61 71 73 83 94 94 96 102 98 108 112 109 120 111 117 127 122 120 116 113 103 102 108 101 96 98 87 86 80 67 65 51 50 44 38 33 33 35 26 19 16 19 20 17 23 15 18
23 24 20 25 24 20 22 17 25 31 25 35 34 36 45 50 55 55 70 78 83 85 97 91 97 99 100 114 117 117 116 116 124 119 112 119 108 113 109 102 105 99 94 85 83 72 58 53 55 44 50 46 36 36 28 28 24 21 22 25 17 22 19 21
14 25 22 20 14 19 18 25 18 20 31 30 33 39 40 51 47 57 64 71 70 85 86 85 91 104 98 110 114 114 111 112 113 113 113 105 102 105 103 94 97 90 85 84 72 70 64 46 46 49 48 34 38 37 33 30 25 15 25 16 25 25 15 20
16 26 26 21 22 21 25 18 16 22 26 27 33 31 46 37 51 47 61 59 75 79 83 82 89 99 93 96 101 103 107 104 113 109 105 111 102 101 97 93 92 83 77 78 68 59 59 51 49 41 45 38 30 31 23 20 24 17 14 20 21 20 15 26
18 15 15 23 17 23 14 22 19 27 30 25 35 38 37 34 37 39 49 53 60 69 74 86 91 95 89 98 94 96 103 102 93 104 95 103 101 97 92 84 90 78 71 75 67 60 54 49 44 40 33 37 28 34 22 23 20 19 24 14 15 16 26 24
19 14 22 18 23 22 19 23 23 24 26 21 27 30 34 42 44 38 43 53 65 69 71 80 83 88 83 85 91 92 93 95 89 97 97 96 93 89 83 79 80 69 74 71 57 47 41 34 35 37 34 36 28 32 20 25 26 19 19 20 15 21 18 21
26 23 26 18 20 22 22 25 19 20 22 24 27 27 26 32 37 33 37 52 50 57 63 69 73 77 77 76 79 87 79 81 79 77 78 78 80 84 83 75 68 62 63 61 51 49 38 34 30 29 34 28 23 25 23 24 16 22 17 25 24 21 20 23
24 23 25 23 19 17 18 21 21 18 14 16 24 30 32 34 30 34 32 39 51 46 58 61 63 63 66 69 69 74 80 77 76 76 81 76 75 72 69 69 70 67 62 46 49 46 32 27 35 27 32 27 27 25 20 20 14 20 25 16 16 14 23 19
18 20 24 16 20 18 15 16 19 16 23 20 22 28 27 24 30 30 24 38 41 41 50 55 61 57 60 71 71 61 74 70 64 71 73 66 64 67 60 57 52 58 51 39 38 31 32 26 33 24 31 24 18 23 23 18 15 22 22 18 15 24 23 22
14 18 22 15 22 26 16 16 17 17 14 14 15 19 23 26 18 23 30 24 29 36 38 43 53 52 49 53 55 59 68 62 61 65 60 58 58 57 61 54 50 48 44 44 39 21 32 28 30 18 23 16 20 17 20 26 21 19 23 21 25 20 16 21
18 14 21 15 20 21 18 20 18 23 26 25 14 25 20 16 26 27 25 19 23 32 37 32 42 43 45 48 55 49 51 63 61 55 56 61 48 50 46 38 40 41 31 30 29 17 28 25 24 24 26 21 16 22 18 24 14 14 16 20 21 24 24 17
17 22 23 26 19 21 22 15 21 25 18 19 17 16 19 17 14 23 22 25 24 20 21 35 41 41 40 43 53 44 47 54 49 49 46 44 41 39 39 32 31 34 22 28 17 25 19 24 25 18 17 26 21 16 24 21 15 15 24 20 18 25 19 14
20 24 24 23 21 20 22 21 17 14 16 17 17 26 25 20 26 17 24 26 17 22 20 27 24 36 40 35 40 44 45 41 46 47 45 38 43 40 36 31 25 32 22 21 18 16 16 26 18 19 23 14 17 19 21 20 26 22 19 25 15 14 20 19
25 17 18 17 19 21 16 25 16 19 22 19 19 16 20 26 15 26 15 15 19 18 23 18 27 26 33 35 29 36 32 37 40 34 37 35 33 30 33 27 27 22 19 19 18 14 18 20 17 17 24 16 19 25 16 16 14 16 26 19 15 24 17 26
21 16 20 15 17 14 17 24 16 16 19 23 24 15 25 15 14 19 24 26 25 14 16 22 21 25 30 21 33 31 31 31 30 27 38 36 31 28 19 22 16 21 21 20 26 22 19 15 23 23 25 18 26 16 16 24 16 20 18 19 20 19 25 16
21 22 23 21 26 24 16 15 15 14 22 18 23 24 15 23 19 25 23 26 22 26 20 15 23 20 25 26 27 30 29 26 26 28 32 30 21 28 16 14 17 20 19 25 14 14 26 20 25 22 18 25 14 15 16 23 26 25 22 23 20 19 23 24
16 19 22 18 15 26 20 14 21 17 14 16 22 24 16 21 17 15 23 20 26 18 19 22 25 23 18 15 23 19 20 25 22 15 20 20 18 19 15 24 19 23 20 18 19 21 17 16 17 14 26 14 18 22 17 18 16 25 24 26 14 15 19 17
16 26 19 18 17 18 19 21 21 26 16 15 14 18 16 21 16 26 21 17 26 24 24 25 23 25 22 14 20 17 22 16 18 26 16 14 19 22 16 17 19 14 24 26 14 24 18 17 21 16 17 19 16 18 17 18 17 23 21 16 20 25 16 26
26 19 21 22 24 21 21 23 18 20 22 26 17 24 16 25 17 16 24 22 15 17 23 22 18 26 25 20 20 21 15 18 18 21 16 20 20 19 17 20 26 25 23 20 23 16 24 20 14 26 26 15 17 20 21 20 20 14 20 20 21 26 15 26
14 24 20 24 23 18 15 14 21 18 20 14 26 14 25 18 15 24 19 24 16 18 20 23 22 15 16 26 23 26 14 14 18 14 24 17 23 19 22 18 24 15 17 16 24 17 25 24 18 16 16 16 23 25 26 26 22 19 26 16 19 24 15 20
24 25 22 15 14 17 24 26 22 14 18 22 19 23 22 15 14 25 20 15 22 22 25 14 21 21 21 22 20 24 23 16 21 24 20 22 25 21 22 19 25 20 19 17 26 17 18 18 24 15 24 26 21 16 15 18 15 22 25 22 14 18 15 23
20 14 23 22 26 24 22 24 22 15 15 14 26 20 24 24 24 14 25 25 23 25 25 15 20 26 22 18 26 25 19 14 19 20 18 19 17 14 21 15 15 23 24 21 19 23 25 21 23 25 15 25 21 24 14 14 24 20 14 20 18 20 17 23
14 22 24 25 15 24 24 22 25 20 17 16 22 14 18 22 15 18 20 20 19 20 19 14 16 16 15 17 21 14 20 21 18 19 22 24 23 17 16 25 24 19 21 22 22 22 16 16 18 14 19 25 21 25 26 16 24 16 17 14 17 21 22 22
17 15 15 15 16 14 23 22 14 18 24 21 15 16 25 19 18 19 25 26 15 14 18 22 23 25 17 21 22 25 17 16 26 18 22 16 23 16 18 22 20 14 17 25 25 17 22 26 26 23 16 15 16 20 17 25 23 18 17 20 25 15 17 23
15 20 19 14 22 23 20 18 23 23 25 24 14 17 17 23 15 25 21 17 21 14 23 20 24 22 18 14 24 21 24 17 23 23 19 23 15 23 25 26 14 26 15 16 15 22 18 19 26 24 21 26 21 25 16 26 14 23 21 20 19 24 25 20
20 18 22 16 20 17 17 18 20 15 24 21 24 20 25 21 24 26 16 24 26 21 17 18 21 19 18 21 25 20 18 15 17 18 23 17 20 14 21 19 17 24 26 18 15 15 18 22 25 25 23 16 26 22 22 17 21 26 15 19 22 23 19 23
22 24 25 26 20 26 20 22 25 20 16 24 26 19 16 20 18 14 25 19 25 26 26 24 24 14 14 26 17 24 25 22 14 24 18 21 18 21 14 23 19 21 16 22 16 21 17 26 24 16 14 17 23 16 26 16 24 17 21 19 19 23 14 25
14 22 26 26 26 24 15 19 22 18 21 22 22 26 22 21 18 24 16 14 19 20 19 26 15 26 15 14 20 26 17 15 19 24 19 22 20 18 19 19 15 15 14 21 19 25 25 24 24 18 18 22 22 19 18 19 17 20 21 14 25 14 17 14
14 16 20 22 22 19 19 26 24 15 22 17 14 18 23 25 23 15 23 24 15 20 16 25 17 23 14 16 15 24 23 14 22 26 15 15 19 15 25 19 19 24 24 25 22 24 16 18 20 26 22 21 23 18 15 26 20 22 20 14 25 19 16 23
