P2
64 64
255
22 24 17 15 18 22 19 14 15 24 20 19 15 15 14 18 18 15 14 15 18 26 19 20 16 14 22 17 26 24 20 23 15 16 19 26 25 26 19 14 26 18 19 22 17 20 22 23 16 22 18 26 23 19 19 23 20 16 14 21 26 22 17 17
26 26 16 17 19 23 19 17 24 15 23 26 21 18 16 14 21 24 17 24 19 25 15 20 26 20 18 20 26 26 15 23 18 15 17 14 26 15 25 25 20 16 25 20 25 19 17 14 19 24 14 23 15 24 14 22 19 26 22 16 18 17 26 14
18 14 20 24 14 23 26 19 19 16 23 16 20 25 21 18 23 23 22 21 18 21 17 15 21 23 24 19 17 22 21 16 17 26 22 19 15 14 21 19 21 25 22 16 21 26 22 21 19 19 25 20 23 18 16 22 25 21 25 20 25 14 20 14
24 24 23 17 17 25 26 19 18 24 14 17 19 14 21 24 16 17 15 14 22 21 26 20 17 24 14 16 14 17 14 17 14 18 24 26 18 21 18 24 19 16 24 18 26 23 19 21 17 15 22 23 20 22 26 24 14 22 25 16 17 19 23 17
16 15 24 15 25 20 20 26 20 15 18 24 14 14 24 21 14 21 21 16 23 24 14 22 17 20 14 22 24 19 26 20 20 18 14 23 20 20 21 20 22 24 25 18 24 25 20 24 23 15 14 19 26 18 22 15 21 20 15 20 16 26 20 24
15 19 21 21 23 22 15 21 17 16 24 17 21 15 23 26 21 17 22 26 16 14 25 20 16 15 25 19 26 15 20 21 17 26 16 24 15 23 21 18 19 15 20 15 14 22 16 22 18 20 14 22 17 19 14 26 18 20 14 14 18 16 20 25
15 23 16 19 18 21 19 15 26 22 26 19 18 23 20 15 20 25 22 23 23 23 20 21 18 21 20 24 17 24 14 26 23 19 18 26 22 21 19 19 26 20 16 23 17 16 16 18 15 25 19 14 17 25 26 26 14 19 25 22 24 15 19 24
24 15 23 20 14 25 23 17 17 24 26 14 17 15 25 24 19 19 18 25 19 18 21 26 20 17 19 14 25 20 22 14 25 20 14 21 17 16 22 23 26 25 26 22 22 16 22 25 15 19 17 16 17 19 19 20 18 19 18 19 19 24 24 24
19 20 23 21 15 24 18 16 16 24 17 14 21 24 25 19 24 20 26 24 15 26 14 18 22 18 19 15 15 20 18 23 14 26 20 22 23 24 15 14 25 15 18 25 18 19 14 14 19 18 16 22 14 26 16 19 14 23 26 21 19 24 25 18
19 26 24 20 20 22 16 14 22 26 25 15 15 20 24 23 22 14 17 14 26 22 19 18 25 19 15 20 26 14 25 24 26 26 26 15 14 15 14 17 21 23 14 22 15 24 16 24 21 16 25 15 16 20 21 21 18 23 21 22 23 20 20 16
21 25 15 25 24 15 23 17 16 18 15 23 26 23 24 15 26 23 17 23 23 16 21 25 20 18 15 19 26 24 18 23 18 18 19 17 24 18 15 21 19 16 19 15 14 21 17 23 26 25 20 14 26 25 22 23 22 21 21 18 17 17 18 26
25 19 20 14 26 16 21 14 21 25 23 23 25 25 23 18 23 16 15 14 21 25 17 16 19 26 19 16 25 26 24 23 19 23 16 15 22 21 19 17 24 16 24 20 26 20 23 20 15 22 25 16 26 25 23 14 14 20 25 25 25 18 22 15
24 22 24 18 16 26 26 23 25 24 26 14 15 19 15 18 21 19 14 15 21 26 26 22 22 16 14 23 23 14 21 17 14 20 15 21 16 22 15 20 21 16 14 16 17 23 20 23 22 14 22 14 14 23 20 23 21 23 17 22 23 26 18 15
25 20 15 17 17 19 19 22 18 15 26 16 14 21 15 22 19 17 23 16 20 15 21 25 25 19 20 20 25 25 19 16 18 21 20 16 17 26 19 16 24 18 16 25 21 26 16 19 22 23 15 19 15 20 26 16 24 18 26 14 19 19 14 20
15 25 16 14 18 26 20 18 16 14 14 21 19 20 20 18 25 14 19 19 18 22 22 16 26 19 23 23 19 21 14 23 26 16 17 16 21 19 23 17 22 21 14 18 21 21 14 21 15 21 16 14 14 19 15 22 24 15 16 26 15 19 23 20
16 18 14 21 25 17 16 20 23 21 22 19 17 24 23 24 22 14 18 24 19 24 15 18 26 24 25 22 21 14 24 26 18 26 14 14 25 24 18 17 17 21 20 14 25 19 16 21 18 24 25 20 17 19 17 22 24 16 20 19 24 21 26 20
20 24 21 15 25 21 25 24 24 17 21 14 20 21 14 19 16 20 23 19 22 18 19 21 15 15 20 24 14 18 16 19 26 16 20 26 22 26 24 22 21 21 22 19 15 25 21 17 23 23 22 26 15 24 18 14 14 24 19 24 22 23 14 21
14 19 17 19 20 15 16 20 25 18 16 23 18 16 20 16 23 18 17 18 24 25 16 18 20 17 17 26 24 21 22 19 25 22 25 21 26 24 24 14 25 14 15 22 17 20 24 18 17 23 18 21 18 16 16 14 17 25 18 18 23 19 14 19
25 18 19 18 18 21 23 15 15 20 20 21 17 26 20 25 18 18 15 25 23 20 17 19 14 20 22 19 14 25 17 25 22 15 19 14 25 26 15 25 26 14 22 23 17 24 18 22 23 17 17 18 16 18 20 20 23 25 20 23 22 22 14 24
20 16 23 26 22 17 26 14 26 23 18 20 16 14 22 24 21 16 24 19 20 28 25 17 20 27 15 19 23 26 23 25 23 16 25 14 26 16 17 23 24 17 17 24 18 26 20 21 26 20 20 24 22 17 26 26 21 14 22 20 25 15 20 24
22 23 22 22 20 20 21 21 22 18 16 24 26 17 26 27 28 26 33 30 33 24 31 26 32 22 21 15 14 23 21 24 16 24 16 14 25 18 23 22 32 32 25 23 30 25 25 22 19 22 16 16 25 16 25 14 18 24 21 21 17 14 14 26
25 16 21 16 24 23 20 17 19 18 19 15 14 21 26 21 30 33 34 37 30 36 27 35 23 32 22 26 26 20 24 24 20 19 26 20 19 25 23 22 26 36 29 26 31 36 24 34 29 32 24 29 18 14 20 25 16 17 16 21 17 20 25 23
14 24 22 14 26 14 22 18 25 25 19 24 29 26 30 34 36 39 40 30 38 39 41 39 36 32 31 25 30 29 18 18 22 14 15 28 27 34 35 34 34 35 34 39 41 36 32 38 37 28 31 26 18 19 21 15 20 26 22 19 22 21 16 19
25 23 21 14 21 22 16 25 20 25 27 24 22 24 30 28 35 41 36 44 34 43 45 41 41 38 30 29 28 30 27 14 24 24 23 25 24 25 27 31 40 44 40 41 35 35 32 37 36 34 36 27 21 23 24 15 17 15 15 26 17 14 15 15
20 21 19 20 19 15 26 17 21 19 18 25 35 33 36 40 41 35 37 41 44 48 47 42 38 39 35 32 31 32 27 26 25 21 21 24 30 37 36 40 39 39 37 49 37 43 42 45 44 36 37 29 28 29 28 20 21 24 25 14 22 14 16 14
26 18 14 15 19 18 15 19 15 17 22 30 32 34 35 41 37 44 43 52 46 48 44 40 48 36 42 35 35 28 23 31 20 23 24 25 28 38 35 39 47 48 42 44 52 46 42 49 44 39 34 38 32 22 19 24 26 18 20 19 16 21 17 16
14 24 26 25 24 16 17 18 21 27 28 30 30 38 39 37 43 48 44 53 55 45 56 43 50 39 48 45 39 36 29 30 24 31 33 38 37 39 47 49 41 52 54 48 54 49 43 50 44 43 36 33 37 35 29 22 25 25 20 17 21 23 14 15
24 19 17 24 14 22 22 17 20 20 29 27 42 41 37 45 44 50 58 50 53 56 54 56 52 44 46 37 37 34 37 26 32 28 38 31 40 44 42 42 51 57 56 57 54 51 50 47 50 50 48 45 39 36 26 27 27 14 22 21 24 23 25 15
24 20 26 20 18 20 23 25 17 24 31 29 35 46 41 42 55 55 55 61 64 64 60 62 48 46 48 42 43 41 31 31 33 29 37 33 39 42 44 55 59 59 60 63 61 57 54 55 51 49 41 41 32 31 30 25 18 25 22 25 19 16 17 21
17 20 23 25 25 19 24 27 20 26 30 31 43 42 51 46 49 56 64 61 67 63 58 60 61 56 46 43 42 45 42 42 35 31 38 40 44 42 55 52 52 57 63 58 57 61 61 51 55 51 41 40 35 41 38 33 18 26 18 24 24 14 20 25
19 14 15 15 16 14 23 23 28 27 39 41 35 45 44 50 61 64 64 71 63 66 66 60 63 59 52 50 43 42 41 39 44 38 35 34 46 44 51 52 62 59 59 60 67 62 65 57 49 55 43 48 36 38 34 24 27 16 26 16 17 21 17 19
25 21 14 21 19 20 24 26 25 26 36 34 37 51 54 59 62 64 64 65 68 70 71 68 57 53 59 45 46 45 36 32 39 33 34 45 41 49 47 62 57 68 71 73 64 62 63 58 54 50 49 51 46 36 35 31 25 19 23 25 14 24 17 24
15 21 18 22 14 17 24 25 24 35 31 41 40 42 54 58 52 61 65 64 76 67 72 59 61 58 57 55 39 41 43 42 46 33 37 42 42 45 52 61 57 69 70 67 70 73 63 67 53 55 49 39 42 40 28 30 23 22 14 22 19 24 14 22
22 19 21 25 20 20 18 20 30 31 32 34 45 49 43 54 59 66 66 71 73 72 71 67 58 54 51 55 48 42 38 42 41 41 35 42 51 45 58 54 55 66 68 76 68 62 66 54 52 50 50 49 39 37 39 34 27 19 18 14 18 22 21 23
20 20 22 16 16 19 14 23 28 33 30 31 39 38 52 55 56 62 62 59 63 67 71 58 64 59 58 54 41 35 38 33 41 40 39 37 38 46 49 51 64 67 60 65 62 59 64 57 57 52 52 47 42 32 37 29 23 18 22 15 16 15 21 14
20 24 25 15 17 15 26 16 26 31 38 39 33 38 51 51 51 55 53 57 59 69 64 56 52 57 52 52 46 39 33 30 30 40 39 36 41 40 53 50 61 62 62 61 57 67 58 56 50 52 45 45 43 39 27 31 21 27 20 24 16 24 25 20
15 26 21 20 15 24 22 19 20 32 27 39 39 37 47 50 55 53 61 61 53 62 62 62 51 50 52 46 37 43 34 37 40 29 36 44 42 50 49 47 56 59 64 57 57 57 55 57 56 52 39 46 37 35 27 32 18 18 21 20 25 21 25 23
14 18 22 21 23 19 22 16 20 26 33 34 34 33 41 51 54 54 58 52 50 51 55 55 55 42 42 36 40 39 30 31 26 27 38 34 41 37 43 42 54 48 54 51 50 56 50 50 50 51 39 37 38 28 34 20 16 21 15 26 15 15 25 17
24 24 20 19 24 22 22 21 20 24 26 29 29 33 43 48 50 49 46 56 56 52 55 48 41 44 43 43 32 39 30 29 33 26 31 29 35 42 37 40 49 52 47 48 46 50 44 46 44 47 46 33 36 37 27 20 26 24 19 17 14 22 20 26
26 22 24 23 23 29 29 27 20 26 33 36 41 40 35 38 51 42 51 57 47 51 57 46 43 46 47 37 40 42 30 24 25 33 36 38 40 42 48 43 43 52 57 54 48 54 47 49 44 50 38 39 43 34 31 25 32 23 25 26 30 21 28 29
31 20 24 22 21 23 29 25 33 28 36 33 43 40 48 45 41 43 46 46 45 49 55 56 53 51 42 41 36 32 39 29 27 27 32 34 40 50 47 48 53 54 50 58 54 60 54 56 47 54 51 46 43 44 34 31 27 26 28 31 29 37 39 39
32 26 26 31 29 26 30 32 27 27 38 40 34 39 40 39 51 43 46 48 57 55 47 53 53 46 43 48 42 35 36 36 39 33 37 37 50 51 45 53 53 53 58 50 58 53 49 50 52 56 51 44 43 40 43 40 42 42 44 40 42 36 36 45
22 21 22 32 31 33 32 25 24 24 31 33 33 38 36 38 44 45 48 39 42 45 37 36 37 45 42 43 37 26 35 27 27 24 33 31 34 39 37 40 44 43 39 45 48 49 40 42 49 47 37 35 38 27 36 37 33 27 31 38 37 33 31 38
21 29 29 26 26 22 29 24 20 27 26 27 22 24 23 24 26 31 36 38 37 30 30 40 29 38 28 31 31 27 24 29 25 25 22 22 27 28 27 39 38 30 42 35 38 35 32 36 29 34 28 22 23 29 23 30 27 21 29 31 31 32 28 20
23 18 25 19 23 20 26 20 19 16 21 19 14 20 22 24 18 24 29 29 22 22 33 26 32 29 21 17 19 15 16 19 23 15 16 15 23 27 26 18 25 33 22 22 32 23 29 32 29 26 23 16 22 23 19 24 24 18 14 14 15 19 17 18
24 18 21 14 16 18 14 26 22 25 16 22 19 25 16 21 20 25 22 19 29 18 22 24 27 19 20 25 22 17 21 16 23 16 21 24 25 25 15 22 20 22 25 26 27 18 20 18 20 15 24 24 24 23 25 16 16 19 18 17 17 25 15 22
23 21 14 14 25 15 15 25 17 26 14 21 16 15 14 14 25 19 18 20 21 19 17 14 16 26 19 17 26 24 25 21 18 20 24 15 24 23 15 19 25 24 25 17 22 16 15 20 19 23 18 23 18 20 17 22 20 23 18 16 26 18 26 14
24 20 16 23 14 25 15 23 15 26 15 24 25 17 24 18 24 16 20 15 21 25 23 26 22 19 20 26 19 15 19 24 19 23 20 19 16 19 23 22 19 15 25 21 14 23 18 16 18 21 18 23 18 17 17 17 23 16 21 18 16 26 18 23
26 14 22 22 18 26 15 14 24 23 20 16 21 21 15 19 26 26 25 25 17 17 25 18 19 20 17 23 22 22 15 22 26 14 25 22 17 17 21 19 24 25 26 21 17 26 21 22 24 24 24 23 22 24 14 22 22 18 18 22 26 17 24 20
17 19 21 22 15 18 22 26 19 22 26 22 21 15 25 22 23 15 23 20 17 21 26 26 23 23 18 20 21 21 19 22 23 24 21 21 19 21 24 25 21 24 17 18 21 19 18 25 25 26 23 25 18 14 24 26 18 20 18 15 18 23 19 23
22 23 18 16 15 19 23 23 16 15 18 22 17 17 24 21 14 19 21 21 25 17 26 21 22 18 21 18 21 26 17 22 20 16 22 16 17 16 22 26 26 18 21 14 26 16 15 16 23 16 23 15 22 22 15 15 19 22 16 21 16 14 23 20
24 18 19 15 15 14 15 26 23 18 20 19 24 17 17 26 16 21 21 16 21 14 25 14 23 14 22 15 16 22 19 14 15 17 18 25 19 22 20 23 26 16 16 19 20 25 22 19 21 24 21 16 20 16 23 25 24 25 20 18 22 16 18 25
14 14 16 23 15 23 20 16 25 20 16 20 24 22 19 23 21 25 20 14 22 19 15 17 26 16 17 17 21 19 20 17 14 14 19 17 22 14 23 19 14 17 23 21 21 26 17 22 22 26 15 24 21 16 22 23 23 19 17 15 26 26 15 24
23 25 20 19 15 15 25 16 21 24 20 24 19 17 26 25 22 19 14 23 26 22 21 15 25 16 21 18 21 19 20 18 23 20 20 23 15 23 21 23 18 25 14 23 16 14 15 25 26 25 25 14 18 19 19 24 26 18 25 20 16 24 24 18
19 21 16 15 26 26 23 26 24 15 23 16 20 26 20 24 17 19 15 19 14 23 23 24 19 20 20 23 20 18 20 24 26 17 15 21 25 22 14 23 19 20 14 26 19 25 18 24 26 21 25 14 17 16 18 21 26 21 15 19 23 14 20 18
16 16 26 19 22 20 22 22 23 16 20 18 23 16 23 19 26 16 19 14 21 18 17 25 19 18 15 16 20 24 20 19 14 18 19 20 20 26 18 16 16 25 15 18 16 14 18 15 17 14 19 17 21 14 19 25 17 25 21 20 26 20 14 19
24 25 14 26 18 16 19 15 15 22 22 18 20 21 16 24 16 26 15 16 21 25 20 17 23 17 24 18 20 18 18 14 26 20 16 19 23 18 24 26 23 18 17 16 20 23 23 21 22 20 26 14 19 21 20 20 19 18 22 23 15 16 22 25
20 19 24 19 21 21 17 14 22 23 14 18 16 18 25 23 17 23 16 24 16 17 15 22 15 24 17 14 25 17 26 18 26 20 19 21 17 15 25 26 23 25 18 21 15 26 17 23 18 14 15 25 23 25 21 24 19 23 14 21 14 23 24 19
15 14 16 26 25 25 26 16 20 16 26 17 20 18 16 16 22 22 25 23 18 21 22 20 15 16 23 26 26 24 23 20 14 20 23 23 22 18 19 19 15 19 25 18 18 19 21 15 25 21 25 25 19 21 18 17 22 18 19 14 25 24 19 26
24 20 21 23 18 19 15 17 22 18 22 18 15 17 25 19 19 22 21 24 14 19 22 18 17 24 23 25 24 14 20 23 19 15 24 24 22 26 22 17 24 18 20 18 20 17 24 21 14 26 25 23 15 17 17 16 26 25 18 23 19 22 15 16
18 16 24 25 18 24 17 15 21 14 17 23 22 26 23 17 17 14 19 20 21 21 20 25 23 21 14 15 14 17 23 17 20 25 14 23 14 16 16 24 14 19 20 23 24 16 21 23 24 21 16 22 16 24 21 23 21 24 24 17 23 24 18 26
14 24 18 22 20 19 19 23 23 18 18 22 22 17 21 23 23 25 14 22 23 21 26 20 26 23 23 26 18 23 25 19 15 18 24 19 18 22 21 23 26 19 21 19 14 24 23 21 24 15 21 19 20 21 24 21 19 22 20 22 14 23 17 18
22 19 23 26 20 24 24 18 26 18 19 21 17 24 22 17 22 23 18 26 19 26 26 19 21 23 25 20 24 20 22 23 17 26 25 17 25 23 24 15 25 16 23 23 22 14 17 16 21 14 26 20 23 18 26 26 17 25 26 20 16 26 25 18
18 22 25 21 17 25 23 22 16 23 22 22 21 24 18 20 17 23 21 15 21 26 15 14 16 20 25 23 19 23 19 25 22 15 23 20 14 23 23 26 26 25 18 25 16 26 23 20 26 23 17 20 17 18 26 20 22 23 15 22 17 16 19 17
