P2
64 64
255
23 21 19 19 22 18 19 24 26 19 18 22 25 17 19 17 15 23 18 15 26 23 17 25 25 20 14 20 23 14 23 19 16 19 20 14 19 21 18 24 20 22 15 19 14 14 18 18 15 17 22 15 18 14 25 26 15 20 20 22 21 25 16 20
15 15 19 22 26 16 21 25 14 16 18 24 17 21 24 19 14 22 23 25 16 18 20 23 26 17 20 26 24 22 26 22 24 14 15 21 16 24 22 14 16 26 20 17 15 16 25 23 17 26 14 16 18 19 19 19 15 26 26 22 17 14 15 20
17 21 14 24 19 16 22 17 15 21 18 16 15 17 21 23 25 24 26 24 23 21 25 24 16 21 20 14 22 23 20 25 15 24 14 17 22 24 24 21 25 20 16 21 26 16 23 18 21 26 23 24 23 19 24 24 19 19 16 20 23 17 26 20
16 18 18 21 25 22 23 20 15 20 20 24 19 17 23 18 16 25 21 20 16 21 22 15 26 15 20 24 25 15 15 23 26 20 20 22 23 18 15 21 16 17 19 16 18 19 17 16 22 14 20 18 22 18 19 26 14 18 26 22 18 18 24 21
17 22 20 23 15 21 21 24 21 19 18 14 24 15 21 17 18 25 21 17 26 25 17 23 22 21 14 26 17 20 17 23 17 14 22 20 14 22 16 19 22 14 17 22 26 14 20 17 26 25 15 21 26 16 25 26 15 21 15 24 18 26 16 24
24 20 26 22 21 21 26 25 18 20 18 14 18 21 21 23 19 17 15 22 26 23 17 18 26 19 18 19 18 20 18 24 25 16 23 25 16 22 18 22 19 17 22 15 23 24 18 17 20 22 26 18 17 19 18 20 25 24 22 24 24 19 26 23
25 23 17 24 20 18 22 18 23 22 17 22 20 23 18 25 24 22 26 22 21 16 23 23 20 14 16 20 17 15 14 16 23 24 14 18 19 23 17 14 20 22 16 14 25 23 15 20 21 24 16 25 26 26 24 17 24 24 19 24 15 14 20 14
15 25 15 18 23 25 19 25 16 25 15 16 14 24 19 14 16 21 25 18 16 26 15 17 14 15 24 23 15 17 20 19 18 25 21 23 16 14 24 16 21 24 25 21 15 26 24 17 24 15 21 20 23 23 23 23 17 18 18 17 26 26 17 18
24 18 23 19 19 22 17 22 18 19 16 16 18 17 19 25 16 26 17 18 25 24 25 17 21 23 17 22 21 15 17 24 21 15 17 26 25 22 22 14 19 16 17 19 26 24 24 24 24 26 18 21 24 21 18 18 20 26 16 21 19 25 21 16
18 20 26 25 19 18 23 17 14 16 26 14 16 25 21 15 19 26 24 19 24 17 22 14 14 19 18 16 25 24 21 24 16 22 22 20 26 22 20 18 21 14 17 23 17 18 22 14 17 25 21 23 26 25 26 17 23 15 19 26 22 24 24 23
14 26 20 15 19 25 24 18 17 17 21 16 16 21 23 19 17 14 24 20 20 24 25 21 22 17 21 17 19 21 18 26 17 20 15 26 16 17 20 14 15 25 25 16 26 15 24 20 19 19 19 24 24 17 21 15 21 21 22 19 21 26 19 20
14 21 20 23 18 14 21 17 18 21 26 24 22 14 26 23 15 16 23 23 25 16 18 25 23 22 18 19 14 20 21 20 21 17 23 14 23 20 21 18 19 15 17 17 26 14 22 24 15 17 14 23 25 14 19 14 19 23 21 14 22 22 26 20
26 18 22 14 18 15 18 23 22 22 17 20 26 19 21 20 14 21 18 17 18 18 16 19 26 22 16 22 16 14 14 26 16 17 21 20 20 22 16 14 23 19 14 20 18 25 23 22 16 17 25 24 14 17 17 26 19 22 24 23 19 21 23 16
18 24 20 23 19 21 21 26 25 20 26 15 18 23 24 18 25 25 24 24 26 14 14 18 21 16 19 24 17 21 23 14 24 20 21 19 24 22 25 15 26 19 25 21 20 22 22 15 24 17 22 24 17 24 24 17 17 14 15 21 24 25 14 26
24 24 17 25 18 25 16 14 20 14 22 17 16 20 25 24 23 16 14 17 16 19 14 20 21 25 19 16 16 18 26 17 24 23 21 15 16 17 20 14 24 22 26 14 15 23 14 25 24 15 26 16 18 15 26 15 23 20 16 14 21 14 16 17
19 25 20 17 23 18 17 24 19 19 16 17 24 24 18 18 23 20 19 19 25 21 18 16 22 22 14 20 14 16 23 19 19 16 20 24 24 23 21 20 25 17 25 17 20 19 18 25 26 24 21 23 26 25 15 14 18 15 25 25 21 16 22 20
17 19 22 14 26 25 20 25 15 16 23 22 21 23 19 15 19 23 19 19 24 19 18 15 18 25 18 18 14 20 16 21 26 18 21 21 23 24 19 25 17 16 14 25 16 22 24 26 26 14 16 15 17 20 16 15 18 18 15 17 18 16 21 16
17 24 25 24 17 24 25 23 24 15 19 14 20 14 26 17 18 15 24 16 18 24 17 17 21 15 24 26 16 16 16 14 23 23 20 25 14 14 20 21 18 19 23 15 19 18 21 23 18 25 16 23 25 18 24 18 17 22 22 15 14 22 15 26
17 16 16 15 25 15 14 20 15 25 15 15 21 20 19 15 20 18 23 15 19 25 14 18 26 17 23 24 16 22 24 23 22 19 19 26 26 25 24 22 19 20 22 16 19 26 20 21 17 24 14 24 15 17 14 14 16 20 26 26 23 25 20 22
15 19 20 16 21 25 26 20 18 21 15 15 20 23 16 21 21 25 21 19 24 20 26 25 19 20 21 24 22 15 15 24 19 18 26 14 24 19 23 26 17 21 26 20 27 25 18 22 19 26 20 24 16 14 20 25 21 18 14 21 26 20 17 14
16 22 22 19 22 22 18 14 20 25 19 14 16 25 23 18 18 21 29 33 23 25 32 23 26 23 21 16 19 15 26 15 16 25 25 14 21 19 18 25 21 23 29 32 29 21 27 26 28 26 20 20 16 14 19 16 24 24 24 26 23 22 19 14
23 17 24 18 23 20 25 25 15 25 19 24 16 26 19 27 26 35 35 26 26 29 31 32 27 34 29 19 16 23 22 19 28 17 28 24 28 25 23 32 26 36 27 35 30 28 26 30 31 26 30 25 16 23 22 22 16 23 17 14 24 14 24 24
18 21 16 16 24 19 20 24 19 22 16 21 25 24 28 28 32 28 33 37 31 32 34 31 35 37 27 30 26 24 27 27 30 31 31 35 27 37 25 30 29 38 37 30 40 30 32 38 27 28 25 26 25 26 17 14 22 18 24 18 23 24 15 20
15 17 22 25 20 24 20 26 23 20 17 28 26 29 27 31 41 31 37 43 39 39 34 40 36 37 39 37 46 34 41 34 33 39 42 34 42 35 36 44 40 38 42 39 34 37 33 41 35 30 27 25 26 27 20 18 25 23 26 17 20 21 20 22
15 15 24 25 14 25 22 25 22 25 25 32 26 38 32 38 39 42 44 48 41 40 47 50 48 52 46 48 46 44 48 48 40 48 48 46 45 43 43 53 42 47 47 37 49 41 41 46 42 43 35 32 26 29 29 24 18 23 21 24 20 22 23 17
14 20 15 20 18 26 22 24 17 21 27 33 33 29 32 42 46 45 41 53 41 43 49 52 53 52 62 62 62 56 56 46 55 47 57 51 54 53 62 59 61 50 54 46 47 51 42 45 46 37 40 39 34 30 27 26 22 18 24 14 17 19 22 17
14 19 24 17 20 21 17 17 18 19 31 27 38 38 37 43 46 52 50 44 51 59 57 65 66 62 70 61 70 66 61 63 68 55 60 64 67 70 66 70 66 61 59 48 56 52 46 41 50 45 41 33 29 29 28 25 16 16 21 24 22 23 24 14
15 16 23 15 16 14 20 25 19 24 32 39 37 36 42 47 43 55 49 58 59 59 71 70 76 70 71 73 72 79 69 76 76 76 72 75 71 71 75 79 71 74 63 67 53 57 50 57 44 48 39 37 37 36 25 25 22 25 16 20 16 14 18 14
18 23 20 23 25 21 22 25 21 33 25 36 36 36 49 46 54 50 59 60 63 72 71 76 78 85 76 87 78 84 77 77 79 77 77 75 83 85 75 79 85 77 74 70 67 58 60 57 53 48 50 39 37 39 32 27 20 26 18 22 15 23 14 17
20 26 21 18 22 14 23 16 18 22 38 34 34 39 43 50 56 60 55 66 75 73 85 86 84 92 87 88 93 87 91 89 88 82 81 87 87 83 85 84 89 84 81 73 71 64 57 53 57 51 41 42 45 35 29 34 21 21 16 18 16 24 23 16
22 25 19 22 20 15 22 26 20 24 37 35 42 50 43 56 50 54 57 73 73 80 92 95 89 97 101 98 101 94 96 96 99 91 100 89 98 89 91 89 98 89 85 77 78 74 66 60 49 58 47 38 40 38 37 32 30 18 19 19 15 17 14 20
17 19 14 24 17 21 14 24 20 32 38 36 44 50 45 53 55 56 63 77 78 85 94 97 96 104 96 101 95 99 97 103 100 108 100 99 98 99 101 94 98 95 89 85 81 74 68 63 58 55 43 50 39 42 30 27 29 18 23 22 18 19 15 23
18 17 25 26 14 16 14 25 30 26 35 43 43 45 53 51 57 57 67 86 91 88 93 93 98 108 105 103 108 107 104 105 112 105 106 107 110 109 99 105 105 95 102 89 95 78 75 62 55 57 52 41 43 41 38 27 23 27 17 18 16 21 14 24
22 24 21 17 16 25 17 28 20 29 28 32 36 43 47 56 56 65 64 79 82 90 96 103 99 110 103 108 115 108 106 109 121 115 116 116 110 111 108 105 105 98 99 95 91 75 67 63 51 49 53 40 35 31 36 27 31 27 25 23 14 19 23 23
15 23 26 17 25 26 25 26 22 33 30 38 45 46 54 51 57 66 74 77 91 97 98 99 99 110 111 114 115 108 112 118 120 120 121 116 111 106 105 107 99 95 92 94 82 73 74 60 50 55 44 50 38 31 38 27 29 17 16 20 25 25 20 20
17 17 26 16 20 23 26 27 20 25 34 37 42 49 53 51 47 60 63 69 89 92 87 96 106 110 108 114 107 110 117 125 120 126 112 108 106 109 112 100 107 94 94 88 83 81 67 59 56 56 52 44 38 31 32 26 25 17 18 24 23 20 16 20
20 15 19 26 16 24 15 19 27 31 31 34 34 47 42 45 45 53 64 78 75 91 95 100 104 106 102 110 113 114 112 117 128 117 110 114 113 104 103 97 95 91 91 86 85 68 63 50 47 44 45 39 32 38 30 28 29 18 16 25 26 14 15 24
26 18 26 24 21 15 22 22 19 22 32 31 40 33 47 45 51 47 61 67 75 86 89 85 99 103 101 100 107 107 118 120 122 112 111 114 106 102 102 93 99 88 81 79 74 62 57 56 54 43 37 41 41 33 34 32 19 18 14 16 14 20 15 21
17 25 21 23 19 26 20 20 23 19 33 37 33 32 39 40 51 53 55 64 75 74 75 81 88 90 92 105 108 107 107 109 115 111 107 110 101 100 99 99 92 81 79 73 76 67 53 48 39 47 35 40 36 34 23 29 23 23 20 17 15 24 26 18
20 22 19 14 17 26 15 20 26 17 20 27 35 39 35 41 44 46 56 65 59 72 71 75 86 87 96 96 95 95 95 105 94 99 104 94 100 99 93 95 88 82 78 70 59 57 46 42 44 39 42 32 35 32 27 23 24 16 26 20 15 24 22 24
26 20 24 19 17 22 26 19 15 25 27 26 26 30 31 34 44 40 42 53 62 61 77 70 78 80 86 94 92 95 91 87 94 96 90 98 87 82 88 89 84 69 74 66 64 54 44 37 36 42 34 37 23 22 23 14 21 17 22 21 20 16 18 18
20 17 21 15 14 24 20 23 14 19 20 25 32 27 34 31 33 35 37 46 47 52 70 65 79 81 77 80 82 80 83 76 78 76 85 81 80 82 74 72 70 73 63 62 55 52 40 35 30 31 29 31 23 21 26 14 23 21 25 25 22 17 20 25
15 17 20 20 19 20 17 20 24 17 18 21 29 20 25 29 28 37 40 42 43 51 63 61 66 67 67 70 70 72 76 70 78 76 81 79 73 76 72 68 66 58 55 50 49 37 34 30 30 26 26 32 20 21 16 21 20 24 19 17 24 16 26 19
15 26 16 23 21 24 22 23 19 20 21 24 15 26 20 32 34 31 26 36 43 47 46 51 59 62 62 60 61 68 68 75 65 65 64 64 67 66 64 59 54 53 51 40 40 34 28 35 32 30 23 27 14 24 22 20 19 16 20 25 15 15 16 15
24 20 26 20 21 16 20 16 15 16 16 18 20 15 21 29 24 22 29 29 32 33 47 51 48 54 51 60 57 63 65 64 61 70 58 64 57 51 56 49 50 43 37 40 33 27 25 26 21 28 23 23 16 19 14 24 25 15 23 17 18 25 23 26
21 16 25 23 25 17 21 20 16 23 19 15 24 26 15 15 23 27 19 20 30 26 29 39 40 45 42 48 50 52 51 55 61 57 52 57 52 51 50 45 37 35 40 34 23 19 23 17 19 14 15 23 17 23 16 26 24 18 19 25 24 26 23 16
19 23 24 21 22 15 15 19 23 24 25 15 21 20 14 18 14 15 24 24 17 17 29 33 38 36 37 42 44 49 52 56 50 51 46 50 44 44 48 37 37 34 23 21 24 26 26 25 18 15 24 25 18 25 25 26 15 26 19 22 26 20 14 20
24 14 16 14 19 24 18 24 17 24 22 26 17 16 18 26 19 22 16 26 15 16 20 21 27 32 33 33 39 48 39 51 47 40 38 46 45 43 35 32 26 21 20 15 21 23 25 23 24 17 21 14 24 20 20 15 21 19 26 19 15 23 25 21
19 20 21 19 26 18 22 23 22 20 15 14 20 14 14 26 25 16 14 17 23 17 25 23 21 24 29 28 35 37 42 40 37 37 43 35 40 33 32 31 23 20 26 22 19 22 20 17 17 21 22 22 16 15 18 18 14 14 25 18 25 20 18 22
23 19 23 16 16 19 25 22 15 14 17 23 14 19 21 18 26 22 22 17 14 23 15 16 17 18 26 27 30 31 37 39 28 28 30 37 34 21 25 21 19 14 20 15 21 15 25 16 18 23 21 21 19 26 24 24 18 22 22 22 22 25 21 14
22 15 16 20 24 18 25 15 16 15 19 14 16 18 20 16 15 17 25 26 18 14 22 21 26 19 18 23 22 27 27 33 25 22 26 20 19 25 20 17 15 24 22 17 20 22 14 20 16 24 19 24 15 23 25 20 17 15 16 19 24 24 20 23
15 26 16 26 23 22 21 17 26 26 26 16 19 23 20 14 23 15 16 20 24 20 19 19 24 15 22 26 25 23 17 26 25 19 24 17 15 18 19 26 25 15 18 15 14 24 19 23 26 21 24 21 16 16 21 26 21 19 19 20 25 17 17 25
18 21 25 16 15 16 21 17 18 25 17 19 26 20 15 24 17 20 20 17 26 22 14 23 26 15 25 15 26 15 14 23 21 24 20 15 23 23 20 14 20 25 17 19 22 17 25 20 24 23 19 14 21 19 17 16 22 19 14 24 16 25 20 24
24 18 15 19 15 26 23 17 18 26 17 23 22 21 15 18 25 24 17 18 17 19 16 16 21 20 20 14 21 26 15 20 18 22 21 23 17 17 17 17 26 25 21 24 21 18 17 19 15 22 22 19 15 23 20 25 21 21 23 22 20 14 26 23
20 17 17 26 25 24 24 25 20 19 20 17 17 19 22 24 22 17 18 26 22 26 16 21 21 21 15 21 21 22 24 21 18 23 19 19 20 19 24 26 23 19 25 21 26 18 23 16 14 19 16 19 23 15 15 19 25 25 21 24 20 26 24 15
21 24 24 23 24 16 15 26 24 20 22 22 23 24 16 24 16 23 16 19 15 23 22 15 23 15 16 15 19 19 25 21 20 17 25 19 24 18 24 26 20 16 25 17 26 15 24 23 26 18 17 22 17 19 25 22 19 24 14 17 24 15 19 14
24 23 22 24 25 19 25 19 14 19 24 19 22 18 18 14 16 25 25 19 23 19 20 21 14 17 21 16 25 18 17 22 16 22 23 17 23 18 25 26 26 14 24 23 26 16 15 22 18 22 22 21 22 23 24 18 17 17 21 23 14 20 22 21
21 24 16 21 23 21 23 19 19 25 18 14 24 14 26 15 16 19 16 25 26 18 20 17 14 23 25 14 22 26 26 16 17 22 20 19 18 22 19 18 14 24 18 14 24 20 18 25 26 15 21 26 19 21 15 20 24 22 21 26 15 26 23 21
20 15 22 20 20 21 25 25 20 18 19 21 15 21 19 16 20 26 17 23 15 24 21 16 15 25 15 23 18 24 24 22 25 16 20 25 20 22 20 18 14 22 20 14 16 25 21 15 24 19 24 23 23 24 20 14 24 24 17 23 22 19 16 26
16 23 26 17 17 25 17 16 26 25 23 24 22 23 21 22 23 25 23 16 20 18 24 14 18 19 20 14 23 23 26 16 23 23 22 17 16 24 18 18 14 22 22 15 26 21 16 20 21 19 24 25 16 17 26 16 23 15 20 25 15 26 16 21
24 18 21 14 22 17 19 26 24 19 26 16 25 15 25 19 16 22 21 24 21 24 24 19 19 17 18 20 23 26 19 25 19 15 26 17 17 18 23 19 19 25 19 22 21 19 24 16 24 24 14 14 24 22 26 24 14 16 16 25 19 19 18 16
16 14 19 20 18 19 24 24 19 19 15 16 19 22 26 15 15 25 14 17 23 22 17 22 22 20 14 14 14 20 26 21 17 19 21 14 14 14 19 21 26 25 14 19 20 18 16 15 14 26 17 19 20 15 17 18 14 15 26 26 23 21 15 23
16 25 14 23 14 25 23 20 16 23 26 20 15 19 25 26 22 23 19 14 14 23 20 16 19 23 14 25 16 14 18 14 23 15 16 14 15 18 15 25 24 21 14 18 20 14 26 22 22 22 15 19 15 22 22 19 24 19 20 19 25 26 25 20
23 24 23 20 18 24 15 23 14 17 15 16 16 17 14 20 14 23 15 20 20 21 23 21 25 16 16 25 25 26 16 18 25 24 19 17 16 24 16 22 17 26 15 17 21 17 21 17 22 18 14 23 16 24 15 14 16 22 18 15 19 16 17 15
