P2
64 64
255
31 38 25 28 30 26 34 29 34 34 28 19 19 29 21 25 33 35 28 20 38 28 28 32 34 29 33 34 22 27 37 19 20 25 35 34 21 18 31 31 28 35 21 36 30 31 32 25 30 34 34 19 38 23 35 26 22 33 38 22 29 25 28 18
38 35 19 18 19 35 32 22 31 31 24 22 25 35 37 25 38 34 18 36 30 30 29 37 34 33 26 21 27 27 21 20 24 30 32 22 21 32 28 18 37 31 37 28 38 25 28 22 38 26 28 36 34 22 20 34 23 27 22 25 25 31 19 24
34 35 22 37 25 37 23 34 18 32 37 18 19 27 22 33 26 20 20 32 29 26 38 32 32 21 35 30 19 37 37 35 18 32 31 31 34 27 22 25 30 35 34 18 22 26 19 28 23 27 22 22 37 26 23 20 32 26 29 28 18 18 20 26
27 22 23 21 19 22 25 38 24 34 37 34 30 35 38 33 26 22 26 26 25 28 26 24 27 23 32 18 23 18 24 28 20 38 26 38 34 29 21 32 27 21 35 37 31 22 18 21 38 37 19 22 22 26 22 19 31 23 20 38 31 26 21 18
33 25 18 20 30 34 19 36 29 21 36 22 18 22 29 33 19 31 33 26 26 35 26 27 19 28 33 35 25 25 25 36 22 18 28 35 23 27 32 32 23 34 18 35 19 29 21 19 36 37 24 19 25 30 23 34 24 34 26 29 19 37 23 35
31 34 34 23 31 25 31 29 24 22 22 22 27 30 31 31 38 36 24 29 22 31 23 23 28 27 38 36 30 23 33 34 37 29 23 19 38 24 28 30 27 36 38 35 28 22 25 25 28 38 38 31 38 24 18 21 26 19 22 25 33 25 37 23
38 35 34 21 38 37 24 20 38 36 34 24 28 31 27 24 37 32 20 32 25 20 24 22 21 27 33 25 38 37 27 29 32 26 18 23 30 27 37 36 36 32 27 26 25 18 27 37 23 38 18 18 24 35 33 34 18 35 29 24 36 28 27 23
28 19 28 23 35 35 34 24 33 32 18 36 37 28 28 18 28 32 38 29 28 31 32 18 36 24 19 26 33 24 35 38 21 28 31 25 36 30 22 36 35 31 35 36 37 26 19 33 32 22 26 30 29 24 22 38 28 34 25 33 21 31 30 18
18 18 28 31 28 23 28 27 28 19 26 23 34 31 32 32 31 27 19 21 28 22 23 19 28 35 34 36 24 32 32 24 22 31 24 37 31 26 37 20 33 37 36 31 21 22 32 36 23 36 21 34 25 24 38 19 30 28 33 24 24 37 18 25
37 31 37 21 20 38 33 24 24 28 37 34 19 26 34 29 33 23 29 24 30 28 30 36 21 22 30 29 24 27 23 26 18 33 31 27 18 26 28 21 37 21 29 34 27 27 34 32 25 26 22 21 30 28 23 24 23 24 33 26 30 35 20 33
27 34 37 36 18 27 24 33 37 23 22 19 27 24 19 33 28 19 38 20 21 34 28 18 27 20 25 35 28 38 36 33 31 26 24 20 22 31 23 32 35 20 25 37 31 20 28 22 36 33 35 25 20 30 32 21 23 30 36 22 21 24 22 33
35 34 31 33 31 26 36 38 21 22 25 37 35 29 38 36 35 36 27 20 30 27 23 27 20 26 31 36 28 29 34 29 27 30 19 28 22 23 37 25 32 29 27 24 28 24 38 37 34 23 36 36 25 26 26 35 35 24 31 35 21 36 18 30
35 34 18 24 34 20 18 38 21 28 27 33 30 35 20 34 31 35 32 30 22 21 31 22 25 23 20 32 20 22 33 25 21 28 24 21 26 24 25 38 19 28 27 38 29 27 24 36 33 21 33 31 22 38 27 37 26 28 36 37 37 25 19 19
24 35 35 20 22 19 37 38 32 34 32 28 24 31 23 25 29 29 35 18 33 37 26 30 38 25 25 18 23 29 37 31 33 28 32 18 32 28 22 38 22 38 25 37 33 32 33 20 31 37 19 24 32 35 31 19 34 36 26 26 29 33 22 36
27 21 35 32 24 18 28 33 28 30 20 26 37 34 28 26 25 33 36 38 35 25 29 24 18 36 20 27 25 25 27 38 31 36 35 31 38 20 28 23 25 20 36 18 22 25 29 24 26 34 36 34 30 30 22 32 21 37 25 36 38 31 31 28
19 20 18 19 29 34 27 32 29 28 27 18 25 32 31 19 26 26 27 25 28 37 34 38 33 23 38 35 24 29 30 25 19 32 31 30 38 32 35 34 19 26 28 28 26 37 32 28 33 30 19 18 35 31 35 24 31 33 32 35 33 32 21 31
26 27 33 22 38 37 19 31 24 31 24 18 19 28 35 20 38 36 34 34 26 34 38 21 28 25 24 27 26 29 24 20 29 34 23 26 24 38 23 34 37 32 37 24 21 36 38 22 28 22 36 36 28 22 25 27 33 37 21 30 20 19 24 25
36 34 32 30 20 38 30 26 23 24 20 37 36 30 34 33 33 19 35 18 24 35 25 26 20 35 29 30 33 21 31 35 28 35 25 36 33 33 33 38 18 29 25 21 34 18 35 38 36 18 19 28 28 23 32 26 22 27 25 36 27 18 23 31
23 22 27 30 28 37 33 29 33 26 28 23 31 24 25 38 28 27 23 19 19 21 28 29 19 33 29 36 24 34 18 31 22 24 37 28 34 38 33 29 33 25 21 18 31 18 38 21 22 34 38 29 20 24 36 28 38 37 36 23 29 21 34 36
26 38 22 21 35 34 30 36 23 27 29 21 22 29 29 24 27 32 35 26 38 33 29 37 23 23 35 26 25 25 38 28 35 31 35 37 30 37 23 33 39 37 37 29 33 30 31 21 33 35 30 38 30 30 32 24 34 23 37 26 29 25 33 29
30 19 29 34 18 21 34 28 19 32 34 31 21 20 23 35 40 35 25 38 29 30 38 25 35 32 41 21 35 24 26 37 27 29 33 24 20 22 38 41 41 36 38 36 40 40 29 31 37 37 32 24 21 38 30 28 24 32 29 19 38 21 32 33
38 24 30 26 27 37 20 36 34 33 24 34 19 34 31 41 43 38 33 33 45 36 38 30 40 45 38 30 37 33 36 18 103 19 29 36 37 26 32 29 42 32 47 44 49 31 46 45 31 39 27 27 22 37 24 32 20 36 18 26 26 19 33 26
28 36 21 27 37 38 20 19 33 35 29 27 24 30 26 48 40 48 37 52 50 52 51 46 33 34 33 37 28 30 36 24 122 36 28 40 42 31 48 47 42 48 49 50 34 53 47 36 31 35 30 25 34 36 31 35 25 23 22 27 25 38 30 36
31 18 24 22 31 31 27 25 24 38 23 27 44 27 29 32 51 54 51 48 48 48 56 43 52 39 35 34 41 39 28 21 198 30 24 24 31 34 41 40 43 56 55 44 40 52 42 42 43 44 36 29 30 25 38 18 29 37 34 32 32 30 22 38
27 31 21 38 18 26 35 28 36 23 26 42 46 43 41 51 50 46 48 55 41 52 51 48 46 52 52 39 38 27 36 34 200 41 44 43 35 52 42 43 48 56 60 44 46 53 56 40 47 45 41 36 40 33 33 22 21 20 36 37 18 30 20 19
34 27 28 26 33 25 19 25 22 30 34 40 40 43 42 57 50 48 45 48 57 62 61 48 50 60 55 47 40 29 30 255 30 30 35 47 33 55 49 58 50 56 48 60 60 57 55 50 45 54 45 49 32 26 24 29 18 38 25 20 24 20 23 28
23 34 38 38 22 34 36 29 27 32 41 39 36 45 50 59 43 48 60 67 51 66 51 58 49 63 42 38 49 32 129 112 129 25 40 49 43 49 51 48 64 67 52 64 68 64 50 48 60 44 58 38 52 48 34 36 33 37 28 31 35 32 25 20
19 33 26 34 22 32 27 35 21 40 42 34 39 53 42 59 53 63 66 60 60 62 52 71 55 62 51 55 43 41 116 132 210 29 40 47 41 44 47 46 49 67 64 62 66 59 52 56 54 44 42 47 54 35 33 38 32 37 23 26 27 24 30 33
34 27 18 34 30 34 24 32 24 35 31 32 38 52 43 59 64 59 58 67 60 75 56 74 72 52 62 52 58 46 52 129 249 39 49 56 39 57 57 58 59 62 70 58 61 57 74 68 59 58 61 50 37 45 38 42 34 20 36 19 35 35 25 20
18 34 24 35 25 37 29 34 22 42 47 39 56 44 56 68 58 63 62 59 71 64 69 70 57 61 63 63 44 47 37 212 138 135 135 42 55 52 55 68 72 71 77 75 73 61 64 64 65 52 55 57 47 49 30 40 35 35 35 31 22 18 35 34
34 19 24 31 31 34 20 23 25 44 50 40 47 46 50 50 59 57 60 81 70 71 81 76 61 64 55 54 57 53 37 138 137 133 122 131 55 51 64 68 63 77 74 83 65 71 62 73 73 57 52 53 48 41 46 45 27 22 26 33 19 19 22 37
35 37 37 27 38 34 35 28 32 34 32 41 50 61 55 58 61 72 82 84 77 75 71 64 75 56 52 66 57 44 55 53 140 223 124 131 60 47 52 64 67 69 76 74 86 77 71 58 61 54 62 50 48 38 46 39 31 25 22 25 19 31 23 33
34 21 19 33 29 29 25 20 24 42 50 54 49 63 58 69 63 69 68 68 89 76 86 70 72 75 58 60 55 42 37 41 136 208 52 140 142 48 64 58 62 75 74 85 73 86 82 62 69 56 50 43 56 46 52 46 39 25 33 22 32 23 34 32
23 32 24 28 21 31 31 28 26 41 50 52 58 49 53 65 73 72 65 86 75 79 67 82 62 71 63 60 61 50 38 45 141 129 138 47 232 55 58 60 64 68 82 86 74 85 64 65 60 61 51 44 47 51 36 39 27 32 35 35 29 29 38 27
27 40 23 37 26 42 42 44 35 37 47 53 55 55 60 65 64 64 83 76 82 77 69 74 68 72 71 68 59 48 54 52 133 231 51 45 150 150 63 74 65 76 79 74 72 90 81 69 75 60 54 61 60 64 46 44 33 48 40 35 43 39 43 27
39 41 36 37 46 33 49 33 47 54 44 56 64 59 60 71 72 83 80 90 93 92 83 90 85 66 74 73 64 67 51 53 148 240 67 66 63 157 156 78 88 80 94 79 98 82 76 77 89 76 63 77 59 61 65 59 58 46 43 57 38 56 51 38
53 53 40 35 42 45 41 39 41 57 52 65 74 75 68 67 80 81 83 93 91 98 86 89 79 88 85 72 82 73 63 76 150 142 154 78 70 158 160 76 95 98 88 92 91 94 82 81 78 93 71 77 82 79 59 68 61 68 64 65 64 68 61 70
54 44 58 59 51 45 41 61 59 53 72 56 59 79 87 82 92 89 79 86 88 92 99 98 79 78 75 91 85 75 76 151 78 151 81 170 80 76 174 183 98 99 89 108 99 91 97 105 96 91 99 80 83 80 80 78 71 76 60 72 61 63 74 66
43 52 41 37 51 39 55 48 39 53 65 52 66 69 67 77 78 77 88 78 85 79 80 72 81 77 83 67 65 60 55 56 148 64 145 78 157 168 73 76 164 79 77 78 82 89 83 80 90 79 86 85 74 65 72 74 53 52 63 62 59 60 54 52
39 34 30 38 49 47 40 35 49 45 47 55 51 56 66 66 72 68 69 79 77 78 68 73 60 60 57 59 65 61 53 128 40 132 52 54 150 157 67 148 81 73 66 67 75 71 83 66 74 71 69 57 65 64 55 62 43 58 49 49 58 61 60 52
26 35 44 28 32 25 38 29 27 31 31 31 36 43 51 54 56 54 63 49 62 53 57 62 49 60 55 49 48 43 47 47 121 129 48 50 222 54 50 139 67 57 62 66 55 56 64 48 58 59 52 59 57 35 43 49 30 33 32 48 36 41 43 43
30 35 20 30 24 27 24 28 18 22 29 27 24 43 45 45 45 37 46 37 48 57 52 37 42 37 34 46 28 29 33 19 39 120 114 111 31 117 124 41 36 55 55 41 41 46 45 47 35 45 32 45 39 32 24 39 23 39 24 28 26 27 32 36
25 26 18 35 35 28 27 32 27 22 23 35 31 27 41 43 50 34 40 38 48 37 47 35 49 34 42 45 42 34 28 22 28 208 20 124 109 28 48 132 42 43 42 38 48 45 34 31 33 43 40 29 38 26 24 30 23 23 29 23 37 24 19 27
34 22 37 29 22 18 38 21 32 38 27 31 33 30 28 30 35 27 35 33 44 43 47 42 40 39 32 43 33 20 24 18 121 106 37 118 35 115 29 32 125 40 34 47 35 36 35 32 27 26 40 32 31 33 28 19 18 19 23 30 38 32 19 32
21 29 23 21 19 36 36 27 27 31 37 37 23 31 20 35 27 30 44 34 34 36 37 33 29 26 21 36 29 31 19 118 119 20 22 123 118 34 29 23 125 29 45 41 40 40 29 44 29 40 35 22 24 33 36 36 20 22 25 38 26 34 38 26
25 29 31 33 34 38 25 33 33 36 33 21 19 25 18 34 33 30 37 24 26 28 32 30 30 33 36 35 21 23 20 33 207 33 25 199 29 29 35 28 105 35 31 26 38 23 38 32 22 30 21 25 36 18 24 31 36 18 22 22 34 29 36 37
31 27 30 31 37 38 25 19 23 27 34 20 25 25 22 34 35 38 31 24 34 23 29 33 38 28 25 27 26 38 29 31 116 119 104 23 111 19 27 37 108 27 26 19 38 37 28 37 31 28 36 27 19 28 27 27 38 34 24 28 23 37 24 36
25 29 35 22 18 27 29 35 24 20 33 34 37 18 20 26 36 37 28 21 19 36 31 18 24 36 30 37 22 25 34 34 117 108 119 18 27 111 31 21 117 25 35 26 30 20 27 38 36 38 21 25 19 36 24 25 33 33 20 33 36 22 36 22
24 24 26 25 35 22 37 25 28 26 23 19 22 27 32 29 25 21 25 23 32 22 33 30 33 28 27 20 23 35 21 111 36 106 37 116 108 29 23 33 110 29 20 18 18 23 30 32 29 33 32 32 38 33 19 20 35 21 30 36 38 36 22 24
19 29 21 35 25 32 36 23 36 31 21 38 37 38 32 18 36 27 34 26 37 21 23 18 28 29 25 18 31 28 112 21 35 19 118 122 113 34 30 111 35 23 33 24 21 34 35 19 35 27 22 28 28 26 24 36 24 36 34 18 19 30 24 35
25 31 26 22 19 37 31 32 33 19 31 32 28 26 38 24 36 38 29 22 31 25 35 23 33 26 38 36 23 23 25 122 22 20 115 206 33 19 37 28 106 19 20 23 28 20 33 27 22 20 18 30 29 30 38 35 33 33 36 19 20 34 33 33
26 25 27 25 33 36 23 36 33 19 34 32 19 34 36 25 36 31 22 29 25 27 30 22 24 38 29 23 26 33 30 121 28 33 121 189 20 32 22 30 29 104 28 38 38 35 26 34 19 32 27 36 21 30 20 31 18 31 31 18 31 18 21 18
24 21 37 31 27 26 32 26 34 27 22 21 34 19 21 38 32 38 20 23 18 32 27 35 18 23 26 31 34 23 30 105 21 32 119 195 28 34 21 28 27 30 118 31 24 29 31 27 22 32 20 20 30 34 31 18 21 33 33 20 38 35 22 19
34 30 32 20 18 35 27 27 24 28 18 22 18 32 34 25 29 18 27 20 22 25 25 20 24 18 29 20 34 33 23 22 31 20 18 255 32 19 23 33 31 116 32 34 33 27 37 24 32 18 26 25 23 19 31 21 32 18 25 26 27 23 24 30
26 35 21 21 37 35 22 31 27 30 22 22 33 26 31 26 29 32 19 26 36 26 19 28 26 23 31 29 20 22 27 20 31 25 23 191 106 21 36 19 18 105 37 37 36 24 25 24 18 31 19 36 36 35 19 25 38 36 37 26 26 30 23 27
33 19 24 19 29 35 26 35 38 22 19 32 38 27 34 34 37 27 30 32 26 24 32 35 31 38 27 26 24 30 33 28 19 29 38 103 19 107 34 31 31 114 19 38 25 37 38 33 30 22 25 25 27 24 19 35 19 23 20 35 27 36 23 19
30 35 25 29 23 24 31 25 23 27 37 25 37 20 36 21 22 31 29 31 22 26 32 35 18 26 18 26 36 28 18 28 34 24 19 27 105 32 115 26 24 20 116 31 38 32 29 24 18 21 19 31 36 33 24 29 34 38 37 36 38 33 34 23
33 29 18 28 27 27 38 30 29 18 24 31 20 25 33 34 30 18 29 22 34 19 27 31 25 28 25 36 24 33 32 21 37 37 24 121 29 34 36 20 32 23 29 113 18 26 19 23 21 18 36 25 24 37 20 24 30 25 35 38 30 24 21 27
27 27 22 18 20 31 37 30 34 24 34 37 20 31 30 31 34 32 21 22 18 25 18 38 35 27 24 23 19 37 33 30 23 34 23 117 21 37 32 28 20 35 117 30 22 19 32 22 35 23 20 32 18 36 31 23 33 21 36 32 20 38 32 37
34 34 25 19 29 37 21 34 18 26 26 32 22 34 23 24 19 31 18 32 26 28 19 18 22 32 22 22 30 28 31 33 25 36 38 107 28 31 25 30 35 27 35 34 22 19 22 28 26 29 29 18 29 21 22 20 22 31 36 24 23 34 33 29
37 27 26 31 22 26 18 29 19 19 38 23 26 21 30 33 20 28 21 32 35 33 22 33 21 19 19 24 35 31 21 37 25 37 117 25 21 27 21 34 32 33 31 26 34 32 19 26 22 19 35 18 34 33 21 35 30 27 29 33 27 18 23 20
19 30 35 36 38 31 30 28 28 24 30 32 37 26 21 37 36 37 18 24 27 33 35 36 34 27 37 19 24 22 23 30 21 34 23 33 23 29 18 31 20 32 28 18 22 24 22 31 34 20 37 33 28 32 26 28 38 32 31 19 38 33 24 34
25 36 20 27 36 19 37 19 26 31 32 28 18 31 36 32 21 20 25 24 29 30 31 24 28 23 34 26 26 23 27 24 33 24 34 25 19 34 36 24 32 34 37 27 20 33 26 35 37 38 19 35 24 20 37 27 18 35 30 25 28 29 21 36
20 32 25 23 36 23 22 22 20 36 34 21 31 38 36 35 30 26 28 24 31 33 31 28 21 22 38 33 26 31 32 30 20 27 26 28 30 20 38 25 32 23 22 36 25 20 22 25 20 34 30 25 18 37 27 33 18 24 27 22 35 31 38 27
