P2
64 64
255
25 18 31 35 30 29 30 18 23 30 38 38 21 28 19 22 34 23 22 29 27 28 38 18 27 24 31 33 22 28 24 37 21 34 19 22 23 26 26 31 23 30 22 32 21 19 29 24 18 21 26 36 33 23 21 35 22 30 22 37 18 18 34 25
23 18 33 24 25 28 36 38 37 24 18 38 32 21 33 19 31 25 37 29 28 38 23 23 24 23 27 28 20 24 31 25 26 33 26 33 18 21 18 18 22 36 32 36 32 37 19 33 24 24 19 34 19 21 30 22 38 21 20 20 23 36 21 24
32 37 29 30 20 24 23 35 19 25 24 19 26 31 28 27 33 37 33 20 35 32 38 18 19 20 26 24 33 31 23 21 25 27 38 30 18 18 19 33 22 22 32 25 26 21 38 26 37 29 38 30 20 33 26 28 33 18 25 36 25 22 28 24
21 27 36 26 36 23 33 32 19 31 28 30 29 36 27 19 27 36 21 23 21 23 18 31 37 20 34 37 23 25 21 20 26 38 32 28 34 26 26 35 34 20 25 22 34 32 28 26 23 27 31 32 31 30 18 35 19 36 23 29 29 19 35 30
24 33 38 34 25 26 32 37 37 26 34 34 38 30 27 23 36 18 21 18 19 23 30 28 19 27 29 20 36 23 37 23 27 28 30 21 34 27 30 18 36 21 33 30 28 26 21 27 27 25 22 30 21 32 31 35 27 19 35 24 29 34 27 22
35 31 26 37 24 36 30 27 38 22 35 25 26 26 24 28 24 20 23 30 30 34 28 37 28 32 27 22 18 34 20 26 37 35 28 21 36 36 33 28 30 19 29 33 29 33 38 26 37 36 24 27 29 27 37 35 22 27 20 24 32 36 32 18
35 22 20 32 36 24 27 27 35 30 18 28 28 27 36 38 21 36 22 32 29 36 37 27 21 38 30 36 38 25 34 34 36 24 31 32 20 30 23 26 22 22 23 31 27 23 20 20 19 35 31 20 30 28 33 31 25 27 25 18 33 22 34 26
38 23 28 26 19 23 35 27 21 21 28 38 31 38 34 19 37 26 27 37 23 25 36 23 18 34 18 30 35 37 30 26 34 27 25 33 35 30 21 25 22 27 27 27 36 36 28 35 19 38 24 34 36 37 19 22 30 31 35 20 30 27 29 33
22 26 26 35 29 28 34 21 25 31 34 31 33 27 29 18 30 20 26 27 23 24 21 33 20 37 29 18 22 21 38 24 33 35 20 32 20 36 18 28 26 36 32 29 35 18 37 29 32 26 25 19 37 32 27 18 36 32 26 34 24 34 18 33
18 21 19 20 27 34 23 38 35 31 35 19 26 36 20 25 28 25 19 37 22 33 33 31 28 37 36 33 18 34 21 36 30 23 37 33 19 26 28 35 38 32 38 25 33 25 36 28 38 30 20 28 29 28 30 34 32 23 37 31 30 32 34 18
18 31 22 29 25 37 32 24 29 35 35 29 18 18 27 29 19 37 23 25 29 33 38 22 32 29 30 24 18 21 34 25 31 24 25 24 22 31 23 23 31 21 32 33 18 25 34 29 37 36 18 24 18 30 23 31 38 25 22 28 29 23 30 32
33 21 23 24 33 38 18 23 30 33 34 19 32 26 25 36 28 32 37 31 34 32 30 23 25 28 23 35 19 27 20 28 18 27 38 35 24 34 33 18 32 20 18 31 28 35 21 34 34 19 28 22 20 31 24 33 20 26 35 30 36 38 36 30
28 38 28 25 23 20 26 24 20 18 38 25 20 38 35 26 28 36 20 26 27 35 18 25 30 24 33 27 30 37 19 21 38 24 27 23 18 38 28 33 19 38 36 29 37 23 24 24 22 26 19 29 23 36 28 33 34 18 26 21 31 37 31 31
19 34 38 23 38 25 31 21 27 23 30 23 23 27 19 31 33 36 32 24 28 37 23 36 38 19 29 26 37 25 26 27 24 19 33 21 38 34 30 23 27 24 23 33 24 24 34 34 28 29 32 38 38 18 23 30 21 36 23 25 19 22 26 30
25 27 25 29 20 27 35 33 38 37 35 38 25 26 20 25 22 28 38 33 19 29 29 34 27 20 35 23 30 21 25 19 32 25 24 38 26 21 19 33 21 23 34 36 31 18 23 31 33 19 37 23 25 38 31 20 27 30 33 30 36 33 23 38
32 18 24 33 26 35 36 38 30 23 20 23 29 32 27 32 21 38 26 37 24 35 29 37 26 35 20 27 34 18 32 20 28 35 38 28 19 36 18 26 37 38 19 35 26 35 31 32 38 35 38 20 22 26 18 20 33 29 29 26 19 36 38 37
27 31 28 38 30 23 27 31 23 22 23 18 33 27 27 22 33 21 18 28 28 23 19 21 18 25 34 32 35 28 37 28 34 36 31 19 30 32 26 22 30 24 30 32 25 19 26 18 30 20 26 32 33 28 36 27 24 18 37 28 34 35 37 35
31 25 31 38 30 29 29 37 36 27 18 38 38 35 37 37 38 28 23 26 38 37 37 20 18 20 25 36 35 32 22 26 34 31 20 34 35 26 27 36 31 31 33 27 38 32 18 23 19 38 35 38 33 28 31 34 32 29 20 24 20 38 33 27
36 19 23 37 20 32 25 21 19 18 21 21 23 22 35 35 32 22 35 34 37 35 19 18 22 20 20 20 23 37 19 35 30 33 25 21 24 29 20 33 30 20 18 25 21 24 19 37 23 24 28 30 24 38 21 22 23 23 19 27 18 37 29 33
21 24 34 23 34 20 28 23 19 30 29 23 31 34 29 30 39 36 21 33 37 37 37 29 39 32 33 22 29 36 36 18 23 22 33 36 20 19 37 27 26 22 21 39 24 36 21 34 32 28 37 33 29 20 38 19 20 20 32 22 25 30 35 29
18 19 25 36 31 35 26 24 22 26 33 32 27 32 35 40 23 42 44 29 33 35 42 31 31 23 25 34 25 21 28 31 37 27 21 31 34 32 21 42 38 38 31 26 37 39 36 38 31 29 30 32 33 20 29 19 37 35 37 24 34 31 20 31
32 20 20 27 26 24 29 32 37 27 36 24 34 24 33 37 35 44 41 43 35 45 29 46 42 31 33 38 26 33 20 24 23 25 24 34 35 41 42 40 40 42 45 40 33 33 42 27 45 24 27 22 33 25 31 38 24 21 24 36 32 22 33 37
28 35 27 32 21 31 37 38 38 32 19 26 21 38 41 46 31 43 43 53 50 50 39 37 45 49 49 39 36 31 39 32 34 39 45 48 36 34 45 33 36 43 45 49 41 36 49 31 35 43 39 31 30 36 34 22 27 25 37 29 24 21 32 36
23 21 26 34 37 30 34 29 37 32 27 36 36 47 40 49 40 55 43 43 56 51 45 49 46 40 54 41 58 43 55 46 50 39 54 46 50 57 46 54 50 41 56 49 39 47 48 37 50 40 44 35 30 41 25 22 35 34 37 20 27 38 38 33
37 18 23 25 32 24 33 24 25 31 22 42 29 34 40 51 56 40 50 55 46 43 49 63 45 53 49 52 53 66 47 54 46 46 59 47 65 53 64 53 49 59 57 47 47 49 47 42 46 42 38 50 29 26 31 32 22 32 28 36 33 34 20 37
28 19 35 19 29 34 34 24 36 24 28 27 31 50 53 45 46 60 44 59 58 51 64 58 57 61 62 76 61 67 56 57 68 62 67 64 63 70 62 64 55 62 58 62 45 58 44 49 44 45 47 51 34 36 40 29 29 20 19 28 35 34 20 19
34 24 34 35 24 22 33 29 26 31 32 38 33 48 54 58 56 48 55 48 67 65 73 64 78 77 82 75 66 81 63 68 76 65 69 71 70 75 68 77 69 66 73 66 61 48 50 51 46 42 54 47 52 38 44 35 36 21 27 26 28 21 33 34
30 20 33 36 34 18 19 33 38 37 32 36 52 37 50 58 46 55 60 71 62 68 80 80 71 87 91 91 90 75 88 68 74 71 73 81 75 81 80 89 84 85 71 78 74 59 59 57 52 45 48 40 39 32 35 28 31 21 28 27 22 36 30 37
31 27 26 20 37 30 32 35 41 37 34 43 46 55 63 63 67 64 63 61 75 81 79 86 87 84 86 88 86 81 77 94 90 88 78 89 83 81 90 92 80 94 79 83 69 64 59 58 69 50 43 53 37 49 36 34 36 18 29 36 34 26 28 33
34 30 21 27 32 25 28 36 38 44 49 34 41 53 56 52 66 64 58 65 79 86 98 95 95 103 94 96 102 93 103 99 91 93 99 91 88 106 97 96 83 84 79 88 76 70 62 74 54 49 56 46 51 34 33 32 29 22 34 36 28 19 27 20
36 19 26 18 18 34 19 32 42 33 39 46 50 50 52 58 62 74 64 77 93 95 102 88 93 109 99 96 108 105 105 96 113 114 92 93 101 113 106 92 97 98 86 82 91 72 69 60 64 53 54 44 52 45 33 31 42 36 37 27 20 37 34 38
21 37 36 35 29 35 33 30 33 43 50 50 39 50 61 56 56 62 76 76 95 104 96 96 100 101 98 105 119 113 108 103 114 104 105 113 116 101 117 103 100 107 93 101 97 80 69 78 63 68 48 55 41 46 42 30 36 24 29 33 25 32 25 29
23 37 18 33 27 36 19 28 31 43 51 55 44 54 52 54 57 71 84 78 97 104 115 107 111 111 115 119 111 117 123 117 110 117 118 103 116 110 115 110 109 99 95 109 99 98 80 74 55 66 67 50 57 42 40 29 40 27 24 35 37 30 27 27
37 27 23 35 18 21 29 22 30 46 35 51 40 59 64 51 59 67 81 97 102 109 99 101 119 105 124 126 119 111 122 125 129 129 121 126 121 109 104 122 116 112 100 103 91 93 73 73 69 63 55 52 45 39 51 46 31 32 32 31 26 23 32 27
33 36 25 38 24 27 27 32 36 40 45 55 57 44 60 52 73 77 77 80 91 106 105 98 119 111 112 116 113 112 134 134 138 134 115 118 121 118 113 105 114 110 101 106 90 93 86 72 57 54 52 46 46 41 32 29 25 36 25 18 35 19 18 26
19 24 29 31 35 25 34 20 42 27 48 43 47 44 46 53 53 72 73 79 89 106 102 113 103 103 123 121 122 126 128 128 142 132 128 126 129 113 107 120 102 114 109 96 97 93 81 67 70 59 52 58 39 40 39 27 37 33 34 21 18 35 21 38
24 38 34 34 25 34 29 19 24 36 31 44 38 51 62 54 66 64 69 85 84 102 93 106 116 105 121 122 129 129 128 130 144 132 127 130 120 112 105 103 98 94 90 100 82 79 64 55 59 49 43 53 49 38 36 26 30 26 25 29 27 27 30 30
24 23 34 27 30 30 34 23 37 27 28 34 40 56 58 47 62 52 67 76 90 93 94 103 102 99 115 115 123 113 113 133 126 117 125 120 119 123 103 112 102 99 92 96 85 84 72 61 51 53 61 44 41 44 35 40 27 34 34 25 34 35 30 34
36 23 18 27 32 18 21 32 28 25 27 43 44 48 39 52 56 59 56 73 79 80 79 102 95 112 99 115 117 105 109 109 116 109 108 118 103 112 97 110 92 104 91 85 74 72 71 52 48 56 56 44 51 35 43 29 37 28 27 19 20 23 35 35
23 26 30 26 21 35 25 25 30 27 39 45 37 43 36 56 50 43 66 63 67 78 84 92 89 107 111 104 112 99 115 116 115 112 110 114 95 102 97 105 90 94 86 83 71 62 51 42 46 51 35 43 43 30 26 28 31 23 38 33 30 22 33 34
31 28 23 31 25 31 20 35 21 34 34 41 27 35 49 37 50 48 60 53 74 72 81 89 77 96 88 96 101 103 95 97 90 108 90 93 108 92 95 100 90 74 87 75 73 69 48 39 48 44 51 39 29 44 31 29 22 25 19 23 27 33 31 23
31 34 36 31 35 30 21 27 18 24 25 24 37 45 47 39 49 49 48 47 71 71 71 74 77 75 77 95 96 99 84 100 93 92 101 82 81 80 81 94 71 70 70 72 57 58 57 47 49 31 45 28 26 31 23 36 21 34 29 18 21 34 27 26
18 33 19 38 35 26 28 30 21 29 28 26 32 30 30 41 41 43 48 59 61 62 67 67 74 72 84 86 81 91 75 75 79 82 90 88 74 87 70 85 81 71 63 68 53 48 38 34 48 31 30 42 40 27 27 33 21 26 32 30 35 32 36 35
19 33 18 38 25 23 34 23 21 32 26 31 37 28 26 34 46 29 28 32 39 49 63 55 74 68 71 66 80 80 87 73 87 75 70 71 75 81 71 69 67 69 57 62 53 34 47 45 38 24 27 36 18 22 27 32 18 20 18 35 29 32 33 25
20 20 20 23 25 22 37 24 34 24 34 33 31 38 21 26 36 41 36 44 33 48 53 47 53 54 53 56 61 71 62 72 64 79 76 77 57 55 62 61 56 55 47 54 47 25 38 39 25 30 31 19 32 33 20 30 18 28 34 34 26 31 25 26
33 30 19 35 38 30 25 25 38 23 30 31 31 18 26 22 20 38 36 29 24 43 37 37 45 43 59 59 56 58 61 70 68 71 60 64 68 63 48 55 57 52 33 42 36 34 23 29 25 36 34 24 29 29 38 24 25 20 18 26 34 18 22 30
30 18 24 25 26 18 27 21 28 32 35 22 21 34 25 27 32 27 28 35 22 20 44 39 47 39 46 49 46 62 50 59 59 56 59 56 59 60 40 39 39 47 26 40 29 23 24 22 20 29 36 19 30 38 34 38 38 24 36 22 22 28 20 28
30 22 27 30 32 34 24 24 26 26 31 36 18 31 23 35 27 18 32 25 25 25 40 39 41 31 35 56 44 55 57 62 43 60 50 46 41 47 35 37 47 40 29 23 35 18 18 18 37 22 32 35 21 25 26 28 21 21 23 33 20 24 30 21
21 34 38 38 29 37 18 27 31 32 29 33 35 26 29 23 20 18 23 21 25 34 24 22 39 33 47 34 45 44 37 56 38 54 36 43 39 48 36 33 37 23 37 19 30 37 26 30 23 24 26 29 26 29 28 25 27 21 21 21 36 22 26 19
18 32 26 19 22 34 18 28 33 37 25 29 30 33 30 28 27 38 38 27 34 21 21 30 25 35 39 36 35 46 31 32 37 33 41 44 30 27 29 39 26 25 38 32 38 24 26 30 23 28 18 26 36 26 28 36 34 38 29 33 28 20 27 32
36 29 19 23 21 37 37 36 29 35 26 32 31 19 20 28 31 38 33 24 31 33 24 24 34 34 36 23 29 34 32 31 30 30 42 36 32 27 29 22 30 22 33 28 28 27 22 23 35 22 36 33 18 18 30 33 25 25 27 20 24 34 24 27
32 26 30 18 26 19 18 29 30 20 26 23 36 30 30 33 19 29 28 32 28 37 18 37 21 29 19 30 37 29 33 20 26 21 26 36 20 33 27 35 21 24 24 31 23 30 35 19 20 20 25 23 24 21 33 19 21 27 31 18 32 22 22 32
19 29 25 32 34 30 22 25 23 33 37 27 28 23 34 31 37 30 33 33 20 36 32 35 26 20 24 29 38 28 35 33 26 28 35 22 30 30 29 38 38 20 24 32 25 23 31 26 36 31 37 28 25 32 30 19 34 25 34 27 25 30 19 36
37 37 25 22 28 18 25 23 34 27 28 20 24 38 31 31 37 23 18 18 33 18 38 28 35 27 37 37 19 24 27 33 37 21 29 18 31 36 29 31 32 21 22 27 32 20 23 34 35 28 36 22 23 31 32 34 18 18 18 25 24 30 33 27
38 22 30 23 35 29 28 29 34 28 29 29 32 38 18 18 33 32 33 23 37 30 31 24 37 38 25 33 36 27 32 21 28 29 23 37 19 37 29 32 19 29 32 35 38 22 25 21 30 33 27 37 23 25 19 19 21 33 25 31 31 26 32 22
26 38 31 36 25 19 32 33 30 21 21 34 21 37 36 19 34 30 24 38 22 25 35 32 29 38 22 30 36 21 25 28 35 35 25 24 29 23 28 26 20 36 28 37 28 25 27 35 33 24 23 30 23 37 37 33 35 22 27 31 28 27 19 32
37 25 21 27 34 32 36 22 34 30 31 30 32 30 29 29 19 29 19 38 38 36 30 30 30 21 26 19 18 38 23 27 24 29 20 23 25 37 28 27 27 25 22 36 24 29 26 35 35 33 38 37 31 38 34 26 37 27 22 32 21 30 29 18
30 25 27 30 38 25 34 18 23 30 27 26 22 22 25 30 31 28 20 35 30 35 37 33 35 21 32 34 38 38 29 36 20 26 38 34 36 29 28 27 26 21 38 33 19 38 20 23 29 21 18 21 26 29 19 29 35 28 35 19 34 22 30 18
38 32 30 19 18 35 37 37 22 31 28 30 38 31 30 27 27 24 32 26 35 22 26 34 22 21 38 23 34 30 31 32 34 38 21 28 29 35 24 23 29 24 32 36 33 20 19 32 31 19 33 26 38 28 30 30 24 29 32 22 30 37 38 36
29 30 27 33 18 21 37 27 22 24 33 18 36 32 36 23 24 36 34 30 35 38 35 28 36 31 26 21 26 24 24 32 28 30 19 30 19 26 27 20 20 18 21 25 26 37 35 19 29 21 28 28 32 22 36 23 23 24 31 26 27 25 20 19
33 37 35 29 36 28 24 22 24 33 34 19 33 29 20 20 19 36 26 24 22 37 24 27 27 20 36 29 20 20 28 36 38 21 26 21 33 23 20 34 30 25 27 34 27 27 21 35 20 23 38 36 22 35 27 34 34 29 21 22 30 31 33 20
22 36 34 18 30 33 19 28 25 19 18 36 31 35 20 25 28 26 33 18 19 26 19 37 31 18 27 38 19 24 22 24 34 34 33 20 23 30 33 21 22 35 35 35 30 30 18 24 22 28 36 19 37 32 33 20 25 19 28 19 28 37 27 25
20 32 35 24 36 27 30 23 20 27 37 20 30 24 33 27 38 18 38 38 21 34 29 28 35 35 22 28 38 23 29 27 24 36 36 28 32 22 19 37 27 26 37 36 30 19 24 23 27 23 36 30 24 37 32 23 36 37 26 29 18 37 28 26
29 21 36 24 25 20 37 30 18 25 20 31 30 23 35 25 34 28 36 27 38 31 26 30 18 28 24 32 37 18 34 32 27 22 18 26 33 24 38 36 23 34 24 33 30 32 31 21 29 21 24 22 23 20 22 23 28 27 26 19 27 18 36 32
