P2
64 64
255
15 21 20 20 18 21 22 18 16 21 22 22 14 24 15 18 21 23 21 18 25 14 22 17 20 19 21 20 19 14 14 18 23 24 25 17 15 19 19 18 22 18 16 23 15 21 26 16 26 16 24 21 22 16 23 24 15 25 22 22 18 23 14 23
22 18 25 22 20 18 18 25 18 21 21 20 21 22 26 24 17 26 21 26 26 21 17 23 23 14 17 21 20 23 22 23 25 23 16 15 15 17 20 14 14 20 19 22 25 21 18 26 17 16 21 22 15 24 26 22 26 14 17 22 22 23 16 21
18 26 22 17 22 19 17 15 19 17 15 15 19 18 14 24 26 17 20 16 22 23 19 26 24 23 18 15 24 19 26 14 19 18 25 24 20 19 24 24 19 19 18 16 19 15 19 21 17 15 23 17 19 19 17 22 14 19 23 22 21 21 16 24
22 18 23 24 19 14 14 19 15 18 14 14 22 26 18 24 16 14 17 23 22 18 17 14 16 14 17 22 22 16 21 20 18 19 22 17 26 16 15 22 21 14 26 17 21 19 18 23 23 21 24 24 22 16 18 15 17 24 21 14 22 25 24 18
16 15 26 18 25 25 25 21 18 23 19 23 22 17 22 21 21 19 22 20 22 15 17 18 25 15 16 26 14 19 26 19 26 21 19 17 23 21 20 17 15 21 22 15 15 18 17 23 22 23 20 14 17 16 25 19 18 16 14 23 16 17 25 24
20 14 14 19 17 20 22 25 22 15 19 18 14 25 19 23 15 25 24 16 22 19 22 21 18 14 22 17 21 17 19 19 23 15 20 20 17 16 19 19 17 21 15 14 22 21 25 16 20 14 26 22 19 15 22 22 15 16 21 14 17 26 18 18
26 18 25 20 22 16 20 16 15 22 19 23 24 24 20 22 26 19 16 17 16 21 19 26 24 20 14 25 22 21 22 18 18 23 18 21 24 25 26 26 26 17 20 14 20 22 22 15 23 22 22 22 15 19 22 23 16 25 22 26 25 25 14 20
19 23 15 21 25 20 18 17 23 15 22 25 24 22 25 18 15 20 21 16 19 22 18 15 20 18 24 19 24 15 25 25 23 16 21 14 25 24 20 25 24 24 25 15 15 14 25 18 20 16 16 25 18 25 15 16 21 16 15 24 24 26 24 18
20 21 17 18 21 23 18 22 18 22 25 19 15 26 23 15 22 25 21 22 20 18 17 20 16 19 23 24 14 18 23 18 25 15 21 15 15 14 21 23 19 24 15 23 26 20 26 18 19 22 22 17 14 18 14 20 22 17 14 19 15 22 25 17
24 14 18 14 17 15 21 19 25 17 25 20 14 14 16 26 23 18 16 22 16 20 25 15 18 16 17 23 25 14 25 15 15 15 18 16 18 17 24 21 23 22 23 26 25 19 25 23 19 26 24 23 24 20 25 25 17 19 20 19 17 14 19 16
19 17 17 19 19 21 23 16 19 23 15 21 15 16 19 14 26 19 19 25 17 23 15 21 17 18 14 17 18 19 26 19 22 25 19 18 16 17 23 16 14 14 23 26 24 24 21 18 22 15 14 25 25 25 18 26 17 21 24 26 15 25 14 25
17 21 19 16 16 18 19 24 19 16 14 19 16 24 14 16 18 15 23 18 26 25 15 17 22 21 16 14 14 24 22 17 21 25 20 21 19 25 25 19 23 23 20 17 14 15 22 26 20 23 18 22 21 15 22 23 20 20 23 16 25 20 23 19
20 25 16 19 17 21 15 19 14 22 20 23 24 22 16 22 18 22 24 20 19 26 15 20 14 26 19 25 14 18 20 15 25 14 22 18 21 15 20 18 16 16 18 22 20 23 23 22 23 22 23 23 21 26 14 19 26 26 20 26 23 15 14 24
16 20 15 26 18 23 23 18 14 19 18 21 17 23 17 17 23 16 19 24 16 19 23 21 21 21 25 17 17 24 20 16 24 20 17 14 14 17 20 17 26 17 15 14 24 25 22 18 23 22 26 20 26 19 21 24 18 24 22 22 15 14 24 18
19 14 18 21 24 18 22 26 24 18 18 18 14 14 17 24 14 24 15 23 17 24 25 14 24 18 18 14 22 15 22 23 18 26 23 21 25 17 17 21 15 20 24 25 22 17 20 16 17 23 15 16 23 18 16 21 14 15 15 19 14 19 23 18
14 25 18 23 19 22 21 21 14 19 22 17 26 26 26 24 20 26 23 14 15 21 17 19 18 25 24 20 18 25 23 20 16 25 16 26 14 15 25 16 22 15 16 26 15 17 24 25 25 20 23 20 22 15 18 20 23 23 23 15 17 20 15 23
23 17 15 21 17 21 15 21 14 14 15 23 18 19 20 24 23 14 22 16 21 22 26 23 14 14 26 20 20 24 23 26 18 22 26 19 23 23 19 15 20 17 18 25 17 24 25 18 23 25 15 21 14 17 15 19 17 18 15 18 24 19 26 25
25 14 20 22 25 18 18 19 19 18 23 19 19 17 17 18 26 23 15 26 22 15 26 21 20 22 14 20 26 26 24 21 24 15 19 19 16 25 22 15 15 23 22 18 16 19 21 25 16 16 26 24 17 21 25 17 19 25 15 16 20 16 19 20
23 16 18 21 22 18 25 16 24 25 16 25 15 14 19 16 25 18 19 19 23 20 24 21 16 19 25 19 22 24 24 21 24 14 22 20 14 23 17 24 21 14 14 17 21 26 20 16 26 24 26 15 23 21 20 19 23 15 22 14 15 23 15 19
22 18 16 22 22 19 16 26 16 18 15 22 17 14 22 17 18 17 22 23 25 27 28 23 19 20 24 20 18 25 15 24 26 23 25 23 20 19 15 21 27 26 25 23 21 18 20 19 17 20 24 24 20 18 21 15 21 22 19 16 14 24 15 15
17 15 20 18 20 26 17 14 24 24 14 15 14 14 18 17 27 22 33 26 27 34 28 29 25 19 24 25 14 19 24 17 23 19 19 21 24 18 26 21 20 27 32 29 30 22 28 31 27 23 17 20 21 25 24 24 24 24 17 19 20 14 17 16
19 25 19 19 20 23 17 20 15 20 21 20 17 24 31 31 24 28 36 36 33 34 30 36 23 32 25 24 16 26 24 25 24 18 17 25 17 26 29 24 29 29 31 34 25 34 26 33 31 30 21 28 16 21 15 19 16 17 22 18 20 21 16 23
14 20 22 18 19 25 23 18 23 21 19 16 23 30 22 24 27 34 32 33 33 37 32 38 30 36 36 33 25 27 34 34 31 26 28 24 37 36 35 32 31 34 41 37 29 33 36 28 33 33 31 25 29 15 21 21 20 23 23 22 22 24 23 24
18 22 18 17 16 19 22 26 20 19 23 22 30 30 27 36 33 33 37 36 44 37 35 40 34 38 41 43 43 43 43 33 30 29 41 42 34 46 38 35 37 32 37 35 43 34 43 38 31 37 25 23 27 21 15 24 26 25 16 21 18 18 14 20
19 16 18 19 19 17 22 25 15 21 24 23 28 26 39 33 35 37 36 37 41 40 39 41 43 50 54 45 49 46 41 45 39 41 49 47 52 51 49 45 43 40 39 44 44 44 38 41 38 41 32 34 25 31 24 17 15 14 14 14 24 22 16 24
24 17 25 25 20 16 23 25 20 23 19 24 28 36 32 45 37 50 45 45 43 41 56 57 52 58 59 53 60 62 48 51 55 50 59 52 63 60 53 61 51 53 56 43 51 51 41 45 36 38 36 28 28 31 30 27 19 19 15 20 20 19 15 19
23 18 23 25 24 17 24 24 15 24 32 25 32 32 46 46 48 49 45 53 45 53 59 64 61 68 63 68 66 70 63 60 66 63 64 64 60 62 72 61 57 61 62 54 49 50 45 41 42 39 41 32 28 34 23 26 15 14 14 24 17 22 14 21
22 22 16 16 16 25 22 21 24 28 29 32 30 34 43 50 49 50 48 48 54 67 65 72 73 76 75 78 79 67 71 69 67 64 67 78 67 73 73 75 71 66 64 57 61 50 52 52 45 50 46 36 36 33 31 28 24 19 17 14 18 20 19 24
21 23 17 26 22 25 15 15 26 21 27 40 40 45 49 50 47 54 62 53 66 71 76 81 85 75 79 77 79 80 81 85 81 81 76 81 78 81 78 77 75 82 70 71 69 65 52 52 48 48 50 41 38 35 27 24 19 18 19 14 19 26 14 14
21 25 21 25 15 16 16 18 19 25 35 40 41 41 49 45 57 55 64 60 72 83 86 88 89 93 87 91 89 83 83 85 87 94 83 82 94 88 87 87 85 87 81 79 75 61 56 61 51 53 48 48 33 38 31 23 18 25 21 18 16 14 24 22
22 22 26 20 19 16 22 19 20 29 37 32 45 42 53 55 61 53 68 67 79 86 88 88 95 90 89 100 101 99 89 94 90 95 97 96 98 96 98 90 95 96 83 89 84 67 59 59 53 46 47 45 39 31 33 28 22 16 18 14 16 25 14 24
24 23 18 16 25 25 23 21 23 24 29 36 47 50 52 59 52 54 65 73 87 93 99 91 99 101 100 97 100 106 101 102 98 106 100 96 101 105 97 96 98 97 90 89 81 77 66 60 53 47 52 48 40 31 34 33 28 25 22 17 17 16 16 15
17 26 24 26 20 23 19 16 29 29 30 33 41 41 51 52 60 67 70 76 85 94 93 101 102 98 100 111 107 106 105 107 109 103 110 100 102 110 99 103 107 95 92 96 86 80 69 62 61 52 50 44 38 32 36 26 30 21 22 21 17 17 24 14
19 16 14 26 20 15 24 16 32 29 33 41 35 43 46 59 63 66 71 74 91 99 100 103 99 106 104 114 109 107 118 108 111 118 106 112 105 111 110 98 100 99 94 100 84 78 68 54 61 56 46 46 38 41 36 23 21 25 16 16 22 16 15 24
17 20 14 22 20 14 23 20 31 23 27 40 45 40 52 56 55 65 67 84 85 86 96 95 104 103 107 113 113 116 113 123 127 123 115 114 117 109 103 107 107 98 100 87 81 75 64 60 54 51 47 44 34 39 28 24 25 21 17 18 20 23 25 16
19 24 26 19 22 19 17 23 18 29 35 33 39 40 44 47 52 59 66 71 87 91 88 99 102 107 102 107 110 119 115 118 125 116 121 118 110 103 107 102 96 96 92 87 87 69 61 57 52 50 53 44 38 37 35 25 20 15 15 22 26 21 26 16
26 14 18 16 21 25 18 23 28 33 33 34 32 47 42 54 50 61 66 78 74 89 86 91 102 106 105 110 106 119 114 124 125 128 115 119 108 111 105 108 104 93 90 79 75 75 63 57 46 51 48 36 32 35 26 26 26 25 22 19 22 15 22 25
23 21 24 15 23 19 21 20 20 21 25 30 35 44 41 52 50 56 58 63 71 81 80 96 96 104 106 103 105 112 117 114 116 115 110 108 106 110 108 103 97 86 89 78 69 62 57 53 46 46 48 35 39 29 34 22 26 17 18 23 18 26 23 15
20 14 15 23 19 25 14 14 16 23 32 31 40 31 44 41 39 46 54 60 72 78 87 83 95 96 98 104 105 104 112 111 112 113 111 101 102 99 98 94 94 88 80 73 66 63 53 51 47 38 41 43 33 35 27 25 21 20 23 23 23 17 20 18
24 16 16 24 26 22 22 14 14 24 27 25 36 35 37 39 37 49 45 60 70 75 78 76 91 85 90 101 92 105 96 103 97 100 103 102 96 94 88 86 91 82 80 74 62 55 51 43 36 42 37 33 29 22 22 16 23 16 20 17 23 19 25 25
14 15 24 15 16 23 16 20 20 24 26 30 27 37 35 31 36 42 46 49 62 59 76 75 73 87 84 93 97 98 98 93 93 85 97 89 94 88 80 81 81 69 72 66 65 52 51 38 39 39 33 33 23 30 22 23 26 19 20 17 14 16 24 17
16 24 26 17 22 22 18 15 22 14 15 29 20 29 31 29 37 32 44 47 57 56 66 74 73 75 83 85 85 79 80 86 79 84 83 87 89 82 76 76 71 62 69 53 51 44 41 33 34 27 35 28 20 20 20 26 22 26 15 15 24 14 20 16
16 17 20 17 21 17 14 16 20 17 18 25 26 22 24 36 27 38 39 47 50 54 51 56 69 63 65 76 79 73 75 80 75 80 70 77 80 77 73 72 70 67 54 58 40 42 37 29 29 35 34 32 28 22 23 18 23 16 14 16 15 24 25 26
24 21 18 15 16 16 18 26 17 17 18 26 24 17 24 20 30 30 34 28 37 42 51 53 61 56 57 69 66 72 65 67 72 76 73 64 68 71 57 58 52 49 46 44 37 39 26 27 32 22 25 22 15 19 18 18 20 16 19 18 20 25 20 18
23 20 25 21 24 16 20 14 22 20 16 25 15 18 22 17 19 23 31 23 35 42 39 44 56 53 58 52 56 64 62 68 63 59 57 62 61 52 52 53 47 40 41 36 38 22 24 24 19 17 25 18 20 18 26 19 26 24 26 23 20 18 15 19
25 21 25 16 14 22 21 20 15 23 16 26 20 19 20 20 25 25 18 17 23 33 40 34 47 47 43 45 52 57 55 55 58 54 61 59 53 48 45 49 39 40 31 27 22 22 23 20 18 25 17 22 26 21 15 18 15 19 14 23 14 16 20 21
15 15 16 18 15 22 24 16 15 25 24 15 20 19 20 21 19 23 16 24 15 26 21 28 29 34 39 48 41 50 49 47 56 46 55 53 42 44 48 40 29 32 27 19 14 20 25 20 16 21 18 16 16 23 14 19 14 20 24 25 16 22 25 19
21 15 20 16 15 18 18 21 22 16 25 15 16 26 26 20 22 25 15 22 26 15 27 21 27 28 40 34 45 45 42 41 42 45 46 41 43 42 41 34 26 24 21 17 21 19 26 24 23 14 23 21 16 16 14 24 23 26 20 26 21 18 26 26
26 23 25 18 24 25 14 19 24 16 19 16 21 24 19 18 20 26 15 23 24 25 15 21 19 22 33 36 34 38 35 42 41 45 35 33 36 33 27 24 25 17 25 21 23 24 15 16 14 15 25 18 24 22 15 14 16 17 26 20 18 17 14 19
14 20 17 17 24 15 24 16 21 18 18 26 16 26 25 23 17 22 23 26 22 18 18 22 17 24 23 30 33 27 34 29 35 31 36 29 33 22 29 16 26 20 21 14 16 23 22 24 23 14 15 22 14 25 19 17 22 24 16 18 20 17 20 22
25 25 26 19 17 14 20 14 17 17 16 16 24 22 16 24 23 19 14 18 20 15 22 21 14 15 21 24 29 22 31 28 32 29 28 23 21 18 14 14 21 20 26 26 16 21 14 20 21 26 20 23 21 17 18 16 22 14 22 17 21 19 21 16
16 20 23 15 23 21 25 14 14 26 18 26 20 18 26 26 17 16 18 25 20 26 19 19 26 20 22 17 18 17 14 27 15 15 20 25 22 23 20 21 24 15 22 25 24 20 17 25 25 24 17 19 18 16 18 16 23 19 24 25 21 22 24 24
19 20 26 16 17 15 18 23 26 16 21 15 16 14 25 24 24 15 23 14 17 18 18 21 22 20 25 24 14 24 14 26 24 18 20 14 23 22 14 21 24 20 25 16 24 14 17 21 19 26 18 17 23 20 20 15 20 21 22 19 17 19 18 17
22 21 14 14 15 18 18 15 24 22 26 21 22 18 15 22 25 18 14 18 16 20 22 16 20 18 16 17 15 15 24 23 23 18 14 20 21 17 15 23 21 24 15 25 24 21 16 14 21 14 20 18 19 16 21 21 19 26 22 16 16 25 24 26
25 25 19 22 19 25 16 18 17 18 19 22 25 17 19 23 24 26 22 18 16 21 25 16 23 19 16 15 23 21 20 17 19 16 18 15 17 15 20 25 18 20 22 19 16 24 20 18 24 19 17 23 23 22 21 18 22 19 16 24 24 24 17 19
24 15 22 24 14 15 26 19 14 17 23 17 25 23 17 14 17 23 14 18 20 20 22 21 15 18 14 17 23 25 14 22 21 22 17 16 25 26 26 19 23 14 23 18 14 14 19 20 22 21 19 26 19 23 15 23 22 14 14 15 18 26 14 18
20 24 21 14 21 26 15 18 14 19 26 17 18 15 21 18 16 21 21 26 26 25 16 14 19 23 20 17 24 18 25 20 20 14 19 14 23 19 21 16 21 26 26 20 26 14 18 25 25 17 24 21 15 18 23 23 22 24 14 17 22 22 15 19
20 24 19 22 17 22 18 25 24 18 23 25 17 19 17 18 26 14 19 16 23 19 21 14 17 21 20 15 19 19 26 17 22 20 14 21 16 24 19 19 23 23 17 23 25 19 25 24 15 20 15 24 24 20 14 15 15 17 23 14 26 16 19 23
23 22 22 20 20 18 15 17 18 17 18 26 18 24 15 20 21 19 14 24 23 25 25 21 22 22 25 26 20 21 25 23 18 15 24 16 14 15 19 17 19 20 17 22 16 15 23 14 16 22 19 24 26 19 18 26 26 18 17 16 23 18 14 22
18 15 14 23 21 24 19 20 17 21 20 23 26 18 26 25 18 24 17 16 21 24 22 16 16 26 18 16 17 26 19 18 16 26 25 25 20 18 18 16 15 21 26 17 22 24 15 14 22 23 18 16 18 23 26 15 23 25 15 23 17 14 19 22
25 15 19 17 19 20 22 20 22 24 14 24 23 20 15 26 16 26 15 14 14 24 22 22 23 25 20 24 23 14 20 24 22 17 14 17 26 20 22 25 14 16 15 22 20 22 18 19 20 16 16 21 24 15 25 25 23 17 22 15 17 25 20 16
19 21 20 21 25 17 14 18 19 24 15 19 20 17 20 23 15 18 20 23 14 23 24 21 20 23 19 14 25 22 22 23 17 16 26 18 23 22 14 17 24 19 17 26 22 22 20 18 15 14 19 14 16 17 15 22 18 19 23 24 16 14 15 20
17 15 25 23 26 25 15 16 25 18 22 21 21 18 17 18 14 23 15 16 23 16 24 19 23 25 17 15 14 16 19 14 25 21 17 19 15 20 26 21 22 21 18 23 14 20 19 20 17 22 14 24 21 26 16 20 26 25 24 24 16 15 16 16
26 24 20 21 21 15 22 25 25 19 21 14 25 14 14 14 20 14 20 15 26 17 17 23 24 24 19 15 16 20 24 24 21 24 25 21 17 14 18 26 21 15 17 26 15 14 14 23 19 20 20 23 19 16 20 26 25 22 25 23 26 22 15 22
