P2
64 64
255
23 28 20 35 18 29 35 34 36 22 32 18 26 37 26 25 34 34 22 30 35 28 31 24 21 23 37 29 21 34 30 33 27 38 34 20 19 22 32 35 34 38 30 36 19 38 36 30 26 31 26 27 34 33 34 35 34 35 31 26 37 33 24 32
30 18 33 25 37 36 26 35 24 20 27 25 28 25 28 23 32 35 18 25 20 24 19 33 20 28 26 26 30 19 28 24 25 31 30 38 24 33 32 36 20 31 37 35 18 34 38 26 34 30 27 32 20 29 22 24 31 29 34 29 21 23 32 35
38 28 32 34 30 24 36 29 19 20 30 25 31 20 18 30 27 26 38 18 20 26 34 25 26 23 30 22 27 35 37 22 21 26 34 18 27 31 35 36 31 33 38 36 18 36 19 31 18 26 19 25 33 31 31 31 21 38 38 22 35 27 32 31
38 25 30 35 31 18 18 23 37 33 20 27 28 21 26 32 35 27 35 29 23 37 26 31 23 31 32 21 22 27 35 35 22 31 27 38 28 29 21 37 33 35 21 26 24 25 28 20 20 23 22 37 24 36 34 22 36 22 25 20 26 23 26 38
20 29 22 21 23 34 31 24 35 19 21 33 28 29 34 36 18 37 22 27 23 25 22 35 23 34 28 20 38 30 33 35 38 26 35 37 19 36 35 30 19 22 33 18 24 26 19 30 20 35 24 22 27 32 33 21 25 24 27 34 32 30 31 34
29 34 22 36 26 33 37 26 18 34 38 20 27 32 21 29 31 19 34 26 37 28 38 26 29 22 25 26 36 25 28 21 29 36 35 36 27 35 26 32 24 34 24 30 23 24 24 38 18 22 25 20 22 31 22 29 34 22 38 38 22 30 31 28
23 19 35 24 23 31 31 30 19 18 29 31 19 33 26 31 37 33 28 31 22 35 34 29 34 24 31 20 25 18 26 22 33 30 22 20 24 25 27 20 33 18 35 31 35 24 27 28 27 32 35 35 35 23 35 36 25 33 31 20 37 37 31 37
26 35 19 29 21 36 18 33 24 37 34 23 27 34 31 28 36 19 22 34 25 21 25 32 18 23 23 27 38 22 25 23 19 23 19 28 24 27 25 27 33 36 28 18 36 18 18 19 32 27 19 18 25 23 36 23 31 21 21 20 32 22 22 20
25 34 34 28 26 38 36 25 31 27 32 38 24 25 30 22 21 36 24 34 20 26 33 33 24 22 27 35 27 26 25 19 22 34 33 37 26 33 34 20 35 21 36 25 32 28 29 29 25 25 29 30 29 22 20 30 35 32 18 33 32 18 25 31
32 28 28 34 23 35 34 26 20 35 23 28 29 28 37 28 33 18 37 38 29 23 31 20 21 23 30 35 37 22 29 35 26 35 35 36 31 34 30 22 20 31 22 20 25 19 38 20 18 36 22 37 23 20 20 29 33 27 36 22 30 25 31 25
23 29 20 33 37 18 27 33 38 21 30 24 34 31 29 21 31 32 25 33 31 27 30 36 18 33 22 23 20 32 27 27 18 22 21 21 35 24 29 26 20 18 35 33 37 20 26 36 36 35 30 34 30 31 18 35 25 27 23 24 38 20 29 34
25 28 19 25 34 22 19 23 27 23 31 33 27 33 33 34 21 34 25 37 24 26 38 20 18 23 33 34 21 19 36 27 34 36 21 19 21 29 25 19 30 30 18 19 18 27 28 34 27 35 27 27 30 34 28 28 30 24 26 30 24 21 35 19
34 25 32 22 22 18 28 25 22 24 24 38 33 31 20 27 20 38 28 27 30 19 24 36 36 26 29 32 21 28 36 24 24 22 33 35 23 33 34 35 30 29 36 31 28 24 28 35 29 18 28 25 18 32 27 38 37 26 28 19 18 24 23 33
27 24 23 35 25 20 32 23 35 35 37 23 28 37 22 38 20 28 34 30 30 34 19 21 35 25 35 22 25 33 18 27 38 37 35 32 31 26 20 25 32 25 29 18 38 23 34 30 34 18 33 20 37 27 20 30 26 27 30 28 24 19 37 24
23 31 37 33 21 33 27 38 34 29 36 24 22 38 31 37 32 26 31 33 23 25 28 25 32 27 30 27 27 31 18 22 28 31 25 28 18 38 37 32 29 22 35 36 35 28 38 34 23 18 20 31 37 20 38 37 28 23 37 36 28 21 27 28
20 22 30 32 33 34 23 18 23 19 22 30 31 26 22 26 34 21 24 37 36 30 20 35 30 31 35 24 37 18 35 19 20 21 29 18 35 31 24 21 20 35 27 38 22 34 27 29 19 19 36 34 38 35 26 37 21 37 20 22 26 29 29 18
38 20 19 21 34 29 18 29 36 21 37 34 19 30 31 22 33 26 18 36 21 22 18 27 27 33 22 38 32 18 34 36 18 20 19 33 21 19 34 38 36 20 38 25 32 33 38 35 26 34 34 34 37 29 26 27 19 36 33 28 37 31 22 36
35 23 22 22 21 18 37 26 33 22 28 20 37 37 36 20 32 20 36 28 22 31 24 30 30 35 27 20 36 33 24 23 35 35 30 34 23 23 18 35 37 25 32 29 32 28 22 33 33 18 21 20 18 24 37 25 23 34 20 27 37 25 21 22
31 28 29 29 20 21 19 21 21 34 27 35 21 26 28 36 23 29 25 38 32 29 30 35 28 37 35 35 22 29 31 33 25 18 37 25 31 30 21 26 37 31 24 34 32 29 24 38 33 22 29 26 25 38 27 37 32 31 36 24 37 25 24 36
19 24 24 37 19 32 37 19 26 31 36 22 35 22 19 35 29 22 35 23 22 28 22 36 31 21 35 18 31 18 18 30 36 31 30 23 37 30 20 26 21 31 34 24 22 41 34 28 27 27 30 38 25 25 33 35 20 20 33 36 36 27 29 28
27 33 18 23 32 19 37 35 19 33 18 21 18 24 27 22 39 40 30 25 40 36 25 39 38 29 40 36 32 24 38 34 24 23 28 22 26 32 31 38 32 42 39 29 41 33 42 28 29 32 28 23 31 25 37 19 18 23 32 25 29 22 25 36
24 24 31 37 35 19 27 31 23 23 25 27 37 31 24 36 28 47 44 30 49 34 47 43 35 34 38 28 39 27 38 21 34 28 21 23 37 24 42 37 37 31 36 45 41 39 33 42 39 25 31 32 35 34 21 36 23 28 23 24 37 21 34 21
29 34 27 36 34 32 23 23 32 20 24 28 39 24 30 46 41 34 35 33 36 47 45 37 39 46 37 40 32 33 28 20 22 27 39 25 30 31 43 41 49 50 36 44 52 48 37 50 35 34 46 39 21 34 19 37 36 30 30 30 30 27 31 37
20 25 22 35 22 35 24 30 21 23 28 34 32 38 29 39 49 53 51 39 43 56 47 43 36 52 32 29 33 36 33 36 26 23 37 38 40 33 40 41 46 54 37 41 51 56 43 38 33 50 35 40 25 29 19 32 26 19 28 24 30 26 38 38
21 29 38 32 28 38 31 28 22 32 39 42 31 50 46 53 42 39 49 48 44 58 46 42 49 37 53 37 44 34 44 25 24 41 27 39 47 45 50 50 42 56 44 43 46 54 40 50 37 55 40 42 35 24 38 38 29 31 32 31 18 35 23 37
29 38 31 38 37 33 29 26 36 33 43 45 34 42 35 58 57 45 60 48 47 62 49 49 52 58 57 50 34 41 35 29 36 37 28 46 38 51 46 46 43 53 50 48 48 60 63 62 57 39 47 37 47 36 32 34 19 34 35 28 23 38 34 25
32 25 19 23 20 21 37 25 18 36 45 30 37 43 45 48 56 48 59 68 68 66 61 63 60 61 43 52 53 51 41 27 29 42 43 35 51 53 47 54 48 55 52 53 64 65 65 64 55 56 40 55 43 31 30 36 18 36 19 19 33 38 34 23
29 21 22 18 18 38 30 25 25 25 34 34 40 40 61 50 50 62 54 70 68 59 61 56 69 56 47 43 52 51 31 30 39 41 37 46 42 43 52 64 56 70 65 72 68 52 63 59 56 48 56 38 48 45 35 38 38 38 25 25 34 29 32 26
29 34 20 29 25 21 25 21 30 31 32 43 52 57 44 57 59 59 68 67 57 70 70 65 63 61 49 52 44 44 46 38 34 48 37 53 55 63 52 54 59 64 61 62 69 73 72 61 55 50 43 40 47 35 40 28 21 34 23 38 22 33 25 31
19 21 37 20 35 18 19 31 28 34 32 37 52 44 51 54 65 68 72 79 70 80 70 68 71 56 54 60 53 55 46 39 35 39 39 52 50 44 63 69 71 77 74 76 81 74 71 75 67 53 53 54 44 46 33 41 37 33 37 24 36 32 35 19
33 32 21 37 38 24 27 34 31 39 41 49 56 57 64 68 65 59 67 63 75 78 71 75 60 69 62 55 62 55 37 55 48 42 37 41 45 64 62 73 64 71 79 73 72 68 66 58 59 62 56 49 42 49 45 29 39 38 21 22 28 20 22 27
21 34 22 24 20 27 34 21 24 42 41 53 44 53 66 71 74 60 71 77 72 87 77 70 77 55 53 57 52 43 52 50 37 48 53 55 54 59 54 67 60 80 74 87 88 72 73 58 66 65 49 49 51 36 39 31 28 35 22 30 26 37 20 25
19 25 32 21 38 22 25 31 35 48 48 40 39 47 53 69 71 73 80 81 73 83 70 82 62 62 64 55 50 41 43 56 55 39 57 39 53 61 70 62 63 67 69 80 82 72 78 77 60 69 47 59 45 45 46 31 34 35 18 22 33 30 29 38
24 32 21 21 26 34 34 24 41 33 34 41 41 46 56 55 63 59 82 68 82 82 66 66 66 73 51 64 58 41 52 37 38 54 57 52 43 66 65 72 59 71 72 84 71 67 79 64 75 65 57 58 50 35 50 34 27 26 22 18 26 23 19 28
19 21 27 31 26 22 30 24 41 46 42 51 46 62 54 56 69 72 79 81 71 66 77 80 57 55 70 59 59 52 55 43 45 51 40 45 53 57 61 70 76 60 70 65 67 80 66 58 65 60 53 42 44 51 39 29 26 33 32 27 26 29 34 26
25 32 27 24 18 34 38 22 35 45 36 53 56 60 62 50 58 68 71 62 71 67 74 76 65 54 65 60 58 52 47 41 34 46 40 54 54 45 50 63 55 75 76 75 78 75 65 64 69 56 58 55 57 46 44 38 39 36 20 19 27 23 23 21
19 37 24 20 23 28 38 38 40 32 38 37 51 51 58 57 53 72 58 72 62 71 69 54 62 55 66 63 46 48 35 45 37 45 50 43 50 52 59 51 65 68 68 61 69 76 73 71 67 46 56 49 42 49 44 43 24 29 30 35 25 27 30 31
35 36 24 25 24 28 31 37 28 41 38 35 48 57 53 48 62 55 54 59 71 63 58 62 49 46 57 40 54 50 30 49 43 41 31 37 41 54 45 66 56 63 60 61 67 64 71 53 52 47 54 48 36 34 30 40 34 32 38 22 38 25 33 18
34 27 26 20 18 19 19 18 37 35 37 37 37 53 46 59 61 63 58 56 69 55 57 59 48 58 55 45 50 48 29 25 34 31 49 50 51 43 46 62 47 61 57 58 56 65 55 46 52 42 44 47 34 33 40 39 24 20 19 26 38 31 19 30
23 39 38 37 24 31 23 41 21 39 33 39 50 56 52 54 58 53 50 52 49 56 64 60 56 61 47 40 39 36 38 30 32 31 34 46 40 54 48 58 66 56 66 59 68 60 52 49 52 55 49 39 52 46 36 37 40 34 32 41 38 42 30 29
29 35 39 33 41 33 31 27 38 26 43 32 36 58 41 46 50 51 48 64 63 58 65 62 48 59 50 46 43 52 36 33 39 35 45 41 45 57 58 54 61 71 58 64 72 58 62 63 48 58 51 46 54 47 36 42 49 35 31 44 38 45 41 35
28 29 38 48 31 38 36 41 48 43 46 40 38 39 52 45 64 63 54 53 58 66 51 59 50 60 48 58 47 43 47 36 48 47 49 42 50 57 61 49 51 59 66 67 57 54 65 61 66 63 56 44 47 46 42 37 36 38 45 38 53 55 48 47
35 41 27 32 34 41 27 33 44 27 29 39 41 39 34 36 39 41 47 59 48 47 56 47 55 58 53 45 44 35 28 38 40 27 47 40 49 50 48 58 60 55 49 51 46 44 49 61 46 44 44 50 42 49 31 39 32 39 44 36 44 32 43 47
29 34 35 22 28 21 33 40 36 25 39 34 23 39 46 46 39 43 49 41 33 36 50 35 31 31 37 32 42 39 37 27 35 29 31 27 41 39 48 33 50 41 44 42 52 46 53 42 45 45 48 26 36 42 31 27 34 41 24 41 35 31 32 33
36 38 37 35 20 28 35 20 21 38 34 21 36 30 29 25 37 37 33 31 29 27 42 37 38 23 37 36 32 35 30 18 32 18 23 21 29 25 24 42 25 40 45 32 44 44 35 29 42 23 31 37 19 24 35 38 38 35 25 18 37 38 33 26
32 33 35 25 33 24 26 34 18 22 35 34 22 26 28 24 24 27 21 32 30 22 26 30 29 25 37 18 34 23 23 31 26 18 36 32 18 26 31 30 39 41 34 32 35 25 38 34 30 35 34 25 37 32 22 24 22 24 37 29 27 31 28 23
23 27 38 23 28 22 35 19 22 27 38 33 25 32 18 33 25 19 23 28 26 20 22 28 24 37 26 19 31 27 35 25 33 37 30 26 38 33 20 36 27 38 22 27 34 34 33 22 28 18 37 26 36 20 26 26 19 37 23 30 20 38 20 37
38 23 21 21 21 33 25 24 23 25 20 38 38 31 24 20 37 21 24 18 37 27 32 23 34 30 36 36 38 30 32 34 24 28 22 32 21 18 32 23 32 24 28 37 25 28 30 35 28 37 32 22 31 28 28 32 30 20 25 21 35 32 24 27
18 18 37 23 22 27 28 29 21 27 18 26 25 24 38 35 33 21 27 34 33 28 25 19 19 22 22 35 27 37 36 30 34 25 29 19 38 35 32 29 24 36 28 38 28 23 20 27 31 37 23 23 38 33 22 36 26 21 38 31 38 31 31 24
32 27 37 27 30 34 25 33 21 26 25 19 34 35 21 28 36 30 30 35 28 20 20 25 37 18 18 35 32 36 20 35 26 18 35 22 28 23 28 35 26 26 34 28 38 20 29 18 37 36 21 37 37 31 18 31 24 37 26 36 24 18 19 24
18 37 34 36 32 27 20 35 35 35 34 24 23 34 35 21 38 22 33 28 38 32 33 19 34 18 20 30 28 26 28 33 38 23 34 35 19 27 22 35 34 24 31 25 31 28 20 23 36 28 27 35 37 36 33 22 35 38 23 23 25 32 34 24
19 19 24 23 22 27 34 25 30 33 34 35 26 35 38 21 29 33 36 22 34 33 19 37 37 27 20 26 22 36 24 36 36 36 24 23 27 38 34 30 36 33 29 21 32 31 33 30 30 29 32 28 26 29 38 30 20 22 37 27 32 36 20 34
33 30 33 25 29 21 34 37 24 20 36 22 18 35 25 27 19 23 34 26 19 29 20 26 27 19 38 26 38 25 31 36 32 18 19 19 28 35 19 26 28 31 29 37 29 29 24 18 26 33 28 22 37 22 24 19 19 31 30 19 23 18 29 26
35 23 22 26 26 19 30 25 31 38 25 20 25 20 26 35 38 30 33 37 28 33 30 27 34 26 33 29 31 35 36 36 29 23 23 35 35 23 22 29 26 20 35 22 22 24 29 31 27 31 31 37 23 32 30 19 21 19 21 36 32 23 23 24
27 30 22 37 22 32 26 35 21 38 19 20 36 36 24 33 38 37 21 20 30 36 28 37 26 32 37 21 35 37 20 19 34 22 35 21 28 31 24 37 24 36 28 31 24 36 22 38 33 28 19 28 25 38 18 38 37 20 19 25 24 35 23 32
33 22 31 30 24 23 31 35 32 20 30 29 23 31 28 37 19 37 21 22 20 24 37 23 31 32 25 30 32 25 29 34 25 29 22 37 32 37 32 31 24 19 26 19 18 33 22 28 32 32 26 22 24 35 28 19 38 35 19 35 28 20 22 18
24 36 25 34 34 20 24 25 37 29 23 22 33 34 29 36 25 32 30 32 34 28 30 19 24 31 36 29 26 31 21 38 27 21 21 18 38 29 23 38 25 38 38 25 22 27 21 31 22 38 26 30 38 29 33 30 30 19 36 20 29 20 27 30
30 21 36 31 26 32 37 18 34 18 27 23 21 25 27 20 27 30 23 21 36 18 28 28 22 23 29 24 38 38 26 32 25 32 37 28 31 27 22 33 20 21 23 21 19 26 34 24 27 21 24 18 37 30 23 27 26 19 38 27 27 21 32 28
20 20 37 35 27 21 27 36 34 26 28 19 35 25 24 28 37 20 26 35 29 29 38 20 34 18 22 31 36 19 33 35 30 26 35 18 37 27 35 30 37 28 24 37 21 19 37 38 33 22 18 25 35 33 20 29 30 35 18 36 27 19 24 33
33 26 33 28 20 36 28 31 29 26 34 21 36 32 34 37 31 24 36 37 34 29 19 20 27 36 35 28 27 29 24 20 21 29 33 36 33 22 18 25 31 24 26 33 30 21 21 19 21 37 27 19 21 26 29 37 26 35 37 35 30 33 34 38
19 22 27 19 23 28 34 38 32 30 23 32 29 32 21 26 20 26 36 35 19 26 32 33 30 31 28 19 38 31 20 37 26 24 35 29 31 19 34 36 38 27 36 27 30 22 22 35 18 19 37 28 36 20 37 20 23 21 22 36 38 24 25 25
25 20 21 34 33 20 23 37 36 25 28 34 33 20 25 28 31 38 18 18 30 27 38 33 33 24 32 28 34 36 28 30 29 26 31 34 28 32 30 28 32 36 25 24 29 38 38 34 34 29 34 19 29 35 31 38 18 27 22 32 35 31 28 38
27 28 19 35 37 34 23 23 23 36 22 34 23 35 20 22 24 36 24 21 20 32 23 24 36 32 36 27 37 23 34 19 26 30 30 35 23 21 21 21 37 24 20 38 28 31 37 37 33 20 27 35 28 37 35 30 21 27 19 28 31 32 20 26
28 29 31 26 32 20 35 29 31 20 28 23 22 18 32 26 28 28 34 36 32 20 32 27 29 25 22 21 19 19 19 34 32 26 23 34 19 30 26 21 25 26 26 33 18 37 38 21 35 29 30 19 30 24 32 26 29 28 33 27 22 29 36 23
