P2
64 64
255
21 35 32 23 38 25 25 31 26 19 25 30 18 24 28 29 32 32 25 22 35 19 34 20 20 21 28 38 25 30 30 38 19 33 37 30 28 26 27 30 29 31 37 19 30 25 37 33 28 21 24 24 24 37 26 26 29 21 19 19 38 35 31 36
37 36 22 27 19 20 38 20 19 27 37 38 37 24 19 21 25 18 36 19 30 31 18 27 18 30 18 36 27 34 23 34 27 34 21 31 28 32 24 26 36 24 21 36 34 34 34 35 34 29 37 38 27 28 20 38 24 20 30 31 38 36 24 19
28 34 38 29 18 32 25 20 32 21 19 23 28 30 21 27 28 34 35 33 30 23 33 20 18 20 28 36 19 24 29 19 38 35 27 29 22 29 29 28 21 38 35 35 38 26 23 30 33 36 35 21 23 30 18 21 24 25 24 27 36 22 32 22
26 19 34 24 31 18 36 27 37 18 31 19 35 18 38 37 20 28 34 33 31 22 21 36 22 25 35 21 38 27 27 26 26 20 32 29 32 20 22 25 37 18 29 26 28 21 30 30 32 31 21 30 36 22 26 26 20 20 26 21 19 31 30 34
38 34 24 20 19 23 35 37 35 22 22 25 32 30 21 31 18 35 22 30 32 30 38 26 33 35 26 32 18 36 28 31 38 24 19 27 37 22 34 30 29 23 24 38 29 24 38 27 18 24 28 21 31 29 24 32 23 23 37 25 37 18 30 35
29 25 20 25 30 26 36 38 28 38 37 38 31 23 24 21 36 33 23 25 34 19 21 25 19 20 30 20 34 24 18 27 33 19 32 35 35 24 31 19 18 29 35 27 25 26 35 22 21 32 30 21 22 38 26 28 25 34 24 38 37 25 31 18
18 22 20 36 28 38 24 36 27 19 23 31 35 29 19 24 34 37 28 28 21 24 29 23 34 33 18 38 26 18 26 20 34 34 19 31 29 22 36 27 18 35 35 30 25 27 27 35 18 18 19 21 38 22 36 35 22 35 25 37 26 35 24 29
22 25 24 26 36 38 19 19 20 29 31 34 19 20 22 18 36 26 22 24 19 27 33 20 29 22 35 30 27 34 23 36 38 26 31 22 34 35 20 37 38 29 31 35 29 27 19 32 36 19 30 34 23 25 26 18 19 24 27 20 31 38 19 33
21 35 25 32 18 32 36 29 25 24 30 38 27 24 23 34 19 27 32 18 20 37 32 28 36 38 18 34 26 37 18 37 30 19 36 32 33 24 18 27 19 33 31 24 36 35 20 29 21 37 28 35 20 24 22 26 35 33 22 23 25 24 38 22
25 25 20 20 27 21 35 36 35 26 38 28 31 21 26 35 33 29 33 18 27 31 31 31 32 34 19 34 36 26 37 28 21 35 26 21 28 32 29 18 18 32 22 32 31 18 27 30 23 37 29 20 27 26 38 30 34 28 25 32 22 27 19 24
36 26 19 24 23 18 30 25 32 18 27 29 32 20 24 25 23 31 36 34 23 35 26 19 21 24 37 29 31 27 31 29 35 36 21 29 19 27 23 33 31 34 27 24 19 20 26 34 28 18 26 18 34 35 20 29 21 38 25 35 23 19 20 37
23 18 28 33 20 34 24 23 29 18 20 25 35 36 23 23 28 38 25 27 24 36 22 20 32 19 25 29 38 20 24 21 33 27 20 38 38 26 35 34 22 29 18 29 32 36 37 31 36 24 29 24 35 38 27 21 24 23 28 37 26 26 28 36
37 35 33 27 20 23 31 35 18 37 24 21 30 36 31 24 34 26 19 32 25 30 32 29 38 25 28 19 19 32 35 35 21 20 21 26 34 23 35 25 29 34 29 31 24 29 20 24 36 30 27 34 26 35 32 24 26 34 22 33 28 33 37 32
32 38 34 31 18 26 28 21 25 26 26 34 23 19 21 38 35 37 35 36 28 23 21 25 34 30 27 22 34 30 23 20 38 21 25 27 38 19 28 23 36 25 23 24 18 20 23 31 34 24 35 25 26 21 19 37 19 26 21 30 23 34 20 22
25 34 28 18 31 22 23 18 28 19 21 20 35 19 38 23 23 36 23 31 36 19 37 33 36 34 36 32 29 34 29 23 25 36 26 26 36 26 36 37 32 25 26 26 22 26 28 22 26 26 31 34 37 18 25 19 34 20 37 22 38 20 21 28
36 37 28 25 32 35 32 38 30 21 28 21 35 24 35 38 30 28 34 35 30 32 35 21 19 19 21 19 37 20 31 30 20 30 24 32 30 25 29 37 23 32 25 37 27 20 19 37 21 25 27 22 23 32 18 29 26 31 20 24 21 30 34 20
24 27 37 21 36 31 33 18 33 23 30 34 35 30 29 20 26 22 36 30 31 25 38 27 35 32 37 34 23 19 29 28 31 34 19 25 35 28 36 31 31 31 29 20 27 24 34 36 31 20 30 22 19 28 32 26 26 35 27 34 33 24 30 30
32 24 18 18 21 33 35 25 38 34 29 35 26 23 30 22 20 36 19 20 24 28 22 26 26 38 19 34 32 34 31 28 35 36 24 18 35 18 36 30 22 34 18 19 24 27 37 37 33 38 35 23 29 21 24 33 18 38 36 20 26 18 21 24
34 21 24 18 33 35 34 23 32 38 27 35 28 35 29 19 32 18 27 29 22 34 38 27 37 30 38 26 30 18 31 28 23 20 34 32 31 19 19 35 31 33 21 21 23 24 35 26 29 22 35 36 27 28 38 37 23 38 22 21 29 33 28 34
19 25 20 34 21 20 24 19 18 36 22 28 37 28 38 37 30 38 30 38 41 26 28 40 34 23 28 26 23 35 30 35 35 27 24 21 22 34 19 26 38 33 25 23 34 41 38 24 23 33 19 27 31 18 30 36 24 35 24 26 37 33 22 22
23 34 37 24 28 26 33 38 21 32 33 35 36 31 25 32 25 33 45 25 39 26 44 28 24 32 21 36 31 37 27 26 19 38 33 18 38 29 41 38 32 27 39 29 31 37 25 26 24 35 36 18 21 22 29 22 27 23 22 33 29 30 31 29
35 25 23 32 32 18 27 19 18 30 20 37 31 31 34 32 43 32 35 33 39 29 43 45 43 35 31 26 22 27 23 26 31 34 32 24 30 31 25 44 30 33 33 42 33 33 37 42 44 39 41 28 27 36 24 23 22 20 20 35 35 25 31 27
25 29 36 21 37 21 37 33 18 34 35 30 33 37 32 31 43 38 41 42 50 53 49 50 45 44 30 34 30 29 39 21 18 28 30 27 25 45 31 47 41 49 43 44 43 51 43 43 30 31 33 41 22 23 20 35 27 34 21 28 36 28 26 27
34 38 32 29 23 21 18 33 33 26 21 35 34 33 34 34 39 47 41 40 53 42 56 43 53 34 31 36 38 41 25 37 31 20 35 43 39 43 49 51 45 52 53 47 51 48 46 36 47 44 48 37 40 35 22 24 19 36 20 20 21 38 23 29
29 30 24 28 25 23 29 26 35 23 21 38 29 42 42 48 45 48 45 52 53 48 43 53 44 45 50 40 45 41 24 29 34 27 28 30 33 37 37 48 55 59 45 45 48 45 49 54 48 38 52 34 42 43 32 28 29 29 31 22 33 31 30 35
24 22 35 23 35 33 23 30 33 32 32 27 49 48 52 46 54 45 51 48 63 63 64 51 56 56 56 40 33 34 30 25 34 35 44 39 48 46 43 52 48 58 52 46 63 50 53 57 52 51 36 46 37 33 31 37 37 30 38 37 18 38 35 38
18 28 35 34 22 36 38 23 19 37 32 33 37 52 51 52 46 54 48 52 51 62 58 66 59 63 58 40 40 43 41 39 37 36 39 36 40 47 46 63 65 52 61 57 63 57 49 59 63 57 40 44 47 34 32 25 35 21 23 19 33 26 34 32
22 22 18 35 32 33 29 31 20 37 47 33 39 42 56 52 62 50 66 66 72 72 60 66 57 62 62 54 43 50 46 30 29 35 30 35 46 58 47 61 59 56 60 70 66 66 64 65 47 52 59 39 51 36 36 32 40 21 26 25 20 33 37 24
38 23 18 18 28 20 25 27 23 27 44 48 39 40 59 48 69 56 59 68 58 59 75 68 53 65 52 49 39 42 50 35 35 38 49 41 45 49 53 58 60 66 63 67 71 66 66 62 50 53 52 45 40 47 35 30 36 29 30 36 24 28 27 19
22 24 36 19 37 27 24 33 39 26 43 45 40 53 65 65 68 67 64 70 70 70 59 63 69 68 59 45 52 44 41 36 53 50 45 41 53 55 57 60 55 69 79 81 70 69 69 73 63 60 61 59 38 48 48 29 28 34 28 30 19 20 27 27
18 26 22 24 18 26 38 21 36 35 40 38 57 57 54 64 73 68 67 71 79 66 67 70 59 58 65 59 48 46 41 43 55 55 38 56 44 52 54 67 58 69 83 75 70 67 75 74 66 54 60 54 41 41 33 32 34 19 28 22 20 22 25 30
33 23 26 33 33 31 28 31 29 47 40 37 53 58 48 64 59 72 78 66 78 79 78 75 76 74 64 51 61 42 38 45 48 54 53 46 61 57 63 54 77 76 73 69 77 85 66 61 74 53 49 48 54 43 41 40 26 35 24 27 26 23 32 30
22 29 22 20 25 29 38 38 38 33 42 43 39 43 56 61 73 78 67 78 76 88 87 69 64 75 68 55 49 41 52 37 57 40 46 55 52 62 63 72 65 77 74 85 89 67 79 67 66 68 62 45 50 44 52 46 37 30 20 18 29 33 25 24
27 36 26 37 35 23 37 36 35 40 32 49 58 54 51 62 55 68 74 79 83 84 70 76 70 63 59 54 48 41 50 46 48 46 38 44 51 48 63 56 70 70 70 82 70 83 76 75 57 65 58 43 58 41 35 40 42 33 20 34 38 33 34 34
33 25 22 23 21 32 33 30 43 33 48 35 58 57 46 53 71 71 67 73 64 74 80 61 71 66 64 49 58 56 49 54 55 41 47 51 62 64 51 69 63 64 78 79 74 78 63 62 66 65 66 43 53 51 46 34 39 34 31 35 33 21 33 36
34 29 19 33 32 29 19 21 27 31 35 39 40 56 52 68 66 55 76 61 81 69 77 63 70 61 54 59 42 53 42 44 43 39 35 57 51 45 60 69 69 58 72 63 64 62 73 65 60 56 61 49 37 37 38 36 27 20 30 32 28 36 35 29
25 26 37 33 23 27 21 31 25 26 45 33 50 55 52 60 65 62 73 58 73 69 59 56 53 62 61 52 53 41 32 50 33 45 44 42 40 43 49 52 54 67 68 69 63 65 64 56 53 51 49 56 36 38 29 40 36 19 33 31 37 22 20 29
35 27 31 36 34 38 34 36 36 42 38 32 37 46 43 56 60 58 65 60 63 57 61 63 62 52 59 56 49 42 41 31 35 44 48 46 51 41 62 64 65 55 57 67 59 71 58 67 65 46 56 50 45 46 30 28 33 22 29 32 24 26 33 26
35 24 20 28 34 26 18 27 34 40 29 41 49 37 40 59 51 64 50 61 64 52 58 56 49 48 61 51 36 37 46 28 43 28 38 48 40 40 59 50 60 56 66 66 66 66 61 47 63 49 46 36 43 43 30 22 23 32 26 24 31 31 28 19
25 38 35 24 41 35 23 21 22 23 37 41 51 44 44 49 59 60 67 57 57 55 63 54 61 44 53 43 39 48 49 31 47 48 43 34 57 43 44 62 59 49 66 61 59 66 59 57 62 64 49 52 56 49 41 44 32 35 33 37 32 26 26 32
30 44 39 26 33 41 39 30 30 32 43 41 42 41 50 56 59 49 57 49 57 65 54 69 60 66 58 58 39 47 46 40 44 50 38 42 47 54 61 66 66 53 71 70 54 58 71 59 61 47 59 46 40 45 42 44 30 39 30 31 42 41 49 31
47 33 45 31 39 29 39 29 43 42 34 44 48 46 54 47 62 63 60 68 68 59 58 66 65 54 45 51 53 47 41 34 45 51 46 42 57 44 65 64 71 64 71 55 69 66 57 70 54 68 61 55 50 55 43 43 46 56 39 49 46 53 53 53
37 34 31 24 33 28 40 43 26 33 34 44 35 31 49 54 57 55 49 52 41 61 52 41 40 52 42 36 39 37 34 33 31 40 32 32 53 47 56 41 58 61 52 48 46 50 45 49 61 40 54 52 38 38 42 50 30 50 47 33 48 31 31 30
24 32 24 41 38 30 40 31 31 37 28 32 21 36 36 38 36 46 43 42 33 51 42 46 46 43 28 28 41 32 35 33 39 33 26 23 43 43 43 31 41 40 34 51 45 46 36 50 38 48 41 31 38 32 34 40 35 32 31 44 25 33 44 33
26 38 27 30 31 38 36 26 21 20 23 32 22 24 37 37 24 28 26 35 42 43 29 25 44 42 26 23 20 31 22 38 18 29 23 38 37 29 23 37 27 42 40 44 41 36 44 25 42 40 38 26 24 23 20 25 29 23 35 25 27 38 23 34
28 21 33 28 22 38 36 20 18 29 36 31 26 23 27 28 34 21 31 26 22 24 24 31 35 29 36 28 36 26 30 37 22 22 28 24 20 32 19 39 37 36 32 42 25 21 29 29 19 18 19 33 27 29 20 27 24 22 25 34 36 23 20 28
20 21 19 21 31 19 36 35 31 26 24 24 19 34 35 26 38 34 23 27 24 26 18 33 21 32 32 28 29 33 18 37 27 28 34 36 33 35 19 27 32 19 31 25 27 35 30 34 22 20 26 18 23 36 34 24 37 35 32 38 31 29 21 33
22 26 29 20 34 20 26 35 19 36 27 38 31 37 33 24 29 26 22 24 29 36 38 31 22 32 33 30 24 25 34 24 38 30 33 36 20 32 20 30 37 32 18 37 33 23 32 34 36 23 35 18 26 18 20 20 19 37 35 29 28 18 38 24
31 38 35 30 34 30 26 36 22 38 30 33 29 18 36 35 18 28 22 28 23 37 38 24 18 34 30 37 29 21 29 38 25 21 34 25 25 23 27 38 31 35 28 34 32 31 38 19 18 21 32 38 25 24 26 36 38 32 23 25 36 19 27 30
33 38 33 19 38 33 18 38 28 27 35 32 27 33 25 27 27 18 19 29 32 34 36 21 32 28 26 26 27 26 23 26 36 38 32 38 27 27 31 20 37 30 26 20 37 18 36 22 20 35 36 21 33 32 20 21 20 23 21 19 35 18 28 31
27 22 36 19 26 33 25 27 31 33 31 32 31 24 20 30 19 18 38 26 26 18 32 24 37 33 34 25 38 27 37 18 23 38 18 35 36 33 20 21 34 30 36 30 34 27 22 33 27 21 26 28 29 32 31 22 34 24 26 22 22 19 31 30
19 34 22 33 32 30 21 32 33 21 26 30 32 38 37 30 25 31 33 36 36 35 33 31 30 24 38 19 19 27 18 30 23 36 38 22 33 21 33 20 36 18 30 35 30 29 34 24 23 34 21 24 29 25 35 19 35 23 25 24 31 25 28 18
23 32 34 32 35 18 36 30 37 19 18 25 21 18 29 27 29 24 26 33 24 18 19 24 22 35 29 19 18 21 18 28 22 31 22 27 30 27 37 30 36 37 27 31 37 35 34 26 31 36 38 24 19 36 29 23 23 22 21 30 18 32 30 20
33 23 28 27 34 26 38 23 24 27 24 34 23 33 20 28 19 20 35 26 21 26 35 37 19 26 22 33 30 21 22 34 26 27 18 36 30 33 21 24 37 23 21 38 31 38 23 19 23 28 18 36 18 37 23 25 31 22 19 31 23 26 33 33
23 38 31 28 26 36 22 25 28 34 22 34 38 34 20 34 32 25 32 20 19 28 26 35 22 23 23 26 24 31 29 34 24 21 26 24 19 19 31 38 21 24 35 25 19 34 31 26 29 25 33 29 19 25 34 27 21 26 25 27 31 32 27 18
19 34 32 34 29 36 18 27 33 20 33 20 19 18 23 24 38 33 33 19 24 38 23 18 34 38 31 25 33 38 20 30 19 24 27 28 38 28 25 30 21 28 33 25 24 34 35 31 18 19 18 26 36 31 34 38 35 36 38 24 35 24 22 35
30 28 30 32 38 29 19 18 34 22 32 32 22 38 35 27 25 31 24 27 27 18 27 38 23 38 20 23 18 30 33 29 31 20 34 35 19 33 20 29 38 27 29 28 22 32 33 35 19 26 38 28 21 37 35 19 22 27 38 19 34 23 36 28
19 25 22 27 36 18 32 31 30 29 29 18 38 31 36 33 26 31 21 29 34 20 19 29 36 27 18 21 19 27 20 34 31 31 33 32 25 21 38 37 34 34 34 25 20 31 37 18 38 28 19 30 24 25 26 25 26 24 36 27 38 34 20 20
34 33 29 25 27 20 18 34 31 34 36 38 18 25 38 33 22 19 33 36 27 34 24 33 28 20 31 20 21 29 37 31 22 38 38 37 27 31 29 25 28 34 19 22 36 21 30 22 32 34 37 24 32 29 38 31 28 24 31 19 23 38 35 37
37 37 25 29 38 19 18 25 23 25 36 23 19 19 27 33 28 20 31 28 30 31 34 37 21 28 32 20 32 38 34 20 23 38 27 28 38 35 28 19 37 27 22 36 26 35 19 35 28 38 27 32 37 27 25 19 33 26 30 27 33 35 25 27
21 29 31 25 36 32 26 21 20 30 19 35 37 32 34 20 26 38 27 19 19 21 27 37 30 18 33 28 35 36 25 18 37 35 38 36 35 28 38 36 27 20 28 32 35 26 22 30 38 24 24 28 24 30 37 25 28 33 18 33 18 22 26 24
33 33 21 25 28 27 19 34 21 22 28 22 23 37 23 35 21 20 36 34 32 35 19 36 38 18 18 25 32 26 37 31 30 26 35 28 25 26 29 34 25 31 20 20 27 21 38 22 18 34 28 36 20 33 19 18 32 20 28 32 29 19 36 38
27 36 23 23 23 32 31 24 35 18 26 29 20 21 29 30 20 30 24 23 26 19 30 35 27 38 29 31 32 26 33 23 22 32 34 19 22 27 22 29 38 37 30 27 21 23 31 19 35 33 24 34 26 37 18 23 21 25 26 25 23 25 30 29
26 31 35 32 26 30 19 29 33 38 20 20 31 24 25 21 20 30 27 38 37 28 37 35 35 29 37 21 24 20 32 19 31 31 20 23 32 27 19 19 31 19 26 28 33 25 18 33 25 19 35 33 34 22 29 35 29 37 33 23 22 31 24 23
