P2
64 64
255
20 26 15 26 25 19 23 20 15 17 25 20 16 20 17 22 15 14 24 18 23 25 19 19 23 25 24 24 15 21 23 16 26 14 21 24 23 15 17 17 19 25 14 17 17 24 20 25 26 23 18 22 18 24 15 19 26 15 18 16 17 21 15 21
17 15 24 21 26 22 24 20 15 22 18 22 25 16 25 19 24 21 17 26 14 14 19 17 26 15 22 19 19 14 21 20 17 15 25 23 19 20 20 21 17 20 17 16 17 16 24 22 15 25 21 17 15 20 23 14 26 15 26 15 15 25 17 20
20 16 15 24 19 18 16 14 15 14 23 18 21 24 23 21 19 17 14 15 25 26 14 17 24 15 17 21 18 16 24 19 17 24 17 25 25 17 20 26 22 20 23 26 19 23 22 22 17 16 22 26 17 24 19 15 25 24 21 16 15 21 25 23
19 17 15 26 25 15 17 26 20 20 25 18 23 17 23 20 20 24 16 16 23 20 17 16 19 26 16 18 20 17 15 25 14 18 15 17 14 22 23 26 15 16 19 19 26 21 24 20 24 18 14 21 21 23 26 15 23 15 26 22 16 18 18 21
21 18 25 19 21 14 19 15 25 18 18 22 21 21 15 21 26 26 17 16 14 14 26 14 14 26 18 25 15 22 22 21 24 18 23 23 18 15 20 26 17 21 22 16 21 15 23 15 24 24 19 25 24 24 24 18 26 24 14 14 22 20 19 17
14 17 25 19 21 15 24 17 21 23 24 22 25 16 16 26 21 25 16 16 26 22 16 22 22 18 18 21 14 23 24 23 24 18 15 22 18 25 25 15 17 21 23 14 26 14 23 14 21 16 21 23 25 17 25 17 22 22 23 17 16 14 23 17
17 25 26 23 17 26 17 24 25 23 19 17 17 17 16 15 16 14 24 17 24 22 14 17 21 23 25 26 20 26 16 19 21 18 19 23 21 18 26 26 20 24 20 23 19 15 18 26 21 24 19 22 16 25 18 22 23 18 16 19 23 24 21 21
20 24 24 24 26 23 19 22 26 26 22 24 21 22 20 26 14 18 23 16 25 20 17 23 25 15 18 21 15 22 26 17 20 26 21 16 21 14 15 24 19 24 14 24 22 16 24 21 16 23 21 25 15 19 17 20 25 16 18 21 20 26 18 19
26 21 20 24 25 17 14 19 21 17 18 26 14 17 25 20 16 23 21 22 19 25 22 19 15 24 14 22 17 22 25 25 23 17 24 16 20 14 16 14 24 18 14 18 16 15 14 18 15 15 23 14 24 15 21 20 18 22 18 25 22 21 24 14
20 23 17 18 19 15 26 23 25 24 26 26 26 14 24 21 26 22 17 20 15 15 16 26 14 16 16 24 24 22 16 17 15 19 23 26 22 21 25 23 23 17 14 16 18 15 26 17 21 20 18 23 14 25 22 17 16 16 25 19 23 25 18 20
24 26 24 21 26 21 19 18 26 19 21 14 18 20 22 26 17 23 17 24 22 20 25 19 17 14 24 19 15 26 24 18 21 18 22 14 17 26 15 22 20 26 16 24 14 22 15 20 21 19 17 22 15 17 17 18 23 25 25 16 22 23 26 23
16 14 14 26 17 25 23 23 24 14 19 20 26 15 21 16 17 22 23 19 15 14 16 21 16 19 16 19 16 18 22 23 15 19 26 26 14 21 21 15 23 18 15 24 15 26 24 25 26 15 23 18 18 23 23 17 17 21 25 25 19 18 18 26
21 26 21 19 19 24 18 24 26 15 26 19 26 25 17 19 26 26 20 21 16 21 18 23 26 14 20 24 22 20 24 24 17 15 15 24 16 23 17 19 15 14 21 15 19 23 26 18 16 20 14 14 26 19 21 24 17 16 26 22 16 15 19 17
14 25 20 21 15 21 23 25 14 25 14 21 18 16 24 17 18 23 24 19 20 26 17 22 19 16 24 26 16 26 17 25 15 16 26 23 23 22 19 15 16 22 22 16 23 25 23 25 22 25 25 15 23 22 17 20 25 24 25 19 14 18 21 23
15 21 25 16 15 23 15 22 23 15 16 16 16 20 19 19 17 23 17 20 14 18 19 23 26 23 17 17 26 15 22 14 26 21 18 24 24 21 19 16 20 25 14 25 15 15 21 26 26 25 25 22 23 17 20 18 18 15 19 17 17 20 24 21
20 22 20 17 17 21 23 18 18 14 18 20 18 15 21 17 18 23 22 16 24 23 19 23 24 23 20 23 14 25 16 18 25 14 16 21 21 23 20 14 26 25 16 22 23 25 23 24 15 26 15 24 24 19 17 23 17 14 16 23 14 23 21 19
25 23 25 20 15 25 22 18 14 23 16 17 25 26 24 24 24 21 17 14 26 22 26 23 26 26 14 15 26 15 17 26 21 16 20 18 23 16 18 16 20 21 23 21 18 16 16 18 17 17 16 14 19 18 20 23 17 15 17 17 16 23 19 26
19 25 18 21 15 23 22 21 22 18 17 24 21 19 16 26 17 18 25 22 14 25 25 15 21 23 25 26 21 26 19 23 25 19 24 16 17 21 19 22 20 26 20 16 18 25 18 21 22 24 15 24 25 15 18 18 26 17 17 26 26 19 14 26
23 14 14 16 23 18 21 25 20 19 19 19 22 22 14 17 25 26 18 14 19 24 17 17 15 22 16 24 24 20 17 20 18 16 21 19 18 22 22 14 17 22 19 26 19 18 25 16 15 23 15 18 20 21 18 14 19 15 19 15 21 24 21 19
16 17 22 25 15 18 26 14 25 20 26 17 24 19 21 26 16 24 21 27 28 25 18 29 16 25 15 16 22 14 22 21 14 18 21 24 20 23 19 25 19 19 23 30 18 19 25 22 16 21 21 18 23 24 24 15 22 15 16 24 21 19 14 15
18 26 16 16 21 21 17 21 16 19 18 21 24 21 25 22 26 29 27 28 30 27 25 26 23 28 17 17 20 23 18 17 26 26 20 21 25 20 17 18 31 29 33 31 33 23 22 28 23 19 26 18 25 26 22 26 20 17 23 14 21 18 20 17
22 15 15 24 18 15 20 26 24 21 20 18 18 24 25 25 23 30 29 26 31 34 26 28 29 30 31 26 24 17 21 24 25 17 21 22 26 22 26 30 28 31 25 34 36 32 28 28 32 23 21 26 15 21 15 20 20 17 17 24 18 19 25 22
14 26 26 22 14 25 26 24 20 24 26 15 29 24 24 30 35 32 28 30 38 35 39 39 31 26 29 31 20 26 22 24 15 16 21 21 31 28 28 34 39 38 41 30 39 35 40 37 27 29 29 24 18 20 21 19 26 18 22 23 20 14 21 23
18 14 19 19 23 23 20 17 16 21 26 22 24 23 32 28 32 41 42 33 41 35 38 44 31 34 39 29 26 29 26 20 21 15 20 30 26 27 33 32 32 37 45 34 43 44 41 40 31 38 35 33 32 25 20 15 21 17 17 19 14 16 14 26
17 20 25 17 26 24 15 17 21 20 21 21 28 37 37 39 43 45 36 40 41 39 42 36 42 41 37 34 33 30 28 29 22 28 25 28 36 37 31 37 37 45 46 46 39 38 37 38 34 35 38 37 29 30 19 18 19 14 19 21 26 18 18 18
22 22 24 25 22 19 22 14 26 20 29 22 32 34 43 43 45 44 40 49 45 47 47 43 49 45 35 37 37 35 33 21 18 19 33 33 30 36 45 41 41 42 43 48 43 50 48 41 46 46 31 34 35 27 29 19 14 19 14 24 23 26 25 17
16 22 26 24 25 19 24 21 17 18 30 27 35 40 39 45 48 41 47 45 55 54 51 45 50 49 49 38 39 34 36 25 29 26 37 38 40 42 38 41 42 55 47 45 50 54 43 52 44 38 43 32 36 37 29 24 15 26 19 18 15 15 18 21
22 24 15 21 25 16 21 24 23 26 28 39 35 42 44 42 54 47 47 60 52 52 55 54 48 49 42 38 39 34 38 36 24 36 33 40 34 38 49 48 52 56 55 59 50 59 47 55 45 42 45 41 32 37 23 28 27 17 25 23 22 25 24 21
18 20 19 23 18 16 18 23 26 28 29 33 43 35 51 52 46 55 60 53 60 53 55 56 50 48 49 40 46 44 34 32 32 28 30 43 38 45 48 50 60 52 54 56 58 55 61 50 48 51 49 47 37 33 36 27 27 26 19 21 19 22 26 25
14 22 17 19 18 20 20 26 24 34 38 32 35 45 49 53 52 53 65 67 69 64 63 63 51 49 46 50 45 44 42 39 37 42 31 36 49 48 53 54 62 58 57 57 64 63 58 56 55 51 47 46 33 40 36 32 20 24 16 19 21 15 15 24
16 24 17 14 23 15 14 21 29 24 31 32 35 40 51 47 60 64 60 67 60 68 65 56 60 53 56 53 38 42 38 35 36 36 34 37 48 45 50 58 53 63 64 72 65 64 67 64 49 54 52 41 36 36 32 33 23 20 18 19 18 18 20 21
17 18 15 19 18 24 24 19 24 27 32 33 39 45 55 58 51 66 59 72 71 75 63 68 63 54 56 50 44 41 42 33 38 32 45 36 47 51 48 57 59 60 63 65 68 72 65 64 58 56 49 47 41 36 37 35 25 17 19 16 14 21 20 20
14 18 18 17 25 16 22 27 21 36 34 39 40 45 49 54 56 58 59 73 71 71 64 70 64 55 52 52 46 38 41 37 40 34 43 39 48 50 56 61 61 63 74 77 70 74 64 67 55 57 53 44 35 37 37 32 25 19 23 19 19 22 25 23
21 23 22 20 22 17 21 17 32 31 39 37 39 48 47 54 62 64 69 67 67 73 68 58 58 56 47 44 48 40 35 36 33 33 33 46 40 43 53 50 66 62 66 69 76 67 68 66 54 48 45 40 44 43 32 27 32 27 15 16 26 21 24 18
26 25 23 20 26 21 21 15 21 32 33 38 46 48 46 50 58 54 68 62 63 63 60 60 63 52 47 49 43 34 33 41 35 42 40 36 50 50 46 49 60 57 67 70 68 63 63 62 60 55 48 39 45 34 36 28 24 17 20 23 17 19 22 26
22 20 23 18 22 16 22 26 28 29 36 39 39 39 45 52 48 55 53 64 57 57 61 65 62 53 45 46 46 43 42 42 31 38 39 39 45 49 45 56 55 60 56 67 63 58 59 63 55 47 42 44 38 33 28 29 26 27 17 20 23 14 24 23
23 21 17 19 24 22 23 24 19 22 27 33 36 46 51 53 50 52 51 53 62 61 54 60 49 45 48 44 35 37 36 33 38 34 28 42 44 42 46 50 60 52 59 59 65 53 59 59 48 44 41 42 44 35 34 22 21 20 18 25 18 15 24 19
14 17 17 24 21 23 26 23 24 29 26 38 41 37 46 45 49 51 56 48 61 58 48 59 48 42 46 47 36 30 36 37 31 34 28 30 41 41 41 51 47 56 53 59 55 54 57 52 43 48 48 38 32 34 33 30 18 26 17 22 24 26 22 22
23 20 16 22 19 18 18 15 18 28 26 36 30 31 34 40 45 52 53 44 54 55 55 53 41 40 46 44 39 31 27 32 31 30 26 28 39 37 39 49 42 54 49 54 57 47 53 52 44 44 44 35 38 25 26 28 21 24 18 17 17 16 26 14
28 29 25 29 20 26 22 29 18 26 23 35 33 38 39 41 52 46 54 50 47 47 48 45 47 45 43 46 42 34 37 26 32 28 27 41 43 48 40 52 47 51 52 54 52 55 50 49 49 42 41 38 35 29 27 34 20 31 29 22 30 26 21 24
29 29 24 31 25 30 22 31 33 27 34 39 34 43 41 45 49 50 50 48 48 50 49 55 44 45 49 48 46 40 39 30 28 29 35 45 44 44 47 48 57 48 52 55 48 54 58 57 46 52 46 46 35 44 41 27 37 34 28 32 27 36 29 29
28 32 30 31 36 28 32 33 29 32 29 37 40 45 37 44 52 54 48 49 51 49 52 47 44 44 40 42 49 41 34 34 33 29 33 36 39 41 46 51 57 49 60 56 58 57 58 53 52 55 54 42 47 35 39 42 41 33 41 39 37 36 43 44
28 26 23 22 26 30 29 33 22 21 29 26 31 32 41 36 35 39 40 38 47 44 49 48 40 45 35 35 37 29 30 26 31 32 26 39 37 32 37 36 40 44 46 40 49 44 45 49 38 46 42 40 36 34 26 28 31 32 33 27 31 33 30 26
28 26 22 26 25 21 29 25 27 23 22 23 24 31 22 29 31 29 36 40 40 40 37 29 28 36 24 25 25 18 18 20 28 29 30 29 29 35 25 29 33 40 31 33 38 36 30 36 35 30 24 31 29 24 30 30 21 29 28 22 28 22 22 21
18 15 23 16 20 25 21 23 17 21 18 21 16 26 20 19 20 30 26 23 32 28 28 27 22 18 26 16 14 16 20 14 16 24 19 15 14 26 21 22 31 22 33 34 23 32 31 31 19 26 22 16 16 20 21 20 21 25 19 24 20 26 15 23
16 14 17 25 25 18 17 17 21 23 24 18 17 17 20 19 23 16 19 27 27 20 23 17 21 20 26 15 21 19 19 23 18 23 15 15 26 25 25 18 27 17 19 29 29 22 29 23 20 16 18 18 17 23 24 14 14 22 26 24 20 14 18 24
18 17 24 14 14 21 21 21 14 20 16 14 21 16 23 19 21 23 18 22 25 25 18 23 25 20 16 15 24 25 22 17 23 21 14 17 14 20 26 16 22 16 23 17 24 25 22 19 18 24 26 14 14 23 24 15 26 23 20 25 24 19 15 18
25 17 23 15 19 25 18 16 14 17 16 17 15 17 19 18 19 24 16 19 22 23 14 20 23 15 22 23 20 14 23 18 18 25 25 23 15 18 24 19 17 20 22 14 26 17 21 18 24 26 26 25 20 25 14 18 16 16 21 23 23 22 14 26
19 21 24 14 15 26 25 20 25 25 15 14 16 18 15 25 21 26 15 26 23 18 19 26 21 14 15 21 20 23 24 23 20 17 18 25 26 17 19 23 18 24 15 22 15 16 19 19 14 16 22 26 21 21 17 18 24 17 22 17 15 21 21 25
23 24 18 26 23 22 21 22 20 20 24 14 14 25 24 18 24 26 25 17 19 25 22 20 22 23 20 16 20 16 18 17 24 18 23 18 24 26 16 20 24 24 24 14 23 15 24 21 25 15 22 23 18 20 16 16 25 14 22 21 25 15 14 15
18 16 14 18 16 16 19 26 24 17 16 25 20 17 16 25 17 17 14 18 17 25 14 23 15 20 21 23 24 18 21 16 15 14 14 25 21 21 24 26 24 23 25 19 24 21 16 14 23 26 22 15 19 20 23 22 22 25 18 15 20 20 19 15
14 23 16 20 24 22 18 24 25 16 23 25 24 20 24 24 24 14 18 20 24 19 26 21 22 14 21 19 18 14 21 21 19 26 22 19 15 23 26 16 24 18 21 20 14 16 17 20 19 18 16 26 16 15 21 19 26 18 21 20 25 19 25 17
22 23 25 17 26 20 19 22 23 21 20 18 26 20 20 14 25 22 21 15 24 25 20 21 21 16 20 21 24 20 15 21 15 24 25 22 17 25 24 18 21 17 19 26 15 19 23 16 20 23 20 16 19 25 25 19 19 21 26 22 23 21 24 15
17 16 18 24 24 26 23 23 26 16 25 19 17 18 14 15 14 24 24 18 16 14 20 15 19 21 21 15 16 22 22 24 26 25 16 20 18 15 21 24 14 18 14 16 22 22 25 21 16 20 19 26 20 19 21 25 22 24 22 22 15 26 14 15
19 18 23 21 16 25 19 23 25 20 19 26 17 26 14 14 17 24 21 16 20 25 17 25 19 16 20 22 25 15 19 23 18 18 20 24 24 17 16 24 23 24 15 22 15 20 24 18 17 21 15 19 21 22 25 22 16 25 25 26 20 20 24 25
17 20 23 14 17 17 18 19 25 15 26 21 21 17 25 24 24 18 22 26 18 19 20 19 19 14 23 17 19 23 21 15 22 17 20 14 21 17 19 20 23 24 16 19 23 23 26 15 15 22 20 26 19 22 20 14 18 24 18 14 15 23 15 18
26 16 22 25 18 20 25 20 21 18 23 14 14 18 20 26 26 19 21 17 24 20 26 19 14 21 26 15 25 15 22 25 16 21 16 26 20 14 15 15 17 22 17 14 22 23 23 19 23 24 14 21 20 23 23 16 15 23 17 26 16 24 16 16
22 22 25 18 25 23 20 22 16 26 18 25 21 15 26 14 21 20 22 22 24 26 17 14 24 18 15 20 17 23 23 17 17 19 23 14 19 25 22 20 23 16 17 23 16 21 24 18 26 19 21 26 23 23 20 23 18 21 16 14 14 22 19 23
20 25 26 26 14 26 15 18 21 14 24 21 18 22 25 15 21 17 25 15 18 17 25 20 17 19 18 23 23 19 23 21 20 14 14 21 17 19 18 25 17 19 24 15 24 18 23 14 17 26 22 21 24 19 26 23 16 24 18 21 20 23 17 18
15 19 24 16 17 21 23 17 22 25 17 26 22 24 26 23 22 21 24 16 18 15 24 15 18 19 21 18 17 25 23 23 20 21 15 18 24 16 22 18 18 17 26 25 18 17 19 20 20 23 25 26 19 19 26 26 18 24 23 19 15 25 19 22
26 23 20 23 21 23 26 15 20 20 20 24 20 21 25 20 26 26 15 26 24 14 25 26 23 17 21 24 24 17 18 18 14 21 16 17 21 14 20 18 22 23 14 24 20 24 16 21 15 19 21 14 18 18 18 25 20 25 18 19 21 24 17 14
18 23 19 22 14 15 14 19 20 26 23 16 24 20 24 26 26 18 26 24 23 18 23 22 25 16 20 16 16 24 19 25 20 14 19 26 20 25 24 20 16 22 16 19 16 23 21 20 24 17 21 23 19 22 18 16 25 18 21 18 16 19 26 15
24 19 22 26 15 26 18 17 23 26 26 23 23 14 18 24 19 20 26 19 18 22 20 24 16 25 20 18 25 25 17 26 22 14 20 24 15 24 16 20 18 18 19 23 26 19 20 15 25 16 22 16 26 24 19 26 17 23 19 21 20 18 24 18
18 21 18 17 14 20 19 24 22 19 14 17 20 18 20 26 20 23 15 19 19 16 19 23 15 16 18 21 26 23 22 23 15 26 18 26 19 17 25 14 24 24 18 20 23 24 24 24 14 19 18 16 20 24 20 22 23 20 20 25 17 23 20 23
