P2
64 64
255
19 16 26 22 15 14 21 24 22 22 21 14 18 23 26 15 21 15 15 25 25 19 15 20 19 14 17 14 21 22 18 18 14 23 18 23 14 21 20 15 24 16 24 18 25 20 23 18 25 21 16 21 22 22 24 21 20 23 21 14 14 15 18 25
21 15 17 20 23 20 24 18 26 20 17 26 14 18 21 18 17 17 20 14 23 16 16 22 16 19 23 19 20 23 15 16 21 15 24 24 22 18 14 17 24 14 24 26 23 16 21 25 24 25 17 24 15 25 25 14 15 23 22 23 19 15 19 23
23 20 20 18 14 22 25 16 19 23 14 16 15 20 15 21 24 20 15 15 20 15 16 18 19 23 23 20 16 19 14 19 16 14 20 26 18 25 26 25 14 18 19 26 20 15 19 15 21 22 17 26 23 24 20 16 25 17 16 17 26 18 25 14
18 22 23 17 24 25 24 21 25 25 25 20 24 17 16 14 20 17 14 26 15 14 21 23 16 25 25 23 26 23 16 17 22 19 20 17 20 23 21 22 19 26 22 15 20 26 16 18 14 24 20 17 14 26 20 19 16 14 26 22 17 26 24 20
15 17 16 26 16 14 24 15 21 24 14 21 22 16 15 19 19 20 21 24 22 19 25 17 15 18 24 20 14 23 17 17 25 17 18 26 14 14 15 17 22 26 16 22 25 16 23 15 22 23 14 19 23 18 16 14 21 24 25 24 24 25 24 18
25 22 16 14 20 21 23 20 19 25 17 19 25 24 24 14 17 24 15 17 17 17 22 26 26 15 16 24 25 19 17 21 25 22 15 23 25 24 19 20 24 26 17 19 15 17 19 16 16 16 24 25 15 20 15 25 21 20 26 16 24 20 14 24
25 25 15 22 16 17 22 14 17 22 14 26 16 23 22 24 23 26 19 19 17 23 26 20 15 22 15 18 23 19 23 24 20 18 17 15 21 14 25 19 22 14 23 14 23 19 14 14 15 18 21 16 21 17 23 26 22 14 20 23 15 15 20 24
23 19 21 19 24 21 19 17 24 22 21 21 22 17 17 24 16 21 25 26 14 18 21 21 16 24 26 19 19 26 19 14 19 21 17 14 24 25 16 15 16 20 17 24 16 26 14 25 26 16 20 14 15 14 22 23 16 25 25 26 24 15 20 21
21 25 16 24 14 14 15 16 16 17 17 23 18 14 17 17 16 22 23 18 14 17 15 22 19 19 16 17 16 18 17 25 17 14 15 17 20 15 26 17 17 20 22 22 19 19 24 23 22 26 14 14 17 14 19 19 17 20 21 22 17 17 17 22
25 19 19 18 17 15 24 23 18 14 24 26 21 22 22 23 25 16 24 16 18 20 25 21 15 24 15 24 22 18 21 18 23 24 17 15 18 25 16 17 19 20 25 19 21 15 22 21 26 26 21 20 20 18 22 23 23 26 16 24 22 22 24 14
21 20 16 15 26 26 21 24 20 18 22 23 19 16 25 22 19 25 15 14 17 20 17 24 26 16 18 25 19 26 24 24 25 26 20 14 18 14 16 24 15 26 19 22 24 22 16 14 26 18 17 16 15 26 18 15 20 24 15 19 15 20 24 20
21 24 22 21 19 25 17 24 21 19 16 21 26 25 26 24 25 26 26 18 19 22 22 16 23 24 21 17 24 22 15 15 23 24 14 14 21 23 20 14 22 15 25 17 15 24 20 26 23 19 16 19 15 14 24 18 20 25 23 17 15 18 22 26
16 19 16 21 25 21 18 15 16 21 19 16 18 15 24 26 16 24 24 15 26 21 20 26 20 23 19 17 18 14 19 20 22 14 23 22 26 17 18 16 21 21 14 15 26 25 19 26 19 26 14 17 14 22 19 18 20 23 22 21 25 19 25 18
15 14 19 20 14 21 20 19 17 18 19 22 24 14 16 14 20 18 23 14 26 20 25 16 24 21 15 14 20 19 23 24 19 17 25 15 22 15 24 20 15 22 22 20 21 19 16 26 25 24 20 17 26 21 17 16 17 17 23 15 23 16 24 16
14 19 19 22 24 15 14 16 16 17 14 22 18 18 21 16 24 14 24 19 14 25 23 26 26 16 17 20 15 19 22 20 19 24 25 18 17 18 16 24 17 14 22 18 22 15 23 23 17 21 22 22 24 21 15 16 14 14 18 24 14 19 23 19
17 15 16 19 26 22 21 21 25 24 26 18 14 23 25 18 16 21 25 18 16 24 15 19 19 23 19 16 15 15 15 21 15 22 17 15 18 26 14 21 21 21 19 21 25 24 17 20 26 22 16 26 19 26 16 21 17 17 21 20 18 14 23 23
25 18 20 15 18 21 20 23 20 25 23 24 26 25 17 17 17 21 15 20 21 26 14 18 23 25 22 24 24 25 20 17 14 25 15 24 25 14 22 22 22 24 21 20 14 15 17 25 19 24 26 16 16 24 23 22 19 19 17 23 26 14 16 21
16 22 26 15 25 15 20 24 18 20 20 20 24 17 14 25 14 19 24 14 21 22 17 25 14 20 20 22 24 23 21 16 21 23 20 16 23 24 18 26 16 23 24 19 21 24 14 17 19 16 23 23 15 14 24 16 25 16 26 15 14 16 23 15
23 15 18 18 22 23 15 14 22 26 21 18 26 25 19 21 23 22 15 14 23 24 16 17 14 22 17 14 14 19 21 22 14 19 18 22 18 23 26 20 15 20 17 15 25 25 25 22 16 23 14 16 15 25 16 20 17 17 20 20 15 23 20 23
16 14 21 15 15 20 14 15 19 22 24 14 17 19 17 15 15 17 26 28 30 26 29 23 22 20 14 22 25 26 16 24 17 26 19 16 15 22 24 27 26 27 20 26 25 23 27 24 17 20 17 20 20 21 25 18 14 19 21 18 15 14 20 19
19 16 24 15 26 16 17 24 19 18 21 25 15 17 27 24 27 26 28 26 24 28 30 22 22 25 18 18 15 20 25 25 25 25 22 18 15 24 25 29 28 27 26 23 22 27 23 22 19 22 27 25 14 18 14 15 20 16 14 14 21 26 14 19
20 24 15 19 26 14 16 19 23 22 25 14 24 21 22 20 33 28 34 28 25 32 28 34 31 23 32 31 18 26 25 26 25 19 16 24 21 31 30 31 30 36 34 30 34 32 33 25 27 27 19 23 25 19 14 23 14 22 16 15 25 19 24 17
26 15 22 15 18 18 24 14 15 23 23 17 21 27 27 36 35 31 29 29 41 32 40 35 34 32 28 29 26 28 28 25 23 32 33 25 33 25 32 33 29 34 41 35 33 34 29 28 36 30 26 25 24 24 21 21 15 16 23 17 15 15 15 15
24 23 15 22 17 23 21 22 23 18 21 20 29 28 32 34 32 41 43 44 42 38 40 34 44 37 40 42 45 44 41 36 40 38 34 41 39 43 40 33 40 44 43 36 42 42 38 37 40 37 37 34 27 28 25 21 14 19 26 17 25 19 14 20
19 22 23 21 17 24 23 25 22 24 23 20 34 26 38 34 36 45 39 47 41 43 43 46 50 49 47 48 44 49 50 38 38 42 44 48 53 55 55 45 40 47 40 46 44 48 43 35 45 35 32 35 32 31 20 15 25 18 23 17 25 23 24 23
21 18 20 16 14 26 18 25 18 24 22 28 30 38 38 42 41 40 48 49 42 41 48 49 52 55 63 53 54 50 53 50 55 47 48 60 59 55 56 56 55 54 52 49 52 52 43 43 45 34 41 35 33 22 25 21 17 26 15 17 18 17 14 25
21 15 19 20 25 19 18 19 16 29 23 26 33 38 34 43 42 53 54 56 45 52 63 60 63 66 67 64 67 66 66 62 62 59 59 65 72 71 69 70 63 65 54 51 52 55 49 44 46 46 34 42 37 25 28 27 25 21 20 21 18 25 16 14
16 15 17 23 22 25 24 21 18 20 34 38 41 41 47 51 46 53 54 53 58 67 72 69 76 75 70 77 73 79 71 74 64 73 73 71 67 75 67 77 71 72 68 59 53 50 49 54 52 45 40 45 30 28 27 26 27 24 26 18 24 21 23 18
15 15 19 24 21 20 25 18 24 21 33 34 37 40 42 44 54 51 51 61 68 67 78 77 85 77 87 79 80 80 74 81 83 86 82 81 77 79 83 75 73 76 69 74 61 58 53 57 51 51 44 44 38 31 32 30 26 24 19 17 26 22 20 17
18 22 21 25 25 23 25 21 28 23 33 38 40 37 53 46 47 58 60 62 67 79 80 82 83 93 88 82 91 90 85 94 87 93 90 93 91 88 92 82 91 89 84 73 69 61 57 55 54 47 45 46 33 37 37 31 27 23 17 16 15 25 21 16
21 19 15 26 21 23 16 18 26 29 33 41 45 42 42 52 50 61 59 65 81 79 85 88 93 99 92 90 93 95 93 98 90 98 92 95 90 101 97 89 88 92 93 79 83 67 69 65 52 57 42 42 38 37 27 25 22 20 25 24 15 26 18 14
19 14 26 21 14 24 22 28 24 35 30 43 43 47 54 59 62 54 66 82 85 88 91 94 99 103 95 97 105 101 105 102 106 101 105 105 104 106 97 96 99 89 92 94 88 81 66 58 63 50 47 51 44 43 35 35 27 19 25 22 17 25 20 26
22 17 18 16 18 18 15 28 30 36 40 38 42 41 44 47 54 55 66 78 95 92 101 94 99 100 108 102 105 103 107 112 109 104 110 107 107 111 100 102 101 98 101 98 87 85 70 62 52 49 50 47 35 35 33 26 30 21 21 25 26 20 17 16
14 23 15 26 21 24 18 20 25 31 37 37 46 39 53 58 56 62 72 83 85 94 98 96 103 100 110 104 108 113 118 111 120 120 116 108 112 113 108 105 105 103 93 97 83 78 73 55 59 49 50 45 44 36 30 24 29 27 17 18 22 20 26 17
19 18 14 17 22 26 14 19 24 28 38 36 46 40 44 52 52 54 71 76 83 96 96 96 101 105 112 114 105 116 110 115 127 117 121 116 114 105 108 109 109 101 100 86 91 77 67 56 57 47 53 39 46 36 38 34 30 21 19 16 19 23 21 26
23 19 19 22 26 25 14 20 20 23 37 42 36 45 46 52 56 64 67 71 78 87 98 104 104 108 109 104 108 110 123 122 125 116 121 119 114 111 113 99 100 103 91 91 82 73 68 55 56 55 44 48 40 31 38 28 26 25 17 26 21 14 18 19
17 23 23 16 24 14 14 19 17 33 27 29 44 42 45 50 52 57 69 76 83 90 97 101 97 108 110 108 108 111 121 126 124 116 111 118 108 108 101 105 101 95 91 86 77 70 62 59 50 44 45 39 34 34 28 25 17 26 23 22 20 22 15 22
15 15 24 21 20 26 23 19 17 24 34 27 41 45 44 48 53 52 61 72 77 76 81 90 102 99 103 107 110 109 110 113 111 117 107 116 107 105 96 102 91 92 83 84 74 67 67 57 49 44 48 37 35 31 26 30 23 20 23 19 20 24 19 26
23 22 18 15 23 26 23 23 21 28 27 35 39 42 39 44 42 42 58 63 70 70 86 86 85 97 103 99 99 107 101 111 105 110 102 105 98 95 94 95 96 82 76 75 76 68 52 49 47 48 34 31 35 31 24 29 25 24 19 22 18 20 24 23
18 17 16 25 23 25 16 15 25 20 22 31 31 38 37 38 36 49 45 55 67 71 80 87 83 90 90 93 94 104 100 96 97 95 96 102 100 93 93 83 84 79 81 70 68 63 57 48 45 43 31 30 38 26 30 17 22 24 19 16 14 26 20 20
17 20 24 15 20 22 24 18 25 21 25 31 31 33 35 37 38 43 43 49 55 66 75 69 84 81 88 94 87 93 89 92 93 96 96 95 96 82 91 80 81 70 77 71 60 52 43 42 45 39 28 38 26 22 20 21 19 18 19 21 18 16 22 24
24 19 14 18 17 23 21 15 15 15 15 28 20 29 32 33 31 31 40 42 49 52 67 72 72 71 74 75 88 84 86 78 87 79 84 90 77 78 84 78 67 62 58 52 50 52 46 33 36 28 37 32 25 23 24 16 25 20 26 26 18 16 20 14
25 24 16 16 14 26 22 21 23 17 24 23 20 27 24 33 36 30 29 42 40 56 51 59 59 65 73 75 81 78 70 73 81 72 71 81 75 71 73 65 68 58 54 48 43 40 28 30 34 33 34 27 26 17 21 17 16 26 21 24 23 17 16 25
18 23 26 16 14 21 20 22 21 19 17 15 23 23 22 27 34 31 35 29 38 50 54 53 62 58 59 70 64 60 73 75 66 72 65 60 65 60 57 61 54 57 52 49 42 36 31 34 23 25 28 17 26 24 14 26 24 19 17 14 24 25 24 23
14 15 15 26 19 15 15 19 16 18 25 24 22 21 24 24 26 20 23 22 29 32 42 41 52 58 58 50 52 58 63 68 65 61 69 65 52 53 50 54 55 49 45 33 32 30 26 20 30 18 26 14 25 21 15 17 21 24 24 24 25 19 25 15
20 14 21 26 24 15 23 18 16 24 18 21 25 17 23 20 15 19 18 22 26 36 35 35 45 43 47 54 50 61 60 62 63 57 59 58 59 55 51 45 35 44 34 34 26 25 24 16 19 25 21 19 24 25 25 16 21 19 18 20 24 23 25 23
20 18 18 26 14 24 19 21 21 22 21 16 17 21 18 20 26 22 26 17 15 22 28 37 33 43 42 43 42 53 48 51 48 55 48 48 53 48 37 40 36 30 23 22 19 22 18 25 16 19 20 22 22 19 19 15 21 22 19 21 20 23 23 26
19 22 15 26 16 21 23 17 24 22 18 21 16 26 25 18 14 17 16 15 18 19 24 31 26 39 30 40 47 38 40 49 45 51 46 44 43 43 34 28 27 28 22 17 18 16 21 25 14 21 23 22 14 15 23 26 26 16 24 17 21 23 21 20
25 21 23 18 17 26 25 15 23 19 15 25 24 25 14 23 15 15 14 18 16 18 25 18 30 26 29 38 34 43 41 42 35 41 38 36 37 37 36 34 18 16 20 17 26 19 21 25 25 25 20 21 18 22 19 26 26 17 21 21 16 16 19 21
25 16 23 21 18 17 21 23 17 17 21 15 15 26 14 21 22 21 22 25 17 21 17 17 21 18 20 28 25 26 26 30 31 31 29 28 31 26 28 17 23 15 15 24 14 18 25 25 18 18 22 24 20 23 26 15 20 20 14 18 17 23 17 17
20 22 24 22 19 18 26 23 25 15 20 25 23 22 20 21 24 26 21 18 17 15 24 19 15 14 20 28 24 26 21 31 29 25 26 29 20 20 24 23 18 22 23 17 19 26 16 18 16 25 26 26 24 20 20 24 20 22 20 18 25 16 21 26
19 19 24 14 21 17 21 23 20 19 18 23 21 15 19 20 26 21 20 26 21 21 23 15 14 23 15 20 24 16 17 16 15 18 25 23 22 26 21 14 15 26 26 22 16 14 20 19 14 18 23 21 15 16 16 23 18 24 14 17 15 26 18 21
16 19 16 20 17 25 25 17 26 18 14 17 17 21 18 22 18 26 16 21 21 23 22 24 19 23 22 17 16 23 24 23 25 14 20 14 16 23 21 25 26 17 23 25 14 25 17 17 23 21 21 17 26 14 15 14 20 21 22 24 23 21 19 25
18 24 22 15 24 26 20 19 18 15 24 15 14 16 20 25 14 22 14 18 22 24 14 19 25 15 19 14 15 21 21 24 18 24 24 15 21 24 18 21 24 18 17 25 17 24 14 15 20 22 21 26 19 15 14 23 16 25 23 26 22 26 14 21
21 24 14 17 19 18 17 21 18 26 21 22 22 25 23 19 18 14 22 19 20 19 21 20 23 21 21 22 17 20 19 26 21 21 25 17 25 17 15 19 22 26 17 18 19 19 19 14 16 16 17 16 25 18 22 26 17 26 21 26 15 20 14 17
14 14 15 25 20 14 18 19 20 14 22 26 22 24 25 17 25 19 18 16 14 21 22 20 23 23 24 23 20 14 24 22 19 20 24 25 18 15 14 18 18 21 26 18 14 25 22 14 14 26 19 22 26 25 15 20 20 25 24 22 21 20 15 20
14 16 15 23 19 20 17 18 17 20 23 16 20 15 16 14 21 25 19 19 22 17 17 15 15 16 14 24 19 25 20 14 19 16 18 25 21 21 18 23 19 20 16 14 20 17 16 17 25 21 18 16 18 21 24 26 18 16 25 18 15 24 22 22
22 25 22 14 16 18 22 18 18 16 26 17 16 25 20 22 19 16 23 20 26 18 14 17 16 25 22 22 21 19 24 23 21 18 15 15 19 23 24 17 21 18 15 24 20 18 14 22 16 21 24 24 21 17 25 20 20 18 19 20 22 26 21 26
18 17 23 24 19 16 19 26 17 16 21 24 25 18 19 26 23 25 20 18 26 21 23 20 15 24 22 18 26 17 16 21 17 25 24 25 16 17 21 22 19 23 17 25 22 17 20 22 16 14 20 15 25 24 17 24 18 16 23 22 16 20 21 15
25 25 23 19 15 22 23 24 26 25 25 23 24 25 16 25 18 18 26 18 14 21 22 15 18 19 14 23 19 21 20 25 19 14 24 22 23 24 17 23 20 25 23 26 19 18 24 22 19 19 24 16 17 18 20 16 17 25 17 23 22 17 20 14
19 23 23 21 16 20 25 15 18 23 15 26 22 16 18 14 17 15 22 23 15 21 24 23 26 21 16 17 25 21 16 15 20 17 25 19 14 26 16 20 16 19 18 25 21 15 16 23 15 25 21 24 17 14 16 17 15 21 18 26 18 26 25 21
17 22 24 15 21 21 16 16 23 17 25 21 16 14 24 24 23 21 25 17 26 19 18 20 25 20 14 26 22 20 25 19 18 16 25 14 15 15 22 25 16 24 18 22 24 19 22 18 15 21 23 19 25 24 15 18 18 16 22 26 17 15 17 16
26 25 22 19 18 26 14 22 18 22 22 22 23 16 19 23 21 26 19 17 23 15 26 25 17 14 20 15 19 20 19 18 17 22 18 24 14 18 15 15 17 22 17 25 14 15 16 25 25 17 24 15 24 20 24 26 17 23 18 22 16 16 18 17
25 22 17 15 23 14 19 22 15 15 14 23 19 14 19 21 17 23 26 23 25 26 25 23 25 26 26 18 20 25 22 22 15 26 22 17 23 18 24 16 14 24 24 21 22 14 20 25 16 16 24 19 23 17 21 14 20 25 14 22 18 25 20 19
