P2
64 64
255
25 31 23 21 28 22 31 25 32 21 36 38 33 28 31 23 36 18 26 20 18 24 29 36 38 21 24 24 31 25 29 20 27 30 20 32 36 24 20 28 25 32 32 30 33 19 22 36 26 18 20 25 24 23 33 38 35 31 30 25 25 20 20 34
23 32 38 25 25 33 35 28 28 20 29 33 27 19 24 32 20 29 31 23 23 25 27 30 24 34 33 29 38 27 30 34 25 22 31 38 21 27 22 35 28 22 21 26 23 31 35 33 33 23 30 26 34 28 28 24 29 26 32 34 21 24 36 30
36 36 36 38 38 19 33 31 32 25 29 23 24 33 19 34 32 30 30 32 34 29 38 26 34 23 37 29 22 29 37 38 20 37 26 24 29 20 31 29 32 33 22 37 25 31 32 29 22 38 35 19 22 36 31 37 33 18 27 28 29 27 24 25
29 33 38 19 26 19 32 25 25 23 33 26 21 25 29 26 23 21 28 37 33 22 35 18 29 31 26 33 26 31 27 26 32 22 19 25 33 25 20 38 21 26 37 27 37 18 34 36 18 31 36 32 31 38 19 26 27 23 38 23 37 33 32 31
24 27 28 32 28 24 24 38 38 19 27 24 35 38 18 33 29 30 19 19 35 26 34 36 38 23 21 35 22 29 36 28 21 25 32 22 36 32 30 28 25 26 32 25 27 21 19 33 24 31 37 28 32 27 30 19 26 30 32 30 20 23 33 25
23 25 23 35 28 30 33 33 34 22 30 26 21 23 34 28 30 31 28 23 20 37 36 31 35 23 31 30 19 36 38 30 19 33 31 33 29 38 35 26 31 22 32 29 30 22 28 34 22 24 38 22 25 28 33 23 34 38 19 20 36 28 31 32
32 34 35 31 37 25 22 34 31 30 26 28 18 30 28 22 30 34 27 21 30 35 38 27 21 25 25 27 29 31 32 25 22 25 24 23 37 27 28 33 28 26 23 20 35 18 20 29 34 23 32 29 26 20 33 27 28 19 19 26 26 36 37 32
37 21 29 19 30 18 29 20 18 19 22 38 37 19 20 25 37 29 19 22 32 25 24 21 31 20 36 21 27 19 26 26 31 20 26 30 21 28 38 31 30 35 19 19 23 25 35 36 29 34 23 20 33 38 19 31 22 32 19 34 24 30 19 35
38 18 29 18 37 31 35 24 24 25 21 29 20 19 27 26 32 18 26 27 29 20 19 19 19 32 31 29 33 30 31 34 30 22 35 22 29 23 36 26 19 18 27 31 32 37 21 24 30 26 20 33 23 18 38 37 31 27 27 21 30 36 29 22
38 36 29 31 32 27 36 26 27 20 37 37 23 18 33 36 21 30 34 18 22 21 36 22 22 18 38 29 21 31 34 31 32 33 28 23 27 31 38 23 18 20 33 30 31 26 19 31 28 37 32 31 18 20 35 31 31 35 28 28 27 29 18 21
26 21 18 27 38 31 38 23 23 26 30 33 31 25 33 19 18 30 21 32 29 19 33 31 25 28 19 29 30 28 20 20 30 30 29 18 33 27 28 32 37 18 28 29 22 31 20 37 30 24 28 22 29 23 26 33 20 35 25 18 35 34 38 26
36 35 20 30 30 19 28 23 19 18 34 19 33 38 21 22 24 38 35 38 18 32 22 29 31 28 33 24 35 21 37 26 34 38 29 24 32 28 27 37 20 19 23 28 24 24 25 28 21 33 36 35 18 28 34 35 24 32 20 26 37 18 35 29
20 22 33 22 20 34 18 33 36 28 19 34 34 24 31 31 38 30 29 26 33 31 19 28 25 19 37 35 36 38 20 23 22 27 38 19 23 23 21 30 23 36 33 18 27 23 22 29 27 29 23 18 25 29 20 33 23 23 29 21 30 31 18 21
26 38 33 23 35 20 29 35 38 37 26 27 31 26 34 21 29 28 38 38 19 19 31 31 28 24 23 34 24 20 18 35 32 30 18 23 24 19 28 20 28 18 32 21 38 28 36 23 27 37 37 27 24 25 21 32 34 35 25 37 20 31 21 38
21 33 29 29 21 18 27 23 31 25 36 22 27 28 33 37 26 30 35 23 35 38 23 38 37 34 25 32 37 23 37 37 35 38 34 36 26 25 30 23 24 24 28 37 30 36 26 22 38 23 38 33 20 22 19 21 31 33 35 30 29 22 27 38
29 37 24 38 20 32 37 38 21 25 33 27 34 26 37 21 20 22 20 36 27 20 20 32 36 29 25 33 18 33 29 26 22 18 29 37 28 34 30 33 27 20 33 22 23 36 30 26 35 31 27 28 21 21 29 19 38 33 25 35 23 33 28 36
31 38 28 26 31 20 38 37 33 29 26 20 26 30 23 19 32 32 32 27 33 31 29 18 24 36 18 34 23 21 28 36 35 32 21 35 18 35 18 37 31 35 33 28 29 37 22 28 34 37 36 23 25 37 26 25 21 19 37 21 19 26 28 38
36 18 32 26 23 36 26 37 36 28 21 21 33 34 36 38 24 23 19 36 35 18 21 35 22 21 30 26 35 37 36 37 18 29 22 37 26 22 33 20 35 22 34 30 19 21 18 24 18 26 28 34 23 24 20 38 37 24 19 27 22 19 23 28
24 38 23 24 30 24 24 38 37 37 23 18 32 28 35 20 31 23 31 27 28 31 30 23 18 33 23 32 34 36 21 23 23 35 28 28 18 20 36 31 27 32 38 31 18 22 22 32 30 28 18 34 34 32 27 20 26 19 20 22 23 30 32 25
30 27 36 26 33 23 27 27 33 37 34 30 23 36 26 26 38 29 36 23 37 34 27 38 26 24 25 36 21 24 35 33 35 26 25 24 38 23 38 32 21 28 31 26 32 24 24 28 28 21 21 22 38 26 32 24 37 36 18 25 28 27 18 30
31 22 19 24 29 23 34 23 34 34 20 32 38 28 19 32 39 34 40 34 45 44 44 39 39 26 39 24 23 24 28 37 37 24 20 36 33 34 41 22 35 42 45 39 39 38 28 35 37 38 21 22 24 32 36 26 24 30 37 26 38 25 35 37
33 34 31 32 33 21 37 34 34 29 35 34 30 35 28 31 36 31 28 48 42 44 49 44 34 44 42 30 25 123 27 34 23 35 30 24 35 39 38 28 37 47 35 40 42 48 29 37 29 25 28 37 29 37 21 36 34 29 36 28 35 31 35 31
32 20 23 38 35 25 36 18 34 29 29 38 38 26 30 46 50 34 42 53 42 41 33 35 40 41 41 40 37 37 107 31 25 28 37 36 39 27 39 50 44 35 40 41 50 38 39 43 35 30 35 37 33 24 25 27 29 34 28 37 36 20 35 25
23 27 20 36 29 26 21 19 26 29 26 40 33 41 47 45 35 48 46 45 48 56 46 39 40 33 33 43 33 30 108 114 38 20 25 25 47 44 50 51 44 46 38 46 41 55 49 55 47 50 45 27 32 24 19 24 19 22 22 28 19 31 38 32
38 32 29 34 23 18 36 34 23 28 34 33 34 49 36 41 52 50 52 50 58 49 46 41 39 57 51 50 50 32 125 120 18 37 30 45 32 51 41 47 44 40 61 59 58 56 60 44 57 48 48 31 46 41 36 32 34 34 20 36 28 31 22 19
24 36 36 25 21 28 20 38 37 30 43 27 45 49 45 42 51 52 46 55 62 55 46 49 47 47 42 55 46 120 45 122 107 28 39 37 40 50 45 40 61 55 60 54 50 48 49 51 46 41 41 35 32 32 42 31 27 21 23 18 34 26 24 20
23 36 19 36 19 38 36 34 37 41 35 41 37 52 47 50 53 45 58 49 65 58 57 56 65 50 58 47 47 130 33 115 46 113 49 35 49 41 56 45 53 66 60 58 49 64 56 50 55 48 38 39 45 37 36 30 28 27 20 35 19 22 38 38
24 21 32 32 37 31 30 32 31 41 37 39 47 50 58 46 60 54 64 59 72 61 53 63 53 58 58 46 47 46 134 41 132 36 214 42 41 40 61 59 59 61 64 65 67 57 58 64 54 62 61 54 39 32 45 41 26 27 38 19 37 32 35 27
35 30 21 32 19 32 36 31 41 36 48 44 45 44 57 61 50 69 58 69 76 64 62 66 56 68 46 43 57 37 47 134 119 121 127 47 43 44 64 49 71 54 63 59 58 65 54 53 68 66 61 58 54 42 34 33 39 37 20 24 20 29 34 28
29 26 18 38 23 34 33 38 33 38 42 41 43 52 51 55 66 56 68 78 71 64 78 67 56 53 55 46 41 41 123 44 128 139 212 54 47 49 55 63 72 73 73 79 66 76 77 55 63 58 58 43 37 47 37 29 31 37 19 26 31 34 20 28
28 22 23 21 29 24 30 39 31 42 49 49 54 61 49 53 60 76 68 82 65 75 72 68 65 69 67 65 42 40 50 139 134 140 224 51 55 63 69 64 60 71 67 82 72 70 66 77 64 53 58 60 43 36 31 41 39 37 33 30 36 37 23 19
26 33 21 29 19 27 33 37 28 32 41 50 48 49 59 70 57 62 66 76 78 82 76 77 59 56 66 47 49 57 39 54 138 220 135 126 44 48 67 72 63 62 68 87 73 70 76 58 73 71 65 56 45 37 48 44 44 21 21 22 26 33 22 34
26 21 33 18 26 20 38 36 41 34 41 46 43 59 65 51 68 75 64 87 83 84 87 81 79 60 69 59 47 55 54 122 218 45 132 126 62 59 54 73 77 65 73 88 74 69 64 77 58 64 47 57 41 49 39 39 43 26 24 30 19 36 38 18
34 38 22 24 23 19 25 39 26 29 45 44 59 44 57 53 74 63 69 76 84 84 67 66 67 69 70 58 61 39 124 133 125 41 208 43 50 66 66 74 72 79 83 72 85 67 65 76 72 66 50 49 57 52 50 37 39 21 29 22 30 19 28 23
29 32 39 28 42 26 34 25 35 50 37 58 47 50 55 60 64 82 80 82 85 76 80 84 67 78 58 54 56 148 54 48 140 130 54 234 57 61 66 60 83 85 74 89 79 80 78 68 75 77 74 60 53 60 41 36 51 28 28 41 32 31 29 41
40 31 30 48 37 34 33 48 53 42 62 54 50 55 69 65 74 78 82 76 91 76 87 81 88 79 79 63 157 54 55 145 136 69 52 72 233 78 69 83 78 85 89 80 92 96 83 85 73 67 74 71 65 67 58 60 50 42 49 41 55 39 54 53
34 40 52 39 44 37 44 49 55 56 61 65 57 73 68 81 74 72 89 97 80 79 95 82 82 88 70 77 72 160 141 161 71 75 69 75 64 241 78 85 79 82 96 97 102 91 85 98 83 86 87 86 82 74 61 58 65 51 57 69 60 57 61 63
57 44 51 58 42 60 49 58 55 61 62 68 72 67 76 76 82 78 93 96 88 96 96 87 81 83 81 83 69 159 151 166 62 80 72 77 91 165 171 99 93 95 99 108 104 105 94 91 103 85 82 79 93 87 67 71 70 70 73 79 78 69 70 71
37 52 38 47 41 46 39 47 44 62 50 57 63 74 70 63 71 69 86 77 72 80 71 76 76 71 66 69 79 147 141 61 147 53 57 79 77 160 87 163 88 76 81 85 92 91 77 75 85 75 89 85 71 75 71 62 61 57 51 57 70 55 68 52
36 38 45 39 44 42 45 31 40 37 47 49 61 50 62 66 62 62 60 79 77 61 67 69 69 64 61 71 147 50 53 224 48 44 54 64 62 58 160 68 146 74 64 81 69 79 66 78 69 74 74 62 58 59 53 55 52 48 43 48 52 49 58 51
29 29 41 36 32 38 36 30 33 41 48 37 40 46 58 60 48 48 55 68 51 66 55 59 54 47 50 52 139 48 50 219 37 49 43 37 49 61 135 61 136 65 54 63 55 53 67 50 59 60 50 41 42 46 44 49 38 49 33 35 35 36 43 36
20 33 28 23 18 25 33 19 32 21 37 38 33 39 48 44 35 48 55 41 40 52 52 37 35 47 51 41 132 33 119 116 31 25 31 27 45 30 125 35 134 57 54 55 53 42 57 38 38 40 44 47 34 41 28 38 35 32 26 25 20 32 23 24
28 20 31 37 24 22 31 34 23 38 38 36 32 38 37 30 40 47 51 37 53 35 51 52 43 50 36 45 40 204 24 119 27 22 37 28 33 37 41 117 40 132 41 49 53 53 37 38 44 46 44 38 41 36 27 20 37 28 30 30 31 20 21 36
24 28 18 19 28 26 24 28 33 31 38 24 21 29 24 34 26 30 44 49 43 35 34 48 47 28 35 25 194 26 112 19 31 19 30 19 23 37 39 116 39 113 38 40 45 40 35 32 31 41 39 31 20 25 27 33 35 27 37 35 20 29 34 33
23 26 22 21 33 35 22 31 21 18 26 35 23 32 29 40 22 33 33 30 45 31 34 36 30 36 33 107 35 208 22 33 23 30 19 25 30 31 23 121 35 45 120 39 26 37 29 36 22 36 29 32 29 32 29 28 37 25 31 37 31 38 27 36
37 36 27 26 37 24 19 20 36 23 26 20 20 27 34 23 21 31 22 28 34 22 30 25 28 23 35 107 106 108 26 36 21 21 38 22 19 31 20 114 29 34 22 127 30 23 26 29 24 24 33 37 29 24 20 33 29 22 31 33 30 38 32 36
19 32 37 33 23 36 35 28 19 36 33 31 24 21 29 22 30 32 33 32 21 20 18 36 28 30 29 36 195 37 107 19 31 25 33 25 27 31 25 20 116 20 28 111 31 28 29 38 31 23 33 37 20 31 31 34 30 32 30 23 20 28 27 18
33 23 35 30 36 27 22 31 22 25 33 23 20 29 21 28 38 28 24 30 35 23 27 20 34 31 20 200 31 117 19 20 25 25 23 32 30 25 30 35 107 29 116 33 23 30 19 36 23 27 27 38 38 30 20 30 28 18 18 29 30 21 35 25
27 24 34 38 33 23 34 27 28 37 35 24 37 30 18 25 27 25 30 38 24 34 35 22 25 35 35 111 118 28 121 30 26 30 34 35 26 28 32 121 36 32 108 35 21 22 25 27 32 21 32 23 21 38 37 35 36 26 19 36 27 31 20 35
28 34 24 21 35 37 25 18 19 25 22 31 35 28 21 26 37 26 23 37 26 28 18 33 35 37 34 19 189 120 29 38 23 35 36 18 22 20 36 19 123 37 33 117 34 21 35 30 23 19 33 38 37 34 37 27 25 22 20 22 35 19 35 32
36 35 33 35 29 24 35 23 29 33 18 36 24 32 20 35 38 31 22 18 24 25 19 25 19 27 21 19 189 121 25 27 23 34 33 20 29 36 26 29 31 121 23 119 37 27 35 30 38 23 19 37 33 23 30 26 23 25 29 24 36 38 36 28
22 33 37 22 19 22 36 25 24 25 34 33 37 22 32 21 26 21 18 24 27 36 38 26 20 26 38 18 121 201 18 37 37 26 31 35 33 23 34 20 38 27 108 112 31 35 24 21 31 31 20 34 25 21 28 32 38 35 29 18 33 30 26 30
23 22 34 30 18 21 26 33 31 18 22 22 28 26 20 23 35 26 35 34 18 19 22 18 26 19 27 103 111 118 32 34 31 36 25 36 24 24 33 34 22 115 29 33 107 36 26 21 36 20 31 32 29 30 33 34 24 36 18 22 26 35 22 32
36 21 36 26 22 25 28 18 28 20 36 24 37 25 29 28 30 21 36 21 21 23 29 28 20 20 30 30 121 104 109 21 20 24 30 31 35 23 28 27 21 26 118 37 28 19 25 36 26 21 22 19 22 22 25 28 35 23 23 30 24 23 29 36
36 30 24 35 20 38 24 24 35 19 32 23 23 21 28 28 25 18 33 24 32 18 37 34 25 31 23 122 26 206 31 24 30 18 20 28 34 29 37 28 29 29 105 26 25 37 30 28 35 32 33 32 34 19 30 31 23 21 31 18 19 30 31 33
24 18 34 24 27 22 37 38 27 31 28 26 21 18 33 19 28 28 20 25 28 37 21 37 21 22 28 29 103 29 123 36 37 38 26 25 31 19 25 29 33 122 28 18 26 28 18 22 23 18 31 32 32 24 32 38 23 37 22 20 29 37 22 22
28 26 19 35 22 26 20 22 21 30 26 36 32 30 36 29 29 36 25 34 34 27 24 22 32 27 19 119 32 26 108 34 22 31 18 20 20 30 22 37 29 117 22 32 21 22 33 21 35 28 22 37 32 28 31 34 37 37 18 28 18 28 31 20
33 24 20 27 37 27 20 25 38 38 33 21 24 22 27 25 35 23 37 35 28 19 24 27 27 34 117 31 35 28 18 34 23 38 22 36 38 18 24 29 111 25 31 18 23 31 36 28 34 18 21 27 28 34 38 22 27 35 36 19 31 38 21 35
32 29 36 29 33 19 30 34 27 30 35 28 23 22 30 25 28 36 20 31 28 34 38 36 22 23 33 116 28 38 30 23 34 19 28 26 27 30 38 27 29 106 30 26 31 20 28 20 26 22 22 29 27 22 20 31 38 35 37 29 26 21 18 19
25 23 34 37 37 27 35 21 32 35 20 33 29 26 20 18 19 37 31 31 31 31 30 29 18 22 108 25 26 24 18 33 38 35 21 38 32 22 37 25 35 33 26 32 38 26 31 31 36 21 38 19 21 18 25 24 26 30 22 30 21 31 34 30
38 21 34 33 24 28 33 30 34 34 38 21 28 25 37 28 26 25 29 32 36 28 27 28 27 27 30 103 32 30 32 32 21 18 32 32 24 29 29 18 23 34 36 35 36 24 23 36 38 32 27 31 22 25 36 25 20 36 36 24 24 21 27 18
28 35 35 23 23 26 28 18 29 31 19 24 34 22 20 20 19 34 23 22 27 28 35 22 19 33 19 24 25 25 29 34 29 37 22 27 29 24 37 36 36 18 30 34 25 30 32 32 24 38 32 29 33 37 36 20 25 18 37 33 37 33 36 38
20 38 23 33 24 19 34 18 33 36 33 35 28 27 34 36 27 28 23 24 26 24 36 24 33 20 31 31 32 27 19 25 20 19 31 27 21 34 33 35 36 24 28 21 29 35 37 28 37 38 28 32 30 26 18 24 20 37 26 32 26 21 18 18
34 22 29 20 29 38 27 27 35 19 33 27 36 19 24 21 36 35 27 24 20 33 23 38 20 29 25 38 23 34 36 22 38 20 22 37 29 32 28 33 30 19 34 34 24 24 19 18 19 24 35 28 29 37 21 33 35 26 20 29 20 30 19 26
