P2
64 64
255
25 27 23 27 20 33 19 22 28 19 21 27 36 30 38 24 21 22 24 31 22 26 33 26 25 19 29 30 27 19 25 27 19 28 30 20 23 32 34 23 29 26 24 28 27 37 38 28 29 19 23 24 19 26 35 19 22 35 18 35 23 34 28 21
35 30 20 29 31 34 22 33 34 24 35 25 20 24 36 27 34 29 19 22 37 22 31 21 35 29 36 27 24 28 38 30 18 32 30 36 23 38 27 33 37 18 32 24 34 34 21 23 31 27 27 32 32 37 22 26 35 20 33 38 19 36 26 30
34 33 23 36 24 28 29 18 31 20 36 24 20 20 27 21 29 20 38 33 35 21 34 35 30 32 38 23 32 30 34 22 25 32 31 21 24 20 34 38 19 38 32 36 30 21 22 21 25 37 28 28 20 33 25 30 21 35 32 22 18 19 22 37
27 21 26 25 38 32 19 38 18 21 25 21 38 19 35 37 23 24 30 31 32 27 23 31 35 32 22 26 20 35 34 25 29 36 33 33 29 28 23 20 22 27 23 35 36 37 35 19 30 22 29 33 36 25 25 23 25 21 19 31 20 36 33 38
19 33 21 29 31 31 33 25 19 27 18 31 18 22 33 25 18 34 21 37 21 37 31 23 28 21 38 18 36 19 23 34 18 19 38 37 20 21 24 38 36 33 38 18 21 36 26 18 35 37 26 18 34 28 20 29 19 31 25 37 32 31 29 34
31 33 28 27 21 25 32 24 31 37 25 22 33 25 19 21 30 22 22 23 22 34 36 27 33 32 20 34 24 30 34 32 38 18 30 27 18 33 19 36 32 30 24 35 18 35 20 37 25 35 35 26 26 21 35 38 18 38 37 25 36 26 35 36
23 23 33 32 19 22 31 37 25 30 24 37 30 34 33 22 36 30 30 34 34 36 22 30 34 25 22 36 38 20 18 25 38 22 28 25 21 32 22 24 27 27 27 36 29 26 38 36 37 36 19 23 32 22 36 21 28 29 36 31 36 24 27 28
19 27 21 26 22 21 29 24 24 28 32 34 30 18 29 18 28 37 34 28 32 30 33 21 33 29 36 36 24 32 26 37 36 18 29 20 27 31 28 34 22 31 22 19 21 30 19 19 33 37 36 30 27 21 19 38 24 38 29 25 23 18 32 34
21 35 18 22 24 23 35 21 25 36 29 31 18 22 18 30 30 18 31 27 33 31 35 38 18 28 37 36 19 32 26 29 20 28 38 27 33 21 23 20 36 26 20 37 27 34 27 31 20 34 32 34 29 19 29 25 32 33 24 18 28 18 29 31
31 36 31 21 25 19 32 35 25 20 24 29 27 32 24 34 22 20 26 23 28 23 33 20 21 35 28 20 26 28 19 34 33 29 38 33 33 26 31 27 27 28 31 37 23 33 38 33 26 38 27 26 25 19 38 30 21 25 19 37 33 29 32 36
29 28 32 23 29 22 28 18 24 21 27 20 31 36 28 33 32 32 29 36 23 21 18 28 31 32 32 30 31 28 38 19 18 20 27 23 33 18 18 38 34 35 37 30 35 23 24 32 33 22 26 33 30 30 25 27 31 27 18 18 33 19 18 21
34 20 29 23 20 24 37 37 35 38 18 26 27 34 32 28 33 18 33 34 37 29 27 25 36 18 38 35 30 23 21 30 31 37 18 18 33 18 27 19 37 25 26 30 34 18 22 26 34 32 22 38 33 18 21 34 21 27 35 22 27 31 33 18
28 27 23 33 38 26 20 27 25 26 24 34 20 37 29 19 34 18 33 31 30 31 25 29 37 21 38 21 35 24 32 28 33 28 18 22 28 29 37 26 36 33 20 18 32 35 20 37 30 25 25 21 26 32 33 20 29 27 23 24 37 37 19 20
30 35 19 20 27 34 26 28 37 28 24 31 20 27 30 32 34 28 33 25 35 31 32 18 33 34 21 36 24 20 25 33 34 33 25 29 20 25 26 35 22 24 24 33 30 24 19 28 20 24 24 33 23 32 38 22 25 25 29 22 23 36 32 38
30 24 33 36 33 28 35 20 24 29 29 35 25 33 35 38 31 29 18 27 21 30 18 28 23 36 25 33 30 19 18 35 36 37 23 33 25 22 28 18 28 21 29 22 27 23 33 33 20 31 38 23 25 18 35 20 23 29 27 25 25 27 19 32
34 18 26 37 20 25 38 22 29 28 18 23 30 28 37 35 21 27 33 22 28 24 20 25 27 31 19 29 20 29 38 24 32 35 38 37 22 26 32 25 30 30 25 29 28 34 34 19 36 19 32 36 36 34 23 36 32 35 23 32 34 33 18 29
20 35 31 27 34 21 37 19 20 26 36 20 27 22 19 34 30 31 27 27 27 20 23 36 19 21 25 22 33 27 27 21 36 18 21 28 37 33 37 37 31 37 37 32 30 24 27 34 32 35 32 30 28 19 30 31 36 35 27 30 32 26 24 20
32 33 35 26 36 36 35 29 22 24 34 37 31 25 29 36 21 36 18 27 27 20 28 24 22 29 24 25 34 20 26 19 18 28 33 30 33 27 25 35 22 30 31 18 32 24 21 21 38 20 19 37 28 18 34 31 19 26 35 23 21 33 35 26
22 23 28 36 32 32 25 18 34 28 21 36 32 26 22 35 32 34 24 21 37 18 30 37 24 31 23 20 27 27 20 27 25 20 20 38 37 35 21 21 30 23 25 33 25 37 25 24 34 29 32 28 31 26 31 30 27 22 20 24 21 22 35 34
23 34 25 26 24 31 31 19 20 33 37 38 36 35 35 23 39 20 33 27 39 29 29 39 31 34 23 24 38 30 34 37 18 18 20 19 29 23 32 43 49 44 30 36 39 27 35 24 34 38 34 19 27 37 28 21 26 19 24 30 26 29 25 33
38 18 23 20 22 22 24 29 20 29 25 22 27 38 25 35 31 37 44 38 45 36 45 35 32 22 26 35 22 35 19 38 28 21 20 30 38 51 44 62 54 59 48 38 35 34 34 38 28 29 22 31 32 30 31 26 19 24 31 24 31 18 29 24
18 28 21 32 31 35 27 18 37 18 28 26 27 24 28 41 39 33 40 39 32 41 38 34 40 34 28 35 20 35 32 30 24 35 19 31 51 47 68 69 74 78 68 53 45 39 37 41 26 27 36 40 30 33 37 31 18 35 32 22 32 19 23 35
36 27 21 34 36 28 21 36 33 24 32 19 35 39 46 41 43 42 38 42 43 53 49 45 35 41 45 27 27 34 34 37 29 21 41 39 62 63 68 73 76 81 69 64 55 57 45 45 49 40 37 34 31 24 23 36 38 26 21 19 22 22 32 20
26 28 25 27 25 26 36 28 25 35 20 39 30 36 46 47 46 53 41 43 48 51 48 49 42 48 51 44 36 38 22 30 18 36 46 54 62 75 86 91 106 86 81 92 65 61 44 48 37 37 39 33 42 35 23 24 38 28 20 35 33 26 35 30
37 30 33 31 24 25 28 19 23 18 37 40 40 47 48 52 39 48 41 59 54 59 53 47 58 57 38 49 44 46 42 31 22 32 41 62 70 78 95 114 108 109 94 89 89 63 49 47 40 47 44 45 29 33 29 21 20 24 34 27 38 38 37 38
29 38 22 28 22 22 24 32 31 20 41 36 33 32 50 53 54 61 63 55 47 56 54 47 50 53 48 43 37 42 29 39 23 39 38 66 73 77 98 108 125 122 116 87 76 81 59 49 42 40 39 51 33 30 26 38 22 35 38 28 35 32 28 22
38 22 22 32 37 33 28 20 21 29 35 44 43 52 48 53 43 51 66 53 59 63 48 57 50 48 56 46 47 39 45 29 33 26 52 52 68 84 112 131 140 131 108 92 94 88 66 50 58 57 51 44 33 36 27 31 19 26 29 34 31 27 24 23
36 35 31 22 31 30 19 27 31 42 29 40 45 52 48 46 51 51 56 55 66 64 52 53 51 56 46 52 37 41 43 42 35 35 56 59 87 106 130 145 141 137 138 112 88 83 77 69 50 57 42 51 49 47 38 38 40 19 38 21 35 34 21 35
33 20 26 31 31 22 31 22 40 32 43 44 44 42 62 49 53 62 74 56 58 77 69 67 62 56 49 51 54 37 44 39 34 40 44 62 89 108 127 158 152 163 136 117 97 77 59 69 61 60 62 47 56 51 42 28 32 22 32 19 22 28 23 38
27 28 20 31 27 22 19 38 34 40 41 36 53 60 52 64 60 66 63 70 63 69 78 61 74 71 60 53 42 50 42 49 38 46 43 69 101 113 147 156 170 154 151 129 114 78 74 71 55 59 65 50 51 39 49 31 26 27 25 25 24 33 38 38
35 22 32 21 35 27 34 39 31 27 50 37 47 58 66 60 69 76 74 73 75 67 72 72 57 65 57 46 56 46 50 48 40 56 48 70 91 124 133 166 166 177 166 137 117 89 66 65 55 59 55 61 43 39 37 32 29 28 37 29 34 20 21 33
24 19 25 20 38 27 26 31 43 46 32 54 42 63 50 67 66 58 78 80 75 71 84 68 73 59 59 56 51 55 48 37 53 55 49 61 82 105 128 152 181 163 153 139 115 100 80 60 75 59 61 58 52 42 46 28 32 23 30 35 26 22 30 31
19 33 34 37 27 34 25 33 42 32 49 37 40 53 63 57 73 68 77 75 79 88 87 63 68 71 69 60 54 52 52 54 54 52 47 57 90 113 139 145 158 155 146 126 112 84 74 79 64 67 63 62 47 39 52 41 24 25 29 26 20 18 25 25
31 34 29 23 31 25 24 40 24 45 48 39 41 53 63 55 72 69 70 82 71 88 65 78 72 66 64 47 55 40 54 54 46 36 44 64 94 116 129 140 155 148 138 128 115 77 67 72 65 70 67 45 55 44 35 33 38 37 19 23 38 33 32 29
30 23 25 36 26 36 35 23 31 44 33 47 58 42 62 67 54 59 68 83 79 82 79 60 66 59 67 50 48 40 55 47 55 59 62 74 79 98 133 131 132 142 128 122 104 87 65 72 65 62 55 61 46 49 48 43 23 38 27 33 24 20 25 21
24 25 34 28 27 20 23 21 33 38 37 39 55 42 61 52 71 67 72 60 71 74 71 71 68 63 55 63 41 52 45 47 55 48 55 77 86 105 118 115 122 124 111 109 88 89 75 59 60 63 63 45 49 40 42 38 41 31 21 19 37 35 36 28
24 32 33 35 29 33 25 20 27 27 31 32 55 44 55 58 64 68 69 57 77 73 72 66 67 57 58 60 49 36 38 40 60 54 60 83 73 97 100 105 113 109 103 94 99 88 70 66 64 52 50 52 39 43 49 32 40 30 29 37 25 28 38 36
35 31 32 22 35 31 22 21 22 24 40 47 44 45 57 46 53 65 51 56 67 73 64 54 53 65 61 59 44 44 51 43 53 59 66 86 76 101 101 109 99 102 94 97 87 74 85 64 66 62 52 38 39 31 34 32 30 28 35 25 18 19 29 18
34 33 28 23 37 26 31 37 31 26 35 35 44 46 49 58 51 59 61 59 66 55 60 65 52 58 55 49 46 38 45 36 57 69 66 90 91 92 105 96 110 115 105 102 84 77 84 71 48 49 41 54 52 42 31 26 32 24 37 24 29 30 29 38
34 20 37 35 33 32 35 27 34 25 26 46 38 39 44 53 54 57 54 45 45 48 55 46 59 48 53 55 41 41 38 45 56 61 76 82 89 94 99 109 113 114 109 106 98 84 81 74 64 58 38 38 34 43 37 31 20 35 33 18 36 38 30 33
28 30 20 30 18 18 35 38 36 19 38 38 33 41 43 38 42 47 50 48 45 43 59 43 40 40 53 41 33 39 39 50 40 64 63 83 93 102 120 113 115 103 109 96 82 78 63 61 60 36 44 36 31 38 39 32 38 22 27 25 33 31 26 25
22 18 19 37 21 29 38 30 24 26 30 38 31 35 43 50 37 51 47 54 57 41 49 51 37 44 42 49 30 29 46 51 48 49 65 89 94 110 109 117 110 117 109 87 95 75 75 67 55 43 46 37 26 32 35 21 28 32 24 33 30 25 26 34
18 34 26 31 30 28 32 31 35 27 21 35 34 39 37 29 45 35 36 49 34 34 44 32 38 34 42 32 38 35 36 37 52 56 60 82 86 94 101 110 113 99 92 88 75 71 66 56 40 29 26 33 27 22 24 31 24 22 22 30 32 35 28 20
34 23 30 33 27 37 37 29 33 23 25 30 18 26 39 27 36 39 37 35 31 33 29 39 27 44 25 33 24 36 32 32 50 49 72 67 83 94 99 87 88 93 94 83 67 67 65 60 37 42 30 23 34 23 31 26 28 24 21 21 19 21 20 26
22 27 25 20 34 37 18 21 27 36 23 28 20 23 34 38 32 25 44 27 42 45 26 36 24 28 38 23 18 32 41 32 36 53 59 56 74 78 80 89 84 89 80 70 74 70 44 35 28 32 22 34 24 26 36 28 36 22 32 22 37 25 33 19
22 22 26 19 34 24 20 24 37 33 27 18 32 31 36 35 20 27 38 31 42 38 35 34 26 31 35 30 34 23 26 37 32 42 46 59 59 70 77 83 71 79 70 72 60 61 41 40 40 20 34 37 20 38 25 20 30 22 31 32 21 21 26 24
28 38 33 37 30 34 24 35 28 32 30 26 35 38 22 23 26 36 24 27 30 18 33 31 27 26 33 34 25 28 30 34 36 53 43 54 66 70 68 59 70 65 58 49 49 38 34 42 22 35 24 35 38 26 37 24 26 22 34 23 28 35 18 31
25 25 38 23 21 21 36 22 20 28 22 21 22 36 18 19 20 25 27 36 24 28 34 32 23 22 20 28 36 19 28 19 41 38 35 58 59 53 64 52 54 47 50 57 50 37 33 29 29 22 25 30 23 23 23 32 28 28 31 34 18 38 27 30
24 38 24 19 25 27 24 32 26 34 38 24 28 29 36 25 22 20 28 24 20 38 26 25 22 22 19 34 24 27 29 29 24 30 28 38 38 54 60 61 40 58 50 47 37 30 23 23 33 22 21 35 31 21 24 24 31 33 23 32 29 19 37 24
30 26 37 35 28 29 28 38 19 30 18 31 21 19 36 28 22 37 20 19 20 28 36 30 28 33 36 35 19 22 24 28 36 24 39 33 45 36 41 34 45 51 47 45 32 32 31 25 36 28 38 37 24 19 24 30 28 33 26 20 37 26 38 37
32 37 37 31 18 35 25 20 35 27 33 37 33 18 32 37 28 23 18 18 32 31 22 38 22 21 27 27 33 38 19 34 26 24 22 33 32 31 31 32 33 32 24 23 23 34 28 32 34 25 31 27 18 20 28 22 25 37 24 22 35 37 24 36
22 28 37 36 28 23 23 21 26 21 33 33 30 22 38 32 19 31 18 27 32 29 23 26 19 27 34 30 24 32 35 38 35 33 20 31 18 18 26 31 29 24 20 22 23 19 32 20 38 33 31 29 24 33 31 26 20 31 28 37 22 26 38 26
26 33 19 35 31 33 30 22 19 31 19 34 21 27 27 31 23 31 18 19 23 23 23 21 33 37 20 18 26 36 38 38 31 30 30 26 33 27 24 28 37 28 23 36 23 18 35 21 25 29 33 35 33 35 29 36 28 34 20 23 35 31 38 28
29 19 37 27 27 21 30 31 36 27 21 35 19 24 21 33 32 34 35 24 28 33 20 34 28 25 34 24 31 35 18 37 38 35 29 34 29 29 31 23 34 32 22 31 31 26 23 33 20 25 19 38 28 21 27 22 18 33 33 26 29 23 32 21
32 37 31 34 30 20 24 37 21 21 32 38 22 33 24 34 18 38 30 28 34 26 35 24 23 37 33 28 27 22 21 26 33 22 37 18 25 31 23 27 29 26 22 29 35 31 22 29 18 29 25 21 33 19 29 19 33 38 34 26 28 38 29 27
30 20 29 24 18 28 30 38 31 34 34 27 23 32 25 35 22 26 23 34 28 31 32 23 25 18 31 20 31 32 37 20 22 19 27 30 19 18 20 37 23 37 22 30 32 32 37 26 35 26 27 22 26 24 35 29 35 26 30 32 34 37 28 19
29 22 26 19 34 34 32 25 27 37 34 23 18 30 29 21 19 25 23 31 26 33 37 35 24 18 31 37 35 32 26 32 38 25 26 33 21 22 38 29 30 29 22 22 29 28 23 21 21 31 32 27 30 20 32 28 24 35 29 37 23 35 25 30
27 32 24 21 29 31 19 27 34 35 18 22 30 19 31 27 22 28 29 34 23 37 28 18 29 36 19 27 19 23 31 22 25 30 32 30 24 33 30 36 31 24 18 21 32 21 21 23 24 24 32 22 38 31 18 37 18 34 30 20 18 35 23 37
26 22 29 27 36 37 19 19 34 19 36 36 19 29 28 21 29 19 29 23 38 34 22 36 20 20 24 36 23 23 23 30 21 31 31 27 32 24 25 23 19 26 18 36 36 24 19 21 36 31 35 35 29 32 32 29 23 19 27 31 35 28 27 23
23 29 35 29 21 18 29 18 33 25 38 22 26 32 23 24 18 18 37 35 21 21 22 31 31 24 25 24 33 25 21 34 31 30 23 36 23 30 20 23 34 24 34 26 28 28 26 20 36 19 37 20 23 35 21 34 28 19 27 24 38 28 20 34
21 29 28 29 29 23 34 32 18 35 19 23 33 19 20 32 34 34 27 26 23 36 30 30 24 26 29 28 23 18 35 26 24 33 20 30 19 23 34 20 23 33 34 25 18 27 26 34 28 32 21 30 31 19 37 27 23 22 30 18 29 22 31 19
26 19 38 36 27 22 26 33 22 27 34 20 22 30 35 30 37 24 37 20 26 28 21 22 19 29 26 26 18 21 23 18 25 38 27 25 36 20 36 28 31 34 33 25 21 32 31 21 37 34 24 33 19 38 18 35 21 36 25 33 32 21 25 38
26 19 36 19 36 22 37 30 38 25 26 28 26 24 21 29 24 36 30 32 19 22 29 33 25 30 25 37 26 18 34 24 32 18 18 36 18 18 21 20 23 31 35 29 25 37 18 38 23 33 20 27 26 34 33 35 29 35 24 30 19 21 34 22
36 24 35 32 29 33 19 25 20 30 24 27 20 25 21 35 27 29 23 18 38 20 31 23 20 34 31 33 28 27 36 27 37 23 19 35 38 20 24 23 22 31 27 34 22 24 38 18 28 38 34 35 35 35 30 34 20 23 21 26 29 32 21 21
