P2
64 64
255
37 23 25 21 29 28 35 37 26 25 27 32 34 23 19 36 27 23 25 31 24 18 26 26 33 35 26 35 22 28 24 20 36 37 22 18 19 26 35 38 23 19 22 31 33 26 38 28 31 30 29 25 37 36 25 34 28 21 38 29 34 20 23 33
37 37 37 33 38 30 28 28 35 18 36 28 35 32 37 20 31 37 24 38 32 27 32 28 32 38 26 24 23 27 34 23 23 33 36 28 25 29 29 38 29 37 31 26 26 29 34 19 34 37 27 23 35 38 29 18 37 33 31 25 28 32 27 35
36 23 21 32 31 27 32 34 20 35 23 29 36 27 38 28 23 34 26 37 18 38 27 26 29 26 24 37 30 31 25 31 30 20 32 38 23 27 28 27 20 25 28 27 27 26 22 38 19 22 21 34 28 27 22 23 19 24 26 30 21 19 35 31
36 22 19 34 37 24 36 33 22 24 25 30 37 27 32 25 20 24 21 33 28 18 26 23 30 34 34 21 19 27 31 30 32 18 34 27 27 21 29 35 25 24 27 38 35 29 22 18 23 19 22 36 19 20 23 24 19 27 25 28 34 28 24 25
31 26 21 30 24 38 18 32 22 31 33 32 18 29 31 27 30 37 18 33 22 35 38 25 19 25 35 20 30 24 31 36 34 33 25 21 36 35 32 38 18 28 36 19 34 35 31 20 28 31 31 35 34 21 31 27 30 36 20 36 27 27 25 31
33 30 38 18 28 27 33 19 29 27 21 34 31 29 26 23 32 25 19 32 18 33 31 36 35 37 36 24 23 28 32 23 32 37 34 22 36 21 20 30 25 29 19 23 34 23 20 34 19 24 36 27 21 34 19 21 27 19 35 34 31 18 18 26
20 22 22 19 30 33 22 20 36 33 29 36 23 18 36 28 34 23 34 26 21 20 26 25 38 18 21 30 33 30 25 23 23 32 26 18 34 20 32 25 36 28 34 25 37 26 25 21 24 27 28 27 29 34 38 38 23 31 26 33 19 24 22 30
23 26 22 35 28 34 27 20 24 26 35 22 21 33 31 21 37 19 35 30 35 24 35 30 18 19 35 31 31 21 23 31 38 22 34 30 19 36 36 35 38 30 36 20 19 34 28 37 23 22 20 26 19 37 29 35 18 36 29 23 21 32 18 22
19 30 35 26 28 20 35 30 22 27 30 21 19 35 26 31 35 33 30 34 34 29 26 31 30 33 21 20 37 34 19 22 32 33 25 30 21 21 29 34 18 31 24 33 37 35 28 22 30 35 23 27 29 30 27 35 20 32 20 23 26 27 35 26
38 23 18 21 30 23 36 32 38 23 26 31 25 23 23 38 24 30 21 38 28 31 19 27 37 32 21 28 26 24 34 25 23 24 24 38 22 32 38 21 24 37 27 26 29 28 34 28 19 28 24 36 35 23 19 36 35 19 26 29 18 19 20 19
22 38 34 23 24 26 27 30 24 27 30 32 33 33 28 27 28 38 31 34 37 21 19 31 36 34 27 25 27 20 38 28 26 25 37 26 30 28 34 36 35 35 35 26 34 33 24 31 30 31 38 32 24 26 24 27 30 36 25 26 30 29 24 34
25 30 20 36 20 22 24 31 24 31 37 37 31 22 24 34 27 23 33 33 30 35 27 36 20 35 28 28 34 23 26 36 36 36 25 25 38 26 22 19 22 21 36 38 21 28 22 38 23 36 22 28 28 21 35 25 28 28 25 26 35 33 23 22
27 23 30 28 18 34 20 34 35 31 20 31 19 19 29 34 37 25 30 24 29 28 28 37 26 25 18 27 33 29 33 22 38 37 18 28 30 28 28 33 37 22 20 23 20 36 27 28 27 21 28 35 28 23 24 32 36 23 20 21 23 29 36 35
35 19 31 31 33 21 35 28 20 27 25 37 35 38 35 18 38 30 30 21 35 35 34 35 31 23 34 36 26 28 33 21 32 28 29 32 27 31 30 31 32 34 18 28 20 27 24 35 31 26 22 28 22 31 29 27 29 30 35 24 32 35 34 34
21 38 38 38 18 21 25 24 18 28 24 36 25 34 31 25 21 37 19 21 37 26 29 29 28 27 31 21 37 27 29 28 33 32 32 29 33 19 19 25 30 25 37 31 32 25 36 35 31 21 20 22 27 28 33 21 38 35 36 26 38 32 23 23
35 38 38 38 38 37 34 21 32 23 23 23 29 37 27 31 32 23 30 36 27 27 30 23 28 19 23 23 25 37 30 24 25 32 30 24 31 18 22 30 21 21 18 38 19 19 29 35 21 34 18 27 33 22 29 33 26 31 23 33 28 26 29 25
20 27 24 24 24 37 34 36 18 29 26 27 20 18 32 37 25 36 22 28 31 21 25 36 23 29 27 29 29 31 30 23 23 26 22 38 30 36 32 35 26 34 31 25 18 24 28 30 29 37 37 27 18 37 28 38 18 29 29 37 19 26 23 26
19 23 33 27 36 21 37 24 18 27 32 24 27 22 30 33 21 29 29 32 21 20 27 38 36 34 20 20 24 27 22 33 20 38 22 29 31 24 22 19 22 18 20 22 32 29 21 22 20 36 32 34 28 35 23 22 36 38 21 20 34 26 22 38
28 26 33 35 36 30 30 20 26 27 32 30 36 37 30 24 20 28 28 38 31 28 35 32 31 31 24 21 30 36 28 22 33 29 18 26 36 29 20 23 21 26 25 27 24 21 31 24 37 27 18 35 28 29 29 27 20 23 37 21 19 20 26 18
31 21 26 21 28 36 35 28 18 32 29 24 34 18 23 20 23 28 41 23 27 37 29 29 39 38 26 18 22 26 23 32 25 29 24 35 32 24 35 32 32 35 37 35 32 37 23 32 25 33 28 23 19 20 26 21 19 26 36 29 27 34 32 21
23 25 30 32 23 23 20 25 33 31 20 18 38 32 33 27 35 32 38 29 28 35 27 31 34 27 31 38 22 30 35 27 29 25 29 36 33 33 22 24 28 42 40 35 28 34 28 35 32 35 39 34 31 19 27 24 26 22 23 27 34 18 28 18
19 32 29 25 20 29 29 18 22 24 22 19 19 23 30 26 27 38 41 39 37 39 38 45 40 37 36 39 26 38 26 19 21 23 32 25 28 38 40 31 34 47 33 45 44 43 48 47 41 31 33 25 19 36 25 28 28 32 22 31 34 37 26 37
29 29 24 21 32 22 22 20 29 38 27 27 28 34 32 37 30 34 33 45 33 50 34 50 37 41 30 29 38 39 39 20 24 18 21 22 25 45 38 37 48 37 35 38 34 36 50 34 42 30 33 41 24 26 25 18 20 30 22 27 30 36 35 29
27 26 36 25 25 31 30 33 28 18 39 31 28 35 29 36 52 38 51 48 43 43 37 40 40 51 32 45 41 33 30 35 33 28 41 43 33 35 34 44 38 50 54 38 39 50 45 50 46 37 41 30 39 41 24 35 25 37 22 33 34 21 34 30
38 23 20 22 22 35 20 20 34 28 29 26 37 40 34 55 43 41 50 50 41 48 56 57 51 45 36 46 38 35 35 29 24 35 32 40 36 39 46 47 47 43 45 44 60 51 55 51 49 40 46 33 32 40 40 28 30 22 29 23 21 33 25 18
22 38 32 32 32 18 35 29 33 29 29 33 44 46 49 51 45 44 53 65 55 55 45 60 46 43 40 48 32 43 26 43 35 27 44 34 45 45 55 40 43 62 58 51 64 53 51 48 53 53 42 45 41 33 32 30 20 27 32 20 31 22 20 18
36 29 22 33 25 36 32 28 26 25 35 48 37 37 38 61 46 61 59 58 64 57 63 47 57 53 48 39 40 35 42 35 31 34 45 36 49 41 47 62 54 63 56 60 63 62 54 63 58 43 57 37 46 32 31 30 31 34 31 32 22 28 18 36
38 28 36 33 30 25 28 29 29 39 44 49 54 37 54 46 62 58 59 64 54 55 52 62 59 51 51 54 44 45 39 39 33 44 50 34 45 58 51 49 53 67 53 72 55 67 61 49 58 61 56 56 45 49 31 32 23 37 32 21 32 21 32 32
24 21 18 25 29 20 24 30 23 43 43 52 46 56 44 58 58 65 59 70 64 69 59 69 71 56 61 53 40 52 49 41 33 35 50 51 58 56 63 60 70 68 58 63 63 72 55 68 64 60 45 49 52 48 39 25 22 31 29 24 27 31 21 37
18 27 29 36 21 30 19 27 28 31 41 47 47 61 52 56 71 63 61 66 73 81 70 65 69 62 50 58 55 44 53 36 42 35 36 51 55 62 65 55 74 70 71 68 70 73 70 73 51 63 58 55 45 39 42 41 39 34 22 20 21 20 29 26
34 30 35 34 38 26 27 39 26 43 35 46 54 62 55 63 69 61 63 83 66 76 75 66 74 67 50 52 47 55 42 46 41 51 54 56 53 58 59 57 68 79 80 83 81 70 78 61 72 56 63 57 47 51 36 44 24 27 35 33 36 31 22 20
34 20 22 29 25 19 21 21 36 30 37 38 56 50 56 55 73 67 69 70 81 69 85 80 76 54 63 52 52 59 54 43 44 56 43 41 48 52 53 59 63 79 66 78 83 73 69 67 60 69 55 63 45 47 33 33 37 30 20 27 30 38 36 37
31 31 29 34 22 32 31 25 32 28 38 43 40 54 61 56 67 69 67 84 78 83 71 66 69 67 69 63 62 48 45 42 48 53 50 42 49 51 56 56 73 71 68 81 78 76 71 65 55 55 51 62 39 37 47 37 25 22 34 31 24 24 36 28
24 31 37 19 20 20 19 28 35 31 38 54 45 52 54 59 66 76 66 84 78 75 72 63 78 68 65 56 49 56 37 48 36 52 56 52 59 49 70 74 68 67 80 79 76 73 74 69 73 61 63 48 46 54 37 29 32 33 22 21 18 23 38 37
32 24 34 22 34 36 36 29 32 27 35 44 58 56 65 60 62 62 61 69 71 84 75 63 66 71 65 55 43 57 42 47 43 51 45 57 43 56 62 67 64 74 66 67 73 66 71 74 57 70 52 49 52 55 41 42 38 36 26 26 30 36 33 21
18 23 22 27 30 30 29 24 38 32 42 41 37 48 56 56 53 74 74 67 71 68 70 70 72 56 63 54 42 42 36 46 45 41 38 38 41 45 63 59 70 74 78 66 61 75 63 62 68 56 50 55 53 40 31 33 31 26 27 37 30 19 21 23
37 37 25 36 25 38 21 20 39 37 32 47 47 44 62 51 62 55 61 71 61 74 75 70 52 58 47 63 41 54 48 44 49 37 35 49 58 55 58 51 62 65 62 73 69 58 63 63 54 56 56 52 40 45 48 30 27 35 33 27 32 20 25 29
18 33 24 25 23 30 22 32 21 41 42 51 42 54 53 50 63 66 57 56 65 54 66 51 64 55 46 44 41 54 42 46 48 40 37 42 43 55 46 56 54 52 63 53 66 56 65 59 57 49 44 40 44 39 37 32 27 18 19 22 29 30 24 33
36 19 20 37 30 22 22 33 33 35 25 41 40 44 46 61 49 52 55 65 56 61 67 67 49 43 59 41 40 38 43 25 35 42 34 37 38 45 50 50 56 66 50 57 59 64 63 60 57 41 44 53 50 33 27 25 33 18 34 24 32 30 22 35
31 25 21 24 24 38 23 35 39 29 30 35 35 38 53 60 61 62 54 59 59 62 54 60 62 50 55 58 47 50 35 47 33 47 34 51 48 41 61 46 50 63 59 62 64 69 53 67 61 64 48 50 42 39 39 46 35 30 41 35 40 39 44 40
28 29 32 36 37 43 41 33 44 40 39 31 36 38 45 48 65 63 68 51 66 69 67 54 67 53 59 60 59 54 41 47 45 49 46 52 52 62 61 51 64 69 53 63 55 55 60 54 64 66 49 48 47 36 43 43 33 31 48 37 35 41 49 47
30 44 43 48 45 31 33 34 29 44 36 35 36 38 48 60 46 54 61 59 55 51 59 53 67 53 49 44 41 39 44 39 43 35 47 39 46 59 63 59 62 54 69 72 71 70 53 68 51 50 61 48 46 58 49 50 52 39 41 50 56 41 51 53
39 39 39 29 35 28 25 27 26 33 40 34 42 50 40 50 39 44 51 55 60 48 48 51 57 42 53 39 33 38 29 31 33 35 40 48 41 53 58 50 52 57 63 52 63 59 61 51 45 45 37 45 47 37 32 46 37 39 42 48 31 39 45 40
27 39 39 21 27 40 29 41 39 26 41 21 32 36 34 29 37 40 51 49 50 49 41 47 33 40 40 37 40 36 27 27 42 42 38 30 40 47 31 50 33 45 45 54 48 54 41 52 34 33 37 40 23 31 32 25 32 40 36 26 25 33 40 30
32 26 37 19 29 29 18 29 33 24 25 29 21 23 24 28 27 37 31 28 39 38 39 29 42 37 22 32 37 21 24 35 31 18 23 18 25 29 29 42 37 38 43 42 28 43 38 32 22 23 37 33 28 19 33 24 22 18 27 18 38 36 34 27
28 27 22 22 23 26 36 21 35 32 22 37 19 35 29 20 35 29 41 35 33 29 23 22 30 35 25 33 34 32 32 30 28 35 36 28 36 35 30 38 25 24 39 31 32 23 40 27 34 31 33 21 30 21 37 23 21 18 30 26 24 25 30 29
24 34 24 29 24 22 37 22 25 37 35 33 38 26 26 35 23 25 28 20 22 28 37 22 30 20 32 22 20 34 31 22 31 33 37 20 24 23 25 19 18 28 28 36 19 29 32 21 25 35 29 25 21 35 24 32 19 18 22 34 20 22 20 21
37 32 28 21 24 30 23 29 29 36 37 38 22 26 37 29 19 32 24 38 25 21 29 26 37 32 34 36 24 22 19 28 19 20 37 26 33 22 26 27 25 18 29 36 26 31 29 37 27 28 25 18 27 20 29 22 35 18 34 32 36 33 21 19
30 35 32 33 19 27 24 22 20 30 36 27 27 23 35 18 37 27 21 18 34 30 35 21 36 37 35 25 18 32 37 27 24 21 36 38 26 32 38 38 19 23 29 36 34 25 20 24 21 34 21 23 20 36 20 18 30 19 29 18 31 32 34 26
24 21 33 34 30 29 30 28 25 18 36 37 25 30 24 29 34 29 36 28 25 30 20 20 22 29 35 34 23 35 27 29 22 33 22 20 29 21 27 36 26 33 19 21 18 20 22 35 35 36 26 27 33 20 18 19 26 34 33 33 38 21 36 30
21 24 24 27 30 35 18 29 32 26 34 28 33 18 37 23 38 29 26 23 34 29 27 33 36 30 25 29 23 33 20 27 30 18 33 26 18 22 25 29 26 21 21 35 38 32 23 25 28 21 23 36 29 34 28 28 25 26 22 37 38 24 27 25
34 21 25 32 30 25 26 25 21 30 35 18 28 33 25 19 20 33 37 23 24 32 19 26 24 29 25 33 38 33 33 25 35 28 29 27 36 30 38 27 20 37 33 33 28 19 24 33 33 26 28 37 36 18 18 18 33 18 32 23 23 37 30 22
34 35 25 30 37 26 21 35 36 20 38 28 31 19 32 19 38 38 31 23 24 23 22 34 37 31 28 25 32 24 20 25 25 28 30 29 28 20 19 19 23 34 33 22 33 37 25 27 21 24 25 38 20 36 30 33 33 32 29 30 18 38 22 35
34 33 25 32 37 29 21 38 34 20 34 28 22 35 23 31 25 35 31 30 34 37 28 29 21 26 33 31 18 23 34 20 37 26 21 38 24 18 31 22 30 33 26 18 31 32 35 29 23 29 22 25 28 20 25 26 34 31 38 30 21 38 38 24
31 18 36 19 24 28 27 26 22 30 24 30 37 36 32 19 34 19 34 29 38 37 29 31 28 29 32 27 20 29 28 19 22 26 28 35 38 27 26 29 21 26 29 31 20 30 21 30 29 36 20 35 33 31 18 28 34 35 30 34 32 20 20 19
22 37 29 24 35 25 20 32 24 37 20 32 31 29 28 20 20 26 21 30 18 25 29 30 25 27 31 29 21 29 38 37 22 35 24 27 23 38 23 29 30 24 37 24 21 27 35 30 36 33 38 23 23 23 36 32 21 33 34 24 25 24 38 20
27 29 31 33 34 25 22 31 35 36 22 37 29 28 29 20 26 28 33 29 34 21 37 18 22 30 31 26 34 25 35 24 29 28 23 28 33 20 37 23 34 30 27 18 38 32 30 31 26 24 19 31 38 22 19 20 26 22 19 33 27 29 34 24
18 27 34 29 22 26 37 24 21 19 30 37 24 32 32 25 33 31 37 33 31 19 31 32 37 28 38 26 35 25 31 23 18 31 33 23 32 25 24 34 27 23 36 22 38 19 20 27 18 23 35 36 25 35 21 23 36 35 24 21 36 21 20 36
28 23 33 29 23 37 26 28 23 26 31 20 29 23 21 21 24 35 28 20 24 19 29 29 28 22 23 34 23 36 33 18 25 35 36 38 20 28 19 36 29 19 32 31 23 18 20 18 20 21 35 30 31 36 36 24 35 31 18 20 33 21 24 37
19 27 33 24 22 25 24 20 37 38 37 28 32 19 27 18 29 19 26 24 31 30 21 18 27 22 21 37 34 30 35 38 35 36 27 25 29 27 25 37 22 21 22 25 26 26 21 19 24 36 32 34 18 31 31 18 38 33 34 24 22 32 33 37
29 27 19 33 24 28 32 18 38 26 33 29 30 24 30 21 35 32 20 38 27 31 26 24 23 25 35 22 18 22 23 29 27 24 18 26 24 21 36 26 21 34 28 22 19 35 32 28 20 30 25 37 36 21 24 20 19 24 28 21 35 23 38 36
25 29 32 37 21 25 28 38 18 31 28 31 32 31 26 21 35 20 19 26 34 38 26 34 24 36 21 21 37 35 38 22 35 31 37 32 25 37 22 21 32 31 19 21 25 36 36 29 20 31 22 32 26 23 36 26 24 34 28 21 26 25 30 21
20 34 38 32 33 35 20 37 24 28 35 34 38 38 35 28 19 21 37 36 31 24 19 38 36 33 38 26 27 30 25 38 30 29 29 18 26 32 34 18 33 30 24 38 28 19 31 35 38 38 28 31 18 22 19 28 37 25 23 31 23 30 32 20
29 27 25 18 22 33 36 24 21 21 18 26 22 18 18 20 33 27 20 23 37 38 29 30 20 35 32 19 25 21 27 36 32 22 28 18 31 19 36 32 31 36 20 37 32 37 34 30 25 27 25 37 21 37 35 32 34 30 22 22 21 32 26 29
