P2
64 64
255
30 25 26 25 21 19 32 29 36 36 21 27 20 19 30 22 25 25 21 35 22 25 25 25 18 21 35 32 31 26 18 22 30 30 22 38 20 33 32 27 23 31 36 22 20 28 25 24 26 26 29 27 18 21 18 37 28 19 18 28 24 33 35 25
38 34 27 33 23 35 34 26 21 36 35 22 18 21 28 25 24 37 29 37 38 23 19 30 28 20 20 20 33 34 27 38 36 26 30 29 38 34 28 37 25 27 19 35 21 35 38 19 34 28 36 35 23 38 19 37 28 31 25 35 37 37 27 25
18 28 32 18 20 24 34 25 26 34 30 23 35 35 18 28 20 38 38 34 24 34 31 32 19 33 20 29 19 19 35 26 38 19 38 30 27 38 37 20 28 32 20 24 26 33 24 35 37 24 33 38 31 19 30 33 31 22 29 34 28 31 27 21
32 24 36 29 36 18 20 30 22 21 37 36 34 19 33 18 25 31 18 20 33 37 30 23 28 25 37 26 26 23 35 27 23 38 38 23 21 24 32 33 32 36 30 37 19 38 22 32 28 23 27 20 32 28 23 37 21 36 38 23 32 20 34 29
27 23 35 33 30 27 34 29 18 27 18 24 25 31 28 25 25 32 21 35 19 35 21 26 37 25 31 31 30 31 27 27 31 26 30 23 33 26 26 23 18 20 34 19 33 30 29 38 35 20 18 24 19 23 29 31 33 24 31 38 25 26 20 32
36 23 31 24 38 23 34 23 36 28 19 33 36 37 37 23 19 38 22 21 26 38 29 31 30 23 34 36 18 23 35 26 27 29 20 29 33 18 38 36 23 30 18 28 33 28 37 37 33 22 32 30 22 22 25 38 30 26 35 30 38 31 24 25
37 20 22 22 34 38 18 24 19 31 23 36 32 29 26 23 32 18 28 19 34 33 26 26 32 29 33 37 34 32 27 27 31 35 30 32 34 29 21 18 19 21 23 35 20 26 26 21 29 34 33 37 27 33 19 25 24 34 31 33 29 32 34 31
21 28 18 32 30 28 30 25 22 21 32 32 19 29 33 25 36 27 31 18 33 28 21 24 32 33 36 19 22 20 29 28 19 32 38 35 25 25 26 28 27 37 33 31 26 27 22 18 20 38 32 19 26 30 33 19 25 34 34 30 18 32 22 35
29 38 31 24 19 22 22 29 27 28 30 23 31 25 25 28 32 29 23 27 34 29 28 38 25 25 19 26 34 24 25 35 18 20 31 34 23 19 27 26 21 37 38 21 28 38 37 26 35 34 19 29 33 21 25 38 25 24 33 38 34 19 25 24
30 36 23 29 23 20 31 33 27 23 33 25 22 28 35 28 22 37 18 37 28 35 30 25 38 34 21 36 38 19 31 29 33 20 18 24 36 24 19 37 25 18 25 32 35 38 37 36 22 36 20 29 18 27 23 19 18 25 24 35 18 25 34 21
32 28 36 24 21 20 26 37 38 20 18 20 33 22 30 25 18 32 34 31 29 36 34 24 28 18 22 32 37 38 28 35 27 29 38 21 26 19 29 25 20 33 37 29 27 22 33 33 30 34 29 27 32 19 26 34 25 29 33 23 29 34 22 38
22 26 34 21 26 34 24 30 19 19 29 26 34 37 29 29 26 19 27 25 35 18 28 34 31 21 24 36 38 34 33 30 35 38 31 38 34 18 29 23 35 36 37 34 28 29 28 24 30 23 27 36 25 18 19 35 35 22 20 34 29 27 22 38
26 19 21 21 18 31 34 21 32 30 18 25 27 28 29 21 22 22 32 36 37 35 35 33 31 32 22 31 19 28 37 38 21 38 18 34 33 31 29 30 31 20 18 19 25 37 24 36 24 19 24 20 37 30 35 33 18 28 36 20 28 30 35 36
23 32 34 20 37 35 35 22 26 35 37 33 20 28 30 27 32 28 32 30 28 35 29 28 22 27 19 24 24 28 20 35 22 28 35 19 21 38 26 33 37 22 30 22 33 18 35 24 28 21 24 19 30 25 36 34 25 38 30 33 31 29 21 38
32 24 32 18 26 29 30 36 22 28 21 36 20 19 29 28 28 38 25 18 35 32 28 20 23 21 27 19 24 32 19 38 37 30 30 21 30 33 37 35 27 30 31 25 34 18 31 23 38 30 29 38 30 25 37 34 35 35 35 27 32 20 23 30
29 34 20 27 23 27 34 36 30 23 20 37 37 30 18 25 22 29 23 38 22 18 26 27 19 31 31 25 38 30 24 23 19 26 30 23 30 20 22 27 32 23 25 34 26 37 34 31 26 19 38 26 37 23 30 23 18 23 38 32 38 28 33 37
29 30 18 27 20 19 29 20 32 19 18 29 30 26 34 25 31 30 37 27 32 35 36 25 30 22 23 19 33 38 28 27 31 22 30 19 25 23 19 34 32 38 33 32 23 19 36 25 29 31 33 25 26 29 34 24 20 29 27 28 18 25 29 21
22 35 38 20 25 30 24 30 30 38 28 29 30 33 29 21 29 27 34 28 34 34 33 18 23 31 24 32 23 33 28 31 23 32 38 25 20 37 19 23 27 34 35 27 31 37 24 32 22 33 38 21 19 30 27 38 26 24 22 19 35 37 38 24
19 26 33 35 25 20 35 35 35 37 21 18 18 34 31 28 20 23 22 21 34 37 26 22 32 18 32 38 18 23 33 34 20 29 22 29 18 35 32 25 32 31 18 31 37 33 29 24 35 26 28 37 35 24 34 30 23 21 29 31 18 31 35 36
23 31 37 28 34 19 26 25 18 35 30 26 29 29 36 29 33 35 23 26 36 31 37 22 28 28 32 32 32 20 31 28 38 37 25 29 34 28 32 24 25 36 22 24 22 41 33 36 27 32 24 21 25 21 36 33 26 19 22 21 22 37 18 25
34 33 29 31 25 19 33 18 31 18 18 20 37 27 27 28 41 37 34 41 46 27 44 39 31 39 35 22 34 32 36 27 23 18 35 32 34 29 25 37 24 34 39 27 44 35 35 43 41 40 26 32 21 26 35 22 33 27 37 22 24 29 37 21
30 19 37 35 28 32 38 23 22 33 38 26 26 34 40 41 27 34 37 31 34 42 35 35 40 35 37 35 35 33 31 19 28 33 31 22 26 26 36 37 45 35 43 43 31 30 34 29 41 38 35 39 19 18 32 20 31 24 28 23 27 34 34 23
36 37 24 19 24 27 21 19 27 18 24 22 29 44 35 46 46 39 50 43 33 46 43 48 40 46 31 46 28 39 30 26 25 24 30 22 35 28 30 50 43 35 43 36 37 48 51 36 44 30 42 30 40 26 27 35 24 33 26 35 32 24 38 18
35 31 27 25 22 26 33 29 33 26 19 27 35 45 34 34 49 38 48 57 50 42 38 56 55 43 41 35 30 35 22 26 29 37 31 29 38 48 36 51 39 39 50 37 47 46 50 37 40 39 32 27 39 23 25 19 22 36 19 29 29 35 30 21
24 23 25 38 23 23 23 22 25 20 35 38 33 40 36 45 53 39 48 57 52 52 52 56 42 39 38 51 50 40 30 36 35 41 43 31 34 46 46 37 49 43 44 50 44 58 47 50 54 53 37 39 31 32 35 20 27 28 27 27 31 33 37 29
29 18 32 27 30 24 35 23 34 28 38 46 40 42 53 42 56 48 58 49 55 46 53 45 51 48 40 35 50 33 26 38 22 38 29 36 38 52 44 57 51 52 62 46 51 55 53 45 54 41 36 50 48 36 27 27 19 18 33 30 21 34 34 20
21 32 25 38 18 18 20 33 25 31 28 43 35 46 39 56 48 56 48 54 52 49 51 66 62 49 56 45 40 35 37 42 28 27 48 36 39 42 51 54 52 67 68 52 51 56 67 45 50 50 40 54 39 48 34 29 28 30 23 29 23 22 18 34
28 33 34 35 32 18 19 30 38 44 34 37 52 38 47 50 60 62 57 57 71 53 68 57 51 57 57 43 47 35 38 36 33 45 35 40 43 43 49 63 50 65 64 62 59 59 63 51 57 64 42 54 39 51 40 38 40 37 27 24 36 38 29 33
18 35 26 23 18 27 37 30 39 28 49 38 53 53 56 51 63 57 68 58 64 67 62 73 63 68 66 48 43 49 49 40 48 44 32 49 42 63 53 50 56 60 61 71 62 64 62 64 50 59 58 58 39 36 42 36 27 34 31 37 37 19 19 26
32 38 18 38 30 36 21 21 35 27 49 47 46 47 46 61 60 73 75 73 79 76 79 77 57 63 66 56 58 47 43 41 52 38 49 49 57 45 53 70 71 60 64 67 66 63 66 55 58 65 50 60 56 40 47 40 30 31 38 22 38 24 25 32
35 20 23 28 34 30 36 36 40 33 47 54 58 48 61 70 65 66 72 73 66 67 75 64 59 71 70 66 48 54 53 51 53 50 45 40 60 57 53 55 60 62 69 81 68 67 78 62 73 51 47 53 49 51 40 42 31 31 25 33 23 37 22 26
18 19 24 34 20 18 28 34 38 45 39 39 51 56 61 71 65 69 69 84 70 88 74 64 78 59 59 64 55 41 43 37 43 46 38 59 49 67 54 70 73 64 74 72 72 72 82 65 57 69 65 61 45 51 47 45 32 37 36 36 27 29 19 27
18 22 18 23 38 24 30 27 38 28 42 52 44 60 65 65 59 75 76 85 83 90 71 75 59 73 71 63 50 41 39 38 50 49 37 46 55 60 58 63 63 63 78 88 76 69 74 61 65 54 62 49 48 54 34 43 30 29 32 27 25 21 23 24
18 31 25 22 33 30 37 25 43 42 47 43 55 59 57 53 67 66 71 69 68 70 67 68 60 71 56 58 57 47 41 49 48 52 57 43 49 48 64 69 61 69 66 71 81 81 72 74 73 53 57 47 54 37 38 47 38 25 33 31 37 24 22 29
37 37 30 37 36 30 26 21 30 28 49 39 41 49 59 58 60 67 76 79 83 84 66 74 62 58 60 51 44 49 56 38 46 41 37 47 57 49 64 73 72 80 81 74 75 81 70 58 71 54 54 49 45 52 50 43 41 23 34 35 19 19 33 25
25 26 18 30 32 31 18 29 25 44 39 46 55 58 62 56 65 68 69 67 67 75 68 73 71 57 64 46 58 49 51 43 54 40 50 41 58 46 49 62 60 64 78 65 65 76 62 65 69 51 50 53 51 35 46 39 42 19 33 18 28 27 20 21
37 24 31 20 27 22 37 24 28 42 35 37 46 47 48 59 63 66 55 70 67 71 73 56 66 60 49 52 55 56 35 40 38 42 41 52 46 47 60 66 62 70 58 67 67 63 74 67 50 57 48 44 46 44 41 31 30 38 35 25 33 32 34 26
22 32 37 34 31 23 22 24 40 28 40 48 39 42 49 63 64 58 61 58 67 54 65 71 58 61 62 56 48 41 32 36 47 43 40 41 41 56 61 48 61 56 69 63 64 69 56 53 46 52 44 56 40 38 39 44 36 21 29 35 33 36 27 29
22 38 29 24 37 19 27 32 24 24 45 36 35 45 41 60 51 57 54 62 52 68 66 64 56 57 60 50 52 44 38 35 26 41 29 38 48 54 49 61 64 52 66 59 49 59 62 56 59 59 45 37 33 33 36 31 33 34 22 19 23 19 22 18
21 31 36 27 21 39 32 39 22 25 41 33 46 40 42 45 59 51 56 49 51 58 63 47 46 53 44 40 44 48 48 37 41 29 45 43 49 48 46 57 55 58 52 58 67 53 57 65 63 47 49 56 53 45 40 32 27 36 42 40 27 25 39 39
32 38 29 25 39 29 44 34 36 44 47 42 47 50 55 51 62 58 66 49 55 64 60 61 51 62 46 61 45 46 39 34 47 31 37 37 51 44 56 48 67 70 59 68 66 68 57 64 54 49 61 54 50 47 41 38 33 50 30 42 47 39 32 43
35 43 28 46 33 48 45 44 38 35 32 44 39 43 52 44 62 56 59 61 63 55 67 60 66 54 59 47 52 42 38 47 37 38 49 53 56 57 66 49 63 56 65 72 69 59 52 57 62 58 66 54 47 51 54 47 39 46 48 44 54 38 51 40
30 29 28 42 44 28 42 39 27 35 41 29 40 39 51 53 55 47 57 56 42 50 46 60 49 50 49 37 37 47 42 30 37 38 40 51 35 53 54 51 45 55 49 62 62 47 51 53 54 46 56 48 48 50 45 38 30 42 34 37 42 32 34 46
41 26 41 39 36 23 26 33 34 32 41 39 34 42 28 47 33 31 32 34 50 48 33 36 39 31 42 45 41 23 42 37 35 35 34 41 25 28 34 42 42 37 48 43 35 52 33 37 41 29 33 32 31 35 40 27 35 27 30 37 37 39 27 43
24 28 22 29 32 25 34 19 20 23 33 23 26 35 21 25 22 27 25 28 28 42 31 33 40 32 35 32 24 20 21 25 21 25 23 37 38 36 29 28 32 39 44 32 29 26 36 41 33 26 26 32 22 34 18 30 29 37 36 23 35 32 38 31
29 36 35 29 27 30 19 28 31 24 21 33 18 26 38 28 23 22 31 22 25 31 31 35 40 19 28 22 24 32 25 34 35 26 28 26 30 25 38 25 36 37 41 35 33 35 28 26 19 38 28 23 21 36 36 26 18 31 36 32 32 27 37 35
18 37 30 19 26 37 23 32 31 19 34 19 36 25 25 29 24 22 32 28 23 26 23 26 36 31 24 23 38 33 32 29 33 37 32 36 31 22 23 24 33 33 32 25 26 31 32 23 25 22 37 36 22 29 24 29 18 25 30 21 26 28 21 19
21 33 34 18 36 33 19 38 33 23 30 27 32 37 23 33 34 19 38 34 23 19 32 23 36 32 37 36 30 28 32 35 38 19 27 37 22 23 28 35 23 31 24 24 29 35 37 24 28 20 20 27 18 25 28 33 25 35 37 32 38 32 30 34
32 37 30 31 30 38 21 28 32 36 18 29 38 37 34 34 38 20 19 29 37 38 33 38 18 25 35 38 25 20 19 37 29 20 34 38 29 19 22 34 34 31 30 32 26 20 26 34 23 29 23 32 35 23 18 30 20 26 30 20 21 38 21 23
21 25 30 36 18 24 23 24 28 24 18 26 24 38 28 25 31 37 38 23 26 19 32 30 29 26 21 25 22 18 31 22 33 18 28 30 35 25 30 36 29 34 20 19 24 30 18 37 25 30 35 19 23 28 27 19 28 34 36 36 21 22 26 29
27 23 31 22 30 18 18 37 31 23 29 30 24 24 23 34 22 18 23 22 21 38 35 27 18 31 30 23 29 37 35 23 33 33 18 23 31 29 22 34 35 21 23 27 34 19 21 31 27 18 29 32 35 30 32 36 23 23 18 37 28 20 29 34
19 37 22 22 21 29 26 38 27 28 29 35 26 18 21 26 19 32 21 35 30 19 25 32 36 38 23 19 21 33 24 34 18 36 18 34 22 38 20 26 26 33 31 23 30 29 27 36 38 26 31 23 34 21 19 20 23 21 27 20 32 22 26 21
27 20 35 19 31 20 27 33 37 20 20 38 31 20 26 36 24 18 24 33 20 29 23 24 29 33 28 18 25 38 18 19 21 36 34 19 30 28 29 22 33 28 22 21 35 34 19 34 21 18 18 37 26 33 34 20 20 29 37 23 25 18 25 37
26 35 24 37 23 30 36 33 21 22 19 26 27 35 36 23 22 22 25 28 37 21 31 28 21 27 26 22 24 34 21 32 34 21 35 34 34 37 21 23 32 25 32 22 34 33 23 22 35 33 35 30 38 31 36 27 29 22 22 37 34 27 31 18
35 21 21 30 21 30 19 27 27 23 38 38 33 37 22 32 29 24 29 22 36 23 25 32 28 33 31 29 26 24 36 22 37 37 21 35 32 37 26 34 31 20 30 31 18 32 37 22 36 37 35 25 26 24 24 38 23 22 33 36 25 34 22 31
26 24 31 22 23 21 22 33 25 36 35 20 23 33 27 20 19 38 29 23 32 27 18 30 23 37 28 36 28 35 26 34 20 19 30 25 38 20 18 30 22 29 32 36 24 25 29 24 36 19 31 18 38 35 19 33 27 23 24 22 24 25 34 27
31 32 31 19 29 34 23 23 35 25 23 29 37 33 29 28 21 28 28 36 31 21 20 31 38 27 26 25 18 37 38 34 18 21 21 21 18 21 30 18 21 20 25 21 34 32 24 32 32 32 22 33 35 20 19 34 36 32 37 27 29 32 19 26
37 36 30 28 20 22 31 32 24 32 18 22 37 24 36 25 18 20 33 34 38 32 27 35 29 22 37 36 37 35 22 37 22 25 27 25 29 26 21 29 33 20 21 30 29 30 32 21 25 30 27 20 34 33 27 19 23 26 19 19 30 37 31 24
21 26 25 34 18 35 25 18 23 32 34 26 34 34 26 23 20 32 20 35 31 35 25 32 36 21 38 34 19 24 18 33 20 36 35 20 37 34 36 20 22 34 18 18 20 25 26 37 23 38 25 25 29 20 29 29 36 31 32 21 30 27 23 20
25 34 33 34 34 24 20 26 37 23 22 33 22 20 27 33 28 31 32 32 35 19 31 20 29 35 36 18 34 19 21 34 22 31 30 26 28 37 18 36 37 21 24 19 37 34 20 20 32 38 30 25 36 34 22 19 28 31 35 35 31 27 34 29
27 22 28 24 37 25 36 28 31 23 21 34 28 38 19 36 21 23 31 35 32 24 36 24 26 24 27 35 28 24 23 33 24 37 23 29 20 27 29 38 35 28 26 31 27 23 24 25 35 25 27 21 38 28 35 31 26 27 37 26 26 19 29 38
20 27 34 24 23 31 36 29 36 18 34 36 35 37 19 28 27 26 23 25 35 25 19 19 26 31 36 30 30 19 19 21 20 24 24 20 28 30 18 28 19 22 32 31 32 28 37 36 20 18 27 21 22 38 19 21 33 26 21 29 22 37 38 37
37 21 27 26 20 27 35 29 37 37 21 20 27 29 29 21 35 20 21 29 30 34 28 35 29 19 30 36 23 36 22 37 19 23 29 21 24 34 33 35 21 36 29 34 29 25 33 37 25 26 19 38 28 37 29 27 35 25 24 35 27 24 19 22
29 33 24 37 38 38 23 35 31 23 30 27 29 33 30 34 29 26 24 19 22 20 23 25 30 30 28 30 38 28 24 21 27 36 23 31 31 35 33 34 25 36 21 32 26 31 36 27 27 34 37 25 37 32 25 19 31 31 31 26 38 18 18 23
