P2
64 64
255
32 32 36 31 22 33 22 38 18 29 24 35 32 26 19 19 31 25 34 38 19 36 32 24 21 28 36 25 25 21 23 31 24 28 23 25 33 37 33 28 36 25 18 29 23 30 32 28 24 34 33 38 33 29 27 23 31 33 21 30 19 19 22 18
19 32 30 36 21 36 19 18 22 32 18 36 18 22 34 24 26 34 20 37 32 34 28 23 26 30 29 37 38 31 23 28 23 34 22 22 24 19 26 38 25 19 37 23 37 26 26 30 26 19 27 33 37 31 37 32 23 36 35 35 33 35 26 27
37 24 27 32 29 19 19 30 27 25 36 21 19 18 35 19 23 35 25 34 34 21 19 24 37 19 32 36 33 23 26 37 22 19 19 27 18 26 19 22 37 27 33 32 21 33 38 36 31 34 19 31 30 36 19 23 24 23 21 32 38 36 21 35
19 18 38 38 27 36 28 38 24 31 27 29 22 31 28 36 26 33 20 35 21 27 33 20 22 23 28 38 37 26 18 25 38 34 28 24 30 18 18 37 21 31 29 26 23 27 23 34 19 26 21 18 25 26 32 29 29 26 25 33 31 19 26 29
20 36 33 38 37 20 28 25 31 35 36 18 21 26 20 38 23 27 23 22 24 28 20 26 37 18 20 38 34 32 29 20 19 26 20 22 28 32 29 33 26 33 29 38 22 24 38 24 30 20 21 23 22 23 25 24 31 28 22 35 34 25 34 26
22 38 26 38 27 34 27 21 37 21 30 28 19 26 26 26 37 21 24 25 20 22 23 38 23 21 25 32 25 38 24 29 23 35 30 36 28 25 29 37 26 30 32 21 30 36 21 28 20 32 30 26 35 33 21 25 23 22 37 21 18 21 31 24
20 28 34 28 27 36 32 18 35 27 26 32 28 19 32 37 22 29 26 31 22 36 18 34 18 36 37 37 24 21 18 29 25 29 25 25 32 34 28 23 31 21 36 27 29 34 25 36 22 35 36 38 26 24 24 18 26 37 29 30 22 24 19 23
19 24 37 22 34 27 20 30 23 18 25 37 24 23 30 26 22 21 18 38 35 32 38 33 27 29 19 19 20 26 36 38 38 24 29 22 20 36 23 29 36 33 29 21 37 21 35 18 35 18 19 25 34 38 25 37 37 22 25 38 29 29 30 22
36 19 36 24 30 19 26 24 34 32 33 19 30 29 25 36 34 34 34 21 38 38 34 28 20 35 24 34 21 32 21 19 26 26 34 35 19 32 23 27 36 25 34 20 30 22 29 21 30 18 26 32 18 36 29 36 31 22 18 31 38 25 23 27
18 35 20 28 21 19 34 27 21 23 37 25 28 25 18 30 31 31 38 19 25 21 21 31 34 21 19 32 34 30 30 29 18 25 38 34 25 29 25 28 22 32 33 32 32 38 19 37 33 26 20 38 25 26 24 27 38 21 36 35 27 27 18 19
24 28 34 19 30 34 21 33 23 20 19 35 35 20 31 35 33 19 25 35 20 23 27 23 38 19 24 28 34 32 30 19 28 31 30 38 18 35 22 18 26 19 24 26 18 18 37 23 25 19 28 22 20 23 33 23 24 21 21 29 18 18 24 31
25 36 26 27 25 21 21 21 31 31 21 37 34 31 33 28 26 19 28 30 18 30 34 36 18 38 20 32 28 32 31 22 32 20 29 23 33 38 27 20 36 25 31 26 30 19 26 35 23 33 35 21 35 31 29 18 37 23 38 21 35 26 21 22
26 21 32 32 34 38 36 30 20 32 35 29 38 18 33 21 36 24 32 26 25 29 35 37 24 24 38 28 24 34 36 19 34 19 29 24 28 36 23 19 23 34 29 21 34 29 30 22 30 21 34 19 25 34 26 20 20 34 35 30 18 27 19 27
36 26 25 31 18 38 20 32 34 22 24 22 33 36 25 20 29 23 28 29 29 32 28 19 18 25 24 30 22 37 29 34 26 18 25 20 18 24 37 23 38 38 33 34 27 33 33 24 36 25 34 24 27 27 37 31 20 25 23 32 37 23 38 29
19 27 32 23 33 19 26 28 24 21 27 19 25 38 23 24 21 21 19 19 37 32 26 38 19 37 27 33 19 37 22 37 37 31 30 29 31 35 37 32 29 35 26 20 31 34 34 31 25 35 34 31 38 31 31 21 18 29 28 34 23 36 30 32
27 25 30 19 29 28 34 38 18 30 31 34 19 35 19 26 20 28 30 20 28 33 29 20 32 34 28 31 20 22 24 27 38 18 31 34 26 30 23 29 27 22 31 28 31 31 30 19 27 19 27 33 19 32 38 36 26 33 27 23 25 33 26 32
22 32 32 22 21 38 26 26 29 23 19 32 20 18 19 35 23 27 23 33 27 29 31 31 23 20 26 23 24 21 25 29 31 26 24 34 38 18 32 33 32 25 27 19 30 38 34 29 24 25 28 25 31 31 24 29 35 38 18 37 32 32 25 21
20 24 31 19 27 31 24 21 21 29 30 20 27 28 29 32 35 29 29 19 37 33 29 32 25 32 33 20 27 28 31 28 21 30 22 34 22 36 25 35 34 27 20 32 32 38 29 23 22 33 38 25 35 24 25 30 36 20 28 37 35 37 31 26
30 32 30 30 29 36 37 25 18 20 28 36 31 23 35 18 31 25 26 25 27 24 28 30 36 33 35 27 38 33 30 20 30 24 18 24 22 24 20 18 18 34 27 38 23 26 23 22 26 31 18 27 21 29 27 32 28 37 21 22 22 30 27 21
22 20 35 36 35 18 31 19 25 23 25 30 31 28 28 28 32 28 26 26 38 42 24 32 33 29 26 25 37 21 24 37 20 26 23 27 33 28 20 39 22 41 33 31 23 26 25 39 32 23 20 29 28 32 37 33 26 31 21 20 18 20 35 37
34 36 27 29 35 37 28 30 33 23 26 35 21 25 26 30 31 32 33 25 37 35 44 32 35 28 34 37 34 38 32 37 20 36 29 22 22 30 21 41 28 35 30 43 30 41 36 33 42 22 20 30 38 33 23 29 20 37 37 21 32 33 23 21
30 25 18 22 23 29 25 24 28 20 33 32 31 32 38 25 28 29 28 49 36 31 33 42 56 50 37 37 23 25 30 30 19 35 21 28 26 27 29 43 46 47 44 49 37 41 44 40 33 36 43 33 36 35 26 28 30 19 26 18 20 38 35 26
19 27 24 31 21 37 18 33 24 37 25 24 32 35 42 34 47 34 38 49 47 57 68 73 64 63 60 57 50 38 36 31 37 34 29 27 34 36 39 42 38 41 36 43 37 41 50 31 33 39 33 29 24 22 19 28 20 31 35 32 32 30 27 31
27 36 21 33 32 31 24 23 26 30 27 26 36 29 41 48 41 50 56 39 54 65 67 91 86 86 83 79 60 57 39 24 36 32 40 41 41 34 44 48 35 39 50 51 49 51 48 47 42 42 38 37 36 23 21 36 19 32 33 34 20 28 20 20
23 19 18 23 28 31 36 32 18 38 22 36 39 49 49 44 49 40 48 60 65 84 93 93 112 115 101 97 71 59 41 28 27 25 44 39 45 41 37 49 41 48 59 53 44 55 50 39 44 51 46 30 46 31 25 25 31 31 20 27 32 31 21 38
20 23 29 23 31 36 36 18 26 23 31 34 45 43 45 44 49 57 46 51 67 73 98 117 132 119 109 109 76 57 53 27 26 29 34 40 41 48 41 52 55 54 54 53 45 52 52 57 52 45 42 41 48 32 31 32 19 33 38 22 36 32 22 25
19 31 27 28 35 35 35 38 25 40 38 44 34 50 55 50 63 46 51 55 71 92 108 126 130 137 123 117 91 64 61 44 38 35 42 46 50 48 45 60 53 51 68 58 54 49 64 64 53 49 47 51 45 33 38 39 31 27 34 37 33 30 31 30
29 30 34 26 28 20 34 28 40 33 46 34 37 38 58 55 46 49 51 67 82 87 110 113 124 138 117 106 98 66 52 35 40 34 34 40 43 41 52 61 69 56 61 71 56 70 68 53 49 45 50 57 49 47 30 27 29 23 35 28 27 35 38 22
34 27 28 19 24 29 32 20 33 35 46 34 42 47 47 66 59 64 66 67 92 108 103 127 117 122 113 102 82 67 52 41 45 34 39 56 58 47 61 67 61 63 68 60 66 61 57 67 62 51 44 48 41 52 45 35 21 29 31 27 20 24 26 24
19 30 20 35 23 25 24 34 36 35 35 48 56 59 65 60 65 61 77 76 95 110 108 126 121 127 112 98 70 52 52 50 52 36 43 56 46 51 61 55 72 77 73 80 68 75 57 63 58 53 47 51 42 48 31 44 34 29 34 20 19 30 28 37
37 35 20 37 29 38 36 39 32 36 47 35 56 56 62 63 74 67 79 98 90 102 119 125 128 111 112 96 77 52 37 42 51 42 38 45 60 47 65 55 76 68 64 68 81 82 70 63 71 62 57 52 48 42 37 27 43 27 37 21 29 20 20 32
19 25 28 30 25 33 28 25 33 33 31 43 43 57 56 67 65 90 90 95 116 102 102 112 121 115 99 89 64 53 41 43 45 50 49 41 49 50 54 62 69 66 70 84 75 74 65 74 62 67 65 50 54 51 35 31 42 35 18 28 26 19 32 22
30 29 29 27 34 36 31 20 36 36 35 36 53 45 64 55 68 79 104 101 130 130 130 124 111 117 104 79 69 59 37 40 46 50 51 49 48 48 57 56 70 81 79 70 82 69 76 68 72 52 62 52 45 48 38 42 29 31 21 30 36 28 38 33
22 38 35 32 32 24 37 38 32 27 49 46 55 53 52 61 88 88 106 107 132 121 129 138 132 122 123 97 83 72 46 42 54 54 42 48 48 53 56 71 69 70 66 72 72 77 70 70 66 58 64 53 59 46 38 33 29 27 21 22 27 30 21 24
20 25 36 35 38 27 31 20 38 27 50 45 41 50 51 69 73 91 101 119 123 132 156 141 147 139 134 110 94 83 54 56 49 39 49 50 45 51 68 66 69 79 79 81 70 69 61 67 57 62 59 44 58 45 43 40 36 37 23 23 28 32 25 36
24 31 22 32 28 30 33 35 33 29 50 44 50 48 48 60 70 93 111 123 121 149 152 160 148 157 134 119 103 77 60 55 51 39 37 41 55 47 57 59 64 75 77 77 66 65 72 64 65 63 51 59 57 48 45 35 27 34 27 30 36 21 36 24
32 36 24 34 38 28 34 38 35 35 32 32 51 41 47 63 78 83 95 112 115 137 155 153 164 153 158 142 121 80 64 45 41 45 44 36 43 47 59 66 66 55 73 73 74 58 54 68 68 62 62 45 40 37 37 25 36 20 22 21 28 28 21 35
29 30 30 37 28 22 30 24 34 31 39 50 53 40 56 53 61 92 96 100 116 130 133 149 144 159 155 137 119 94 61 45 32 32 36 45 40 55 52 49 69 59 57 60 56 63 70 65 63 63 44 44 51 43 34 33 34 21 26 38 22 19 29 22
28 29 24 33 34 37 37 25 32 28 39 42 52 46 51 64 62 73 87 93 88 120 134 130 134 151 150 133 104 76 69 36 31 44 43 49 37 44 58 56 60 49 59 65 51 61 50 65 50 49 54 36 41 38 41 33 19 37 29 32 29 20 35 26
25 37 34 23 36 30 20 27 37 25 29 29 30 43 48 45 47 59 67 71 95 88 117 113 125 113 126 102 95 73 61 43 40 38 32 47 50 52 44 60 58 60 59 55 48 46 43 49 46 56 46 39 46 44 26 37 19 38 38 35 35 37 24 20
19 20 36 38 28 31 32 22 21 38 31 32 33 49 46 35 45 59 73 74 84 72 96 91 94 107 89 90 77 57 54 24 24 40 43 38 39 48 49 55 52 41 47 58 44 50 40 46 41 42 36 35 30 26 23 22 27 33 38 18 38 23 32 19
25 26 37 36 33 24 19 26 25 28 23 33 29 40 48 42 37 53 60 48 70 74 70 81 85 69 73 59 62 46 40 23 34 18 40 40 44 33 50 34 47 56 44 38 46 46 42 51 44 50 46 38 35 40 22 27 24 22 27 31 18 38 34 26
20 38 30 36 23 25 21 18 19 22 18 34 40 44 45 35 37 38 52 39 54 57 47 56 63 59 53 47 45 39 37 24 25 31 38 40 29 45 43 42 50 41 35 34 47 34 41 46 50 32 28 42 30 19 34 18 26 35 28 30 38 38 32 20
28 23 35 29 35 36 25 19 24 28 28 33 24 39 33 27 28 32 32 35 36 45 32 46 33 27 32 29 26 35 37 24 28 25 24 35 23 25 42 34 37 42 40 39 46 37 38 30 33 37 34 26 19 34 23 33 35 24 36 20 36 21 38 38
36 38 29 27 31 23 29 24 38 20 23 33 33 33 39 37 26 36 34 37 46 35 38 40 30 33 26 34 37 27 27 31 19 35 19 18 25 34 24 27 44 28 41 34 26 27 26 28 33 28 19 18 20 23 20 31 30 28 37 28 23 36 33 25
36 33 34 36 34 27 38 18 22 29 21 34 33 35 20 32 30 30 35 23 24 26 33 22 32 19 37 26 37 37 37 34 20 29 37 18 24 35 22 31 36 21 40 38 22 39 41 34 29 23 30 26 23 37 25 35 20 38 34 35 23 26 22 34
33 38 38 31 19 38 18 25 38 32 24 24 19 21 27 29 27 31 36 24 36 20 29 31 23 38 24 28 24 27 20 21 36 29 25 35 29 27 19 31 31 18 36 30 34 29 33 27 30 18 21 37 18 31 28 23 31 33 28 34 24 29 27 34
37 29 19 34 23 23 21 30 25 21 37 32 27 30 25 20 37 35 25 32 31 22 26 30 25 27 20 27 33 21 36 33 23 19 33 38 27 38 29 23 18 26 23 36 37 35 36 21 23 30 22 18 36 28 34 21 38 34 19 34 21 21 37 24
19 34 36 30 22 29 31 24 27 22 28 27 38 20 35 28 20 35 22 24 23 24 20 32 34 27 22 22 26 28 23 34 18 30 29 26 30 20 38 26 23 32 34 22 23 33 26 36 34 31 28 27 31 32 20 24 37 28 19 29 37 30 38 31
37 19 35 23 29 28 19 21 32 37 26 30 36 33 28 37 35 20 36 38 28 30 33 25 27 24 31 29 28 23 22 30 33 36 23 35 31 30 37 30 23 18 37 29 34 26 19 37 32 35 31 34 20 26 26 23 26 38 29 26 19 26 36 21
19 36 26 36 33 32 29 18 29 28 18 18 25 20 23 32 24 35 24 19 18 35 30 32 27 30 26 35 32 35 23 20 25 24 21 28 23 28 31 22 25 27 19 20 26 19 37 36 31 22 24 28 36 33 38 21 37 30 37 37 18 35 31 33
18 37 23 20 30 34 23 22 31 30 19 18 31 19 35 28 37 32 25 26 32 26 23 38 30 28 24 38 21 23 36 33 31 22 30 29 31 20 37 24 21 37 31 20 26 37 21 31 30 33 21 23 30 33 23 36 22 31 25 31 29 36 26 19
20 34 35 23 21 35 30 21 29 32 26 22 20 27 25 21 26 35 21 29 35 21 20 33 24 18 37 35 29 37 32 22 30 31 23 27 19 26 34 20 34 18 33 34 31 33 21 20 33 18 28 27 32 24 26 38 25 30 21 18 36 27 36 38
21 32 29 32 27 36 29 26 30 23 30 18 31 30 18 23 30 20 26 29 25 29 36 29 22 36 37 27 32 23 19 27 24 30 38 34 38 20 38 32 19 18 23 34 19 38 21 24 31 29 37 25 24 36 34 18 21 19 20 30 18 35 29 27
29 30 32 33 21 24 36 22 23 25 26 26 19 38 21 28 31 30 36 36 21 28 37 32 35 36 37 32 30 37 24 36 26 19 28 33 20 21 38 19 38 34 38 22 34 30 34 38 29 37 26 28 20 33 28 36 34 28 27 25 37 34 33 28
18 30 35 23 33 34 27 20 36 33 37 36 26 32 36 33 26 30 33 35 37 38 21 23 38 36 24 38 31 30 32 23 26 23 24 32 37 30 30 29 24 26 18 27 18 36 31 38 34 33 28 38 33 38 19 32 22 20 24 29 32 30 38 25
30 18 35 18 18 21 19 23 27 28 21 36 19 32 32 31 32 23 26 31 21 19 31 23 37 35 37 21 18 33 20 35 20 21 27 33 31 28 26 35 22 31 37 38 21 37 35 28 18 30 22 26 38 30 29 18 37 34 38 28 19 35 20 18
20 20 24 27 29 35 33 31 26 25 36 36 27 28 38 18 32 20 32 29 34 32 38 20 38 26 30 19 21 27 19 29 18 26 23 30 35 38 18 19 28 24 28 25 18 37 34 33 37 32 18 22 23 22 35 36 24 36 21 37 30 38 28 32
18 28 25 29 28 19 22 19 27 31 33 25 28 30 27 18 31 27 27 24 24 31 32 24 24 33 34 26 25 20 34 32 35 38 27 21 31 28 20 35 21 22 22 26 29 28 34 36 25 21 24 26 27 30 25 38 25 33 23 36 22 33 35 38
33 20 29 21 18 26 28 25 19 25 28 18 32 23 37 37 27 22 26 19 20 32 36 30 27 36 18 23 29 21 37 38 29 19 35 36 34 28 35 32 38 31 33 30 22 27 22 35 22 25 31 21 24 19 37 34 20 34 33 29 31 28 23 26
20 22 37 22 36 38 25 23 36 37 29 21 28 18 27 36 26 31 32 38 19 31 29 27 22 27 29 24 18 38 29 20 33 25 28 19 22 19 33 22 18 37 35 28 28 35 21 28 37 31 18 33 20 31 31 30 30 20 19 21 26 34 38 22
31 33 35 23 35 27 35 25 27 33 28 29 33 35 28 27 24 29 24 26 29 28 38 20 31 24 21 33 29 18 27 36 25 22 23 23 31 23 23 25 24 36 31 26 27 34 30 38 24 18 22 31 22 18 34 21 29 20 23 26 30 36 22 18
21 22 25 19 34 38 24 20 29 20 21 26 34 34 21 38 37 21 22 33 37 38 31 32 20 35 19 38 20 20 36 28 35 32 31 19 34 23 32 18 32 31 23 33 28 34 23 31 30 30 34 32 38 30 27 25 31 31 38 27 26 22 28 29
25 27 27 33 38 38 36 24 32 32 35 19 26 18 19 19 24 22 19 34 25 26 35 35 35 30 37 30 30 35 30 29 25 19 37 25 20 34 27 37 37 27 26 28 19 38 23 22 27 32 36 30 27 29 26 22 34 24 38 25 22 27 21 27
