P2
64 64
255
26 37 27 29 37 26 18 25 31 22 20 25 22 21 23 29 23 35 30 30 24 26 32 30 35 35 32 29 24 38 23 25 37 18 31 29 30 25 34 29 26 20 24 19 20 27 37 26 29 38 34 35 34 37 30 31 20 38 25 35 30 28 37 19
21 27 37 35 19 37 31 37 19 30 25 36 35 20 31 22 38 20 30 24 27 26 25 23 24 38 29 18 32 27 19 29 19 29 19 37 27 24 35 36 23 29 38 24 34 31 37 35 29 25 36 18 19 31 32 23 20 30 33 34 22 25 22 35
29 19 21 30 23 22 38 33 32 26 26 33 25 21 25 32 34 23 23 23 31 32 33 25 34 20 21 21 38 26 22 35 38 34 30 38 25 21 26 27 23 29 19 38 24 22 37 37 31 24 35 29 27 25 18 34 20 23 22 31 27 24 31 28
24 21 32 28 35 33 20 25 30 29 27 18 24 24 20 32 38 23 24 36 24 23 36 19 32 25 36 26 33 18 29 26 34 20 38 22 21 29 28 22 36 29 38 25 25 28 34 31 28 33 19 35 35 22 21 35 32 28 34 36 19 23 22 28
36 20 35 24 33 32 36 34 38 20 21 33 35 37 37 27 24 27 19 26 20 20 25 21 25 33 20 22 28 34 37 19 33 24 23 21 33 28 32 27 25 24 33 23 36 37 23 24 22 20 25 22 20 33 37 32 22 19 19 34 24 31 28 26
36 19 31 38 28 19 35 37 26 25 36 37 27 38 18 33 34 27 34 20 37 35 33 33 25 29 27 36 20 37 22 23 27 23 29 37 37 32 32 37 19 21 32 36 35 36 37 37 20 33 18 36 18 32 21 32 32 38 24 35 25 25 33 30
20 33 31 29 23 35 24 30 25 37 36 28 30 23 28 22 20 24 38 26 21 27 36 38 18 31 27 38 18 20 24 25 28 38 20 26 30 34 21 29 33 37 30 34 30 25 23 32 25 32 27 37 29 22 31 26 26 22 24 26 30 29 28 37
34 24 24 24 29 37 23 22 19 27 27 35 37 20 31 34 19 30 35 37 33 34 28 35 36 33 31 32 26 28 33 30 28 32 26 20 35 26 28 18 34 18 26 35 23 29 18 32 25 29 32 22 35 33 36 19 28 27 19 31 25 19 36 18
38 25 18 19 32 20 20 26 25 33 18 33 26 30 24 31 26 37 29 23 36 25 31 33 35 31 33 31 19 31 32 20 28 32 26 28 32 18 30 22 18 33 32 36 22 29 21 38 36 24 21 28 19 20 24 18 23 28 20 27 28 19 37 28
28 30 19 22 32 34 24 38 18 36 21 28 35 21 31 27 21 19 29 24 36 37 21 29 31 19 20 37 33 20 23 25 30 25 25 21 35 36 34 32 37 31 29 26 31 30 25 28 35 30 30 38 28 37 37 36 24 22 36 36 30 38 22 21
22 21 37 30 35 27 23 18 19 26 29 27 24 25 21 18 35 32 30 36 38 24 18 19 24 27 27 23 35 26 30 35 27 28 28 38 29 26 31 27 36 21 31 28 38 34 27 30 28 37 34 31 29 34 29 23 36 21 38 23 18 20 31 20
29 25 32 33 38 28 25 31 18 31 27 36 22 19 33 38 26 27 29 28 37 19 35 21 31 24 37 23 34 24 25 27 21 24 25 33 27 38 21 23 31 23 23 24 24 35 31 24 35 36 34 38 24 29 31 32 23 23 35 36 23 18 37 34
36 38 21 38 19 21 22 25 18 33 37 32 21 31 26 23 24 25 24 37 20 37 28 20 29 37 18 32 21 25 32 30 34 32 24 28 30 24 18 33 31 27 27 31 34 19 34 31 34 30 37 29 24 30 19 20 23 19 20 22 28 27 18 26
24 26 21 21 34 33 37 24 26 30 24 38 38 29 20 35 18 22 23 34 38 29 34 21 27 37 26 27 33 38 18 26 29 33 25 31 37 34 23 18 20 30 29 20 20 27 30 32 28 33 24 29 27 32 35 22 21 18 35 35 35 22 34 25
31 26 35 27 29 18 21 21 28 26 25 30 22 34 19 23 19 30 20 24 38 36 35 21 37 26 33 20 33 36 18 26 24 30 28 21 38 33 18 35 21 31 21 35 38 28 37 38 35 32 19 25 18 38 22 37 36 21 31 20 38 38 27 22
18 27 35 28 23 25 30 24 30 38 30 37 29 36 25 34 35 28 33 38 23 31 32 27 31 32 33 30 36 21 33 23 25 28 29 30 20 28 37 18 25 25 23 34 24 33 21 34 24 32 37 26 31 21 33 32 36 24 32 28 18 20 22 29
28 21 18 28 20 32 21 25 24 21 38 37 21 21 36 22 29 29 22 23 22 18 21 29 20 30 23 34 34 33 20 22 29 25 37 20 22 38 31 18 37 19 21 37 18 29 38 24 36 37 20 24 25 23 30 22 21 36 24 25 18 33 21 24
29 36 26 35 27 31 24 26 28 33 33 33 33 19 18 21 19 38 36 21 19 27 35 20 33 25 32 26 32 22 22 19 18 29 26 29 35 33 25 26 32 33 27 31 24 29 26 25 31 31 22 25 37 29 32 36 19 27 24 38 18 25 27 28
34 20 26 23 21 27 23 27 27 21 33 19 33 36 21 31 29 23 36 30 35 25 38 37 32 38 37 40 26 31 24 28 21 24 37 27 27 26 31 18 27 25 24 28 32 34 38 29 28 21 31 34 20 38 27 38 32 29 29 35 20 29 38 38
27 35 29 36 20 31 23 27 19 22 23 18 20 29 23 33 35 24 38 25 33 27 33 54 55 56 43 58 46 50 47 36 21 38 34 32 21 23 29 37 39 37 31 36 37 36 37 20 38 38 20 21 36 31 27 35 38 27 18 29 18 37 36 31
38 26 29 30 38 24 34 24 34 26 28 28 18 24 38 22 36 42 32 30 39 46 46 54 64 62 69 50 60 58 37 35 41 20 19 27 23 35 26 23 26 32 30 31 35 43 39 33 33 27 36 36 21 22 20 26 28 32 36 22 34 35 33 24
18 28 18 23 20 35 35 25 25 32 18 22 30 36 26 33 39 44 33 43 57 56 56 81 71 73 79 72 75 66 53 40 31 38 29 34 22 42 37 48 48 54 48 55 49 44 37 37 38 33 37 35 30 31 21 27 31 37 30 20 26 38 35 30
33 31 26 30 22 21 28 33 32 26 29 28 26 31 26 32 37 33 33 59 61 67 68 82 94 85 96 83 86 67 58 60 42 42 30 34 27 40 36 63 58 69 69 56 55 62 59 40 42 28 27 41 35 26 22 30 19 36 19 31 35 21 29 26
33 25 21 19 20 30 18 34 38 25 36 31 24 36 48 37 47 52 52 68 69 73 81 86 96 105 93 90 100 87 78 64 43 42 35 40 41 49 55 66 67 76 82 78 79 81 71 58 40 47 40 43 24 24 31 38 30 29 37 28 23 20 35 25
35 30 25 38 21 22 34 22 27 26 31 28 31 41 42 52 52 47 47 58 81 80 108 112 121 123 113 107 98 98 91 78 55 58 42 38 46 46 71 83 87 92 109 104 101 75 72 54 55 55 36 37 47 31 35 25 38 25 20 22 31 37 27 21
23 23 22 28 29 22 33 34 37 23 26 41 42 50 35 46 41 60 68 85 90 103 98 115 124 135 124 129 102 100 96 65 58 44 45 49 56 55 69 96 107 106 110 105 110 87 74 77 60 52 35 39 36 44 33 27 35 23 25 21 19 20 35 22
34 27 24 33 19 27 33 19 34 40 41 45 35 52 51 41 63 65 57 69 87 105 100 115 131 135 141 133 124 95 82 74 75 63 39 32 50 67 79 93 108 132 134 120 111 99 100 81 65 48 54 54 32 48 36 34 36 18 30 24 20 36 29 36
29 29 31 31 21 28 28 29 40 26 42 40 36 44 54 64 54 60 70 76 93 110 118 118 135 132 143 127 107 103 86 87 67 61 47 53 57 81 99 96 120 140 140 140 132 103 98 85 71 58 48 52 34 45 47 44 38 26 29 31 20 28 21 32
23 37 29 34 23 30 23 25 40 31 44 43 51 42 61 56 65 64 67 78 97 101 104 127 136 128 135 115 106 111 86 74 68 55 54 52 55 79 101 113 130 124 133 138 132 122 96 88 72 63 57 40 38 49 31 32 29 33 22 31 20 25 26 25
22 36 18 21 29 24 31 25 23 27 42 40 54 44 52 68 61 65 76 85 91 99 108 108 112 125 128 104 111 86 86 68 70 65 39 55 60 82 86 110 119 136 126 128 125 105 101 76 61 65 56 56 49 42 40 31 23 20 22 29 34 23 26 33
30 25 27 19 27 24 20 23 26 44 49 38 52 45 48 68 62 60 75 74 97 101 112 121 122 114 113 116 90 80 88 80 70 52 37 43 45 76 81 103 107 118 119 113 126 109 92 82 66 54 60 61 48 35 36 34 26 36 31 26 19 18 34 30
24 27 20 33 32 28 37 30 38 29 48 37 58 62 64 56 60 58 82 88 98 96 97 113 103 98 104 96 86 74 84 74 58 50 55 50 56 54 71 90 91 99 111 115 110 96 95 79 66 51 50 51 56 51 39 44 35 26 31 35 29 27 20 26
22 20 38 31 22 20 25 40 38 46 48 49 48 54 66 63 64 74 63 73 83 90 104 104 87 90 95 84 72 73 71 54 53 48 50 41 52 62 64 74 85 90 94 93 101 100 85 76 71 63 67 52 40 51 50 39 28 20 34 20 36 31 27 27
33 38 20 34 26 23 35 37 24 43 35 50 49 50 47 64 75 70 68 69 84 74 84 94 78 87 88 77 65 71 54 57 37 46 44 42 53 53 54 67 68 82 82 79 95 82 74 71 67 53 64 43 40 42 33 44 32 32 30 24 32 27 23 25
23 21 23 25 36 34 29 34 26 40 47 53 41 47 54 70 62 65 64 78 76 88 88 93 90 79 86 68 58 58 46 45 45 42 56 43 57 63 57 61 60 61 64 66 82 68 78 60 62 61 66 62 48 48 37 33 36 29 20 36 23 26 34 25
22 18 34 38 25 24 29 32 41 43 32 35 49 57 50 54 60 68 60 79 90 83 89 79 94 87 83 69 67 54 42 41 36 47 46 38 60 47 52 52 70 73 59 80 79 72 76 66 70 54 50 44 54 44 43 39 32 36 35 24 31 35 26 37
19 29 23 38 19 28 22 24 40 39 48 35 37 43 47 60 64 55 73 82 77 88 92 107 106 100 96 80 68 56 52 33 34 51 33 45 43 45 57 65 71 72 65 62 76 69 67 53 59 52 43 52 38 48 35 26 33 31 18 34 18 21 20 24
23 21 25 26 25 32 27 33 37 43 43 47 37 46 60 60 54 52 70 71 87 105 99 96 115 93 91 88 83 65 45 34 33 30 39 51 55 48 60 66 65 57 55 54 53 58 55 49 56 57 54 44 51 48 34 24 38 26 26 38 23 29 21 29
22 23 29 18 18 36 26 26 19 38 33 32 46 49 53 47 53 56 68 77 99 93 114 119 116 107 111 93 83 72 59 45 33 25 41 47 38 41 57 50 60 63 49 49 66 59 67 62 45 57 54 36 38 45 38 41 33 25 22 38 20 37 23 24
37 25 18 20 31 37 33 34 20 25 27 44 41 39 38 42 50 58 74 86 92 100 121 128 117 115 108 96 77 77 47 45 26 42 35 31 34 43 48 44 48 50 47 52 60 61 50 49 43 44 42 39 31 44 23 32 29 23 33 19 18 25 32 29
31 23 37 21 26 37 29 24 29 26 35 24 30 35 48 53 41 68 66 78 89 108 113 131 120 133 102 88 76 76 49 47 20 26 28 38 45 39 49 54 54 43 43 48 51 45 42 50 54 43 51 47 27 34 40 25 29 32 33 34 24 18 31 38
19 28 33 34 22 32 33 18 33 30 33 29 30 40 31 46 36 52 68 79 84 95 118 137 135 134 115 100 75 77 52 33 34 32 27 29 34 35 35 52 55 41 42 43 51 48 52 47 43 49 36 35 44 24 32 20 31 31 37 38 35 27 22 25
37 33 23 35 33 19 38 36 18 23 33 36 38 40 42 46 42 50 55 73 96 92 112 111 119 124 110 98 71 72 47 34 32 28 25 33 28 33 36 49 40 52 46 36 45 52 46 42 41 31 40 42 35 30 20 34 38 18 19 33 19 23 25 28
33 20 29 33 35 26 18 36 27 23 32 28 38 40 37 42 37 41 51 75 81 88 95 111 114 103 97 87 73 49 51 41 38 34 23 22 25 27 41 33 37 38 38 35 47 45 38 37 30 37 39 31 25 23 23 18 22 30 21 25 18 20 34 32
36 37 30 27 38 32 33 21 20 18 28 19 36 31 28 39 31 48 45 51 77 81 79 99 92 93 85 77 57 50 33 39 35 21 28 32 28 29 27 33 31 45 40 32 46 44 40 35 26 39 37 29 37 19 21 30 25 36 27 38 33 26 34 37
33 22 20 26 20 25 26 37 31 32 29 28 36 24 20 22 22 35 45 50 55 66 63 82 69 65 74 72 57 56 38 35 37 22 20 37 33 26 29 33 33 34 25 30 39 32 39 40 27 26 18 23 37 34 34 31 38 21 29 18 36 37 19 34
33 36 25 38 23 20 31 34 36 30 20 35 23 30 19 19 31 36 34 45 38 46 67 62 68 70 57 48 41 34 24 26 34 20 21 24 30 23 25 37 30 37 28 29 36 38 26 31 31 38 21 32 26 22 18 20 30 33 31 29 35 38 31 27
19 24 38 26 38 28 25 27 32 35 34 22 21 29 22 21 29 35 22 20 41 42 52 56 51 51 38 48 42 30 33 34 30 22 35 35 27 32 20 27 33 20 26 32 29 30 18 18 27 36 24 33 21 37 32 23 30 22 20 25 19 20 38 29
31 34 28 31 35 32 19 33 27 38 30 25 35 38 22 21 28 35 28 34 19 26 40 42 43 42 28 41 33 29 25 27 23 24 31 35 30 34 38 25 29 23 38 33 31 25 38 29 27 28 31 25 20 25 21 30 28 27 37 35 28 37 29 33
35 23 29 28 28 20 28 34 22 29 25 21 29 21 20 20 34 32 22 34 26 19 36 25 22 20 35 36 29 29 23 28 23 34 36 30 18 30 24 38 30 30 18 24 35 33 31 34 22 19 29 38 25 19 27 38 25 20 31 19 34 35 27 31
29 32 32 29 28 32 31 19 23 18 38 20 26 24 26 36 24 31 22 36 29 28 35 27 23 34 23 23 18 29 36 29 38 33 19 18 28 32 38 23 25 32 18 24 28 27 18 31 27 25 20 18 37 32 20 33 36 34 38 30 34 33 19 21
34 37 32 24 37 32 22 22 24 24 25 28 25 30 32 24 25 27 27 18 38 23 28 29 38 18 20 20 18 29 36 33 38 21 22 29 23 33 19 24 38 28 38 22 28 21 23 20 35 38 32 24 25 26 33 34 33 25 32 26 30 27 21 32
29 36 32 20 33 24 19 27 24 21 21 25 30 31 18 35 25 24 21 22 26 24 33 31 21 31 36 21 31 34 26 30 23 34 29 18 26 23 36 31 35 33 37 28 29 28 32 36 21 29 30 38 38 36 23 21 22 35 21 21 20 28 25 26
21 36 23 21 26 31 19 27 23 33 30 20 25 38 33 29 35 24 34 33 21 24 36 26 36 33 18 21 21 38 30 29 24 32 23 20 21 29 38 24 31 19 26 26 20 21 35 38 22 32 30 18 29 21 32 23 22 27 19 33 19 28 23 35
30 38 30 33 25 23 37 30 18 32 36 32 23 28 27 23 28 34 20 30 33 31 25 27 37 30 22 27 29 36 37 30 35 23 28 38 21 31 37 25 23 35 36 38 20 33 28 37 33 32 25 23 24 27 20 37 32 22 32 26 28 29 19 37
19 34 37 18 32 32 30 21 18 38 32 18 36 27 32 18 21 20 20 22 27 26 28 33 32 18 27 31 32 20 38 26 26 36 31 35 26 21 36 36 21 19 25 18 36 23 31 25 23 18 36 32 34 18 25 26 26 24 28 31 31 30 33 30
34 37 35 32 24 30 24 32 38 18 30 28 31 37 19 20 32 31 38 37 23 27 22 25 18 26 37 26 27 36 35 33 24 22 33 19 36 21 30 31 30 28 28 33 21 19 24 29 33 25 19 24 21 23 19 21 29 24 37 36 38 25 34 38
30 37 18 28 26 35 25 30 34 24 38 24 26 30 33 36 23 35 22 18 22 28 34 23 35 33 24 26 30 31 29 22 19 24 37 19 21 34 33 32 27 33 34 38 28 28 24 24 24 18 38 35 24 24 29 23 20 21 19 32 23 36 35 30
37 32 22 23 36 25 36 30 37 23 19 23 37 28 33 33 34 23 31 21 37 28 38 32 19 29 29 24 26 24 24 28 31 18 32 28 20 36 33 31 23 18 25 28 35 24 25 23 37 31 31 28 21 32 38 26 25 38 26 26 19 30 18 35
25 18 19 32 22 23 20 26 28 31 18 30 20 26 29 18 34 30 34 20 28 36 36 21 25 19 28 38 32 19 33 36 30 33 28 31 29 23 33 36 30 25 34 26 20 21 24 36 25 22 32 20 22 31 31 34 36 25 20 30 35 34 31 36
23 28 22 34 22 24 27 25 20 33 25 32 19 20 22 30 31 28 23 19 19 25 33 37 27 22 37 28 34 18 29 37 28 25 29 21 18 32 35 20 26 29 30 21 33 36 33 21 32 25 35 21 36 18 32 28 36 20 26 23 25 30 33 32
28 19 28 37 28 34 33 20 31 36 38 31 34 27 18 31 23 19 32 34 35 23 31 18 19 22 21 38 22 23 26 20 18 36 25 25 31 27 25 38 24 23 22 35 18 18 27 35 23 24 36 20 32 29 36 28 38 26 34 18 28 19 23 22
20 36 27 31 34 20 38 23 37 35 27 32 25 20 30 34 26 31 20 20 20 38 20 25 28 24 21 20 31 26 24 33 29 28 22 21 36 26 27 37 20 18 38 35 38 32 22 28 35 26 26 34 25 20 37 25 32 24 25 31 37 28 26 19
24 33 35 31 22 22 32 37 38 35 29 33 36 23 32 20 19 38 18 34 29 35 19 28 22 30 29 36 26 28 33 25 25 23 37 26 28 22 26 28 33 34 31 29 35 35 20 23 18 26 22 34 27 35 34 18 30 28 18 18 19 27 18 35
