P2
64 64
255
16 25 19 22 20 23 23 20 18 22 21 25 23 21 24 22 25 23 25 26 17 26 17 18 22 17 23 16 25 21 22 20 23 15 14 26 15 18 21 16 21 26 16 19 21 17 17 21 20 14 24 15 22 26 15 16 15 19 17 22 19 21 22 18
19 15 17 18 19 17 26 16 14 24 25 14 24 26 25 17 24 22 17 25 14 16 24 15 25 15 26 17 19 18 22 24 20 18 24 20 23 21 18 21 24 19 20 20 17 20 26 24 26 23 24 25 19 23 15 14 17 15 14 25 26 22 20 14
18 16 18 25 25 22 19 17 25 24 15 26 23 17 21 16 19 16 16 26 17 26 23 15 26 15 19 19 20 20 22 17 26 16 19 17 24 20 23 23 15 15 22 21 25 22 20 22 20 15 20 22 16 18 25 15 17 19 22 25 16 22 23 15
16 25 15 23 14 20 24 16 24 14 18 22 20 20 17 19 15 23 24 18 23 16 15 24 17 22 16 22 23 20 16 24 20 20 16 22 25 19 14 17 23 20 22 21 17 16 24 15 14 16 17 20 26 21 26 16 16 25 15 16 15 19 25 20
18 15 16 26 20 17 22 17 22 14 17 22 22 22 25 14 19 25 23 14 17 25 21 18 21 21 25 17 24 15 16 17 20 21 23 14 14 15 17 14 18 26 22 24 17 21 16 23 18 24 25 25 26 23 21 22 15 22 16 26 23 24 25 15
17 21 18 18 24 16 17 23 19 16 22 14 18 15 24 18 22 20 17 22 24 20 26 20 22 22 19 19 18 15 23 20 21 26 23 15 17 22 18 17 19 21 20 23 18 21 26 26 20 16 26 25 20 25 19 20 25 25 14 23 15 23 24 25
20 23 18 22 16 17 26 15 14 14 17 21 19 19 22 24 17 14 22 19 15 16 21 18 21 19 15 23 16 15 25 19 26 22 18 21 25 23 23 26 24 16 14 19 19 22 15 15 23 14 22 16 21 19 23 22 23 24 20 16 15 17 24 22
25 15 22 25 18 19 18 20 26 20 22 25 26 17 19 25 20 16 16 17 19 16 21 20 21 14 26 24 15 15 20 18 16 26 20 26 23 20 23 16 17 17 22 16 16 18 23 21 22 16 23 19 23 17 17 22 17 23 16 26 15 15 21 21
26 24 25 21 23 18 17 23 18 17 22 22 18 14 17 14 24 24 16 26 16 15 19 23 24 22 26 24 16 21 18 21 17 26 22 24 17 15 26 18 22 15 16 16 25 19 20 15 19 16 18 25 14 15 22 16 20 16 19 25 24 26 24 22
23 17 24 20 17 22 24 21 22 14 21 20 15 22 23 24 14 26 26 23 26 21 26 21 20 20 19 25 22 16 18 18 20 21 17 22 21 19 16 14 17 15 24 17 22 17 19 15 17 23 23 22 26 17 17 18 24 26 23 14 22 18 21 16
21 22 26 22 22 21 25 21 14 14 19 23 25 19 16 19 19 25 23 23 21 25 22 22 26 21 18 20 17 16 25 26 23 16 16 23 25 25 14 16 25 24 14 19 15 26 18 26 15 19 25 26 21 16 25 25 14 14 15 14 20 18 19 17
18 19 19 15 25 17 26 22 19 23 14 23 14 14 17 21 23 15 22 25 18 14 18 21 18 14 25 17 26 21 14 24 18 15 26 21 18 17 18 21 18 24 19 19 15 21 17 15 22 19 15 22 24 26 19 20 19 24 15 26 14 19 22 21
21 24 25 15 25 18 17 18 15 26 15 25 25 22 14 18 24 25 25 23 24 23 16 25 20 23 26 16 19 20 26 22 16 18 25 17 19 15 18 22 18 26 26 15 15 23 17 16 17 18 18 15 14 25 14 23 14 25 16 26 16 25 20 24
17 14 26 19 20 20 17 15 16 14 23 19 23 23 23 24 25 18 15 18 22 21 24 23 26 25 23 20 14 16 17 21 24 18 24 14 17 18 26 22 25 17 20 19 26 16 16 24 14 24 25 14 25 22 16 14 21 20 17 25 18 15 19 14
16 21 21 18 25 19 20 18 22 26 22 23 26 16 26 23 21 15 22 17 25 21 14 24 20 21 23 19 17 14 22 21 14 22 22 20 25 21 19 20 25 19 17 19 26 24 16 23 18 21 18 18 25 14 15 25 19 25 25 19 14 23 20 18
17 17 18 22 20 19 18 14 19 14 25 15 24 22 19 16 24 22 21 21 21 15 25 25 25 14 25 21 25 23 24 26 25 25 21 17 14 21 20 16 24 19 15 14 26 14 16 16 24 26 23 15 17 21 16 23 15 14 20 24 22 20 19 22
20 16 21 24 25 17 21 21 25 17 15 19 14 26 15 18 15 26 24 21 16 26 19 26 15 25 19 20 20 21 22 17 21 22 24 14 26 22 24 24 21 23 14 24 19 26 19 14 18 20 22 21 26 17 15 15 16 18 18 22 18 20 20 22
25 24 22 23 18 19 15 26 16 23 20 22 25 26 15 22 18 22 21 21 16 24 24 21 22 16 15 21 14 19 16 14 18 16 25 15 21 14 14 23 14 23 20 18 25 17 20 15 19 18 25 16 17 15 21 17 24 17 16 24 14 22 16 23
23 17 25 17 24 16 24 16 14 20 21 18 18 14 21 17 15 22 14 26 14 14 16 25 14 25 18 19 18 22 14 18 20 18 25 23 24 17 17 15 25 14 21 16 16 26 18 19 17 14 22 14 20 16 23 16 15 19 21 15 21 25 16 14
22 24 18 21 25 15 20 18 17 14 19 15 16 24 15 21 25 25 25 27 22 19 22 23 22 17 14 14 18 20 26 15 19 16 22 18 16 18 14 20 20 24 17 18 27 20 25 21 27 20 16 17 22 16 19 24 24 15 20 26 15 16 21 19
20 14 26 14 21 14 26 19 15 14 15 14 19 16 19 21 28 21 28 28 24 32 25 26 31 23 18 25 26 17 25 22 26 18 19 22 26 15 23 28 20 30 30 26 26 32 28 29 18 22 19 22 24 15 17 17 19 25 26 16 20 24 16 21
26 19 19 26 16 19 18 19 21 18 25 16 23 17 19 30 33 28 28 35 28 25 32 28 25 25 26 27 19 25 16 27 22 24 18 21 16 19 27 31 26 36 34 34 28 28 30 34 28 23 20 21 25 19 22 26 19 21 24 16 21 22 23 25
14 19 25 21 14 16 26 22 19 21 26 25 21 24 23 31 29 28 35 30 37 29 36 30 39 31 26 25 27 29 34 33 32 34 30 27 32 32 37 38 33 29 37 39 38 40 34 34 29 32 25 29 25 18 21 15 23 25 17 15 19 19 26 23
18 24 23 24 22 20 14 20 15 19 25 20 31 24 26 38 34 33 37 38 39 38 34 41 36 40 45 34 46 43 41 33 38 29 42 39 36 43 35 39 41 37 37 33 40 43 34 43 32 33 32 34 21 19 20 15 24 19 24 18 23 14 20 20
21 19 20 24 24 16 14 14 23 14 24 27 26 26 37 40 37 43 44 46 44 39 48 51 44 42 51 45 53 44 40 41 43 38 44 52 54 54 54 44 51 40 42 40 43 44 44 43 38 38 34 37 34 32 19 18 23 21 20 19 23 23 26 17
22 25 23 22 16 18 19 20 20 27 28 28 27 31 33 36 47 49 49 53 42 49 56 56 51 56 63 53 60 62 57 53 46 56 58 55 59 58 56 60 51 51 49 41 49 50 49 38 42 41 31 40 26 34 30 24 14 18 21 22 20 19 19 20
24 25 26 22 18 17 25 22 23 24 31 31 37 33 37 46 41 45 47 51 49 57 57 66 58 59 70 62 71 70 60 63 65 63 57 64 63 67 69 71 68 63 56 57 52 46 51 53 44 44 45 37 38 36 23 27 17 15 18 19 17 23 15 22
19 24 20 20 16 25 26 22 22 20 35 35 30 42 38 50 46 46 58 55 58 67 65 75 78 71 72 75 78 69 67 69 64 71 68 74 71 78 73 73 66 67 70 60 63 60 50 49 45 40 40 36 31 31 33 32 28 23 22 15 24 18 24 14
18 19 21 21 14 19 26 23 23 32 26 28 34 38 43 49 57 57 51 53 67 70 77 74 76 75 85 77 83 83 77 80 82 82 73 86 75 85 83 79 82 76 72 65 64 64 61 55 52 49 49 42 38 36 25 32 28 24 22 21 20 14 14 17
26 16 26 15 22 18 15 20 19 22 31 39 36 46 43 54 50 58 53 61 70 76 81 87 86 93 82 90 85 82 83 91 84 92 82 82 85 85 84 89 79 81 75 82 66 63 57 61 57 46 42 48 40 35 26 31 24 25 26 25 24 21 23 15
19 25 21 21 19 17 20 23 31 23 33 43 39 48 53 52 50 56 62 69 76 82 90 95 89 87 100 99 91 91 90 99 100 95 92 95 100 96 100 87 92 84 91 88 73 73 64 60 49 56 48 40 34 36 39 30 19 17 22 23 19 25 25 23
16 14 25 20 20 18 19 20 27 30 34 43 42 49 53 52 55 60 70 76 90 88 96 99 96 94 105 105 105 105 105 97 109 102 102 102 100 97 97 103 102 94 90 96 79 76 70 63 63 49 51 49 45 38 36 33 21 16 26 15 16 17 14 18
19 23 20 22 24 21 16 21 32 27 38 36 46 39 43 51 56 67 64 77 94 100 93 93 103 96 108 101 102 110 101 112 105 104 113 111 103 111 99 105 100 103 96 97 94 80 73 59 59 49 51 47 42 36 31 33 31 26 20 17 15 15 20 20
25 20 19 21 25 24 22 21 28 34 36 32 46 43 50 58 52 59 75 77 86 89 91 100 96 104 100 105 111 115 117 112 111 115 108 108 104 104 101 99 98 94 101 93 90 84 72 57 58 57 48 44 46 43 37 29 29 17 14 18 18 21 14 24
15 22 16 18 19 25 22 21 28 32 33 32 45 39 46 53 55 60 70 74 83 96 99 95 102 104 104 109 108 108 110 126 118 123 111 116 116 111 110 109 99 105 100 89 81 73 69 55 57 56 49 40 43 35 39 29 30 22 25 15 23 15 15 17
18 24 23 16 21 15 22 17 19 29 29 42 44 37 49 51 50 61 65 71 77 83 94 98 100 109 107 107 111 114 121 120 122 125 114 112 116 114 111 104 106 102 90 94 77 74 72 61 52 49 52 38 33 40 32 23 19 24 20 19 19 26 25 15
14 16 26 23 20 18 24 14 26 27 29 38 32 39 45 52 47 53 58 66 77 82 90 89 93 100 101 106 114 113 110 127 133 117 117 113 106 112 105 96 99 99 91 90 85 72 66 60 56 46 42 36 43 33 27 24 27 25 24 24 19 20 21 22
20 23 22 14 19 24 19 17 19 24 35 38 33 35 44 48 44 51 65 66 75 75 86 92 96 98 97 102 112 117 112 115 122 115 112 106 112 109 97 97 93 96 91 76 81 74 61 46 50 52 37 42 32 36 28 31 16 26 14 15 25 26 18 24
18 19 16 21 18 22 26 16 18 18 30 36 39 35 44 48 43 50 53 68 72 82 83 88 93 94 95 101 109 103 107 106 105 108 105 109 101 101 97 98 93 88 85 79 76 69 62 43 45 39 46 33 28 27 29 23 18 21 15 24 20 23 24 17
16 16 20 15 26 22 16 19 14 24 24 30 26 39 34 45 46 40 54 55 59 73 74 87 85 85 97 99 103 95 98 101 105 102 93 105 102 93 90 87 91 82 83 67 62 56 49 44 40 37 33 38 31 22 31 24 19 26 18 20 21 19 14 22
14 24 26 19 14 20 23 20 18 22 29 31 26 33 35 38 33 42 50 48 59 60 75 77 83 78 87 88 88 87 92 87 86 92 92 95 86 89 82 79 84 74 68 62 59 48 42 37 41 32 35 29 25 29 23 18 26 22 15 20 17 20 25 23
15 22 17 19 18 24 15 14 17 16 15 17 30 32 33 37 38 33 42 45 56 59 60 66 75 71 74 83 86 86 81 88 78 85 89 86 84 87 76 76 69 70 65 64 56 53 35 34 30 35 28 23 25 27 26 14 22 20 25 19 19 15 19 19
15 20 26 17 15 26 21 17 21 26 25 17 18 28 27 26 27 37 34 35 52 46 63 60 69 75 65 74 78 69 81 75 75 74 70 74 69 72 70 73 67 57 54 46 46 42 30 31 27 26 22 24 21 17 22 24 24 19 22 20 25 15 22 18
25 25 21 16 20 16 21 15 23 21 24 17 25 20 20 26 28 25 29 37 42 39 45 50 57 62 69 59 69 67 67 73 66 75 75 64 72 62 66 62 51 50 43 40 41 32 33 30 30 24 30 17 16 21 26 20 14 14 18 15 26 25 18 23
25 23 15 16 14 24 14 22 23 14 18 24 14 25 16 18 23 32 27 32 35 34 37 44 52 48 52 57 61 63 61 61 64 67 68 61 64 58 56 51 51 52 39 32 32 27 29 30 29 25 23 25 19 18 25 21 23 22 16 15 16 19 24 18
22 14 21 15 20 18 15 23 17 16 21 15 25 16 15 25 24 19 27 22 28 31 34 34 38 46 50 52 47 52 55 55 52 63 60 53 53 46 41 43 42 35 28 28 20 23 19 23 22 20 21 17 17 19 26 14 25 18 18 16 25 15 15 26
21 14 15 25 17 20 19 26 22 23 22 22 21 21 18 16 22 21 17 21 25 25 24 31 33 38 46 45 49 50 47 46 56 52 46 53 43 48 47 40 31 37 31 16 22 14 16 19 24 26 24 25 26 16 19 16 24 19 24 17 17 14 16 17
16 25 22 24 18 22 15 26 14 16 22 23 19 19 23 19 16 23 26 15 18 21 28 28 26 27 42 37 38 38 46 44 48 50 39 41 35 41 30 34 33 25 18 15 18 15 16 22 20 16 22 15 25 24 25 19 23 21 25 17 17 18 26 18
18 17 22 18 26 21 24 22 17 20 24 20 21 15 19 20 22 18 21 23 22 19 15 25 27 28 34 36 41 37 32 39 45 37 39 39 40 36 29 23 23 19 15 18 14 23 21 17 21 17 21 20 15 24 22 22 22 18 25 21 22 26 24 16
18 21 22 18 23 17 25 19 18 22 19 25 19 22 22 16 26 19 16 19 22 26 18 20 16 22 28 32 30 35 31 34 34 27 32 35 34 26 20 26 15 26 23 20 20 18 20 15 26 18 21 22 16 24 14 17 24 14 20 20 21 26 25 17
26 14 26 21 15 16 15 16 26 21 18 17 20 18 17 17 19 15 24 20 17 25 21 22 26 21 24 18 29 23 31 33 26 33 26 23 17 23 17 23 25 17 18 20 26 19 16 25 18 15 17 23 20 24 14 19 17 24 20 21 24 15 18 24
17 25 25 21 16 20 16 16 18 16 24 22 16 14 20 23 25 21 17 18 18 23 22 15 17 15 23 17 21 24 26 20 20 21 23 15 22 26 14 21 16 22 18 21 26 23 14 21 18 21 22 15 26 21 20 26 23 22 19 23 17 21 18 17
17 17 26 17 16 19 25 15 20 16 24 17 22 20 18 23 16 26 25 21 24 18 25 24 14 16 23 17 16 16 26 24 21 26 14 19 26 19 23 19 20 20 24 23 15 18 25 17 17 25 21 14 15 23 19 26 26 24 19 26 21 15 17 15
25 17 25 15 19 21 18 24 18 24 15 23 16 20 21 21 19 22 20 16 19 14 23 23 14 18 17 23 14 25 18 24 23 19 14 23 18 18 20 22 14 15 16 23 15 25 14 16 25 24 23 14 26 18 15 17 26 26 17 15 22 16 19 26
17 16 21 24 20 21 18 20 24 20 21 21 15 25 20 18 20 16 24 20 22 22 20 23 26 16 22 14 20 14 20 23 21 21 17 23 16 21 22 21 25 25 24 23 25 14 20 15 24 19 24 24 19 17 23 26 17 16 25 22 19 16 24 20
21 24 16 17 18 18 26 26 23 26 17 14 24 21 19 26 16 25 22 17 23 23 25 23 16 24 22 26 17 14 16 19 21 17 16 18 22 19 15 14 14 17 25 18 26 22 20 15 25 20 24 26 21 26 25 22 18 18 24 17 14 17 25 20
21 22 15 14 14 26 14 15 17 25 20 18 19 18 20 25 25 23 19 21 21 20 19 22 15 18 25 17 16 25 19 25 26 20 17 18 18 23 14 18 15 25 16 22 16 17 21 17 19 18 22 14 24 25 23 15 25 21 19 22 24 26 19 19
20 26 15 23 14 24 23 23 16 14 23 19 24 22 21 21 16 20 26 14 17 26 16 20 26 23 17 15 22 22 20 21 24 25 23 19 17 25 19 16 22 22 26 15 17 19 24 21 18 18 21 20 17 21 14 19 24 19 22 22 16 14 24 19
20 24 24 19 18 15 21 21 23 14 18 15 22 21 24 21 26 14 25 26 16 17 25 17 17 24 19 24 19 16 18 23 16 23 26 14 15 19 19 20 23 25 22 24 26 26 24 15 21 19 18 21 24 17 23 25 26 22 19 21 19 24 25 15
17 24 23 23 21 16 16 25 24 14 24 24 23 26 20 22 14 18 23 18 20 23 18 25 17 16 17 25 15 18 19 25 26 18 17 20 21 18 17 21 25 14 17 21 15 20 16 19 25 24 25 26 22 20 21 25 21 16 26 14 26 21 26 19
16 17 18 19 26 24 24 20 18 21 19 23 23 16 26 23 14 17 19 25 15 20 25 14 16 23 22 19 25 20 20 26 19 18 17 19 23 25 26 15 15 26 18 26 26 16 25 22 14 23 24 24 19 15 16 19 16 19 16 20 23 26 22 14
21 23 15 15 26 15 15 21 14 24 16 26 20 25 15 18 17 24 25 26 20 22 15 20 14 21 25 22 25 17 21 25 14 18 15 18 17 24 19 20 16 16 23 17 20 23 19 14 22 22 22 17 25 22 19 25 17 19 14 22 17 14 25 23
18 24 16 19 17 19 16 14 24 23 24 26 23 15 21 14 18 26 17 21 23 24 19 25 26 16 24 19 21 23 14 22 18 23 21 14 21 15 14 26 20 20 26 25 22 19 16 19 22 23 20 19 26 19 16 19 14 21 25 17 21 20 16 24
14 21 19 15 15 24 14 15 19 26 17 26 21 26 17 18 17 22 26 17 21 25 24 23 26 23 15 14 21 14 18 19 14 20 21 14 21 16 16 19 26 16 25 18 25 15 23 14 20 20 15 25 22 25 16 26 22 25 19 19 23 22 15 24
