P2
64 64
255
18 14 23 22 16 25 18 22 24 17 25 18 14 26 23 24 26 14 19 23 24 20 14 15 16 17 21 19 16 22 26 16 14 25 15 25 14 17 20 25 22 22 20 20 17 20 16 25 24 14 16 26 25 16 18 26 17 18 21 19 25 23 14 14
24 23 19 14 23 17 21 18 23 21 26 20 24 18 21 14 19 21 25 21 19 15 20 18 24 24 15 15 14 20 14 23 19 18 25 17 23 24 24 23 25 21 17 14 15 16 21 16 26 21 17 15 22 15 23 19 18 21 20 22 24 15 18 16
19 21 17 15 14 17 24 26 23 23 19 18 22 16 24 19 24 15 24 23 15 26 20 24 18 21 22 16 16 16 21 14 24 23 22 16 15 19 15 19 25 25 21 23 23 15 14 15 14 15 20 25 18 18 23 19 18 17 26 19 26 26 14 26
16 23 23 15 22 24 15 16 17 21 20 18 17 25 22 17 23 25 26 16 23 23 16 26 25 14 23 16 22 21 24 17 14 24 21 24 25 15 25 15 17 16 19 20 15 26 24 19 17 20 23 26 26 24 18 26 18 26 17 20 23 14 21 16
14 22 14 14 19 18 17 25 25 23 20 22 17 23 22 16 26 23 21 18 14 25 18 20 22 15 20 15 14 15 19 15 14 18 14 22 25 16 24 25 19 22 26 24 17 26 21 22 17 26 16 21 26 19 14 21 14 15 23 18 16 17 20 14
25 17 24 16 16 25 18 17 18 24 14 21 20 20 19 22 22 19 19 24 17 25 18 14 16 21 14 16 14 23 26 14 17 20 19 24 25 17 15 15 26 22 20 26 22 16 15 18 25 21 15 23 22 26 15 25 14 14 19 15 21 15 21 19
25 19 16 21 16 21 21 18 26 23 24 14 19 15 26 18 26 18 21 21 18 21 26 25 17 20 25 15 16 25 22 22 14 15 20 18 15 26 25 19 14 19 23 22 23 23 25 15 25 21 26 25 14 25 14 18 23 23 20 17 21 21 25 16
17 22 21 20 14 21 15 21 19 17 20 23 16 26 19 19 21 23 24 22 15 14 18 26 19 21 25 20 17 15 15 25 18 25 22 23 26 25 19 14 16 25 16 25 24 24 22 25 14 20 16 23 22 26 16 25 21 15 16 21 24 24 22 21
17 21 17 14 14 25 21 22 15 26 17 18 21 20 23 24 24 24 15 26 15 16 24 19 22 17 16 22 15 20 20 23 18 23 22 22 24 25 22 18 14 26 22 26 25 25 26 19 14 24 15 17 17 17 17 19 22 24 23 25 21 25 23 18
16 25 16 20 20 24 24 21 24 19 21 14 22 17 19 20 25 25 22 25 16 17 21 24 15 16 15 20 25 14 26 26 23 23 17 22 24 16 18 23 21 26 14 15 26 24 18 23 16 18 20 17 21 19 21 21 23 19 17 23 19 21 20 25
15 19 15 23 23 25 25 23 24 26 15 19 25 16 17 21 20 17 15 23 26 26 26 21 21 24 16 17 21 17 21 15 21 24 16 17 17 26 15 25 20 24 25 14 22 17 19 24 17 20 22 24 20 14 14 16 20 21 17 16 24 14 23 24
23 24 22 21 14 25 22 21 23 20 15 17 24 22 24 26 21 19 21 23 20 25 26 14 21 22 24 16 15 17 17 19 17 19 21 22 19 18 20 23 18 16 23 21 20 16 15 16 22 20 16 21 20 14 26 14 16 18 17 18 16 22 18 24
19 18 15 15 23 21 19 26 22 24 20 23 22 17 17 24 14 15 14 23 26 17 18 14 15 18 14 22 18 25 26 26 17 14 19 19 16 16 25 16 18 24 25 26 20 25 18 16 20 24 25 18 26 17 26 16 24 25 26 19 25 20 25 14
17 14 14 23 25 24 23 20 17 25 17 23 21 17 21 25 20 22 17 18 21 14 23 16 17 21 18 26 19 23 26 26 16 16 21 22 16 24 16 25 20 24 24 15 21 15 16 17 18 24 22 22 15 24 22 21 18 20 21 20 14 14 15 23
16 16 19 26 24 20 21 16 15 16 21 21 16 24 21 14 14 20 23 23 14 24 25 24 26 16 22 23 21 17 26 17 14 22 23 14 20 24 16 17 20 26 22 24 17 15 22 16 22 18 24 19 17 17 21 17 21 23 15 18 26 20 20 19
26 21 22 18 26 22 21 26 22 26 21 21 20 17 24 18 20 15 22 15 18 22 17 14 19 22 24 16 24 15 24 25 14 25 14 23 16 16 22 25 26 19 21 19 25 25 16 19 19 23 14 19 24 17 14 15 17 14 22 22 18 17 22 22
15 16 21 17 22 23 22 19 25 16 18 19 19 17 26 22 25 16 14 23 26 18 21 26 23 22 21 23 15 16 26 21 17 20 25 19 24 16 25 19 17 18 20 26 24 16 22 21 24 25 18 14 21 22 14 25 17 23 15 19 23 14 23 26
21 25 25 19 23 19 26 18 24 24 19 17 21 21 20 20 15 23 25 26 23 14 21 20 26 16 23 25 21 15 22 25 14 15 14 25 23 18 19 21 15 15 25 19 18 16 19 25 14 20 24 17 16 20 14 24 26 23 25 19 17 16 17 18
15 23 14 23 17 24 18 20 22 14 21 21 19 17 16 26 22 20 26 20 15 23 18 18 17 14 24 20 24 20 25 26 18 16 25 19 23 15 23 20 22 20 18 25 21 18 26 14 23 25 17 14 16 15 23 14 24 21 19 26 22 19 20 17
25 24 14 16 26 19 15 23 20 17 23 22 16 17 17 19 15 27 27 20 23 26 22 21 21 27 16 17 26 25 25 16 15 24 26 21 18 23 26 15 19 22 25 28 20 25 26 27 21 20 23 24 22 21 20 17 25 20 22 16 25 15 15 20
26 22 14 24 22 15 23 26 15 17 21 23 19 24 18 21 27 29 24 22 26 30 32 33 20 26 21 23 17 17 19 26 14 16 26 24 16 27 28 23 30 28 21 27 27 23 21 23 25 19 21 14 15 21 14 16 24 20 19 14 18 26 14 24
20 20 17 25 26 17 24 15 25 15 15 20 15 29 27 26 25 23 33 32 37 37 26 31 34 29 26 21 25 16 27 25 26 29 24 22 23 19 21 33 23 33 29 30 26 37 33 26 31 31 30 17 22 23 25 15 19 22 19 15 24 21 19 23
23 19 24 17 25 16 26 19 17 14 20 19 20 21 33 33 33 28 37 37 35 30 38 29 30 27 28 32 37 35 26 28 35 27 32 28 35 28 36 32 36 34 31 32 37 31 37 37 29 28 32 32 21 19 15 19 25 25 14 21 19 17 16 23
18 18 16 17 24 21 23 17 24 24 22 22 30 34 34 38 38 40 39 44 45 34 36 44 40 33 45 38 37 42 33 39 37 29 42 34 44 43 36 36 36 44 43 34 37 44 40 33 36 34 29 33 28 18 20 20 23 14 21 23 22 15 19 24
19 17 19 18 24 23 25 14 21 16 26 21 23 34 34 43 42 46 40 48 39 39 38 49 49 53 48 44 51 49 52 44 38 48 47 53 46 44 53 52 47 40 37 44 45 37 45 43 35 37 39 29 24 31 21 16 25 21 26 16 18 16 25 19
20 20 20 22 20 25 19 20 22 19 27 27 35 28 40 37 40 48 51 44 50 44 45 54 50 54 64 56 53 54 50 50 49 53 56 58 58 64 58 60 54 51 44 49 47 41 43 48 37 34 43 32 27 29 27 21 20 19 22 15 24 14 18 25
25 14 21 22 20 16 26 23 23 27 27 37 39 42 45 37 42 43 43 56 56 50 53 57 65 62 61 70 71 69 62 56 64 63 65 61 70 63 70 60 58 56 52 49 52 50 52 48 45 39 43 42 29 33 29 20 20 20 15 20 16 23 20 14
22 19 17 20 19 21 15 23 25 25 29 38 33 36 39 47 46 55 48 49 62 58 61 69 76 71 76 71 74 76 67 70 74 72 76 72 75 79 77 79 71 64 67 63 63 57 49 51 51 42 40 35 31 28 27 32 21 25 25 19 25 15 17 21
15 17 14 19 18 22 19 18 29 32 32 37 33 46 51 43 55 50 58 54 62 68 70 83 84 78 80 77 86 82 84 82 83 75 84 85 86 86 87 84 77 73 77 70 62 57 53 49 52 48 39 46 43 35 37 31 26 25 15 25 24 24 26 20
22 21 17 23 17 22 17 24 30 31 32 34 38 46 48 47 47 51 53 64 75 75 75 80 84 87 84 90 87 86 85 94 82 84 92 84 91 82 91 81 84 84 82 78 77 59 65 63 47 51 45 48 33 42 37 27 30 16 22 18 26 26 25 18
14 26 15 20 14 22 19 23 20 27 27 33 34 44 42 50 60 54 67 71 79 88 88 85 97 91 94 95 99 100 96 94 94 96 96 97 101 99 89 87 97 95 92 84 79 70 64 61 54 48 42 50 36 39 36 35 29 21 17 15 24 18 24 14
19 17 21 18 25 19 16 28 31 33 28 40 43 50 51 50 54 57 65 81 85 96 96 89 103 98 102 95 105 95 101 106 107 96 103 97 106 106 98 96 101 91 94 88 81 79 65 62 52 47 47 47 43 41 39 25 29 24 17 25 20 23 26 15
16 17 22 21 17 16 14 18 25 36 39 37 37 43 50 55 56 66 64 81 84 98 96 94 95 103 104 105 111 99 105 110 112 105 112 109 109 105 98 106 104 96 97 94 86 79 70 61 62 55 45 44 39 33 40 29 21 24 14 21 25 15 19 17
19 14 24 24 14 18 14 20 23 30 36 37 44 42 52 48 59 63 65 79 84 94 100 103 104 105 109 111 107 105 112 120 111 111 113 114 110 111 102 100 102 104 93 97 89 86 64 61 53 54 50 47 42 37 29 32 25 18 14 15 26 23 17 17
26 19 23 22 18 24 17 25 31 27 31 33 36 50 45 54 54 64 63 84 81 95 94 106 106 100 114 111 108 119 113 114 127 121 115 113 111 112 110 108 106 94 102 86 83 83 71 57 57 54 52 39 35 33 36 28 19 21 17 15 23 23 24 23
21 24 24 25 26 15 17 21 29 32 35 41 44 42 49 50 49 58 70 78 77 95 90 92 107 99 109 112 112 118 113 124 127 123 119 110 109 113 109 109 96 103 90 95 84 77 68 58 48 46 42 49 37 39 31 30 19 26 21 24 15 23 14 17
25 21 24 25 18 22 24 17 29 26 30 38 44 39 44 51 50 59 64 68 79 81 90 92 104 104 99 111 117 109 110 128 125 116 120 120 108 106 105 105 98 97 88 79 81 71 69 60 52 52 43 40 37 39 31 21 25 15 15 25 21 17 25 21
22 19 20 22 22 20 22 23 21 26 28 39 36 41 46 40 50 55 66 67 73 75 88 87 97 101 99 100 112 113 106 113 123 116 110 111 102 100 103 105 98 91 85 82 71 65 59 47 46 50 47 37 39 35 33 21 21 16 16 25 22 26 18 26
19 21 24 24 17 23 21 24 24 19 25 32 40 39 34 41 47 53 61 61 76 78 75 83 95 100 101 102 105 104 111 106 112 102 104 112 109 98 98 91 90 86 86 76 74 59 52 54 42 48 45 33 36 31 31 18 14 24 23 17 20 24 16 24
15 25 19 17 18 24 21 19 16 22 19 33 38 35 37 46 46 50 50 58 59 71 71 87 79 89 90 95 91 103 94 100 105 97 93 98 93 96 96 90 88 77 82 75 62 65 47 47 41 38 43 39 30 28 19 23 23 16 21 24 20 18 22 16
25 24 18 19 18 21 20 18 14 16 22 24 27 28 28 32 36 42 50 57 60 65 69 77 74 80 89 85 94 96 90 85 92 85 98 96 90 91 86 77 78 78 73 65 58 47 48 34 36 36 32 35 23 27 26 17 16 15 15 19 19 18 18 23
19 19 26 15 22 16 25 14 15 24 21 20 30 23 25 34 35 37 41 46 51 57 61 64 72 79 82 75 80 79 88 78 84 83 88 90 88 82 77 77 70 69 58 52 54 50 37 32 30 31 25 32 29 27 21 14 16 21 24 15 15 15 26 14
24 19 15 21 20 26 15 20 19 16 23 17 23 21 29 31 31 38 34 36 41 49 51 59 70 63 77 67 75 71 69 79 74 79 75 69 74 67 68 74 70 55 52 47 46 36 37 28 38 32 31 20 17 20 18 23 16 19 20 21 22 18 24 17
25 18 26 23 23 17 17 14 23 24 25 18 14 24 21 25 34 25 24 28 37 46 45 54 59 59 69 60 63 65 64 65 64 71 68 70 61 70 58 67 63 55 43 45 36 31 28 24 23 32 23 28 15 18 22 19 23 17 22 20 23 25 16 21
22 17 22 25 14 19 22 24 16 22 14 25 21 21 22 22 25 31 33 30 35 43 41 42 55 50 57 53 57 58 68 60 63 64 65 60 58 61 55 51 53 48 46 32 31 25 27 26 27 20 27 14 20 19 25 26 16 18 14 16 19 16 20 23
15 15 20 19 16 23 24 16 17 21 15 21 25 21 25 15 22 28 21 29 22 31 30 39 42 38 46 49 55 51 56 54 56 60 57 50 50 53 47 41 39 37 38 34 22 22 18 17 17 21 23 19 14 16 22 14 19 22 19 24 21 14 24 21
24 20 22 16 26 14 23 24 15 15 20 20 20 24 23 21 14 19 15 21 14 18 31 35 38 33 48 40 50 46 50 51 52 51 46 50 47 39 46 37 31 37 28 26 18 14 25 19 22 20 19 24 25 15 18 22 25 21 19 16 23 15 17 23
14 25 21 21 20 22 16 19 19 14 15 26 26 18 25 19 22 17 24 17 14 26 25 20 27 33 39 45 43 38 48 41 41 51 47 39 35 36 33 30 32 23 27 20 25 23 16 14 22 21 20 23 16 16 18 21 15 20 19 19 18 14 20 18
21 25 16 23 16 18 14 16 25 22 16 17 25 25 22 24 16 22 17 24 23 20 24 26 23 29 29 37 39 39 42 44 42 43 42 36 35 36 29 22 27 23 16 23 14 20 15 15 14 19 23 24 18 26 17 16 23 15 20 14 16 16 18 18
24 17 17 17 20 26 18 16 23 15 21 19 14 17 23 19 17 21 15 24 17 26 25 19 16 27 23 26 28 28 27 27 38 39 27 32 32 31 19 28 16 23 21 18 23 22 18 18 25 14 14 25 15 21 25 18 26 18 19 20 25 18 15 14
19 25 17 26 17 14 22 14 21 24 19 18 26 14 25 20 15 24 15 21 16 17 18 24 16 24 20 24 18 22 28 26 31 22 24 22 21 24 19 22 24 15 14 26 23 21 22 22 16 23 23 19 16 15 25 20 23 23 14 22 19 25 25 19
26 25 25 15 18 15 25 25 20 20 15 24 23 18 17 21 14 16 19 15 17 23 24 18 21 21 24 17 16 22 20 16 19 21 15 20 21 15 21 25 17 17 17 16 21 14 14 21 22 17 16 26 23 22 21 26 16 14 23 26 24 25 19 24
20 20 21 26 23 26 15 15 20 25 26 24 23 19 24 19 17 22 25 21 16 16 26 25 26 15 26 16 23 23 25 21 18 14 20 22 22 15 23 15 14 14 22 23 20 16 18 21 24 24 26 19 26 20 25 18 16 25 14 25 23 17 17 26
24 17 16 14 24 21 21 18 15 19 21 17 24 14 22 16 26 26 26 23 16 21 17 21 22 14 16 20 14 15 24 24 20 20 24 25 16 21 24 15 14 20 25 17 25 19 21 26 24 14 20 14 17 25 21 16 15 20 25 18 19 24 22 23
18 24 16 19 20 23 26 18 15 17 22 25 18 26 16 23 19 26 25 25 14 18 23 14 18 24 18 18 16 25 20 17 16 26 16 19 26 20 18 25 22 20 17 16 26 24 19 24 18 15 24 26 21 21 18 24 15 22 18 22 18 18 18 25
23 16 19 21 18 24 24 24 26 25 20 16 21 14 24 26 25 23 21 18 18 14 15 14 16 26 19 21 26 25 14 19 17 21 16 14 19 15 15 14 25 22 14 24 23 25 21 25 25 22 20 14 15 19 25 19 24 26 25 24 21 14 22 21
22 20 19 21 20 15 23 21 19 18 14 19 18 18 17 19 24 19 15 22 15 16 18 22 26 25 23 19 24 22 14 16 17 20 23 15 22 21 20 20 15 18 20 24 22 21 14 21 18 19 15 16 18 18 24 15 24 23 16 21 22 26 26 16
24 23 24 19 17 17 22 19 17 14 20 26 26 17 20 22 22 22 21 15 18 22 14 15 19 16 26 20 23 24 17 25 14 16 24 23 24 14 20 24 17 20 17 18 24 23 26 20 22 19 14 15 16 23 19 19 21 16 22 24 22 17 18 18
15 14 26 24 16 16 21 14 19 18 15 21 18 26 18 15 15 25 26 22 18 26 16 22 19 22 22 15 18 16 16 19 20 18 26 17 24 19 20 24 26 15 20 14 21 18 17 18 19 21 19 15 23 22 20 19 24 16 21 18 22 19 21 18
14 24 22 22 15 21 16 17 22 19 15 22 23 19 15 17 19 16 16 16 19 16 17 18 15 15 14 21 26 23 16 20 22 23 14 18 22 24 25 24 19 16 22 23 21 26 24 26 19 23 26 23 25 21 25 23 15 16 24 21 16 21 21 19
25 20 24 14 23 26 24 14 24 15 18 19 25 20 21 18 18 26 24 26 24 21 23 24 15 20 26 26 25 22 22 19 20 22 24 19 18 25 23 23 22 25 18 24 18 14 17 23 23 17 15 16 20 21 25 26 22 26 15 21 25 21 26 15
22 14 24 23 15 16 18 21 15 16 24 20 22 23 23 20 20 20 21 25 26 14 18 21 14 16 21 26 17 14 21 17 26 18 26 17 21 16 23 24 20 25 26 18 15 14 25 15 17 24 18 25 25 20 23 17 15 18 14 15 25 20 24 16
22 26 23 22 25 22 22 22 15 22 21 20 20 24 24 24 15 17 22 21 16 23 16 14 21 22 20 23 15 21 24 22 17 26 16 24 21 17 21 14 26 21 24 21 20 16 20 14 22 14 22 19 25 17 26 21 21 14 16 23 17 16 18 24
15 21 20 21 26 23 14 16 17 25 15 17 19 19 15 19 16 20 26 26 15 21 21 20 18 26 15 20 19 20 26 19 22 14 19 21 20 17 19 21 16 23 23 26 19 14 22 21 22 15 21 21 23 26 17 15 17 23 23 23 24 23 24 21
