P2
64 64
255
34 28 19 28 30 36 36 34 31 21 30 26 36 35 22 20 28 18 21 26 37 25 37 35 36 23 28 21 24 21 18 35 21 37 19 36 20 34 18 24 36 18 18 37 36 34 19 21 31 31 29 32 18 32 20 18 30 31 20 30 37 24 23 34
26 37 26 31 26 23 34 25 30 23 29 37 29 33 34 30 34 19 21 23 18 21 19 29 24 34 28 20 32 26 31 38 29 25 28 27 24 19 33 27 30 28 24 18 27 32 32 27 20 36 33 26 18 22 25 20 31 37 34 36 18 29 27 31
35 23 22 22 18 35 25 27 20 21 36 24 35 20 19 26 31 18 29 29 19 33 36 21 31 19 33 30 23 29 34 28 26 32 24 19 19 26 26 32 29 20 26 35 34 18 18 37 38 37 24 36 28 30 37 30 22 30 19 19 19 27 29 30
37 34 34 32 29 29 29 19 33 21 25 20 31 20 35 19 37 20 32 38 31 29 30 20 36 27 34 26 19 33 21 31 38 18 30 22 37 23 32 37 26 25 22 19 32 23 32 34 34 38 33 27 27 23 22 28 26 25 22 19 36 31 33 20
37 25 22 33 35 36 20 29 30 18 30 34 24 21 32 29 35 26 25 27 32 35 28 25 31 28 30 25 28 23 22 33 27 32 31 32 34 30 18 34 18 30 29 22 21 27 23 28 32 22 20 30 31 22 33 19 25 18 36 26 35 33 22 30
25 29 20 23 36 35 27 25 34 30 33 18 18 32 34 21 30 35 20 20 26 24 25 28 33 22 33 35 34 33 23 31 21 25 30 29 33 21 33 24 36 31 35 28 34 38 34 36 34 26 23 37 22 19 27 33 31 34 30 37 31 21 37 34
29 29 35 26 19 34 31 37 18 21 25 37 24 34 27 29 20 18 24 36 38 27 33 26 29 30 20 18 38 18 22 38 23 31 37 32 27 32 20 27 20 38 30 35 36 25 38 30 30 26 21 37 37 32 32 32 18 34 37 30 35 18 33 26
23 34 18 33 21 27 21 31 27 26 33 24 31 24 29 34 35 18 28 31 33 18 32 27 33 26 31 23 19 36 19 32 25 18 29 29 18 33 33 20 25 26 37 35 19 32 26 26 28 19 35 36 37 22 36 35 20 33 18 19 22 18 19 25
31 34 27 22 26 33 20 32 22 25 38 32 38 35 26 25 24 33 19 31 28 27 31 30 25 38 24 37 23 18 20 20 34 26 23 35 25 30 32 20 36 27 31 37 37 23 38 31 31 28 24 30 33 26 18 25 26 33 37 21 25 27 23 22
22 38 30 32 27 21 36 21 22 25 20 30 33 18 22 34 18 25 26 22 20 37 28 33 19 20 36 19 19 23 34 32 27 30 19 38 36 36 32 21 32 31 24 19 35 35 20 18 38 22 32 23 27 18 38 22 29 20 32 37 30 27 22 21
21 21 25 37 32 28 30 31 36 19 38 38 32 22 20 37 22 18 27 19 29 35 24 35 27 32 32 25 28 38 19 29 32 32 36 22 38 24 26 22 19 26 24 19 19 21 35 34 22 37 36 19 23 21 25 31 27 20 26 21 32 31 28 22
19 35 25 25 26 34 28 33 20 35 29 30 35 19 31 26 24 21 19 28 34 29 33 29 27 19 22 36 30 31 29 25 26 23 23 18 35 31 24 19 33 26 22 31 31 35 24 23 30 34 35 20 30 22 21 32 27 37 29 24 33 33 19 36
25 32 32 21 29 29 32 21 32 29 23 24 34 26 25 25 24 30 21 21 37 21 26 30 24 38 19 25 34 22 22 35 22 24 29 38 38 32 34 26 19 18 32 30 33 18 26 21 26 20 25 33 31 20 18 25 21 28 26 23 27 31 38 32
19 33 23 27 21 37 18 38 29 24 31 35 20 36 26 28 34 22 33 22 19 22 28 20 35 26 20 36 29 37 29 37 22 32 31 36 38 18 25 25 34 25 25 21 34 32 32 20 37 35 27 33 27 28 30 23 21 31 26 20 30 32 18 35
38 36 25 28 24 23 19 27 19 28 36 27 33 34 35 22 18 28 33 36 19 32 21 31 20 18 33 36 30 28 38 29 33 29 35 30 25 30 29 29 28 24 37 23 18 24 27 26 25 23 33 28 32 29 38 28 30 31 38 34 27 27 20 28
19 28 24 27 20 34 22 32 38 20 38 28 18 18 20 36 34 22 26 30 27 18 19 33 31 24 28 35 36 31 37 34 21 34 33 29 37 25 24 20 35 32 25 38 30 20 32 21 35 18 25 21 23 32 26 24 30 19 24 20 30 25 33 18
23 22 38 33 36 25 25 35 35 34 33 34 19 29 38 28 25 33 18 26 18 20 36 29 25 37 37 25 19 23 28 21 27 35 38 35 38 21 27 32 31 30 27 29 28 38 21 34 37 26 33 36 27 33 22 24 25 38 18 35 28 38 20 34
33 36 37 34 22 32 18 26 23 33 29 35 34 29 26 29 25 37 23 31 38 30 25 29 47 33 32 36 37 37 36 31 30 24 24 31 27 24 25 38 36 38 33 35 32 31 36 35 28 35 33 23 21 26 29 21 28 36 24 33 28 19 20 33
38 25 25 24 21 36 24 28 19 37 26 19 21 24 20 31 38 23 25 20 20 37 45 44 40 51 63 45 48 42 41 22 33 27 21 32 24 31 31 31 38 29 27 22 37 24 21 29 34 23 35 35 34 38 34 38 36 32 31 29 19 37 31 25
37 19 23 19 26 38 38 32 21 35 33 19 18 19 38 25 27 35 28 38 34 34 60 61 68 69 70 67 65 47 44 40 36 27 37 38 34 20 29 32 28 41 25 30 24 32 38 24 39 37 36 25 20 32 29 28 36 22 30 30 26 22 27 31
26 18 34 36 38 30 30 25 38 23 26 33 25 24 26 30 22 37 32 33 44 56 57 73 69 87 83 87 68 65 61 55 48 20 34 31 26 25 36 30 44 32 27 28 36 38 42 24 42 28 38 31 18 25 36 33 30 24 30 31 29 31 22 30
36 28 35 26 36 18 37 19 22 33 31 19 27 27 27 42 36 29 30 34 64 66 70 91 89 107 105 100 96 71 71 52 35 30 31 19 36 39 36 44 32 39 31 39 32 35 39 39 38 33 42 37 31 36 37 20 26 21 33 36 36 38 37 18
21 37 23 38 33 19 33 23 22 38 30 35 23 24 32 29 32 51 35 56 65 76 95 104 112 105 105 101 103 79 67 61 46 35 32 35 40 37 34 42 51 43 33 37 33 47 48 33 49 31 31 44 29 34 20 25 30 27 36 25 33 38 38 18
28 18 38 34 31 31 21 37 24 29 27 28 30 42 45 42 34 40 42 50 70 92 91 99 123 134 126 133 121 93 80 75 53 39 40 32 27 48 32 42 38 46 37 46 57 43 56 45 42 35 46 32 36 22 32 35 38 18 25 26 31 29 33 19
38 25 27 23 19 38 27 24 26 27 33 43 33 49 43 52 41 56 46 65 78 97 112 107 135 134 143 140 124 92 91 72 59 35 40 41 45 48 40 55 57 47 57 45 56 53 46 50 38 55 38 40 31 44 37 28 25 34 22 30 33 21 25 30
38 30 21 20 20 31 22 22 33 36 28 26 34 43 39 47 56 57 61 60 75 88 114 114 118 138 140 137 106 107 76 74 57 41 33 33 37 51 56 54 45 54 54 57 58 60 44 47 51 45 35 48 34 36 26 22 24 35 36 29 18 21 25 35
26 33 38 30 35 23 22 21 32 41 35 31 44 55 40 42 48 62 54 70 79 85 103 106 125 137 123 132 111 90 83 70 52 49 40 36 47 53 42 58 62 56 67 62 55 52 54 59 56 59 47 51 46 42 45 22 21 25 36 20 33 18 26 29
22 27 36 20 38 26 38 33 22 28 30 34 35 40 47 46 58 49 54 68 72 86 90 108 107 115 109 105 111 83 79 72 48 34 39 44 42 56 61 64 60 71 53 63 56 61 66 59 65 45 57 47 46 33 41 27 20 20 36 27 30 31 26 32
21 30 19 38 32 24 27 32 32 38 45 40 44 42 46 60 64 52 68 73 68 96 104 98 99 117 115 99 96 91 77 72 59 33 33 56 42 54 58 57 61 58 62 62 72 66 71 70 65 52 62 56 43 36 32 38 30 24 24 24 21 28 28 21
23 36 38 27 20 29 20 30 22 26 42 52 47 43 52 54 65 66 74 63 81 91 84 101 106 108 86 83 79 73 62 58 45 43 40 56 61 62 65 61 63 61 78 64 76 63 59 57 64 55 55 49 57 50 37 36 39 24 19 37 33 21 24 32
37 24 35 36 18 20 18 32 24 41 37 36 41 60 63 61 61 57 70 71 72 77 78 80 96 97 83 82 72 65 55 40 52 43 37 56 43 46 52 65 75 69 70 66 68 69 63 74 67 50 47 45 53 42 49 36 40 29 18 28 21 26 19 37
24 32 30 19 31 18 24 25 28 30 47 41 43 63 62 52 75 77 63 72 85 88 83 75 74 79 82 63 57 45 48 59 60 60 66 62 52 58 56 65 73 82 69 79 69 73 71 66 59 61 58 44 50 40 35 44 32 30 34 31 34 37 29 27
26 33 22 34 26 18 38 36 44 32 50 39 52 57 48 61 68 65 79 79 78 70 76 72 72 65 76 54 70 52 62 62 63 74 65 65 67 73 59 66 70 67 79 82 83 70 63 77 70 57 51 61 57 53 38 32 32 32 36 23 27 23 22 35
28 36 35 35 21 26 24 29 44 47 44 51 41 44 62 57 70 71 66 66 81 76 72 71 85 74 84 71 78 69 89 74 74 76 72 79 68 62 67 70 63 63 67 72 84 75 69 71 74 52 60 52 58 44 37 46 27 28 26 24 29 29 32 37
38 29 25 24 26 36 25 27 27 40 31 49 42 48 66 59 63 65 67 66 84 64 87 75 80 82 86 85 91 98 86 94 106 101 99 92 89 68 70 63 63 69 72 69 70 69 70 68 68 68 50 61 40 37 41 30 36 23 34 31 31 38 25 32
38 27 25 24 21 37 36 23 40 39 41 35 37 59 58 51 66 74 75 71 77 86 89 79 94 93 96 95 101 99 107 121 110 121 110 96 78 71 75 65 61 70 76 68 72 72 67 69 70 61 60 45 50 54 30 37 36 37 18 34 27 26 26 19
31 35 36 29 33 38 21 32 29 28 34 37 40 51 52 49 54 60 67 61 74 82 85 81 86 87 93 106 103 107 117 116 132 122 121 106 95 92 67 58 53 68 60 73 75 69 73 54 49 62 53 46 49 35 42 25 31 20 31 27 28 20 21 20
36 21 18 22 21 37 32 23 28 32 31 32 43 42 52 55 59 57 63 61 67 88 92 80 95 87 90 98 124 122 127 137 141 136 116 117 104 73 82 59 53 56 59 63 58 58 58 56 52 60 57 46 48 35 30 43 22 34 36 26 29 25 27 31
19 18 37 20 21 25 20 21 21 38 35 43 36 45 51 57 54 54 53 57 75 79 74 84 87 93 92 102 123 130 139 141 141 126 118 112 96 72 80 69 51 48 67 52 54 61 67 54 50 48 39 45 39 48 27 27 34 38 35 36 20 34 31 36
36 36 36 28 18 27 20 37 21 36 32 39 32 32 38 40 58 42 61 60 68 67 85 80 87 102 104 117 120 134 137 125 126 119 112 108 97 73 66 53 57 63 53 51 56 50 44 51 45 46 48 47 32 38 23 35 34 29 29 21 30 33 26 30
26 19 23 21 25 38 25 38 36 28 22 26 31 37 36 45 55 45 40 53 74 79 91 94 103 91 96 105 130 116 116 123 118 114 104 101 85 79 58 43 51 50 57 49 43 51 43 48 44 48 45 37 35 29 28 38 37 24 33 31 20 20 38 19
32 28 29 24 26 35 27 27 35 35 23 31 30 39 33 34 45 45 52 53 63 76 73 85 91 89 106 113 116 120 122 116 115 97 93 75 70 58 41 37 35 45 52 52 57 40 47 54 50 34 35 31 38 27 36 36 37 26 32 32 27 28 18 38
28 20 37 27 37 36 28 18 37 28 34 27 29 42 34 47 38 35 33 45 61 69 69 86 84 98 91 99 95 95 93 105 87 84 71 63 60 45 29 32 47 38 47 46 45 38 37 46 46 48 44 30 22 32 33 28 24 34 18 36 31 19 38 36
38 18 24 21 38 26 30 31 28 33 26 28 27 32 34 31 41 28 34 45 55 54 58 81 74 82 84 91 100 79 78 79 82 66 74 59 39 48 37 31 35 40 38 34 41 37 39 36 39 36 40 36 37 26 36 31 24 38 20 36 29 20 20 18
25 30 24 29 35 36 34 38 38 37 23 20 38 22 30 21 36 38 30 47 52 64 71 68 82 76 83 87 89 86 79 82 76 55 57 37 30 39 22 25 37 33 34 28 34 32 32 29 23 22 38 22 24 33 35 37 19 24 33 31 38 37 25 26
33 36 20 22 29 26 35 20 22 22 24 29 26 33 29 24 39 22 30 32 43 57 57 50 58 78 67 76 74 74 62 62 54 66 40 45 44 20 30 23 21 39 36 41 24 39 29 22 23 34 19 38 21 36 18 21 36 35 37 36 22 34 37 31
29 21 28 18 20 30 27 22 30 38 24 36 24 19 25 21 26 18 25 21 40 34 50 45 62 57 58 56 76 64 71 51 58 55 43 29 35 27 29 29 35 27 23 18 32 27 37 37 27 38 27 36 30 23 30 30 24 27 34 24 23 38 31 38
32 36 23 36 38 24 37 28 34 37 38 22 35 35 31 36 31 31 35 37 31 40 49 37 51 61 47 54 53 48 61 61 47 48 40 43 25 27 38 23 26 35 31 20 25 31 22 21 30 31 28 33 30 19 22 18 37 20 33 24 32 27 19 34
34 25 18 26 19 38 19 24 18 37 18 24 38 27 29 30 20 33 27 38 31 35 32 39 48 38 56 59 55 53 52 45 39 33 33 20 38 18 24 26 18 28 32 21 26 20 28 20 35 30 36 31 35 38 30 20 32 21 22 25 35 35 21 38
28 26 35 21 32 21 37 37 29 38 27 32 21 34 21 33 23 33 25 36 36 25 29 39 46 31 50 49 34 48 34 49 33 27 37 27 37 31 34 19 37 21 21 26 29 18 28 21 37 34 37 27 27 35 34 31 34 26 24 27 28 23 26 27
18 35 20 38 26 26 38 19 33 32 32 37 29 35 20 28 37 36 28 30 24 18 29 20 26 41 26 35 28 33 43 27 20 18 27 38 37 26 36 34 35 34 21 35 23 26 18 21 32 18 21 21 22 37 27 26 24 31 35 29 32 28 35 32
20 25 36 35 23 32 32 34 34 19 21 33 32 32 25 27 20 33 37 32 30 18 22 24 28 25 32 21 18 30 24 26 18 32 23 25 32 35 30 38 38 21 31 30 22 25 23 20 25 23 24 27 26 23 35 37 23 37 24 25 21 30 31 19
20 30 32 25 23 35 24 33 25 35 34 33 21 38 21 18 24 25 38 36 35 35 31 18 25 28 21 26 28 24 28 36 18 20 21 19 27 24 34 28 18 22 32 21 32 34 21 31 29 38 34 24 35 34 35 38 33 36 18 27 22 26 36 27
38 34 38 32 18 36 27 35 28 18 27 36 23 34 28 30 28 30 30 38 26 23 36 26 25 33 29 25 19 21 25 19 18 37 34 25 20 33 20 23 19 20 21 34 37 29 31 29 24 20 20 38 38 30 32 24 26 33 36 20 31 21 18 37
38 30 28 18 26 28 37 24 37 27 34 30 18 22 35 18 20 18 29 34 29 27 31 36 38 29 24 38 18 18 26 26 38 25 22 38 21 26 31 26 27 30 29 24 38 32 31 34 30 36 18 36 37 20 32 19 38 34 26 23 37 29 18 32
21 37 23 38 22 24 31 27 33 38 25 29 32 31 21 37 36 23 18 32 35 22 27 21 31 36 22 26 27 19 34 27 20 35 25 20 26 19 24 29 23 30 23 24 33 21 35 38 37 35 34 20 28 28 31 37 35 27 34 35 30 24 26 19
26 24 36 26 19 33 36 31 31 38 27 26 25 30 25 34 24 18 31 22 20 38 30 36 23 23 24 28 21 27 35 24 25 19 34 38 30 26 36 31 30 23 18 36 19 37 27 27 34 19 29 23 30 23 24 31 37 25 22 25 32 18 34 29
28 35 24 29 38 23 25 31 20 18 37 25 23 37 35 19 34 29 25 25 20 25 34 27 38 33 29 31 26 29 26 22 29 22 23 30 21 18 32 37 22 18 35 31 21 37 23 24 37 36 25 23 33 35 19 21 34 33 38 26 31 31 29 26
22 36 37 37 27 34 23 34 36 35 35 18 25 24 33 38 25 38 34 22 25 33 18 28 18 36 37 25 25 21 18 36 19 31 30 30 31 26 26 33 27 28 26 27 23 37 27 19 23 35 38 26 31 30 22 18 19 37 34 20 34 28 28 22
33 18 18 25 22 31 22 30 21 23 22 23 37 31 36 38 34 25 25 37 20 36 34 32 27 31 18 33 32 38 33 19 38 30 23 37 33 18 25 27 33 36 20 20 18 20 20 37 21 28 30 29 28 26 19 36 36 22 31 19 33 24 37 30
24 27 20 19 25 34 27 19 37 24 30 38 18 34 34 31 33 32 18 21 34 22 38 31 37 19 25 24 35 29 19 22 36 37 32 34 25 20 27 31 24 26 27 22 25 24 32 19 22 33 26 30 33 31 38 18 31 35 18 25 27 18 26 36
21 19 22 30 32 18 24 20 23 22 33 28 28 19 20 36 20 37 28 26 27 26 34 24 35 30 28 20 36 32 29 27 36 34 29 36 27 35 30 27 28 20 23 30 35 19 27 22 20 31 34 27 31 18 32 36 31 35 31 34 24 28 19 29
38 29 27 22 27 21 18 22 35 26 30 30 29 24 27 27 35 29 35 34 37 33 27 24 20 36 25 31 23 30 25 34 33 38 19 22 28 24 37 32 38 26 37 24 26 29 23 27 19 31 19 35 33 18 38 28 29 31 19 33 24 30 18 18
34 26 37 32 22 31 38 25 23 30 38 23 37 38 19 31 32 38 30 26 22 32 35 23 37 20 28 21 37 24 20 18 34 32 27 37 24 30 28 23 30 24 19 21 21 24 37 25 21 29 28 20 23 32 21 22 37 32 20 25 19 35 33 30
