P2
64 64
255
26 23 14 25 26 15 16 15 16 23 19 16 23 19 22 15 26 21 15 25 17 25 26 15 15 26 17 23 18 16 18 22 17 22 25 23 21 21 23 18 15 20 21 17 18 16 22 16 22 16 26 21 17 26 23 24 23 17 15 15 26 18 23 23
24 22 23 23 18 16 25 14 16 16 14 23 20 20 23 15 19 18 18 17 20 18 25 18 14 16 15 18 23 26 22 14 16 16 18 15 17 22 21 16 25 16 16 19 14 24 18 24 21 14 26 18 17 17 14 15 16 17 21 21 20 23 23 21
16 17 21 26 19 17 23 17 21 18 25 14 17 22 21 15 18 23 14 15 15 24 23 23 15 18 25 23 15 14 26 24 14 21 26 16 18 17 26 19 23 19 16 26 25 16 24 23 20 23 16 18 23 24 24 20 19 17 25 17 24 26 26 25
18 21 22 24 21 14 19 23 17 17 18 22 21 15 21 14 25 15 14 26 18 22 16 19 19 18 25 23 18 25 15 16 22 15 21 24 18 19 25 16 25 14 15 14 20 23 24 19 26 22 16 25 18 14 21 24 19 15 19 23 16 22 22 25
15 24 19 18 26 18 23 18 20 22 24 14 22 26 19 26 15 25 15 20 18 18 18 18 24 22 22 16 18 26 24 23 24 18 15 22 22 25 25 23 17 22 18 22 16 18 22 23 19 25 18 20 19 16 26 17 19 22 21 16 21 23 18 20
22 15 26 24 21 18 22 25 16 26 19 26 24 16 20 23 19 23 24 21 18 19 18 19 26 17 17 19 19 23 21 15 25 26 19 22 26 22 14 16 25 18 20 18 20 14 21 14 20 20 25 18 15 24 17 18 20 21 14 18 14 18 22 19
25 26 24 14 22 20 17 19 24 22 16 15 26 24 20 22 19 23 20 14 18 18 16 22 16 25 24 17 25 19 17 26 18 23 16 26 18 14 21 22 24 15 25 14 23 21 23 19 24 26 20 22 17 23 24 26 16 15 20 23 23 18 25 24
17 14 21 24 16 14 17 19 23 23 17 14 26 14 23 14 22 22 22 18 15 18 22 22 22 26 14 22 20 15 18 16 16 14 21 21 17 24 19 16 16 24 14 17 18 18 14 20 14 21 25 20 23 24 22 25 19 16 20 14 23 24 17 15
14 18 14 16 14 23 21 19 15 17 17 19 26 23 18 22 20 20 14 22 22 14 17 19 16 21 21 15 14 22 26 19 23 26 21 24 25 19 19 15 20 23 23 15 19 14 16 15 19 26 18 15 24 26 17 22 24 18 15 19 25 26 16 19
23 19 19 17 23 24 26 14 22 16 21 17 25 17 24 24 25 26 19 22 26 14 14 15 17 17 17 25 14 17 17 23 19 18 26 20 16 21 26 16 16 21 26 21 19 23 15 17 19 14 22 24 16 14 22 14 16 20 15 23 26 18 25 16
19 22 26 23 21 17 16 25 19 22 18 19 26 17 23 17 19 15 23 26 17 15 23 23 25 22 17 24 15 18 17 14 18 14 18 14 14 24 16 26 19 26 25 19 19 26 17 16 26 22 19 20 21 24 18 22 14 15 21 14 16 21 22 25
16 23 23 20 25 16 20 19 15 26 26 24 20 15 26 19 19 21 19 26 19 22 24 15 16 18 21 19 14 19 16 15 14 26 26 20 23 14 19 25 22 20 19 16 14 16 25 14 15 14 23 19 14 24 16 19 19 22 15 14 14 18 20 17
19 15 20 24 14 26 24 15 26 20 17 20 22 18 16 18 14 23 20 24 24 25 15 18 20 26 25 14 24 24 16 26 25 14 21 24 16 17 19 24 26 17 20 23 24 17 25 15 25 25 16 24 14 24 17 14 23 26 14 24 18 17 22 25
18 16 17 25 19 16 24 16 18 16 26 21 15 14 15 23 15 15 20 23 22 18 25 18 16 22 23 25 16 21 22 24 19 23 17 15 16 15 23 21 23 20 17 18 14 19 22 15 18 15 21 17 20 24 14 24 15 22 22 17 16 22 19 26
26 20 17 20 16 25 23 21 21 24 24 14 25 18 21 14 22 21 25 16 22 24 22 23 24 18 15 17 19 26 16 23 25 26 20 15 21 19 24 15 22 23 19 25 14 15 26 20 19 15 24 22 22 21 20 16 19 21 26 23 20 20 16 18
26 22 22 19 19 25 15 25 19 22 14 19 26 22 24 19 16 19 24 19 25 16 15 19 18 17 23 21 25 15 26 20 24 18 24 22 19 25 20 25 21 22 15 14 26 23 26 25 14 24 24 24 20 24 15 19 18 16 26 17 15 24 14 20
20 24 23 20 25 17 22 21 16 21 17 19 26 21 19 20 15 24 16 18 23 25 24 17 26 17 26 23 14 25 19 23 26 25 15 22 16 19 14 24 19 26 20 16 23 16 19 26 19 15 26 18 21 20 18 25 16 23 24 16 18 26 14 26
22 18 16 20 23 20 20 15 19 16 14 15 15 17 21 16 18 17 22 20 25 22 26 14 14 15 14 26 26 18 19 17 22 25 21 15 20 20 23 15 21 15 21 23 22 21 24 15 19 14 15 16 18 15 18 23 22 22 26 21 17 21 23 26
18 23 25 18 16 16 18 21 25 19 20 21 26 22 24 18 17 14 23 15 15 23 26 18 22 22 19 21 16 17 24 26 24 21 22 24 19 23 21 19 16 26 21 17 17 25 25 17 24 24 25 21 18 22 18 25 18 21 22 21 23 20 14 21
25 20 20 21 17 18 19 14 22 16 17 17 23 16 15 26 24 21 22 17 23 25 24 28 28 18 20 26 26 23 22 16 26 25 26 17 16 22 21 27 16 24 27 26 22 29 19 27 16 16 25 21 26 18 21 20 17 19 26 16 21 20 20 18
24 17 24 25 16 14 22 14 19 26 25 21 25 26 22 20 26 32 32 24 30 23 26 28 25 24 28 24 18 20 14 24 21 22 19 19 16 15 23 22 20 30 28 24 28 24 30 26 26 21 21 25 22 14 22 15 18 20 23 21 15 25 21 20
24 25 20 20 24 17 18 22 23 22 22 25 18 20 27 31 26 32 32 34 26 34 30 28 24 34 21 22 26 24 25 18 21 18 21 22 22 25 24 28 29 29 34 34 33 27 27 33 28 22 21 22 18 19 24 15 15 25 16 21 19 24 24 25
24 24 16 26 15 26 18 14 14 24 23 18 28 28 23 31 27 37 40 33 30 39 29 29 31 27 28 25 28 24 30 28 29 35 25 36 33 29 28 31 39 37 31 34 40 36 29 33 38 32 23 21 25 26 17 24 16 18 15 23 15 15 16 15
16 20 24 22 14 14 20 21 25 20 19 29 25 28 30 35 29 43 36 38 43 45 35 36 37 39 41 37 38 42 34 33 37 29 35 44 43 44 42 45 36 33 43 35 43 41 43 32 39 33 37 33 23 26 24 19 20 14 25 21 14 20 20 14
16 19 15 17 21 23 21 25 14 16 29 32 26 38 29 35 42 38 42 39 42 41 48 42 48 52 51 43 45 53 43 45 41 46 51 47 50 55 55 45 47 40 46 37 40 38 40 43 38 31 38 32 25 26 23 25 18 21 24 24 22 17 18 18
19 25 16 18 25 19 16 15 14 22 30 33 37 40 33 37 44 45 39 46 41 45 50 46 60 52 57 57 58 56 50 57 47 54 48 50 58 63 56 58 51 57 50 53 51 47 47 48 44 35 31 38 27 24 28 28 23 19 20 19 18 17 19 14
26 22 21 20 19 22 23 20 15 22 33 33 28 37 43 45 40 46 49 47 55 48 62 63 65 68 62 71 64 65 61 65 60 57 65 69 60 62 69 63 69 58 58 48 53 50 53 46 49 38 44 42 39 32 32 26 19 23 25 18 19 21 18 19
17 23 23 23 20 25 20 25 20 22 23 36 42 44 45 48 45 51 49 53 54 67 62 74 68 68 70 78 71 69 70 65 74 73 66 72 71 73 78 75 68 70 67 68 57 54 47 46 49 40 49 35 42 37 28 24 19 16 23 17 17 20 24 26
21 26 22 21 25 23 23 26 17 31 26 28 39 42 50 52 57 57 58 61 63 72 74 79 82 85 77 86 79 87 77 81 81 82 75 79 81 77 87 84 73 77 73 70 68 58 59 52 49 50 47 40 43 40 36 23 23 20 25 24 17 15 20 14
24 15 16 15 26 24 19 25 24 27 29 41 44 42 46 46 56 63 56 68 75 72 86 80 87 85 87 92 85 91 87 84 83 92 83 87 89 88 92 84 82 81 86 81 69 59 64 51 48 45 43 39 45 41 31 28 30 19 24 17 26 18 14 26
16 18 18 20 25 16 17 27 19 28 34 41 43 45 54 54 58 62 69 67 82 78 85 96 92 94 92 90 89 91 98 99 93 101 100 97 100 95 100 90 91 84 89 82 83 69 66 64 56 48 52 49 37 32 36 30 19 21 25 25 21 19 18 22
25 22 15 20 23 14 23 16 30 33 32 36 37 46 50 59 52 57 67 80 82 84 98 97 103 92 96 103 99 95 96 97 100 101 99 102 106 98 103 95 92 91 87 93 81 83 66 54 57 53 49 51 45 35 28 25 28 17 21 16 16 21 23 21
24 26 19 17 24 16 25 20 24 31 31 35 38 39 53 58 56 59 66 77 88 91 97 101 97 107 100 111 106 102 105 114 111 110 101 106 107 99 99 103 95 100 93 95 87 76 71 57 55 54 49 48 36 38 31 30 31 23 22 21 25 25 24 22
23 26 14 20 18 15 18 17 28 32 31 41 44 40 50 53 60 55 73 78 82 88 91 99 108 108 106 103 108 105 116 108 115 113 110 105 112 108 108 109 106 102 101 89 83 75 64 62 56 49 45 50 43 34 30 31 30 19 17 16 19 19 18 22
14 15 24 23 20 14 15 16 24 35 39 31 39 40 46 53 55 62 71 73 82 93 95 100 97 99 102 114 110 112 117 126 117 126 117 113 112 104 114 101 102 106 99 90 86 75 68 59 56 58 44 44 43 39 27 24 31 27 26 24 22 19 26 23
21 26 26 16 22 18 14 22 18 32 34 34 40 46 52 52 51 60 61 75 82 86 93 100 107 104 108 108 115 115 113 128 125 116 119 114 112 109 109 103 97 97 90 91 89 81 71 65 51 55 42 43 33 40 29 26 25 26 14 17 24 20 23 18
19 26 23 18 18 24 22 26 24 33 29 28 42 45 47 48 48 57 62 78 77 80 88 96 102 98 99 104 115 119 112 127 124 125 111 116 106 110 107 101 102 101 91 86 84 73 69 57 52 45 44 39 35 28 26 26 19 25 16 17 21 19 25 25
19 16 19 23 21 26 24 14 22 27 30 34 33 38 37 48 42 56 61 69 77 77 82 85 95 98 104 100 109 107 117 122 112 119 116 105 110 110 105 102 91 86 92 84 70 66 55 56 44 43 45 34 31 33 31 24 23 23 16 16 24 19 16 25
23 25 21 19 16 15 18 20 26 29 26 31 34 40 46 42 39 53 57 63 73 75 86 87 85 98 94 102 98 107 113 105 108 104 111 110 100 106 104 95 90 87 78 77 65 57 62 51 42 45 34 43 36 25 27 20 25 20 19 25 19 23 16 25
23 15 22 19 21 16 18 14 18 24 20 27 26 28 39 36 43 43 47 65 61 69 73 78 81 84 89 99 94 98 100 98 102 105 96 103 99 91 95 92 85 86 81 71 61 56 57 49 48 46 39 35 37 24 19 21 21 20 18 26 26 18 25 25
24 19 20 23 24 22 25 21 14 21 17 32 27 35 36 37 34 41 42 57 65 68 67 72 73 78 91 89 96 89 98 92 95 94 95 95 90 89 82 77 83 81 70 64 65 57 46 36 35 31 38 32 35 22 28 17 21 25 20 17 16 20 15 20
17 26 20 16 19 19 26 17 20 26 16 20 24 35 32 32 30 41 39 46 49 63 64 67 68 81 73 81 81 90 77 77 80 86 88 87 79 75 73 73 77 66 64 61 47 47 36 38 37 29 26 35 22 19 26 16 18 26 23 18 15 18 26 22
26 24 17 14 16 21 15 23 25 20 19 26 21 31 28 31 33 32 29 39 52 50 57 55 67 66 75 78 77 71 71 74 76 71 70 71 81 67 77 66 71 60 60 56 52 40 39 36 34 33 25 24 29 21 24 24 16 21 23 20 18 14 21 25
18 21 22 20 25 15 15 15 19 24 19 22 22 29 24 30 33 30 27 35 42 50 51 53 53 56 61 68 71 68 72 67 67 73 67 66 69 68 66 57 56 48 50 38 34 33 33 29 22 28 24 28 21 20 23 23 24 22 17 18 19 23 22 21
18 19 15 17 21 26 26 20 21 24 21 18 21 17 16 21 25 32 22 32 36 44 40 46 45 54 57 57 57 58 67 60 70 63 67 56 55 53 52 55 49 46 40 40 39 22 28 26 20 28 15 23 21 19 22 17 17 18 14 22 18 14 22 15
23 21 18 21 15 20 17 17 18 26 26 15 19 24 16 24 20 18 24 17 22 27 35 40 42 47 52 44 48 52 63 61 59 61 57 54 48 48 50 46 47 34 38 30 22 25 18 26 25 14 17 26 20 19 24 25 21 20 21 15 23 15 22 22
14 26 18 25 20 20 22 19 26 17 21 20 22 20 23 20 17 22 25 20 26 25 28 34 36 34 37 38 41 47 52 55 57 53 47 50 47 45 46 43 35 26 32 28 26 15 14 24 25 26 16 26 26 16 18 21 18 16 25 26 21 19 14 18
14 19 24 22 18 15 23 25 18 15 17 20 17 25 26 22 15 23 24 20 17 14 20 22 27 30 41 42 47 48 48 41 45 43 40 40 39 33 38 32 32 31 21 14 24 20 17 15 17 18 21 14 14 18 26 23 26 14 22 14 23 17 21 16
24 17 18 16 17 25 20 14 19 23 23 19 17 21 19 19 17 25 22 24 14 21 18 18 18 32 33 28 40 42 44 42 36 43 42 39 34 27 36 27 24 17 23 24 21 14 22 23 25 15 15 21 19 14 21 16 14 18 22 16 24 24 21 15
24 21 25 18 20 22 17 18 15 14 17 25 25 15 26 15 15 18 15 22 17 20 22 17 23 28 30 33 23 35 32 34 37 30 28 32 29 30 21 18 19 25 14 21 19 20 23 21 19 22 26 15 19 18 24 14 23 24 26 18 24 22 24 24
24 19 26 17 23 23 22 25 22 18 24 18 14 18 21 24 25 25 24 20 22 22 18 17 20 15 26 25 25 26 25 33 28 23 25 27 21 22 22 25 20 20 18 21 25 18 20 19 21 14 26 18 20 24 26 21 23 21 14 19 19 19 26 22
19 16 20 17 21 18 19 24 24 21 20 17 25 15 23 26 22 25 18 14 15 14 24 16 21 19 14 22 20 25 24 26 23 18 16 22 21 21 26 24 24 26 21 25 18 26 21 16 20 15 16 20 23 16 25 22 21 26 14 14 19 19 24 19
17 22 19 18 25 24 22 14 18 26 21 25 17 15 26 23 17 16 23 16 15 15 20 23 18 23 19 18 16 17 16 26 26 16 20 19 24 14 21 24 18 24 21 14 22 17 23 21 24 16 19 16 21 19 15 20 24 17 24 20 20 18 24 18
20 24 14 16 19 15 25 21 16 17 18 26 25 16 18 21 18 17 18 17 23 20 17 19 15 22 15 15 17 21 19 26 25 25 18 14 15 26 20 22 26 26 25 17 24 25 24 21 23 18 22 16 22 23 25 25 18 19 26 17 16 23 24 18
18 19 19 24 19 14 19 26 20 23 15 21 24 24 24 23 26 17 18 17 22 21 23 18 21 19 23 25 23 16 23 24 25 17 24 18 16 19 26 21 18 14 17 18 26 24 20 25 25 19 21 15 14 15 26 22 26 18 20 18 17 20 21 24
24 18 21 15 18 25 25 22 14 19 21 26 14 18 14 22 24 26 20 15 26 18 19 26 23 14 15 23 22 21 23 25 21 14 24 22 14 25 21 17 17 23 15 17 26 15 14 24 24 26 16 24 21 26 17 18 24 20 26 18 16 17 16 23
16 18 24 25 24 17 15 26 14 25 25 25 25 23 21 18 21 21 15 16 24 26 22 16 25 21 14 14 21 15 24 17 21 17 15 18 19 21 15 16 18 21 14 22 16 18 20 22 22 21 23 14 21 23 21 24 16 24 25 25 14 14 17 24
19 14 19 14 24 21 20 25 24 19 19 18 18 16 19 25 14 19 14 20 23 20 15 25 25 19 18 24 25 14 23 18 20 15 20 24 26 21 17 18 21 23 16 21 16 26 25 22 19 14 18 16 15 17 21 18 17 21 23 24 25 24 16 19
21 23 22 16 16 17 18 15 15 14 14 19 17 24 26 17 21 21 19 21 14 23 26 25 23 17 18 19 26 16 20 17 26 14 20 19 24 14 25 25 23 16 14 22 26 23 22 26 14 19 25 14 22 17 18 17 21 21 24 21 17 14 16 25
14 19 22 21 19 23 23 19 21 26 17 17 22 20 21 19 25 17 20 23 23 18 20 20 18 16 14 18 18 25 23 18 15 26 18 26 23 21 21 26 24 21 22 21 23 14 20 19 16 20 26 16 25 23 14 14 24 23 26 14 21 24 26 23
16 19 16 19 21 20 16 14 22 16 23 20 25 16 24 19 21 17 26 15 25 25 19 14 18 18 18 16 19 26 17 14 22 20 20 23 14 18 19 25 15 18 21 14 23 21 26 25 14 16 19 14 22 23 19 25 23 24 16 26 21 24 19 20
19 17 22 19 14 23 22 20 15 22 23 15 20 17 23 14 20 15 15 23 14 24 19 16 18 19 21 23 21 26 23 21 14 24 15 24 14 24 18 15 23 22 18 19 15 17 25 21 20 15 16 21 17 24 14 19 22 23 26 26 24 19 26 19
22 16 14 15 22 24 25 20 20 17 17 20 14 21 18 20 22 14 24 21 15 25 19 15 19 21 19 15 23 22 23 14 24 21 17 16 16 16 16 14 17 20 21 17 15 16 26 21 14 24 14 26 15 22 16 25 25 25 18 24 14 26 18 24
21 24 19 17 25 22 14 25 19 26 17 20 26 17 22 21 19 15 19 26 22 26 21 19 19 23 26 15 19 20 23 19 15 22 24 23 19 21 21 17 25 21 25 26 16 16 25 15 19 24 15 16 17 15 14 14 23 15 21 23 19 24 14 25
