P2
64 64
255
35 19 21 38 32 31 33 21 38 23 24 24 33 34 32 36 20 25 32 38 27 27 25 24 24 26 21 27 31 19 31 30 29 29 29 33 35 20 29 19 34 32 19 25 30 33 20 20 27 19 24 22 21 33 25 34 31 38 21 19 19 27 26 26
35 19 21 30 20 29 19 35 19 22 33 38 26 32 33 33 31 33 38 37 26 30 20 18 31 18 36 25 30 23 26 32 25 27 23 22 19 21 38 19 19 20 27 36 36 24 20 34 23 25 28 28 26 25 22 18 23 25 33 30 37 29 24 32
27 33 23 34 24 31 18 20 28 28 28 21 26 35 18 24 23 26 24 31 27 37 21 19 27 18 20 36 35 27 29 26 34 25 18 37 35 34 18 28 26 23 36 24 20 23 24 25 25 25 26 20 27 32 30 24 26 33 31 23 26 20 36 29
20 37 19 37 25 31 37 36 20 35 38 38 29 30 25 22 22 25 24 18 25 34 26 35 20 37 33 31 23 32 21 33 35 32 23 26 27 31 31 36 36 21 35 23 30 33 35 32 22 19 21 26 27 22 30 24 24 31 28 26 38 35 33 25
19 25 20 24 24 19 35 19 26 33 35 33 18 26 37 35 19 31 26 22 18 33 38 36 21 21 24 34 19 21 29 29 33 25 27 30 24 24 27 30 32 23 32 31 19 36 25 34 31 36 35 25 29 30 36 20 25 25 26 26 30 23 36 31
23 23 22 38 37 35 33 31 33 34 21 38 31 37 26 21 20 36 36 24 37 19 18 26 30 24 35 33 37 27 26 32 37 20 34 38 25 36 19 36 18 22 19 33 31 24 38 28 20 28 27 33 21 27 32 30 35 26 34 28 24 20 19 27
30 25 20 23 36 22 23 25 38 21 36 30 26 20 22 23 30 24 35 24 33 37 30 26 30 36 35 28 28 38 27 31 30 24 35 33 25 25 32 23 38 30 31 18 25 33 20 18 36 29 19 26 30 30 37 29 37 33 35 20 26 35 35 31
18 30 27 27 32 23 22 34 38 38 18 36 25 27 34 30 38 27 32 23 27 24 21 29 24 32 32 25 35 29 32 26 25 30 37 20 20 20 19 34 33 31 36 19 34 18 24 19 38 30 23 20 34 23 33 24 34 27 22 20 29 29 29 31
25 31 18 23 30 35 30 27 32 19 32 37 25 27 33 24 27 29 23 33 18 20 33 27 22 21 32 23 34 30 27 29 34 34 33 29 21 22 29 31 34 32 32 29 25 24 26 38 25 38 36 20 20 30 37 31 21 27 24 22 36 18 22 23
20 20 27 18 27 28 34 22 22 33 32 24 22 25 33 21 38 31 33 18 20 18 31 31 34 26 32 24 27 29 29 36 26 38 31 35 21 33 26 24 30 22 34 33 33 30 33 28 34 22 28 22 35 28 23 18 22 23 26 38 23 24 23 36
34 21 37 32 37 37 34 23 32 31 18 26 24 36 21 27 22 24 32 21 30 20 27 26 38 30 20 23 24 28 25 34 20 25 35 33 18 26 19 38 32 26 18 38 34 25 31 26 34 24 20 36 32 32 27 18 22 32 34 19 24 19 34 21
29 35 23 21 27 23 38 23 36 21 32 21 26 26 36 32 32 22 29 23 20 26 22 31 33 26 18 38 22 22 36 29 19 23 30 22 29 38 27 19 35 33 33 31 36 21 25 32 27 28 33 27 29 18 24 30 30 30 23 24 25 35 35 26
20 36 37 23 34 25 18 20 34 21 25 23 34 37 21 29 19 35 33 34 33 26 35 38 20 29 38 34 29 36 37 20 28 35 19 28 28 23 19 29 24 21 35 29 26 18 18 22 32 35 36 25 33 18 24 24 22 35 35 27 38 37 21 35
26 32 27 32 29 18 38 29 24 32 30 18 22 33 28 21 30 20 20 28 26 33 24 33 29 27 18 36 22 32 35 27 38 35 38 23 36 38 30 33 24 36 20 24 29 33 38 25 27 19 34 37 29 20 23 28 34 25 29 24 37 20 36 31
32 19 20 27 18 25 20 20 20 31 28 28 29 21 31 21 29 35 33 27 25 26 37 30 20 28 18 30 36 25 25 29 22 25 29 27 30 22 33 20 24 30 21 25 28 32 29 18 35 38 23 27 32 23 36 24 28 30 18 38 31 32 29 21
28 20 21 18 35 30 21 30 37 26 25 30 25 28 37 36 21 32 23 30 21 36 25 22 27 28 28 36 22 20 29 20 24 18 35 19 18 30 18 28 23 21 20 30 22 21 35 34 30 38 20 35 33 24 20 36 27 38 27 31 37 18 23 21
32 38 21 34 36 34 18 23 25 38 24 28 18 23 38 35 31 19 35 24 24 18 20 19 25 21 29 20 33 29 32 28 22 37 25 38 23 23 31 25 31 20 30 35 26 28 34 19 38 30 35 34 24 32 24 31 34 21 38 32 22 38 36 38
30 23 23 35 31 33 24 25 18 29 34 26 29 33 24 38 33 33 33 31 28 19 24 32 32 25 30 35 35 18 37 37 38 23 29 28 21 21 28 28 26 25 32 36 21 22 19 37 25 29 21 37 34 31 32 19 30 38 30 38 22 27 25 21
30 24 28 23 27 36 36 36 34 27 32 33 37 24 38 20 35 35 31 32 30 29 24 18 18 20 37 19 29 27 30 20 30 21 25 33 27 24 34 31 20 38 24 32 20 34 33 25 29 19 36 37 33 24 28 35 33 32 24 32 19 26 23 36
36 37 37 36 30 30 37 31 38 23 18 30 19 26 20 31 37 39 27 36 37 35 36 21 36 33 30 38 24 19 21 34 30 18 38 21 26 21 22 39 23 26 22 24 23 32 36 24 21 38 22 20 23 29 20 21 23 25 26 23 38 19 38 31
37 21 31 27 30 37 21 37 26 29 31 34 26 27 21 38 24 41 45 43 33 32 44 31 34 28 24 20 26 25 25 37 28 30 29 27 25 21 36 23 43 34 25 35 29 32 30 38 31 24 28 18 27 25 26 28 23 25 33 31 33 24 18 35
37 22 35 37 21 26 18 31 20 36 24 27 29 35 34 38 45 30 37 29 34 43 40 41 43 44 28 35 21 27 27 33 28 30 35 27 27 40 42 29 30 46 34 46 29 30 43 36 39 32 36 30 27 28 31 19 21 20 24 34 37 29 38 23
33 36 36 30 23 23 21 33 29 31 18 29 21 28 29 30 47 36 42 50 45 39 41 43 48 44 42 31 31 37 29 31 30 19 26 39 37 27 32 44 51 33 34 45 43 51 35 41 45 38 28 34 23 37 36 23 27 19 19 27 27 23 21 27
20 32 38 34 32 34 36 22 35 26 33 28 44 39 42 36 41 52 50 40 45 37 50 48 50 45 47 32 35 31 26 19 23 31 27 25 36 46 45 53 40 52 51 52 56 37 36 35 46 38 31 38 31 36 38 29 31 25 29 37 26 29 25 18
38 22 18 19 24 27 26 33 27 31 41 42 28 43 50 41 48 56 44 59 42 56 45 45 41 44 44 45 46 29 33 32 24 34 40 38 35 40 46 43 53 55 44 41 53 61 50 40 50 53 38 30 46 41 40 31 27 24 21 21 22 25 27 30
31 30 28 35 38 19 30 35 36 36 34 45 40 43 44 43 49 48 51 55 53 58 52 49 58 40 44 52 47 32 40 39 25 37 42 36 36 55 49 47 45 47 56 56 50 64 44 53 59 47 49 32 30 37 33 37 27 35 20 32 21 26 27 24
31 22 22 37 18 38 21 22 38 39 37 49 46 47 53 54 56 59 66 64 69 55 56 53 63 58 56 44 45 40 37 29 37 33 38 44 46 47 54 47 63 56 63 67 59 49 66 63 55 52 54 43 32 47 25 28 19 25 34 36 30 36 18 23
22 18 32 37 38 27 33 18 30 30 36 36 40 39 45 62 66 67 52 53 56 68 63 71 60 50 47 58 40 54 46 46 44 45 42 34 44 54 62 62 62 68 63 61 64 60 60 52 48 56 53 46 46 49 29 43 38 36 27 30 30 37 23 38
24 24 32 24 18 19 18 25 35 27 42 45 38 52 43 57 62 52 60 58 71 61 65 63 70 53 53 58 41 55 46 51 39 36 51 46 51 62 51 64 52 64 65 69 58 59 73 61 61 54 53 57 40 42 48 31 38 26 36 29 35 38 25 34
26 27 37 35 35 28 27 23 32 46 39 47 48 45 56 58 64 71 67 76 65 63 75 69 54 65 58 58 51 37 54 35 37 35 35 43 55 56 53 55 66 57 64 81 71 75 69 69 53 61 60 52 56 44 34 46 35 34 27 28 37 31 29 26
31 36 25 35 32 29 29 25 37 43 31 39 54 48 66 58 65 71 79 63 73 71 83 78 59 71 56 47 45 54 53 49 48 40 46 44 48 59 51 71 60 70 79 69 67 77 61 62 56 64 62 62 39 52 40 45 31 38 21 29 25 19 38 30
35 19 18 34 32 37 19 24 34 46 42 38 52 60 62 53 66 72 76 78 70 87 84 69 66 60 58 64 53 43 46 45 48 45 57 45 58 56 69 58 68 62 85 87 81 72 68 75 62 68 49 50 57 47 45 35 40 27 38 23 29 21 25 29
29 35 25 20 38 37 32 25 39 48 48 53 43 48 58 68 63 62 80 72 91 82 75 74 68 59 54 63 48 54 45 41 56 48 54 55 63 58 70 61 74 81 77 71 73 73 73 70 63 69 54 55 52 54 41 36 34 28 37 31 36 35 23 35
37 35 34 31 31 26 21 26 30 32 33 36 40 53 59 69 66 66 67 85 78 72 69 65 60 74 65 55 54 41 54 43 37 56 46 44 50 56 64 58 59 65 74 87 77 72 71 62 69 71 55 49 51 39 39 31 27 34 33 31 37 28 18 23
24 38 27 23 29 25 32 23 27 39 38 36 43 55 54 56 73 73 75 83 78 81 71 66 65 70 62 57 42 50 39 50 43 40 54 56 58 48 70 60 64 61 83 66 76 68 73 75 56 66 54 46 46 47 42 34 30 19 32 32 35 24 21 22
37 31 31 28 26 37 22 20 34 40 40 34 38 60 57 63 70 62 73 72 70 63 69 69 55 55 58 46 52 53 52 51 54 50 41 52 52 55 64 69 71 64 61 71 75 60 67 67 67 52 54 42 42 44 40 41 32 20 26 25 18 34 36 33
30 29 18 38 33 37 31 35 41 45 31 40 43 51 62 55 64 72 67 58 62 72 63 56 64 55 55 56 51 36 36 38 32 52 45 38 41 48 50 51 66 63 61 68 67 68 64 52 53 62 63 44 50 32 46 45 40 35 36 33 37 38 24 19
24 23 18 19 33 18 34 22 22 40 27 50 38 52 48 54 60 51 62 69 70 69 64 71 65 56 61 48 52 43 42 46 33 43 34 47 37 45 55 56 59 60 56 55 56 52 53 63 63 61 50 37 50 46 43 24 28 35 33 33 25 22 38 21
29 29 29 26 36 26 25 22 27 39 45 47 37 44 50 54 53 56 62 54 66 61 65 55 49 54 42 44 38 43 46 31 39 45 29 39 39 50 57 58 53 63 55 63 58 56 65 50 45 42 42 39 36 40 35 22 24 33 23 37 25 31 27 29
39 36 23 32 29 32 21 35 25 40 34 33 38 47 52 43 62 64 66 53 58 54 61 63 48 51 46 47 40 34 43 48 44 35 50 52 57 47 48 63 67 54 53 61 58 61 51 50 59 45 48 58 56 41 41 37 29 39 25 34 32 35 26 24
39 29 33 36 31 39 43 36 33 42 43 35 52 46 50 49 48 49 59 66 67 53 61 63 56 66 55 53 56 53 46 42 37 50 45 57 40 42 63 66 67 63 63 67 58 52 64 57 62 65 53 49 59 49 42 40 35 46 39 46 36 36 37 40
38 30 34 32 41 48 33 33 47 29 39 43 54 56 58 53 54 65 61 66 49 66 67 66 59 55 62 49 59 58 55 37 35 36 44 49 51 60 49 50 52 60 67 63 71 57 60 60 64 65 65 57 44 41 55 39 47 56 46 45 44 37 46 39
28 28 44 40 28 37 32 29 38 37 40 36 31 37 40 38 41 58 44 53 57 43 52 58 46 52 57 53 42 48 33 46 37 31 31 41 40 50 46 46 53 60 61 59 55 54 63 58 44 52 50 46 49 50 42 36 35 32 37 32 30 35 50 49
25 38 34 41 35 35 34 36 21 23 30 40 40 30 46 32 43 34 51 47 38 39 35 38 31 46 36 34 35 31 23 33 24 40 29 35 40 39 48 43 41 33 37 44 36 35 38 37 43 46 38 45 29 34 38 34 32 32 37 38 37 42 28 26
30 31 22 22 30 20 28 29 21 36 30 27 34 22 35 40 39 29 44 27 46 28 30 43 43 40 34 24 24 26 29 18 30 26 32 35 21 24 41 38 30 45 40 43 42 37 38 27 27 34 35 37 32 20 26 32 33 34 36 35 27 25 19 35
33 18 35 38 22 26 35 33 33 23 24 30 22 27 28 33 19 21 28 41 29 41 21 34 38 19 19 30 28 22 37 28 35 26 18 30 34 24 22 32 37 35 25 37 22 23 36 20 23 19 20 34 18 18 22 21 19 25 19 25 37 21 38 38
26 29 27 33 36 26 26 24 27 27 18 32 30 38 33 19 37 26 20 30 31 28 24 32 36 18 29 22 18 26 34 18 21 35 29 31 21 33 29 32 27 23 29 29 32 36 29 26 25 37 20 32 29 18 20 35 35 38 38 19 21 28 20 28
27 23 21 25 31 23 37 22 28 31 32 34 34 38 34 31 19 36 30 21 24 32 22 24 38 31 26 24 20 31 27 18 29 25 37 26 38 22 32 28 21 20 27 32 30 18 38 30 24 33 27 30 25 36 34 24 32 34 26 24 35 33 20 23
18 22 22 33 20 36 23 19 18 29 21 28 25 36 37 30 24 24 36 33 30 27 25 23 30 35 29 37 26 29 24 24 31 30 32 25 26 24 36 37 34 26 35 37 28 25 22 33 31 19 38 20 30 18 37 32 26 37 22 29 22 23 29 33
31 22 25 26 36 27 30 37 25 37 29 36 21 20 27 38 23 36 18 23 20 35 35 37 32 28 29 26 35 31 33 29 35 21 33 28 30 25 35 30 29 19 34 27 31 30 33 37 36 25 22 28 22 23 22 38 36 28 38 28 28 20 19 35
36 34 31 31 21 29 21 32 38 22 24 31 25 26 27 35 35 31 23 37 22 26 34 33 27 34 34 18 29 19 25 24 21 20 21 18 35 30 20 18 20 37 20 23 23 37 31 23 28 35 34 18 30 18 38 26 18 37 29 34 23 20 35 34
36 38 22 18 37 37 31 33 21 29 24 34 36 33 38 20 31 34 19 34 21 35 38 36 29 20 20 24 32 29 21 25 34 28 27 19 34 33 18 34 29 30 21 31 26 20 38 26 37 20 33 33 19 18 18 26 37 37 27 21 30 34 25 29
31 24 21 33 20 31 33 25 38 36 19 31 26 28 34 24 24 27 29 36 19 21 29 36 35 31 27 19 34 34 20 24 34 19 19 20 18 33 21 24 34 22 36 37 21 27 23 38 24 37 36 28 22 27 24 29 25 25 20 30 29 30 18 34
36 20 38 26 29 24 21 29 31 36 35 22 26 27 29 31 28 21 20 23 38 29 29 27 22 28 31 31 21 23 34 38 37 23 19 23 19 23 19 21 37 31 27 31 26 28 28 37 19 34 21 34 28 33 29 23 21 29 36 24 28 21 33 19
22 37 21 18 38 29 26 33 26 36 38 18 21 35 32 30 18 30 27 26 28 25 21 24 36 36 28 24 36 35 29 26 36 37 31 30 31 32 26 21 35 22 21 23 36 36 37 20 38 32 30 25 26 35 20 25 30 21 35 34 28 24 34 34
22 20 29 32 18 27 38 21 31 38 26 21 30 23 27 25 28 33 19 31 20 28 33 29 38 19 29 31 24 33 29 33 22 30 37 35 26 25 24 19 32 28 24 35 29 21 34 33 30 22 31 18 20 35 37 38 28 19 25 24 25 29 23 28
32 38 27 23 24 37 25 18 29 30 18 36 34 30 30 32 23 25 30 28 29 22 33 35 20 33 29 23 36 19 23 31 25 19 19 37 32 24 37 23 33 30 27 20 27 18 26 32 21 29 22 24 34 32 23 34 23 18 28 33 26 36 23 35
31 21 18 31 33 19 25 26 19 23 24 18 23 30 21 35 18 37 38 23 36 21 38 33 22 33 22 22 21 20 30 36 27 27 33 28 20 36 29 24 26 20 22 30 23 29 34 36 29 21 34 18 31 26 33 26 18 36 31 25 38 19 28 28
35 36 18 37 27 35 23 26 30 18 35 29 32 35 21 26 25 26 29 33 19 29 38 24 36 31 34 38 20 32 29 24 34 32 29 24 26 24 22 26 20 33 37 32 36 30 29 28 19 36 33 24 22 32 26 27 34 37 34 22 24 21 22 23
22 38 18 32 18 32 35 28 26 38 18 24 22 37 31 34 22 32 20 35 29 31 25 31 25 33 25 27 36 29 36 31 24 21 31 34 22 33 20 21 24 21 28 38 37 19 21 26 26 31 24 26 35 25 27 37 18 35 18 32 27 35 32 35
24 33 20 38 22 30 25 28 38 34 31 18 32 34 33 20 24 37 18 30 34 29 22 38 18 36 32 33 25 36 31 30 31 24 21 31 36 35 18 24 20 28 33 34 22 35 22 24 23 19 36 23 26 20 34 29 34 27 30 28 19 33 37 37
36 27 30 37 29 27 36 37 35 19 36 25 38 36 21 38 37 37 26 32 36 18 22 36 19 19 32 24 32 19 35 30 31 18 31 27 37 36 23 35 32 35 36 32 25 36 23 21 32 19 20 28 33 27 22 27 18 18 31 22 21 35 29 31
19 24 18 29 35 18 26 34 27 26 33 32 28 33 26 18 19 38 19 30 24 22 34 24 38 29 32 22 18 32 25 35 18 31 24 36 38 21 30 36 29 35 21 21 20 28 30 33 19 18 21 32 35 23 19 37 19 25 28 36 29 20 31 33
23 29 24 34 31 27 24 38 26 24 30 27 34 27 22 20 22 28 35 20 36 23 19 38 37 33 35 33 20 36 30 27 37 20 20 37 33 31 30 21 19 25 27 33 29 28 20 26 33 23 33 22 24 36 18 20 34 27 21 37 24 20 24 18
