P2
64 64
255
20 18 17 19 15 18 20 26 22 20 22 17 19 18 17 15 22 20 26 21 24 24 15 21 25 24 17 16 16 14 22 20 17 23 18 16 26 26 16 24 22 25 18 17 19 19 26 20 26 23 24 14 23 22 22 26 21 23 15 25 22 20 26 14
14 18 26 23 26 15 24 23 20 15 16 18 25 25 16 16 26 24 20 24 26 20 26 26 18 19 18 16 15 19 22 18 14 15 15 14 19 18 25 22 14 17 17 16 22 22 25 18 20 15 15 17 17 14 26 21 26 17 25 22 21 16 14 19
16 16 25 26 16 25 19 25 26 18 15 20 26 16 25 17 24 20 23 15 15 22 18 19 23 18 24 17 21 18 25 20 20 23 16 16 24 17 19 14 23 17 16 26 19 25 26 22 25 18 19 26 22 23 25 20 18 16 19 17 24 23 25 19
18 18 14 16 21 18 25 23 21 21 20 18 26 23 14 18 14 26 22 18 25 18 15 15 17 22 20 17 20 26 17 20 26 18 24 24 22 24 20 18 15 20 18 26 22 14 25 20 19 17 14 19 26 19 25 20 24 24 15 26 16 17 14 25
21 22 15 18 26 18 14 22 19 21 19 14 25 15 20 17 14 21 17 21 24 14 20 22 22 19 14 26 19 19 23 16 15 22 18 16 17 15 26 15 16 16 25 19 18 16 19 22 24 14 14 22 15 17 17 17 21 22 20 16 16 15 19 15
25 24 19 22 20 17 19 16 20 14 25 21 25 25 22 18 25 16 26 14 14 19 23 23 14 17 16 25 20 18 23 19 18 23 23 21 19 25 17 15 24 17 15 21 14 20 22 17 26 19 20 23 14 17 14 17 20 16 14 25 25 15 19 24
26 24 24 22 24 23 18 22 19 18 26 22 26 25 16 22 15 23 17 23 20 17 14 23 17 24 17 24 21 26 23 20 18 15 24 26 26 22 19 23 19 15 18 26 20 17 15 14 19 21 19 18 18 17 22 18 22 25 19 21 19 19 24 24
26 26 24 25 22 14 14 24 16 24 14 22 26 18 24 26 23 25 19 26 26 18 24 24 26 14 24 23 20 18 21 25 19 17 19 25 19 25 23 20 18 25 15 24 19 25 24 14 23 21 18 14 25 18 24 18 20 24 26 22 24 21 16 17
18 21 25 23 21 20 19 24 26 25 14 25 14 17 21 25 21 22 19 17 21 20 17 25 26 23 25 17 16 15 23 19 21 18 24 24 20 19 22 21 14 19 14 24 19 14 15 17 24 24 26 22 19 15 18 26 24 24 14 14 22 25 21 24
24 21 14 22 21 16 19 17 14 23 14 18 19 21 20 19 23 17 25 17 19 19 17 23 22 18 14 22 18 15 14 22 19 22 14 18 23 24 19 24 23 23 19 26 15 24 14 21 20 21 15 25 15 16 22 18 19 16 26 16 20 23 14 17
25 18 14 26 15 19 23 18 18 15 14 25 20 24 26 23 19 26 14 23 25 26 20 19 26 16 24 21 24 20 23 17 25 25 26 22 24 23 14 15 18 16 24 22 16 15 26 22 14 18 19 15 14 21 22 15 16 25 20 26 18 26 15 25
21 19 14 19 25 21 22 16 15 20 24 20 14 26 18 19 19 19 23 21 24 24 19 16 15 22 22 21 25 20 25 24 25 17 16 22 23 26 26 16 19 17 23 21 22 22 16 25 18 16 21 23 17 23 14 20 23 20 22 26 18 19 17 20
20 14 24 26 26 26 21 18 26 15 21 15 24 17 24 22 26 14 18 25 26 18 20 26 25 25 23 17 18 22 20 18 15 25 20 23 14 20 20 24 26 21 21 18 15 14 18 20 14 25 21 24 15 26 16 24 24 22 17 15 26 26 25 20
19 16 21 16 21 14 23 22 24 20 15 15 15 17 19 21 25 24 17 17 16 20 19 22 21 17 23 16 16 15 22 22 15 14 22 23 18 18 22 23 21 19 24 26 23 16 25 18 25 20 18 14 22 19 14 19 24 22 24 15 25 15 26 16
19 22 19 16 24 26 15 21 19 20 20 17 18 14 22 26 17 25 26 22 14 16 19 17 15 16 24 19 16 15 18 21 23 24 17 26 21 22 18 16 15 14 20 25 24 23 22 26 14 20 16 22 23 16 26 22 20 26 21 14 22 24 25 15
19 23 23 23 14 21 19 20 15 18 20 14 22 17 20 22 23 16 24 22 16 23 23 26 18 26 26 14 23 22 23 16 15 25 14 16 19 23 19 15 19 18 21 20 24 14 22 17 17 21 16 26 15 19 25 24 19 20 14 22 24 16 22 24
21 21 18 14 18 25 26 20 18 14 25 22 15 15 25 15 17 21 26 21 22 20 15 21 14 23 24 23 16 14 25 20 19 14 22 22 17 20 25 20 20 15 26 21 24 26 25 24 17 19 24 22 23 18 26 19 23 16 18 22 18 15 15 17
21 23 23 17 20 18 17 23 21 21 24 22 18 18 24 17 20 17 24 24 14 26 17 16 20 17 20 22 25 26 24 20 16 26 20 23 19 15 19 26 16 17 17 15 25 20 25 18 18 20 23 26 16 16 20 18 14 24 23 26 14 16 22 16
24 22 18 20 15 19 15 25 25 23 16 25 24 25 25 26 22 18 25 24 19 15 17 19 14 20 14 23 21 15 14 18 26 23 25 18 19 22 26 17 17 24 23 24 14 24 17 26 20 22 21 25 24 22 20 25 18 23 19 18 25 26 26 16
15 20 17 20 16 16 16 24 16 22 15 17 19 18 17 25 21 22 21 22 28 21 20 28 17 20 21 15 21 22 24 19 20 16 25 18 17 26 24 27 21 22 26 21 18 22 25 18 17 17 19 19 18 22 24 22 16 26 19 22 23 20 23 25
21 15 26 25 14 21 14 20 19 15 14 14 20 21 22 21 28 23 29 21 24 23 23 33 25 27 22 23 23 25 26 26 14 16 19 18 18 25 20 27 25 32 33 33 31 26 27 20 19 24 24 24 24 15 24 16 18 17 25 14 22 23 24 21
16 14 18 18 25 18 26 17 24 24 16 21 17 27 29 21 26 27 28 25 28 35 27 32 31 31 22 27 21 17 20 14 16 16 18 20 25 19 26 29 33 26 31 32 28 27 29 28 30 26 24 29 24 18 17 21 17 21 23 25 24 20 24 24
21 26 24 21 17 24 24 14 24 21 24 15 29 24 25 25 27 32 39 41 36 33 40 40 31 30 29 29 22 21 16 15 22 20 22 22 26 31 28 35 35 38 33 38 36 37 36 35 35 34 23 29 18 17 26 20 21 17 15 26 21 20 15 20
24 25 14 15 21 24 17 23 25 21 19 23 23 33 29 37 35 35 42 45 36 39 40 36 43 34 27 29 34 30 29 18 21 15 21 25 30 25 27 34 41 40 41 44 33 34 39 34 36 39 29 32 20 26 21 18 15 20 18 26 14 26 23 17
25 18 25 23 22 18 26 18 19 26 27 25 28 33 32 43 43 35 39 48 39 39 43 42 36 35 43 35 28 24 27 19 17 17 30 27 29 30 40 38 37 48 43 37 47 39 39 39 33 40 34 37 35 31 17 25 25 16 15 21 25 25 17 19
18 22 24 21 16 26 15 22 16 18 31 33 30 35 36 41 40 40 41 47 44 51 47 41 42 47 38 38 31 37 34 21 21 23 29 32 34 33 39 42 45 49 42 46 50 43 45 39 45 37 36 28 28 33 23 27 21 17 18 20 18 20 23 24
25 25 18 18 23 20 17 19 19 24 23 36 36 41 38 46 44 42 52 51 53 46 55 52 50 41 37 35 32 29 34 25 28 24 35 31 32 45 39 49 52 48 47 53 54 49 47 46 45 38 37 39 32 35 28 28 22 25 15 17 24 23 23 14
21 26 19 21 18 22 26 21 19 31 24 31 42 33 38 51 47 45 50 58 49 54 49 50 50 47 40 48 34 39 31 36 29 30 26 40 39 46 43 50 51 50 56 52 59 52 51 52 42 49 39 33 40 28 35 21 26 24 18 18 19 23 16 17
16 24 16 18 23 25 15 14 29 28 35 38 39 43 40 48 51 57 54 61 57 53 60 51 50 49 44 39 47 42 29 36 39 34 33 33 40 41 54 46 49 57 64 62 53 54 57 52 51 45 49 45 37 34 35 32 17 15 17 21 23 14 17 14
22 15 21 21 21 14 16 19 29 24 31 35 35 46 49 47 51 58 55 64 60 65 55 60 54 56 56 44 45 35 40 32 32 36 32 37 42 50 48 56 57 58 55 68 67 58 62 55 51 53 47 37 35 42 34 25 24 18 16 25 19 14 20 14
21 16 17 17 22 23 24 20 24 35 35 42 37 38 43 50 50 64 68 69 61 68 65 60 57 57 52 45 44 39 37 40 42 40 33 45 50 42 50 61 63 56 66 66 62 64 67 65 52 55 49 41 45 39 28 31 21 26 23 20 23 23 19 16
14 14 15 15 23 19 17 19 32 30 28 39 47 39 52 49 62 59 68 64 64 72 72 65 60 56 48 50 39 43 34 32 35 36 35 40 45 46 48 56 54 66 66 67 76 62 66 65 53 49 48 45 46 37 39 30 22 17 26 21 24 15 25 17
17 16 26 26 20 22 21 18 27 29 31 38 47 47 44 55 61 67 62 65 69 76 75 62 64 59 58 53 45 40 33 43 42 37 37 35 51 53 55 57 57 66 70 75 72 71 64 55 51 50 52 50 45 41 32 34 28 26 20 14 19 25 16 21
15 20 26 23 18 19 25 26 20 30 38 42 44 41 51 52 51 59 66 64 70 73 65 58 66 60 55 55 44 39 45 38 33 41 40 36 43 50 59 59 59 64 61 75 69 66 58 64 53 51 50 51 35 34 29 25 26 25 22 14 22 20 14 23
15 21 16 25 17 26 15 18 31 27 39 35 39 43 52 50 57 59 62 64 61 72 66 68 56 49 54 45 49 41 34 40 38 40 34 44 40 50 56 58 58 68 70 72 68 68 62 62 49 51 47 44 37 42 32 25 21 21 16 21 15 14 14 26
15 14 22 19 20 17 21 26 19 22 30 41 39 49 53 44 56 62 54 55 62 64 62 54 56 47 54 40 45 43 30 33 31 32 32 44 41 51 46 59 62 59 65 64 60 62 63 52 57 47 52 42 39 41 27 30 22 27 16 20 26 17 18 21
26 25 16 18 17 18 25 21 24 27 36 34 32 41 46 44 45 54 62 54 53 63 57 53 55 49 51 46 37 37 34 40 33 40 36 41 40 40 48 46 57 58 54 64 54 63 52 52 53 53 45 36 32 39 36 21 27 15 15 26 26 25 17 14
24 15 16 16 15 19 24 21 19 28 27 27 32 40 47 41 51 57 51 59 53 49 59 49 57 48 42 40 43 32 36 32 24 29 35 41 38 38 41 46 47 52 59 59 50 52 47 46 47 52 48 45 33 34 31 20 25 14 22 16 18 16 26 14
18 22 24 26 23 23 19 25 26 30 21 26 33 37 34 48 39 43 43 49 54 56 50 53 41 40 42 41 43 30 26 25 32 22 29 39 43 37 45 44 46 54 46 57 57 50 47 44 50 41 36 31 37 30 28 23 15 17 18 25 19 18 24 15
17 28 29 18 18 25 28 21 20 27 25 32 30 37 38 38 43 43 46 53 54 52 56 48 50 43 38 35 38 36 37 33 34 26 27 40 35 46 42 51 54 45 54 56 49 51 44 49 42 44 49 40 34 29 25 34 22 26 29 28 25 23 32 21
20 29 22 25 23 23 25 32 31 21 36 27 43 41 42 39 52 47 49 54 55 46 52 47 47 44 52 46 38 35 37 31 26 27 35 42 42 46 52 51 48 50 51 57 49 59 48 54 56 43 46 50 46 32 30 31 32 31 27 33 36 29 33 30
28 28 32 31 27 25 25 36 30 31 32 37 38 42 48 43 53 52 52 54 55 58 51 46 55 53 47 44 43 34 43 30 40 39 37 36 47 48 47 47 55 59 57 56 51 50 59 49 46 48 51 40 45 47 39 33 36 36 37 41 42 41 33 41
26 22 27 29 21 24 27 26 27 26 28 31 31 36 33 36 37 47 46 47 37 40 40 46 40 40 40 32 40 37 30 32 28 28 34 34 30 40 34 48 49 42 50 45 45 40 40 45 39 43 33 36 40 36 34 31 31 35 26 26 27 36 28 34
23 22 27 23 17 21 27 29 29 26 21 21 29 26 23 31 27 34 36 35 35 40 36 30 37 29 35 24 28 19 20 28 27 26 26 27 28 36 29 34 38 30 42 41 32 39 38 29 37 33 26 25 30 26 30 29 27 22 25 31 32 26 31 29
22 25 18 19 22 24 20 22 20 17 15 23 14 19 27 18 22 26 29 28 27 25 27 31 21 28 25 20 15 20 15 25 17 24 21 21 19 18 25 19 22 24 28 27 28 22 22 31 24 27 22 19 24 17 25 22 21 17 26 14 26 23 18 26
14 20 23 20 22 14 24 16 24 20 22 19 17 22 20 17 18 16 24 23 23 19 24 28 23 24 18 18 21 26 19 26 14 17 26 24 25 26 16 16 19 29 23 20 30 22 22 20 17 19 18 21 26 25 19 22 14 20 24 17 25 25 24 20
24 16 23 17 19 25 23 21 25 24 19 15 18 20 14 14 16 18 17 22 23 18 20 25 25 18 25 26 24 21 19 24 24 24 21 15 19 20 14 21 21 21 21 24 15 20 20 24 16 19 25 25 23 19 16 22 26 23 16 18 19 17 18 20
15 17 24 22 14 24 22 24 20 23 16 21 19 22 19 16 26 14 23 22 26 26 23 26 18 18 23 22 17 14 19 23 17 14 14 14 26 17 25 15 14 18 17 22 23 15 25 22 16 25 20 21 26 25 26 16 19 18 26 18 25 18 24 14
26 17 22 17 23 17 16 21 21 20 20 18 17 24 24 26 20 25 26 15 22 17 25 16 20 22 16 16 22 17 24 22 25 16 14 14 26 22 25 21 14 14 14 19 19 22 25 19 16 16 15 20 14 23 16 20 21 17 22 15 25 22 19 25
23 20 14 22 16 22 14 22 24 15 19 21 16 19 20 18 24 26 24 17 26 21 16 24 24 15 23 14 19 24 21 15 14 18 25 19 22 19 22 16 22 26 17 24 21 26 24 24 14 14 19 20 25 24 18 18 19 16 19 14 21 20 22 17
25 24 18 23 24 18 24 19 17 16 21 18 26 18 21 22 21 26 17 19 25 14 21 23 19 25 25 15 22 25 16 26 24 25 20 15 24 14 14 15 17 25 19 22 26 16 14 19 20 25 14 22 17 20 15 14 18 17 19 24 16 23 23 24
16 21 18 22 19 26 25 16 26 25 25 17 19 17 20 18 18 20 16 22 15 15 21 24 17 16 22 18 20 17 24 25 23 17 22 24 22 14 17 16 16 15 18 16 23 19 18 18 14 23 22 16 17 26 15 14 14 16 19 17 22 24 24 25
18 24 16 21 26 19 17 26 21 17 14 15 16 22 20 23 17 15 16 22 17 18 24 14 19 18 16 18 15 20 23 15 15 23 23 26 17 21 24 23 15 15 14 21 26 18 14 20 19 19 21 24 16 19 17 26 19 18 17 23 23 16 24 14
22 23 15 18 19 21 22 22 24 21 16 23 14 14 18 17 25 20 22 25 14 18 15 22 22 25 24 25 20 23 26 21 18 17 20 20 24 21 17 23 25 20 26 14 23 21 25 15 18 21 23 17 16 24 21 24 16 17 18 23 16 15 20 19
24 17 18 17 21 19 22 19 15 14 15 24 26 16 23 25 23 22 24 18 21 16 24 21 20 16 24 17 16 17 17 24 19 20 25 26 23 22 21 25 19 22 23 16 15 14 26 14 22 19 16 14 23 22 26 19 21 14 25 18 20 22 21 16
24 23 24 17 23 14 18 20 15 25 14 24 15 21 15 23 21 19 20 16 22 21 16 16 14 20 26 19 23 25 17 14 25 18 18 18 14 18 18 19 17 25 16 24 15 20 20 16 23 16 19 25 22 26 22 17 14 14 15 15 18 21 22 21
21 24 17 23 22 17 15 19 26 14 24 21 16 24 15 15 19 15 19 15 22 25 26 22 19 20 14 15 14 18 19 16 20 24 16 18 21 22 25 14 20 18 26 16 26 21 20 23 21 26 20 22 16 18 14 19 17 23 14 26 25 21 24 23
24 16 23 18 24 20 17 14 19 25 18 18 18 21 23 22 21 22 20 23 17 22 22 17 21 19 23 26 26 14 19 15 26 25 20 25 23 14 17 24 19 18 24 15 24 20 15 20 25 17 17 25 21 24 21 24 21 17 23 17 25 19 24 22
22 25 18 19 24 22 24 17 15 25 25 22 15 19 23 18 23 20 14 25 21 23 21 19 25 25 15 16 19 23 20 18 20 15 26 15 14 25 16 25 14 23 23 26 18 16 17 14 23 19 16 25 16 17 23 25 18 15 14 16 17 23 19 14
22 23 20 17 14 22 20 23 18 23 16 26 16 15 24 18 16 26 16 15 23 26 19 25 18 19 17 18 23 20 19 22 18 16 26 26 15 21 26 19 25 15 22 19 22 23 14 19 14 17 22 25 16 14 14 22 17 14 18 22 25 15 21 17
19 25 16 26 24 14 24 24 23 17 21 19 23 23 18 25 24 23 26 14 20 18 16 14 26 17 20 22 23 16 24 21 22 16 17 17 21 17 14 20 25 23 23 24 24 24 17 24 24 26 16 22 26 16 24 16 16 17 21 16 14 19 16 17
17 17 15 18 17 22 14 14 26 18 15 23 16 20 18 19 26 20 20 19 14 21 26 24 19 23 14 25 17 23 20 15 25 20 24 21 14 14 23 16 18 17 14 22 25 15 18 20 20 21 19 23 14 23 17 22 26 26 18 26 22 15 23 16
26 20 26 26 16 26 21 17 16 17 22 18 23 14 21 22 23 18 24 21 19 22 18 22 16 16 15 19 21 25 17 16 14 19 14 21 23 16 23 17 17 21 20 18 17 26 15 15 15 17 25 20 20 21 21 17 26 22 14 19 14 18 14 23
14 26 18 18 26 18 17 17 16 25 21 16 25 17 20 20 15 23 15 15 26 23 16 22 18 22 17 26 22 17 19 15 26 22 18 21 25 19 22 16 20 17 18 23 19 18 17 22 24 19 20 24 15 15 19 18 14 16 21 24 24 25 17 21
