P2
64 64
255
22 28 18 18 25 18 25 21 33 18 25 27 23 25 19 27 26 20 29 25 22 19 18 37 35 23 22 24 27 32 23 18 29 28 20 30 19 31 27 38 28 24 19 28 34 28 18 38 24 25 21 38 21 31 34 27 34 33 24 19 33 19 36 24
33 18 33 25 19 36 29 34 21 25 33 24 19 38 33 21 34 28 23 35 32 27 25 28 28 32 35 31 33 33 21 37 20 18 24 27 36 36 19 27 25 20 37 27 32 35 22 28 20 37 20 28 30 19 26 29 20 24 22 38 32 33 34 24
26 38 23 21 22 18 36 20 30 18 35 28 19 28 35 27 31 33 28 22 38 38 19 29 30 37 24 32 21 21 32 23 26 27 25 18 34 37 26 22 23 27 25 37 37 31 26 37 36 36 19 34 18 34 30 30 27 21 28 37 37 37 18 19
31 19 31 24 34 26 32 32 34 27 36 31 28 38 18 25 19 24 26 35 34 37 21 27 34 37 22 20 37 18 26 21 36 27 19 24 18 38 23 33 29 20 38 23 32 18 30 36 20 34 27 25 30 36 21 23 22 26 26 35 23 37 19 23
29 28 38 24 33 35 38 31 28 37 37 23 25 24 36 37 21 31 38 23 26 34 21 31 25 36 30 36 32 24 38 21 21 36 27 20 19 29 18 27 21 27 20 24 20 38 26 28 25 21 32 26 24 30 34 34 35 28 19 38 38 36 34 27
22 23 30 26 35 33 38 26 21 22 24 35 27 34 32 28 19 31 37 36 31 34 30 36 24 32 20 34 28 35 37 31 33 28 31 34 21 36 29 30 38 34 32 28 18 38 24 36 33 19 24 34 26 38 23 25 26 38 36 19 21 24 34 18
32 26 32 22 33 36 35 36 26 18 20 28 21 36 19 29 27 26 28 21 29 23 33 30 37 29 20 30 21 23 21 36 32 30 30 18 28 22 21 32 30 33 32 37 20 35 33 30 21 35 29 25 36 25 38 37 23 37 23 33 34 27 30 22
30 34 30 19 20 24 20 33 35 24 26 22 38 27 36 36 24 19 25 23 19 24 26 35 23 25 28 27 20 37 19 30 31 28 35 25 23 28 36 26 22 18 21 34 38 23 21 31 34 19 35 33 22 21 18 35 35 32 35 21 23 35 25 25
24 20 23 24 27 18 37 28 30 19 37 31 19 19 30 29 30 36 27 35 33 38 27 20 26 33 38 33 33 18 26 34 22 25 25 27 25 38 34 24 28 21 18 24 35 34 34 27 23 31 28 37 31 25 30 33 30 32 28 20 31 18 35 30
18 29 31 25 32 36 38 29 19 23 27 20 22 37 32 38 29 31 18 22 36 21 37 24 26 33 22 22 33 27 26 22 33 38 37 24 22 27 24 38 20 26 28 21 25 33 34 24 33 18 23 29 29 25 29 37 21 20 33 34 19 23 35 21
20 28 27 30 24 34 29 32 34 35 31 35 24 31 23 27 33 31 28 22 26 23 18 37 36 30 22 36 20 31 30 30 26 27 36 38 31 18 19 27 19 18 27 35 37 33 22 35 27 19 18 20 35 32 30 23 37 36 30 22 25 36 31 24
33 30 20 27 22 32 33 25 38 27 36 19 35 25 26 18 37 22 24 23 27 25 34 37 20 22 30 24 34 18 38 32 35 28 29 19 34 35 33 27 35 30 18 38 37 20 23 33 29 30 19 23 29 32 33 20 24 31 36 31 25 32 38 19
22 37 26 22 20 28 22 38 22 34 36 33 18 23 27 28 38 28 26 36 36 38 23 37 34 26 27 29 30 38 22 30 31 37 18 25 27 23 25 27 19 18 35 27 35 36 20 25 19 36 21 31 21 36 19 30 30 18 33 20 21 18 26 22
24 37 19 31 31 28 30 28 24 21 34 30 25 38 23 34 19 26 30 32 20 30 20 32 19 28 32 25 29 29 38 33 31 34 19 36 21 26 28 29 34 32 22 19 22 19 24 19 21 32 23 38 35 38 22 28 22 33 21 38 27 30 24 27
35 19 29 25 24 35 25 31 32 32 19 34 26 36 29 32 33 36 23 24 30 31 33 25 29 27 21 20 31 27 36 30 31 26 19 36 29 36 22 37 27 26 36 25 29 22 22 37 26 32 25 26 20 30 32 36 20 37 34 31 20 24 18 31
29 25 32 25 23 23 34 33 32 22 21 33 18 33 34 28 38 19 18 27 20 29 27 24 34 32 34 22 30 23 18 19 24 32 33 24 37 21 30 27 29 25 32 38 24 35 25 34 29 18 21 27 35 24 38 26 28 28 22 30 28 24 37 31
19 25 20 18 18 36 20 32 30 31 27 37 26 27 33 29 27 30 32 21 26 30 29 21 26 29 21 19 26 37 37 24 27 36 32 21 32 35 33 20 31 37 32 18 37 36 38 18 27 21 21 19 35 21 35 23 36 38 31 36 28 18 32 22
31 18 36 31 38 20 31 29 29 30 20 22 26 32 31 20 27 37 22 32 32 38 33 21 30 18 22 36 24 20 29 22 38 32 21 34 20 28 35 28 19 37 27 25 27 32 18 32 37 31 33 33 36 38 29 34 27 32 24 27 37 19 37 36
23 27 32 21 38 18 26 26 28 29 28 20 33 35 29 27 22 31 23 27 22 21 21 23 24 20 34 22 38 19 30 25 22 19 18 25 22 19 36 22 31 22 31 31 38 34 24 36 36 29 20 36 18 35 24 26 29 33 20 22 36 32 27 30
30 26 32 36 23 26 20 25 18 21 20 31 18 35 19 24 35 31 24 22 39 33 32 32 28 29 20 37 18 25 32 30 26 30 31 20 29 33 37 36 39 23 24 40 35 34 34 30 31 32 22 31 35 22 29 38 34 35 19 32 32 28 32 24
29 22 31 18 18 33 19 36 22 36 26 19 24 36 35 24 38 25 27 30 26 43 35 28 25 27 23 21 29 38 19 23 18 34 26 26 25 37 37 27 27 34 42 44 42 38 41 27 27 26 37 31 30 24 27 28 33 30 35 36 27 23 26 20
23 37 31 25 24 21 29 22 23 20 23 27 37 26 42 36 36 42 36 48 30 42 29 34 34 31 33 29 40 104 21 32 33 20 26 18 36 33 27 41 34 39 33 34 31 43 28 46 44 37 36 26 25 26 18 30 26 36 21 28 35 37 22 31
24 23 23 22 27 29 34 25 19 20 28 21 27 29 33 42 42 31 35 53 33 36 40 44 35 41 41 41 28 117 39 27 27 31 35 37 44 34 34 39 38 42 38 39 51 50 44 31 44 32 42 44 33 34 37 23 24 23 28 24 22 22 26 18
34 25 29 28 19 36 24 19 34 34 30 28 29 33 35 38 42 46 40 55 41 54 49 49 55 45 37 43 34 125 35 25 113 36 41 39 44 42 43 39 55 38 54 50 46 38 38 45 53 34 31 31 35 36 35 38 36 32 18 37 30 24 35 29
30 31 18 38 31 31 26 31 28 25 29 44 44 50 48 48 39 41 53 61 48 60 51 59 57 50 51 32 47 124 34 21 108 32 37 37 46 51 39 55 47 41 41 45 44 42 52 48 40 41 35 50 42 29 27 22 30 18 25 33 19 21 38 33
30 23 23 38 19 20 23 30 31 34 43 27 35 35 42 47 58 46 54 50 56 65 48 43 60 44 55 44 34 45 117 110 112 26 43 44 51 38 43 44 50 62 50 53 65 65 45 54 52 53 48 46 30 36 27 25 19 28 28 18 37 31 25 34
29 21 31 28 35 24 37 28 22 30 35 47 34 50 55 43 54 59 51 50 55 67 56 55 58 54 57 58 37 131 32 115 35 124 48 42 41 48 58 59 62 55 56 51 57 57 50 52 51 61 54 40 51 36 29 26 18 27 32 33 31 35 18 25
27 23 31 31 32 21 25 38 38 41 31 31 41 54 47 56 58 67 61 61 65 54 71 57 56 50 63 51 56 135 42 204 133 35 50 47 48 44 56 57 68 69 68 57 61 53 53 64 53 46 49 52 48 37 35 26 21 32 26 30 25 32 35 31
21 21 22 24 18 30 37 23 24 40 33 35 36 41 44 63 56 71 70 74 59 66 69 57 56 56 47 56 52 141 36 215 120 38 35 39 57 49 58 62 65 66 61 69 65 70 73 58 55 60 52 50 55 41 49 25 37 37 35 35 31 29 30 20
25 19 25 34 35 32 29 34 31 30 36 51 37 47 59 63 69 55 57 70 64 73 60 71 74 70 65 57 50 48 124 135 223 122 51 46 57 60 50 67 63 73 73 75 81 73 65 69 56 62 51 42 37 35 33 29 31 21 18 34 22 20 38 25
33 30 32 34 38 32 27 27 33 33 35 53 43 50 62 60 53 66 78 83 74 84 64 79 61 60 63 56 50 48 45 222 127 221 53 44 61 62 59 67 73 61 77 68 81 77 71 72 57 58 51 45 38 50 44 42 37 36 34 28 20 22 37 29
33 23 20 28 20 20 30 25 24 33 41 40 46 45 54 51 72 66 73 71 68 68 67 72 76 66 55 47 61 40 42 51 213 125 209 45 52 66 64 62 69 76 65 74 68 81 77 58 60 70 49 52 56 42 46 47 32 35 37 35 23 21 23 34
21 20 36 22 21 33 21 33 24 44 36 46 43 52 51 57 55 71 64 70 74 71 80 63 79 69 66 61 61 55 50 132 56 253 52 140 43 49 52 66 63 80 68 75 71 71 75 63 74 65 57 59 58 48 43 38 32 32 18 30 26 26 32 29
27 22 24 33 28 25 19 36 33 30 33 50 40 46 50 57 70 60 73 67 76 84 84 62 62 74 65 56 44 47 135 51 220 132 125 51 49 62 64 54 58 82 65 80 68 81 70 78 69 52 54 49 51 36 44 46 28 23 30 37 29 26 30 23
26 42 24 27 32 39 41 26 35 44 49 41 59 61 57 73 74 75 79 87 82 87 71 76 64 74 62 71 58 55 63 222 60 223 45 146 64 68 76 79 65 70 91 79 85 78 87 77 73 63 59 56 47 56 53 44 52 46 42 36 39 42 33 36
44 32 36 38 40 39 49 47 35 44 62 51 52 69 67 72 66 80 84 92 88 95 77 72 68 79 75 59 64 57 221 65 65 148 237 68 61 66 65 83 88 87 89 86 98 84 85 88 72 75 82 64 61 64 68 52 43 41 42 46 58 57 47 40
51 46 35 39 36 41 45 51 47 62 48 65 59 61 73 82 80 80 79 82 83 90 92 90 80 78 74 80 74 74 153 153 70 155 159 149 75 86 83 94 82 100 95 92 89 101 92 84 82 90 84 70 67 74 77 58 69 65 67 56 69 55 54 61
43 43 53 47 52 52 42 51 58 60 70 61 70 65 85 77 79 87 89 95 96 81 100 98 81 76 89 90 84 170 80 150 145 79 64 161 169 80 91 82 86 100 97 98 102 102 107 98 104 102 88 95 81 85 73 83 80 63 60 60 66 67 66 70
53 53 37 56 49 44 55 55 44 57 60 55 52 67 76 69 82 79 87 73 90 91 89 71 73 80 66 81 69 156 147 60 151 63 150 73 66 165 75 89 90 89 86 78 93 84 91 87 89 79 69 71 82 78 58 57 64 67 52 51 72 66 67 57
41 32 31 30 30 34 47 33 32 36 47 42 44 62 69 70 54 69 61 73 74 71 68 73 72 64 59 71 58 136 59 211 59 145 49 64 69 144 77 77 75 69 71 81 79 67 63 74 62 64 57 67 71 50 49 62 48 57 57 57 47 55 49 50
30 29 27 40 39 29 44 25 30 27 28 37 37 40 59 49 64 64 52 59 57 53 54 67 54 46 59 43 135 47 129 37 211 39 34 43 131 45 53 59 67 50 56 69 66 71 63 63 64 61 52 60 43 35 42 32 40 30 38 33 39 40 39 42
27 22 25 31 19 28 24 22 22 28 21 40 36 45 42 42 36 46 56 50 47 46 45 38 47 41 46 42 32 198 41 34 202 36 26 34 40 133 36 45 47 48 42 58 49 56 48 39 51 41 39 43 27 26 34 28 39 32 37 29 25 35 37 20
30 28 36 34 28 20 20 19 20 34 31 26 36 44 33 30 46 51 48 37 49 39 47 40 43 42 43 29 125 22 112 21 122 109 27 25 32 34 122 32 33 34 50 51 49 41 41 48 49 37 32 36 40 27 34 33 18 32 22 20 36 26 27 32
21 38 23 38 31 25 29 36 36 26 34 19 37 40 32 24 43 37 41 37 34 43 35 42 30 31 28 114 33 23 122 38 190 25 22 27 23 30 38 117 44 37 43 36 38 47 28 38 35 25 28 23 35 30 30 28 33 34 27 20 31 18 25 33
18 37 20 22 23 24 21 28 35 35 18 33 28 34 35 41 35 34 41 44 38 31 40 41 40 22 113 36 26 35 122 114 37 119 18 22 23 35 29 37 116 40 30 34 34 45 28 32 30 33 33 36 30 30 33 22 26 23 28 35 34 37 20 38
32 25 35 20 35 32 26 38 29 33 23 33 32 18 37 27 27 24 38 31 38 37 31 41 33 27 26 118 18 30 112 110 29 120 29 25 37 36 31 39 33 124 40 25 40 33 34 31 35 30 34 37 33 34 37 34 18 23 36 20 35 27 26 35
28 28 32 27 35 38 21 18 28 33 36 34 31 37 18 23 37 31 31 23 34 27 25 33 23 32 19 111 30 31 105 110 110 19 21 25 19 24 28 28 37 113 38 32 34 30 36 21 34 23 30 26 21 35 20 18 21 23 27 19 37 33 19 36
28 38 29 36 30 36 34 29 28 34 28 36 26 22 18 33 24 24 33 18 25 21 20 36 19 38 28 27 106 19 18 110 111 109 28 29 38 31 35 25 30 118 36 18 25 21 31 37 25 28 35 37 29 19 34 32 31 22 37 28 22 32 25 34
31 18 22 28 22 19 26 37 32 28 29 28 35 23 31 20 33 21 29 37 30 33 27 35 35 19 37 28 23 105 38 205 112 18 19 36 35 26 37 35 32 24 123 20 35 33 27 24 27 31 22 24 29 38 33 37 18 23 22 22 20 29 31 24
38 33 23 36 26 38 31 36 20 24 18 37 21 22 20 32 30 28 25 25 25 18 28 32 30 32 30 23 104 24 33 109 189 23 29 24 22 23 23 30 24 110 21 22 37 34 27 27 38 21 30 25 31 31 20 25 30 27 22 24 18 34 35 18
28 31 23 31 26 33 22 29 23 34 34 27 33 37 33 38 18 18 33 37 31 20 20 18 26 31 31 110 22 35 18 120 113 108 23 26 18 32 37 24 32 115 18 25 38 24 35 30 35 27 30 37 19 30 31 36 34 23 19 38 23 25 34 37
32 21 29 38 35 34 18 37 18 18 24 33 29 26 20 34 29 24 29 28 33 32 31 30 27 29 38 112 29 18 123 103 107 28 22 32 20 24 23 20 32 119 31 34 25 38 20 20 38 37 18 26 30 27 29 21 26 22 26 35 19 31 24 25
18 27 22 25 18 25 37 29 38 24 21 22 35 31 29 37 27 37 35 37 27 35 36 34 29 31 26 37 113 108 38 188 24 37 28 22 37 28 29 36 117 34 30 24 28 34 31 31 24 32 31 22 20 20 21 30 18 20 24 35 31 23 18 37
27 29 29 19 26 18 31 35 35 35 32 28 21 28 26 30 35 21 36 24 28 37 37 20 34 31 33 106 23 112 37 31 103 28 33 24 25 31 37 105 25 26 22 21 22 34 34 34 23 31 22 18 32 30 21 19 18 35 24 18 20 27 23 23
35 20 35 35 27 33 32 27 37 35 25 20 19 21 28 29 22 29 21 18 21 37 33 25 24 34 20 122 119 34 35 34 112 25 35 24 24 21 26 38 120 22 27 34 34 38 21 31 18 34 34 30 31 32 32 23 27 30 32 20 22 34 21 33
27 34 19 38 21 19 18 18 26 38 36 30 21 38 27 34 31 27 21 23 26 33 29 27 20 31 107 30 36 36 29 36 116 28 32 23 23 35 25 123 23 23 18 18 25 33 38 23 20 36 30 24 32 29 30 26 25 19 28 38 21 22 31 29
20 19 26 29 31 24 35 33 21 19 36 28 24 33 38 35 24 35 34 25 28 24 30 27 20 27 122 25 33 35 25 21 29 113 29 25 19 27 103 29 34 36 21 28 20 37 35 24 25 22 30 18 33 32 22 25 19 31 31 28 31 35 38 28
18 22 37 31 25 19 30 22 29 28 29 20 27 28 19 22 37 36 18 25 25 26 25 30 20 32 25 34 32 31 36 20 31 103 35 34 37 19 121 24 23 24 25 33 30 35 34 35 36 18 30 29 23 36 28 27 21 25 38 18 30 35 36 18
26 29 21 28 26 33 28 27 20 30 22 30 26 36 38 30 31 34 32 31 36 24 35 33 22 23 26 29 36 38 28 28 113 35 22 29 23 111 35 34 38 34 25 37 36 35 29 37 35 24 33 36 22 37 29 19 33 37 28 34 34 21 37 28
23 21 28 26 27 34 18 33 20 29 33 25 35 37 28 30 26 37 32 29 32 27 21 28 37 30 30 18 27 24 23 27 23 18 20 33 119 32 35 20 20 37 29 34 18 21 27 22 36 22 29 22 38 35 18 28 34 32 26 36 32 19 28 35
33 27 31 21 27 24 31 33 23 25 25 37 19 30 30 21 37 38 24 32 24 36 18 35 35 27 30 34 27 23 30 28 18 23 20 24 35 110 30 31 28 25 25 29 35 38 31 25 30 32 29 29 23 20 18 23 19 20 32 23 27 19 20 24
20 18 18 29 27 19 23 27 29 36 24 23 18 23 30 18 18 33 19 26 25 37 25 21 31 35 30 28 25 26 31 28 23 19 30 21 19 28 19 29 32 24 20 22 27 31 30 31 22 23 22 21 19 36 19 21 31 33 37 25 19 23 21 31
22 20 37 34 22 38 38 36 38 32 23 36 35 31 28 19 22 18 22 21 21 24 36 30 18 34 36 35 36 26 23 30 33 25 26 28 22 33 37 38 26 26 38 33 23 20 38 38 23 38 26 18 18 20 35 21 28 32 34 31 29 30 35 30
38 28 21 36 19 25 34 26 28 28 25 28 36 23 37 37 22 34 22 32 38 23 32 28 33 27 22 34 32 34 24 22 24 23 36 21 33 22 28 23 23 24 32 29 38 36 23 35 28 36 19 24 26 31 27 30 27 19 21 30 36 35 25 20
