P2
64 64
255
19 23 22 14 26 23 23 23 16 18 24 18 26 24 24 20 21 15 19 25 24 22 15 21 19 15 17 20 14 16 16 26 15 20 22 19 20 14 14 21 23 19 25 16 14 16 24 15 20 23 17 23 26 19 19 21 15 18 16 23 21 23 16 19
26 19 26 18 16 22 14 20 20 16 25 22 26 24 23 23 24 26 16 17 22 18 22 17 26 26 25 19 20 18 17 22 23 26 26 16 17 21 18 22 21 16 14 21 18 23 26 20 26 25 20 23 14 15 25 22 19 17 17 20 18 17 15 25
24 16 14 26 19 18 16 15 17 14 20 16 21 16 14 17 17 26 17 18 20 26 15 19 15 26 17 16 20 20 14 18 22 25 17 18 25 23 25 19 25 24 24 23 17 23 19 24 21 25 25 24 23 21 16 22 22 21 26 14 16 23 24 23
23 14 22 24 21 15 14 24 25 25 14 24 15 17 24 19 25 14 17 18 15 19 20 19 21 18 14 14 23 19 16 19 14 22 17 22 17 25 19 20 19 18 16 14 20 16 24 17 16 21 18 15 20 15 21 14 22 18 19 23 26 24 20 19
25 23 25 20 21 15 21 25 25 14 14 19 22 22 15 26 20 20 22 17 17 23 21 25 26 14 26 15 21 17 17 14 14 25 25 23 20 25 16 18 17 18 26 19 16 15 21 20 21 16 20 14 24 19 17 14 17 24 26 22 20 26 22 26
24 14 19 22 21 17 15 26 25 22 19 17 16 16 21 22 21 15 20 25 23 25 17 25 21 22 19 25 25 23 23 24 22 20 20 17 15 24 26 25 18 18 17 21 17 21 16 15 14 18 20 18 25 25 25 18 24 15 19 17 18 17 14 26
23 26 22 21 25 25 18 23 18 14 22 14 16 18 17 24 19 15 26 24 25 21 23 22 16 14 19 22 18 14 24 15 21 18 26 21 22 22 18 20 15 26 17 19 25 25 15 22 23 16 17 18 14 16 21 22 17 24 18 17 16 20 14 14
25 20 16 24 26 22 15 23 14 17 23 26 24 23 19 17 15 14 14 18 20 24 24 22 21 20 14 23 15 26 23 22 18 24 20 20 19 14 15 23 24 25 15 20 26 18 14 18 15 14 21 14 18 26 16 18 21 23 21 15 18 24 19 26
18 16 26 22 24 14 16 16 25 15 22 18 15 20 18 23 15 18 22 22 20 17 19 25 26 26 18 22 17 21 16 23 14 17 15 25 25 22 26 18 22 22 22 24 16 20 16 17 19 25 18 26 18 18 26 21 21 21 14 15 21 24 26 23
19 26 20 23 22 24 17 24 22 24 21 25 14 14 24 15 26 22 20 14 19 22 17 16 22 26 23 24 19 20 19 20 25 16 23 22 23 24 24 24 25 25 15 23 23 14 16 15 20 20 20 17 18 23 20 21 21 18 23 19 22 24 18 21
19 16 19 18 19 24 26 14 24 22 16 14 26 16 19 15 14 22 23 16 15 17 20 17 25 14 15 15 26 24 14 14 25 23 22 25 23 15 16 18 15 18 20 21 16 22 25 15 23 17 22 19 16 25 23 18 24 15 21 15 24 18 21 18
22 15 23 26 17 17 18 17 24 17 15 16 18 26 17 15 15 25 17 23 17 16 17 17 21 16 17 23 17 24 22 16 21 15 26 22 20 15 17 15 17 26 18 14 25 17 19 26 17 26 26 19 26 17 20 20 22 17 16 26 20 21 14 23
16 14 19 17 14 19 17 14 18 18 19 18 20 23 18 22 22 16 21 14 15 24 20 17 22 19 26 26 24 19 19 14 18 20 19 25 24 14 19 20 16 17 14 22 21 26 26 19 22 14 17 25 25 26 18 15 17 25 21 19 26 20 18 20
16 26 25 15 16 19 23 23 18 21 21 15 25 15 24 14 14 26 25 21 25 24 15 17 18 24 18 26 20 18 19 23 24 22 17 25 16 19 17 18 26 15 15 23 23 16 17 16 20 19 25 14 20 21 19 19 24 23 20 25 20 18 20 20
22 18 16 19 19 15 17 22 14 26 20 21 22 20 21 14 16 17 25 19 15 15 20 24 21 26 22 19 18 19 21 21 26 23 25 26 14 24 18 20 17 16 19 24 17 26 23 25 25 20 26 21 15 20 20 25 26 25 23 17 18 21 18 23
19 25 26 17 22 21 26 23 26 25 22 24 26 21 25 17 22 23 15 16 17 23 22 14 16 16 24 18 15 15 24 18 14 14 26 21 18 26 23 15 23 17 20 14 18 18 21 25 17 19 15 20 14 24 26 26 24 24 21 18 15 25 15 25
17 20 16 17 24 23 26 19 19 19 17 22 16 18 21 19 24 21 19 16 25 16 18 18 14 21 26 25 19 19 22 16 23 17 17 21 25 25 26 16 23 19 16 18 20 15 21 19 23 14 26 18 21 14 20 22 18 24 17 18 21 18 24 24
19 24 21 26 21 20 26 17 23 14 21 20 20 15 25 25 19 22 18 21 18 18 26 19 16 18 17 20 19 17 19 18 19 24 26 21 23 18 21 26 24 14 19 23 14 19 24 26 14 25 18 14 14 18 16 15 14 15 25 20 23 26 14 14
17 16 17 14 15 26 17 14 15 25 24 26 16 24 15 17 21 14 25 23 14 14 22 19 24 15 23 24 24 22 24 20 21 24 25 21 23 18 17 25 26 23 26 20 23 26 19 18 22 25 18 18 20 20 26 25 16 17 21 16 23 23 20 18
20 20 17 23 23 25 22 26 18 20 22 22 25 23 16 16 26 28 21 25 22 29 25 27 23 20 25 14 19 14 21 19 20 17 19 25 18 20 24 24 16 26 19 18 18 28 28 28 19 16 23 23 22 17 26 17 23 26 23 15 18 24 18 21
25 24 26 24 20 20 17 15 26 17 17 24 17 23 22 27 21 32 25 22 23 31 32 26 24 28 27 26 14 18 23 17 21 18 15 15 21 24 26 24 30 31 21 24 29 31 33 26 28 25 22 20 18 21 26 15 14 20 21 17 20 22 14 20
21 15 21 20 26 26 14 23 23 17 22 20 20 29 30 21 30 30 35 33 29 35 25 27 25 22 31 29 21 16 19 26 21 26 14 21 25 27 21 32 34 31 30 33 37 26 33 28 30 30 26 25 21 23 15 14 14 15 21 24 18 15 17 16
21 21 16 26 25 21 25 18 16 26 16 16 27 29 32 35 37 27 29 40 41 35 38 29 37 34 33 27 31 26 17 24 18 25 15 23 27 22 27 32 39 32 34 34 33 36 32 39 36 26 26 27 25 19 15 15 23 21 23 14 21 14 21 17
21 23 26 21 17 22 24 23 14 17 20 19 28 33 32 35 31 36 40 40 43 44 35 36 34 38 38 36 32 22 29 25 24 17 20 29 33 29 30 38 43 33 44 40 33 43 33 36 40 33 31 33 26 24 21 18 21 21 26 23 25 16 14 26
15 16 21 14 15 18 23 23 17 16 23 28 28 29 28 41 45 35 45 37 45 40 44 44 41 40 31 28 29 25 23 22 17 27 23 27 36 37 33 39 35 45 45 44 49 44 39 38 36 32 30 37 25 24 17 24 25 21 26 20 23 26 24 22
18 17 17 22 17 18 14 15 24 24 27 34 31 30 35 37 46 41 45 46 45 42 42 46 50 40 36 32 31 37 27 22 21 24 25 27 40 37 36 39 48 47 49 45 46 52 45 48 41 38 39 40 28 22 20 25 19 25 20 14 23 14 21 20
23 24 16 17 25 16 25 19 17 20 24 36 28 38 40 47 50 53 54 47 53 48 44 54 43 39 47 39 33 34 31 26 33 33 33 29 39 46 46 45 51 50 52 54 46 54 55 47 48 39 37 42 33 26 26 26 26 26 24 21 19 25 23 17
15 24 14 23 20 19 16 24 20 21 31 32 36 35 47 48 54 55 51 51 57 52 50 49 56 53 44 37 41 39 26 36 28 27 27 31 33 43 46 45 53 57 55 52 59 50 52 53 49 50 43 35 36 30 32 23 18 18 17 26 15 16 16 14
20 25 19 23 25 15 22 15 27 33 33 37 39 47 47 48 52 48 58 58 65 59 55 51 56 53 49 43 36 38 34 31 30 39 33 34 44 44 42 49 49 53 61 61 53 52 61 60 47 52 43 41 42 33 31 25 20 15 25 26 19 25 20 22
23 24 14 25 20 26 23 22 24 27 36 35 34 38 52 55 53 59 65 65 69 64 66 57 58 56 50 47 44 41 39 40 34 33 38 39 42 45 56 59 56 62 64 58 57 60 65 61 56 50 44 45 41 40 30 33 21 17 21 23 17 23 18 21
26 21 20 26 20 15 14 20 20 33 31 36 39 48 46 52 60 59 61 71 67 69 64 66 60 58 53 53 46 37 33 34 34 39 41 36 41 47 49 55 59 56 67 60 72 61 66 62 61 49 54 47 38 42 27 33 29 17 18 19 22 26 26 24
20 24 20 26 25 17 22 27 29 33 31 35 42 46 47 51 51 63 65 72 67 73 62 61 59 58 52 54 43 45 36 33 32 43 36 37 44 47 49 62 63 69 73 71 67 65 61 64 55 55 46 44 42 40 33 33 27 23 18 22 25 26 25 21
20 25 21 18 26 16 18 23 23 27 30 34 41 41 55 50 58 56 71 75 77 75 69 71 66 55 50 48 39 40 41 42 43 41 43 42 49 48 48 59 63 62 74 73 75 65 70 61 52 48 46 47 43 32 33 30 20 26 22 18 21 14 16 16
22 17 16 17 18 18 18 16 29 35 37 37 47 42 44 51 54 62 64 62 74 68 66 63 62 61 57 46 50 36 44 42 35 41 34 42 50 43 50 54 63 65 68 64 75 65 68 63 54 51 50 43 37 36 34 29 30 17 24 21 18 17 23 25
26 16 17 20 20 25 15 15 24 25 27 31 35 47 52 53 49 58 67 71 65 65 66 60 63 59 54 53 50 43 39 44 39 33 32 43 43 44 50 50 59 57 63 72 69 66 57 56 54 49 49 42 45 36 31 29 23 22 26 22 22 21 18 17
16 23 14 17 22 18 17 20 19 27 38 36 42 38 46 44 56 54 53 67 63 59 63 57 57 56 48 44 41 38 41 32 33 34 34 40 46 51 45 50 60 58 67 57 59 59 57 53 52 55 42 47 33 35 29 30 28 27 17 20 15 22 23 15
20 17 25 23 23 21 24 14 29 33 33 38 35 42 39 51 49 53 62 64 64 58 55 62 54 51 49 51 44 34 37 33 35 32 30 36 44 42 54 50 56 59 57 53 54 64 51 55 54 44 46 46 36 35 33 25 19 17 19 25 22 24 20 20
16 18 22 21 15 21 15 15 16 20 34 27 40 44 45 42 46 53 48 51 58 55 53 47 46 46 45 47 44 32 33 31 26 30 37 42 45 41 39 43 55 48 53 56 51 58 50 47 45 48 48 45 35 30 28 30 27 24 16 14 23 16 19 16
24 15 22 17 24 18 18 20 22 26 29 29 34 42 46 42 40 48 46 48 47 57 51 47 50 43 48 34 41 35 28 29 34 22 31 39 35 42 40 42 41 51 54 45 45 45 46 53 43 39 37 35 37 29 33 20 14 21 21 21 25 21 24 24
29 22 25 24 25 23 26 24 28 30 27 31 31 42 36 42 47 44 47 48 50 57 47 47 52 46 44 46 41 30 36 28 29 33 37 41 37 43 49 43 46 55 57 47 57 58 49 53 48 47 45 46 38 29 34 24 22 28 21 26 22 21 22 30
31 27 32 30 29 28 27 32 28 26 25 35 36 35 48 43 45 46 44 46 54 55 52 51 51 47 49 37 41 43 29 36 28 37 41 40 46 46 51 49 54 53 60 52 56 52 56 47 52 48 44 43 38 33 34 36 33 38 29 33 34 32 33 30
34 26 33 33 34 35 36 31 27 28 34 32 40 45 49 45 52 52 45 53 46 55 56 50 47 46 42 46 47 38 38 39 39 36 33 35 42 45 48 52 57 55 49 51 50 49 50 49 50 52 46 48 45 45 42 44 40 36 39 39 43 33 41 37
21 31 23 22 32 23 21 23 30 21 24 23 25 28 34 42 40 43 38 39 38 49 49 45 39 43 43 42 37 37 30 25 26 35 34 27 31 33 36 41 43 39 51 48 45 51 42 43 39 42 40 37 37 38 32 30 31 32 36 32 36 31 26 31
29 17 18 22 26 19 25 17 29 24 18 22 24 23 32 24 38 30 35 38 31 38 30 30 32 30 25 28 27 23 19 20 23 29 19 19 30 36 35 34 32 33 36 32 33 39 34 40 27 25 30 34 30 26 24 30 25 27 21 24 28 32 26 28
16 15 19 19 21 20 25 22 14 14 15 18 14 18 25 17 19 25 29 21 27 25 27 28 32 23 27 20 20 23 26 22 17 18 17 18 25 18 17 18 28 28 21 31 25 27 31 32 23 25 15 19 24 21 16 25 24 25 26 19 18 20 18 17
17 24 26 14 23 18 20 23 17 16 20 22 19 14 22 19 22 18 25 22 25 19 26 24 26 24 21 21 24 23 23 17 20 15 18 16 25 23 25 24 19 25 29 19 23 22 19 18 27 16 24 23 23 26 19 19 14 14 24 25 22 22 18 18
14 22 22 21 21 21 22 25 25 21 23 15 17 14 25 23 23 18 24 15 26 16 24 20 20 24 14 19 21 15 20 23 23 23 21 25 23 23 21 21 15 25 26 19 22 20 18 19 18 21 22 20 14 22 15 16 15 19 16 21 24 15 16 18
16 14 16 26 26 25 18 19 20 17 17 26 22 25 19 14 22 14 15 16 16 18 17 25 26 24 24 19 21 19 16 18 23 23 26 20 22 26 26 24 17 16 14 23 25 21 24 18 23 20 19 16 26 14 16 19 21 23 20 25 25 19 20 18
17 25 21 25 14 22 20 21 25 26 23 19 24 25 17 18 17 18 26 16 16 18 17 23 24 22 14 17 24 23 16 15 14 23 23 25 20 15 24 24 16 23 18 19 16 16 22 17 20 18 18 24 21 19 24 26 22 20 26 26 26 24 20 20
26 23 19 17 17 22 17 15 22 23 14 15 14 22 20 20 14 17 16 20 19 15 22 17 20 21 18 15 25 24 20 25 21 20 26 16 17 19 15 26 18 26 22 24 19 14 16 14 17 18 21 14 24 20 24 26 23 19 21 17 23 16 15 18
23 20 26 26 19 16 23 14 26 16 23 19 25 22 19 24 14 15 26 25 16 23 25 20 24 21 21 25 17 22 19 16 16 23 21 26 19 21 22 17 18 24 25 16 24 26 15 23 17 26 21 19 26 26 23 15 18 23 15 24 19 23 19 21
18 17 14 20 17 23 17 14 19 26 19 21 24 25 17 19 24 17 17 21 20 25 25 21 21 22 22 21 15 17 19 19 17 20 14 23 25 15 14 26 16 18 23 15 26 24 20 26 25 16 23 21 15 17 22 17 16 25 18 25 20 24 24 17
17 23 25 17 17 16 25 24 16 17 19 14 14 15 15 24 14 14 14 19 22 23 20 21 14 19 20 15 26 20 24 24 21 18 18 24 22 17 20 25 21 14 23 24 24 15 18 21 15 21 23 24 25 18 19 24 22 16 21 17 15 16 20 15
18 19 15 19 22 19 17 15 26 26 20 18 16 21 14 15 16 14 23 16 26 15 23 21 17 26 14 19 14 18 20 17 24 25 26 23 18 25 20 19 18 22 15 25 16 15 17 14 15 16 24 16 22 26 24 26 14 21 24 21 17 18 22 18
17 24 15 26 20 20 20 25 19 15 16 23 19 26 17 22 20 15 16 26 16 18 17 24 24 16 20 14 16 25 17 20 17 21 15 16 20 22 24 15 17 26 25 23 18 17 23 18 15 20 19 18 25 25 26 18 19 23 16 23 16 16 21 26
15 26 25 16 14 25 25 21 24 14 19 16 22 15 16 20 26 17 25 16 24 21 17 14 15 17 21 25 23 15 20 24 19 17 22 23 15 15 21 16 17 17 18 19 22 21 17 14 19 25 25 20 26 21 18 15 18 15 23 24 14 17 14 25
23 21 17 22 17 21 17 24 26 22 15 18 16 25 15 22 15 25 17 20 26 15 21 17 21 17 22 26 26 17 26 25 25 22 19 22 15 24 26 16 15 19 15 16 23 19 24 25 26 16 17 14 22 25 14 23 19 26 22 17 22 25 18 19
26 23 17 24 26 26 25 17 25 24 19 22 20 21 21 24 18 15 18 22 16 21 18 15 20 15 24 15 15 25 22 14 22 19 16 24 23 16 17 15 15 16 19 15 22 20 20 24 15 17 15 14 15 17 19 20 16 17 25 19 22 25 16 15
23 24 23 17 19 18 25 23 24 26 25 22 17 20 25 21 17 25 14 15 23 25 25 17 26 15 26 19 19 22 26 20 19 21 24 19 20 14 16 25 15 25 18 26 22 14 23 17 25 16 17 24 18 18 18 17 22 19 25 23 23 20 15 25
24 18 16 19 26 14 21 21 16 16 17 19 17 25 14 26 16 20 25 14 20 26 26 18 18 24 17 21 16 22 21 21 22 16 21 21 26 26 14 14 25 21 18 26 23 23 16 15 14 20 19 24 19 22 17 22 21 26 17 20 26 18 23 23
25 23 26 20 21 14 18 14 14 24 20 26 22 26 23 22 20 24 22 20 18 22 26 24 18 19 15 19 16 15 18 24 21 17 20 18 20 24 19 22 14 20 16 20 16 15 24 20 19 25 25 19 24 25 21 17 23 24 16 16 23 25 24 14
24 16 24 26 19 16 23 21 19 16 20 17 21 17 21 17 14 15 15 14 17 24 25 25 22 14 20 20 16 20 21 18 24 25 20 17 15 22 18 26 17 24 23 24 15 18 23 22 17 17 17 22 19 19 14 18 25 22 18 18 15 22 17 23
18 14 14 16 19 23 19 20 20 15 14 18 19 20 26 24 22 24 19 24 16 17 24 25 19 24 20 22 24 23 26 26 25 22 18 20 17 23 19 18 26 23 22 26 22 19 19 18 16 17 21 16 21 24 26 14 21 14 19 25 22 14 19 26
22 26 22 17 19 20 21 20 25 23 26 15 19 18 24 23 17 17 14 25 21 20 23 20 21 14 20 20 23 20 25 19 14 16 20 22 14 26 21 24 26 25 17 24 23 20 17 20 15 22 15 16 23 24 26 16 26 25 26 19 20 19 22 20
