P2
64 64
255
33 31 22 28 30 27 36 19 18 21 36 33 22 29 26 34 37 29 28 32 26 21 24 35 35 18 22 28 30 29 32 36 30 37 26 30 26 32 32 18 33 38 35 27 25 38 33 36 26 34 27 32 32 18 35 27 37 35 37 26 27 29 18 32
26 30 28 22 24 32 29 26 20 37 36 18 31 22 28 30 38 23 27 31 22 37 19 33 35 32 35 25 26 31 28 24 27 22 20 21 36 28 33 38 22 33 18 34 23 28 19 27 18 19 32 35 27 36 38 37 29 21 37 24 38 22 35 34
19 26 29 29 19 28 26 26 32 24 34 37 36 29 27 28 20 20 33 31 19 36 24 38 29 23 34 24 26 28 20 35 33 31 29 32 30 20 25 20 34 37 19 34 23 26 38 22 24 34 24 37 36 33 18 21 35 23 36 22 36 19 30 22
28 21 32 27 36 35 30 28 26 28 38 20 26 24 25 18 27 25 26 25 29 18 30 35 24 27 22 32 31 24 21 24 33 31 27 37 18 23 37 26 35 24 37 34 20 25 29 34 38 36 25 22 30 36 18 31 37 35 22 38 22 25 37 31
32 29 18 19 22 25 33 18 27 23 33 31 20 34 30 28 38 19 30 28 37 24 38 18 33 27 25 20 31 33 22 18 36 27 29 33 19 24 24 19 20 36 36 25 30 27 31 19 18 22 28 18 21 28 31 19 18 31 27 19 26 32 26 29
32 27 21 23 22 21 27 18 25 37 36 33 21 28 18 34 20 25 33 25 28 31 18 30 35 22 24 18 22 27 28 26 38 31 25 27 26 30 25 20 32 20 25 21 32 22 23 38 22 32 33 38 18 27 30 25 26 35 35 23 27 21 21 34
32 33 20 20 37 31 28 25 26 19 30 24 33 21 30 19 26 36 21 24 33 35 23 34 23 28 25 26 29 34 30 27 35 37 31 30 38 30 19 30 31 19 32 36 20 28 33 34 38 29 27 23 23 24 35 38 24 21 22 24 18 35 31 18
32 36 36 21 22 37 29 33 28 26 34 20 28 25 27 25 21 27 38 32 38 34 28 21 25 37 23 38 23 18 26 37 27 20 23 24 28 28 33 30 27 25 27 21 25 26 22 27 29 18 35 24 31 22 23 34 25 20 31 33 18 19 35 34
25 33 30 28 30 37 18 37 29 22 26 34 32 37 31 36 24 21 18 38 30 38 27 26 28 25 32 35 24 36 31 35 18 29 29 18 33 19 26 31 32 18 22 29 31 34 31 35 26 19 31 20 37 22 38 38 19 24 18 18 28 38 32 33
30 20 23 29 35 31 28 22 25 21 29 18 28 18 34 22 24 30 21 27 18 27 33 32 18 23 29 18 18 28 33 18 19 22 19 36 35 35 34 36 31 34 33 32 23 27 30 18 36 32 29 23 29 32 18 22 19 26 32 25 27 27 24 35
18 22 38 21 33 32 36 24 32 30 24 24 27 26 31 23 25 24 19 31 21 37 24 23 33 27 28 29 21 25 28 19 32 22 19 22 18 34 21 18 37 25 26 33 19 34 29 18 20 24 25 33 33 32 28 18 21 28 37 28 25 24 21 21
19 32 25 22 27 31 19 30 22 25 29 36 32 22 36 18 27 27 30 30 27 37 30 29 21 29 35 22 22 24 34 30 32 28 30 32 27 26 34 31 30 26 37 31 35 31 32 23 25 23 22 27 19 28 19 34 30 28 25 25 27 21 35 26
24 27 31 32 24 34 38 22 23 31 24 19 22 35 18 21 36 32 37 25 27 38 31 32 29 23 38 33 38 25 18 31 26 25 33 24 38 38 23 18 30 38 36 19 32 28 31 24 37 19 30 29 34 27 24 24 38 33 25 21 18 19 36 31
26 33 31 31 34 37 23 27 23 33 31 35 30 19 29 34 34 25 29 25 33 18 38 23 37 24 33 22 34 23 23 37 23 23 29 31 21 27 25 29 25 36 22 23 34 23 24 33 21 28 33 31 24 36 18 32 32 33 20 33 23 36 34 29
36 33 25 25 25 30 18 30 31 38 18 38 18 35 28 27 27 30 25 21 23 32 35 37 21 33 38 28 34 36 25 31 29 37 27 35 25 25 23 28 33 21 24 29 19 20 30 23 33 21 30 24 33 30 20 35 24 20 26 28 18 23 35 38
18 19 24 31 37 30 31 21 19 37 21 21 19 34 21 22 38 28 19 37 29 32 32 23 28 37 28 27 27 33 38 31 23 37 35 38 26 26 24 37 31 31 38 35 30 27 26 34 36 29 38 20 28 20 18 18 38 32 21 26 18 19 26 33
32 18 26 23 34 24 36 37 28 29 21 34 32 33 27 22 22 35 20 29 19 27 22 21 23 21 34 37 36 38 29 25 21 20 18 21 32 29 25 38 18 20 33 26 34 31 34 33 27 27 24 21 37 33 30 21 18 26 31 36 32 21 30 28
24 22 24 28 21 33 21 37 33 38 23 29 21 22 37 24 29 30 30 27 21 20 28 25 38 28 28 21 26 23 33 24 36 30 38 27 32 33 33 29 32 38 34 28 34 33 30 33 25 23 21 26 25 28 29 28 18 20 30 18 29 36 20 33
32 38 22 38 36 38 26 30 27 37 28 19 19 29 34 26 24 32 21 29 35 30 31 33 33 28 24 18 38 19 26 29 20 29 18 27 23 36 25 18 36 29 28 31 34 18 22 31 25 29 20 19 24 38 37 19 34 26 31 22 28 20 19 25
29 28 37 30 31 26 21 21 36 37 31 30 34 37 25 25 20 23 27 22 35 32 30 27 39 28 27 20 18 31 34 34 23 31 37 30 37 20 24 30 33 21 39 34 25 33 31 28 19 23 38 27 27 32 26 29 28 30 34 33 33 32 27 33
18 33 23 33 36 18 18 26 29 20 36 35 18 24 25 25 38 30 45 36 38 31 27 26 26 36 23 35 18 23 22 22 35 18 37 21 37 21 36 35 33 28 41 30 33 45 30 44 35 29 20 36 35 18 37 25 34 36 33 25 34 26 27 31
23 36 19 21 19 20 34 37 37 18 32 33 30 26 38 42 46 47 29 32 30 44 47 29 45 28 40 43 20 38 28 23 37 37 29 30 40 38 24 42 31 33 39 40 36 48 47 27 33 34 28 33 24 24 22 36 22 35 37 20 29 38 24 34
33 33 35 35 37 38 37 32 23 38 38 20 28 28 42 33 46 34 45 52 44 48 36 48 45 41 38 44 30 27 39 29 32 28 19 40 24 26 33 40 32 52 50 39 51 33 38 42 32 44 45 41 27 19 33 37 37 24 38 37 34 27 33 33
29 35 24 21 27 34 27 24 25 33 19 39 27 31 42 36 49 45 41 46 42 48 50 53 35 48 41 49 38 37 25 21 26 18 25 38 28 46 37 44 47 47 43 45 52 49 55 53 46 49 35 45 41 38 34 23 19 21 24 28 25 38 20 33
24 19 38 30 37 19 32 29 31 25 32 28 27 46 35 52 47 58 57 54 51 54 58 40 46 53 49 43 34 30 38 23 21 38 35 35 47 43 46 51 41 40 42 47 41 59 43 40 53 39 36 35 29 33 26 21 35 23 31 21 37 20 18 20
38 23 31 27 35 38 21 25 35 38 27 45 45 40 39 38 56 44 62 56 51 47 54 53 45 54 52 37 48 31 28 42 41 31 36 38 32 45 52 59 53 46 52 58 60 56 45 53 45 46 49 45 50 46 24 34 35 29 20 28 22 20 18 23
31 30 35 20 27 36 29 34 35 41 28 41 39 51 52 52 51 60 61 50 62 49 53 55 45 63 57 52 53 41 36 28 44 35 47 51 51 42 46 56 56 47 60 55 65 67 58 52 58 54 58 42 47 37 45 35 37 26 24 28 28 37 25 26
20 30 20 37 22 33 35 25 37 25 32 46 51 41 55 53 56 59 52 57 67 66 57 64 51 51 56 55 39 48 30 44 31 45 46 42 52 50 60 62 50 55 61 53 56 66 70 69 51 44 54 53 52 45 32 29 39 27 32 38 36 37 25 24
34 32 20 32 38 22 27 30 38 35 30 32 45 45 49 50 60 70 66 64 72 72 71 56 60 53 50 62 58 37 52 34 41 36 48 42 39 62 66 54 66 63 57 62 59 72 62 54 51 61 56 41 43 38 33 42 22 27 34 21 36 22 21 23
29 19 38 26 37 27 36 35 40 39 30 35 42 59 63 48 65 74 64 76 61 67 78 69 68 70 50 59 52 39 39 52 43 41 54 49 41 46 52 66 72 73 71 77 66 70 77 60 60 64 59 57 49 47 49 41 37 30 21 28 32 35 35 30
19 18 24 31 33 19 36 21 40 42 45 44 44 52 61 64 55 61 75 74 71 74 68 65 75 67 56 58 54 47 51 37 53 52 56 55 47 47 51 55 76 72 79 75 67 65 78 76 66 60 65 43 55 35 36 36 34 23 21 32 21 34 23 29
20 20 27 37 36 20 22 32 41 36 40 46 53 50 58 54 62 71 82 68 78 80 79 62 77 63 55 48 43 50 37 54 47 42 55 49 44 58 54 67 73 65 78 70 76 82 63 74 63 59 58 59 56 48 32 46 31 26 29 22 38 35 38 22
29 24 28 21 24 18 31 34 24 28 41 41 40 52 63 57 69 65 65 76 86 86 78 66 66 65 71 59 62 53 50 54 52 43 53 51 50 57 64 75 65 83 80 75 76 72 83 63 66 63 50 61 59 50 49 30 34 39 34 34 20 38 23 31
33 22 38 18 24 26 36 30 35 31 45 37 42 54 65 61 65 77 74 73 83 84 71 71 74 70 67 62 57 57 45 41 41 47 50 40 59 59 65 56 72 70 67 71 70 76 68 66 71 57 64 52 59 40 35 44 41 28 25 19 19 18 24 32
19 19 26 32 31 30 22 27 43 33 37 39 39 58 47 61 55 63 68 65 68 72 78 66 62 61 60 64 57 46 39 51 40 48 55 49 58 50 54 69 76 60 65 77 78 72 60 72 73 60 64 57 41 40 36 27 38 26 33 30 34 30 19 36
27 31 34 28 37 25 21 34 24 27 41 50 41 46 52 50 68 74 60 61 64 62 77 65 74 57 53 56 61 41 40 46 40 42 47 38 61 61 55 51 54 64 71 62 79 66 66 55 57 50 52 52 44 50 48 30 25 38 21 33 32 28 21 29
32 22 36 29 25 29 21 27 33 40 37 32 53 55 57 48 58 62 68 76 74 74 71 59 69 51 63 55 52 56 32 47 50 36 51 40 44 47 65 56 57 60 73 75 66 57 69 59 59 62 48 46 54 34 49 33 30 28 18 22 34 26 21 31
36 29 24 33 24 29 38 36 31 43 44 43 53 51 54 63 48 59 58 54 69 73 60 63 59 55 55 43 44 45 50 29 41 48 46 38 45 43 51 66 69 60 68 60 59 61 56 51 63 57 59 37 47 33 36 28 29 22 20 31 28 33 22 25
28 32 38 32 31 19 22 32 38 26 38 32 37 50 48 59 51 58 55 50 67 65 49 54 59 50 55 41 49 49 39 25 27 37 32 42 46 46 45 43 60 53 59 69 52 49 51 56 48 60 56 47 40 47 40 39 30 28 29 31 36 36 30 33
35 37 24 28 41 31 38 26 22 25 27 43 51 38 56 53 45 61 56 58 52 55 68 61 50 58 58 51 46 45 35 47 42 44 42 51 57 50 49 65 64 65 58 65 59 51 64 60 49 53 48 53 45 35 33 32 27 41 26 39 30 27 30 36
34 39 39 31 41 25 44 25 28 40 33 37 52 47 53 57 57 52 66 62 63 53 70 62 65 54 57 59 50 45 37 39 29 50 40 37 53 45 58 58 69 53 63 67 53 56 66 49 67 47 51 45 57 42 33 45 40 37 30 40 48 51 43 50
37 40 43 47 47 44 36 38 44 44 50 34 51 54 51 52 57 55 68 58 64 52 67 68 51 48 49 58 54 48 54 44 51 40 48 48 51 44 62 48 68 56 73 53 70 54 71 67 60 54 57 56 60 58 40 53 49 45 46 55 55 38 40 43
30 25 25 30 24 38 28 29 42 39 35 44 33 49 33 48 40 45 53 51 49 55 61 44 53 51 41 43 52 44 41 27 27 30 45 48 54 42 53 50 57 55 46 56 51 55 56 48 61 59 38 41 42 46 33 46 43 37 41 42 46 38 46 37
31 24 40 22 30 39 29 41 24 26 28 25 27 39 37 29 49 33 44 33 37 48 39 34 37 44 30 37 35 40 37 26 27 33 24 25 38 30 34 49 36 46 40 35 43 34 45 47 38 44 39 26 38 23 34 31 26 42 30 34 40 39 43 37
31 36 37 29 23 24 29 26 20 33 32 32 38 32 25 32 25 39 28 32 42 46 33 42 28 37 34 36 35 30 22 28 30 23 18 30 19 39 41 41 37 25 32 39 42 26 41 35 27 36 19 25 36 31 19 34 19 29 24 18 21 37 36 27
19 26 20 36 25 33 21 28 36 24 20 33 36 31 31 26 27 29 26 28 32 39 41 37 21 27 26 32 25 20 29 18 30 36 31 19 24 21 26 39 21 31 37 34 25 24 27 32 37 36 34 34 26 38 33 37 21 37 23 22 38 36 24 28
28 28 29 26 33 27 19 27 36 31 37 20 27 24 37 33 23 30 35 32 35 26 28 20 18 38 24 26 31 29 22 20 18 25 30 31 38 21 22 38 32 34 25 23 30 36 22 23 19 32 25 27 36 30 32 23 26 31 37 23 20 28 24 18
31 27 25 29 18 35 20 31 19 23 32 26 29 25 34 18 22 37 25 18 21 37 35 33 31 24 26 35 23 21 18 19 22 23 26 19 29 22 38 29 24 36 27 27 29 30 19 18 21 38 25 36 28 33 34 23 23 37 34 31 18 32 25 29
30 38 31 35 21 18 37 31 24 25 29 29 22 31 37 20 21 23 32 32 32 25 27 22 28 31 26 35 20 29 30 37 32 26 18 34 20 26 20 32 18 22 22 38 19 24 21 26 34 28 36 18 22 34 22 28 18 29 18 36 18 36 37 21
36 19 35 24 38 25 34 30 25 34 26 30 28 35 18 25 27 18 18 19 23 35 33 30 27 19 20 37 27 29 29 19 19 26 28 22 21 32 23 18 34 34 27 27 24 38 23 21 36 36 21 36 21 22 25 38 31 22 34 36 19 32 26 34
28 28 25 38 21 34 34 19 18 27 18 23 36 28 26 18 35 23 24 29 22 28 26 28 30 22 27 22 34 28 19 25 21 28 31 32 21 27 24 24 31 22 20 24 30 27 32 24 19 37 31 19 32 18 25 21 24 36 19 19 37 34 29 28
36 38 20 36 35 29 23 18 37 33 28 20 29 30 21 35 35 18 27 30 33 30 33 28 35 34 23 18 35 23 31 37 18 28 19 18 18 28 32 31 29 23 36 35 31 27 31 30 33 31 31 31 30 37 36 23 24 29 24 24 32 24 24 18
29 25 36 21 37 18 33 26 30 18 32 29 37 34 36 33 32 19 31 18 20 31 35 27 27 33 23 30 20 31 38 22 20 27 38 28 18 35 19 31 34 32 30 34 25 29 23 33 25 26 21 23 29 26 18 21 29 32 21 23 38 36 30 18
31 34 32 27 18 33 37 27 35 26 38 38 18 31 35 37 22 32 33 36 28 29 22 21 29 29 37 35 28 27 23 22 20 33 36 37 27 38 36 34 25 30 18 20 21 24 20 19 33 34 22 24 33 19 30 21 26 21 19 32 21 25 24 18
32 29 33 38 38 38 28 26 32 19 34 31 35 20 33 29 33 38 37 37 25 28 29 31 20 22 32 33 23 31 21 37 33 32 19 33 34 36 30 25 29 22 18 34 36 35 37 22 26 38 31 23 31 19 23 26 30 24 27 25 25 27 21 20
31 35 26 32 29 18 29 19 22 20 34 33 18 22 18 28 21 18 19 26 27 34 31 20 28 25 20 20 35 24 27 30 28 32 35 21 31 29 22 32 20 20 20 26 38 29 36 35 35 18 31 22 23 38 33 21 31 37 29 33 30 25 30 36
27 20 30 33 35 22 18 30 21 19 22 27 35 24 26 21 23 31 34 35 38 28 27 22 37 23 34 30 27 33 34 29 20 37 24 20 22 18 30 32 36 18 31 30 26 32 18 32 19 32 36 24 28 23 32 26 31 22 23 22 34 30 28 35
19 36 19 33 20 30 35 29 24 27 22 34 24 27 31 27 20 37 18 38 38 23 29 36 36 23 35 29 28 37 31 36 38 26 28 28 37 32 29 21 27 30 27 37 37 32 34 32 24 37 22 32 34 26 37 30 25 26 19 34 26 22 20 25
29 33 29 26 38 29 18 31 23 34 25 19 34 38 38 36 36 32 21 26 37 24 36 18 38 20 29 28 34 33 23 22 22 30 20 20 26 37 25 30 32 21 38 22 26 36 35 18 28 37 30 18 37 30 23 20 26 30 18 24 23 34 27 38
31 27 23 31 18 26 31 29 29 38 38 20 31 19 37 28 28 23 34 32 21 24 24 38 22 37 25 20 37 25 24 31 21 29 28 29 23 32 31 25 35 18 29 21 38 31 36 28 38 37 36 29 35 30 31 19 19 22 19 22 28 32 36 27
36 29 37 23 20 21 20 29 24 25 38 31 33 20 23 29 36 21 36 23 31 18 30 32 26 36 21 38 27 38 28 33 19 21 28 22 27 21 20 25 36 30 18 38 26 18 30 25 33 36 19 37 28 27 38 25 35 33 32 31 32 21 30 28
33 23 28 29 31 33 36 27 34 29 18 20 24 25 31 35 33 25 27 31 22 35 33 24 30 22 26 23 23 35 31 28 25 32 22 19 30 38 19 23 22 18 35 28 28 24 37 31 19 23 33 21 21 21 28 18 27 24 19 37 28 26 29 38
20 38 19 34 29 35 19 35 32 27 25 28 38 31 20 20 38 29 34 38 29 27 20 20 24 33 34 23 25 37 28 33 18 26 36 19 30 22 21 21 29 18 32 30 31 37 34 33 36 23 31 26 26 24 38 21 32 38 26 27 29 23 31 18
38 24 37 24 32 35 29 20 31 18 23 38 25 31 29 35 28 32 22 20 28 32 37 34 24 22 35 33 36 25 30 26 19 29 19 21 24 32 34 34 36 30 22 31 26 21 27 25 32 31 22 20 20 30 33 26 23 21 26 28 35 19 33 32
