P2
64 64
255
23 21 30 34 37 37 34 19 23 27 31 31 38 32 22 30 24 24 30 35 31 38 35 25 19 36 26 20 18 18 21 34 37 25 29 19 22 27 22 38 27 31 18 33 36 32 28 32 29 24 21 19 21 18 34 19 19 28 32 29 30 34 26 19
19 31 20 19 21 30 20 27 34 21 24 22 31 27 25 37 36 31 25 18 27 19 36 34 37 23 24 33 20 25 28 35 18 37 29 24 33 22 22 24 24 38 32 20 31 32 31 19 34 33 36 21 28 29 22 33 25 30 37 25 34 20 33 31
38 27 34 19 18 36 20 25 35 24 36 33 21 18 21 29 20 38 20 25 35 31 24 24 31 38 23 32 28 28 36 34 20 28 20 34 30 38 35 31 36 28 19 22 26 25 30 22 29 30 22 33 37 37 23 29 25 29 33 25 25 30 33 36
29 25 23 26 22 32 36 38 30 32 37 31 18 36 25 29 35 34 25 32 23 21 37 18 36 23 36 37 27 20 22 34 18 24 35 23 36 35 34 33 37 20 37 30 37 23 26 22 38 33 24 37 23 19 27 38 37 37 31 27 27 38 36 35
25 18 23 21 34 18 29 23 21 27 33 27 21 19 36 37 20 20 21 23 26 35 27 30 25 23 19 37 32 22 24 22 31 33 33 36 34 28 33 27 27 18 21 34 36 21 37 36 24 36 27 25 27 19 19 24 34 29 26 36 25 32 35 19
24 26 28 37 33 24 20 24 24 21 30 20 36 28 24 30 36 21 20 26 32 19 32 29 37 31 18 30 36 31 30 34 30 26 35 31 20 30 25 36 25 37 18 25 36 33 18 33 24 32 22 23 27 24 28 25 19 23 33 32 33 35 32 29
37 28 35 36 28 28 25 29 30 30 35 31 34 25 29 33 21 33 26 32 26 32 30 29 18 28 37 32 24 35 19 22 24 20 18 24 25 19 38 27 30 18 21 35 28 33 37 38 23 24 23 19 32 23 27 36 22 28 36 35 26 32 37 25
29 38 27 29 26 22 23 35 34 35 25 35 34 33 24 23 37 25 37 34 20 38 33 18 22 27 36 34 19 30 24 24 33 37 36 34 30 20 27 38 36 28 20 19 21 32 29 36 37 22 32 19 33 27 22 28 22 38 23 25 26 20 27 30
32 22 28 33 26 36 31 18 27 36 29 19 27 23 30 25 27 26 35 33 30 26 21 37 30 19 29 31 24 25 33 29 20 33 18 32 25 27 27 38 21 27 20 30 20 37 36 27 35 38 37 24 24 33 33 24 36 22 38 33 34 34 35 31
24 32 28 19 36 24 25 38 38 20 28 19 21 32 33 33 26 26 23 29 36 30 18 34 29 27 37 21 31 38 22 30 23 34 27 31 23 21 34 29 18 19 36 28 33 37 38 21 34 37 30 23 28 29 20 38 23 31 26 28 34 36 38 32
23 37 18 36 28 18 28 34 28 21 23 36 34 24 32 24 33 36 21 33 27 22 23 22 24 35 23 25 33 29 33 33 31 23 28 21 20 21 32 37 19 36 31 30 35 30 20 31 20 27 34 21 38 30 32 26 24 23 37 37 35 27 37 18
20 25 32 37 38 31 18 21 20 24 23 36 27 22 22 32 26 34 30 28 22 33 38 31 30 24 22 33 28 19 34 30 33 27 38 35 23 29 25 24 28 34 33 31 30 37 38 38 26 38 26 38 23 32 20 37 18 37 21 28 26 19 33 18
20 36 20 28 35 38 21 33 26 24 38 25 36 19 32 24 33 23 38 29 26 27 23 33 31 18 25 37 23 18 22 29 20 32 20 38 33 18 29 26 19 24 25 21 37 18 36 25 33 24 20 21 23 38 18 32 35 28 34 27 30 26 32 20
34 38 38 37 25 37 32 31 29 24 33 20 35 20 26 23 19 19 20 35 35 21 38 21 31 37 19 28 20 24 18 20 34 24 31 31 18 23 31 29 33 38 37 21 30 38 31 34 19 20 27 31 28 28 28 38 30 27 21 28 35 34 34 19
24 30 23 20 21 25 38 33 32 31 24 30 30 30 18 30 23 24 32 22 27 31 28 31 38 19 26 32 27 22 31 33 31 33 37 29 21 22 33 21 38 29 22 25 32 35 33 25 24 25 27 35 32 35 19 21 29 33 31 23 31 22 34 24
29 29 30 29 27 35 28 18 27 26 26 37 20 30 21 28 37 29 31 33 23 27 31 27 28 20 28 36 28 19 23 36 38 21 33 24 19 26 18 35 28 37 22 25 28 36 23 37 22 28 28 19 35 22 38 20 20 33 33 26 24 38 21 25
33 36 34 35 27 22 38 19 23 36 38 21 27 22 24 30 38 20 38 35 34 32 28 22 25 38 22 31 32 38 33 34 30 26 32 21 26 25 27 34 20 25 32 34 37 29 25 38 34 20 34 28 20 26 20 33 38 23 20 34 35 22 38 25
24 23 29 34 26 31 23 21 20 35 19 38 23 19 33 30 38 19 18 29 27 36 31 29 36 34 40 39 29 28 24 18 23 20 25 38 38 35 31 28 22 18 32 31 19 20 27 29 36 32 31 24 27 36 19 18 28 28 37 30 23 18 22 26
26 25 35 33 21 35 36 38 38 25 32 19 32 31 35 21 33 38 21 29 30 49 48 48 42 39 32 41 21 38 23 23 31 21 21 19 36 18 23 34 28 34 38 27 38 24 30 29 37 19 25 28 29 33 33 38 23 21 19 30 20 19 38 32
18 35 31 33 22 20 31 28 35 25 37 37 35 19 19 22 23 35 38 44 39 52 51 53 47 57 36 47 45 41 30 36 38 21 34 20 35 32 25 35 23 37 32 26 32 39 21 22 35 33 32 20 28 35 25 27 25 22 23 33 27 20 24 22
30 26 34 21 27 27 19 20 27 25 32 23 24 24 23 30 37 37 56 58 53 53 64 64 71 55 58 42 40 39 40 33 32 24 38 33 25 38 34 22 30 27 35 34 45 34 41 34 33 30 33 26 29 26 24 29 37 18 26 26 35 30 25 26
35 19 21 22 31 37 31 27 28 34 21 25 23 22 39 44 35 56 56 64 62 81 76 64 68 76 73 65 50 40 35 38 31 26 33 34 39 30 33 44 35 48 46 35 43 36 42 32 31 33 43 21 27 38 18 37 18 23 36 34 29 25 31 22
31 25 32 20 38 35 28 30 30 32 29 23 21 31 41 46 60 67 58 69 80 88 84 91 78 86 77 67 50 47 46 27 30 27 34 28 34 29 46 37 32 42 43 38 53 39 51 46 50 44 27 32 31 36 20 18 35 19 29 27 34 24 19 25
36 22 36 21 28 18 31 20 18 37 36 24 36 45 52 52 55 77 68 72 96 83 84 86 98 83 75 67 64 65 53 36 30 29 40 34 42 35 33 40 47 56 48 50 46 48 47 42 48 39 33 28 42 23 31 34 23 24 35 32 21 23 30 23
26 20 38 27 26 26 36 27 26 20 41 36 46 32 46 67 64 71 85 90 86 106 100 98 96 103 81 75 81 68 63 40 41 39 42 36 42 47 40 44 51 42 61 60 51 56 55 48 46 52 46 45 29 36 34 31 33 24 25 26 33 22 29 28
34 33 26 25 37 35 31 26 32 36 36 45 39 34 57 58 64 72 77 100 93 119 122 111 120 112 88 79 71 60 58 55 39 25 38 46 50 44 52 56 61 55 50 57 46 55 54 42 43 55 41 44 31 28 28 37 32 23 29 26 21 37 20 25
33 32 34 33 29 28 18 29 32 41 38 44 49 42 57 73 73 82 98 90 105 110 126 128 108 102 92 99 83 64 70 44 53 27 39 36 45 57 53 61 45 58 56 59 61 62 48 57 53 45 41 49 51 29 41 24 38 34 37 25 34 26 28 32
18 30 31 31 23 38 26 38 21 44 47 48 41 42 59 71 81 92 98 97 115 117 123 124 113 103 92 88 73 75 60 49 49 35 32 48 56 54 59 66 53 54 60 64 63 69 64 63 65 61 42 41 42 47 44 33 26 31 23 33 23 20 31 21
30 24 30 35 33 22 26 23 29 40 32 36 40 55 61 59 71 78 104 98 104 111 125 113 126 112 101 81 73 63 63 50 52 51 32 55 51 56 47 54 67 62 74 59 69 59 64 68 62 58 55 54 54 39 42 42 30 26 30 18 23 22 23 35
38 37 34 32 35 33 32 39 29 31 41 50 45 44 55 78 67 87 93 107 110 124 126 116 101 97 95 81 74 74 61 64 57 64 42 53 47 51 50 51 73 61 65 73 70 72 67 75 58 51 53 42 41 37 38 31 42 32 31 21 22 22 20 19
35 31 26 36 20 32 19 29 32 28 39 44 52 55 57 73 83 80 91 104 106 109 110 103 107 109 104 90 97 84 88 66 61 64 62 59 63 65 59 55 73 72 64 84 64 82 61 59 56 61 52 45 48 55 43 47 29 31 21 22 37 26 29 27
34 22 26 23 26 38 32 26 25 33 38 41 57 61 65 62 73 80 92 109 98 117 104 102 95 90 103 105 93 100 86 77 71 79 83 70 64 74 74 74 59 77 77 74 76 66 75 73 75 70 52 50 49 40 32 34 36 28 37 37 28 32 35 33
22 28 37 21 28 28 18 25 27 45 42 39 46 46 66 65 72 79 94 89 102 109 104 108 90 96 88 101 91 86 102 89 85 101 83 86 86 73 78 63 71 73 72 88 82 84 78 64 58 69 57 47 51 52 36 36 40 40 30 32 27 33 34 33
25 35 21 24 23 25 32 25 31 47 38 35 47 60 58 71 74 75 88 88 95 100 96 85 96 88 108 90 95 109 94 105 98 108 93 98 92 88 92 79 77 80 75 70 79 75 76 77 63 66 55 46 39 43 48 30 31 29 26 21 28 31 31 35
22 23 27 34 31 23 31 27 28 44 31 52 44 56 55 62 58 72 80 77 92 91 92 88 78 92 87 90 110 101 107 108 120 107 106 110 109 85 94 79 78 80 73 72 66 70 78 71 60 56 61 51 58 45 37 36 35 19 32 25 23 32 20 27
29 35 37 22 38 24 34 37 22 36 35 53 37 49 64 55 63 64 64 72 72 69 82 69 79 94 86 98 108 107 122 124 135 122 127 114 112 94 80 84 74 59 76 77 69 77 57 68 71 54 46 49 43 46 38 43 37 37 20 29 18 38 34 20
31 27 27 37 35 26 37 18 36 43 33 36 39 41 57 62 59 61 66 65 57 59 71 66 86 91 103 114 119 114 115 141 143 135 128 109 115 102 99 91 65 70 71 67 60 62 73 52 66 49 63 42 53 40 45 42 27 21 37 34 20 30 29 33
29 20 37 37 38 38 28 23 40 28 39 32 41 46 41 62 52 53 52 72 56 70 75 88 102 102 116 120 125 131 126 139 135 139 125 124 99 90 92 86 70 69 59 68 73 67 67 57 49 60 52 53 50 35 35 38 39 32 32 34 18 26 27 22
24 35 33 24 36 20 29 34 30 33 29 40 47 49 40 57 45 59 53 61 61 72 90 104 116 117 135 123 137 135 119 134 129 131 125 105 109 84 85 73 72 57 55 49 64 56 51 60 50 47 56 41 35 39 36 40 24 28 25 37 27 27 25 35
25 29 31 27 23 34 31 20 34 31 39 41 47 44 53 55 57 51 43 66 65 89 97 106 125 139 137 133 135 124 135 118 110 123 116 103 89 90 81 67 55 45 54 46 63 47 62 53 57 55 48 32 32 44 25 35 29 26 33 19 28 23 37 20
19 37 19 21 26 27 22 38 28 26 22 35 43 33 40 46 37 54 54 55 83 78 91 122 122 144 152 135 137 124 114 109 92 105 98 91 90 79 82 64 57 44 43 46 47 55 40 58 37 42 38 36 45 43 30 31 18 26 23 36 38 37 24 34
20 31 19 18 23 31 22 22 37 24 26 27 25 36 44 42 53 46 54 59 65 97 110 122 133 137 145 139 124 119 120 89 82 91 93 91 67 74 52 46 55 45 57 53 44 44 46 36 38 51 33 34 39 26 31 30 33 29 25 30 21 26 22 37
31 27 34 38 37 36 20 18 32 26 22 22 34 27 26 45 41 48 40 59 82 78 99 118 134 155 143 134 131 116 101 89 82 84 80 71 54 64 55 47 38 35 41 49 53 37 40 44 42 28 43 25 26 22 28 21 28 26 35 37 19 26 18 25
23 33 32 22 36 26 24 32 29 25 35 18 31 30 25 29 32 38 36 53 68 89 90 114 117 120 127 110 102 108 97 65 63 71 56 54 59 44 48 27 33 40 42 36 49 30 31 33 38 36 32 22 26 29 28 26 23 33 34 18 28 29 38 27
18 35 32 38 20 32 33 29 35 24 38 28 34 26 34 26 33 39 35 44 69 79 77 89 110 115 101 93 86 75 66 67 55 48 45 54 45 26 35 24 30 45 39 35 34 30 30 36 33 24 19 26 21 23 29 21 37 32 22 28 25 20 19 21
24 26 20 24 33 29 33 28 32 33 37 18 35 33 23 29 20 23 27 45 46 60 65 74 95 96 87 72 73 58 61 49 40 39 44 31 19 21 28 33 31 28 35 41 24 38 35 23 29 26 30 27 22 19 20 36 35 29 30 38 26 19 28 23
37 32 32 35 31 22 21 31 37 27 29 25 29 28 35 20 26 29 19 38 27 38 49 72 81 79 76 55 62 55 36 33 19 32 19 25 23 22 21 24 36 20 26 18 34 29 38 22 21 33 23 32 36 32 27 20 36 34 28 20 18 18 25 21
19 29 30 26 27 37 34 36 34 38 37 36 24 34 19 28 30 37 25 26 28 42 42 60 63 48 53 57 49 38 34 28 29 24 37 28 18 25 34 29 27 26 33 25 29 35 20 29 22 34 22 27 19 37 35 22 26 28 23 37 20 36 34 33
27 21 18 31 29 30 21 27 29 32 20 20 35 38 19 25 32 30 21 28 29 21 27 29 36 36 48 29 29 32 20 25 27 22 27 33 22 29 34 34 38 37 22 28 29 24 35 18 23 18 30 37 34 19 23 33 25 32 33 21 35 24 29 37
31 36 35 34 36 32 27 24 36 36 37 34 33 26 22 33 21 36 35 29 35 29 34 30 26 33 23 25 38 33 20 21 18 19 23 36 29 23 29 22 37 18 22 23 20 33 25 36 23 28 22 37 20 27 22 25 26 27 38 32 32 23 38 33
25 21 22 33 19 37 28 38 34 25 23 35 29 37 38 21 29 25 30 24 33 22 38 32 23 32 30 37 38 19 24 27 20 20 21 36 22 28 35 34 27 21 32 23 28 26 36 24 22 18 34 23 34 37 36 22 21 18 30 36 26 33 37 22
31 21 37 29 38 38 26 25 26 18 22 38 37 26 32 20 29 31 30 38 36 24 20 38 32 18 36 22 26 37 29 31 27 33 29 35 20 22 24 32 24 34 18 19 32 38 27 26 36 28 19 28 37 27 37 25 36 32 28 23 24 26 31 25
21 24 24 38 19 36 35 26 18 28 29 32 38 32 26 21 38 27 18 37 23 30 25 33 26 24 31 29 31 20 21 33 33 21 37 22 36 20 23 26 28 26 27 21 25 29 28 20 38 32 28 38 26 34 31 29 29 35 28 29 21 28 30 29
36 32 28 23 29 26 18 21 36 34 20 36 30 36 19 33 35 33 22 29 33 26 24 29 21 25 34 23 24 27 24 36 21 22 30 33 36 23 25 24 24 24 18 27 34 34 30 38 36 32 30 28 38 21 37 35 25 27 29 18 36 30 24 28
31 31 33 24 38 24 35 32 28 36 36 37 21 27 25 35 34 21 38 33 21 28 23 22 20 19 36 36 22 27 22 36 19 34 21 19 18 32 26 32 32 18 32 19 28 35 32 27 26 38 18 21 18 33 35 26 30 35 24 24 23 26 27 35
19 26 37 27 33 30 19 18 27 29 37 36 37 28 30 27 29 25 25 24 34 35 37 31 29 31 31 23 25 18 20 21 26 36 23 36 19 33 37 19 36 18 32 36 18 26 38 21 36 34 19 32 18 27 22 24 20 19 23 34 23 31 32 24
28 32 19 32 37 34 18 38 29 35 28 36 29 19 34 23 22 27 27 29 38 26 20 22 32 18 18 18 37 25 32 34 21 37 19 32 22 34 33 26 30 33 20 29 36 37 20 35 31 36 32 22 31 20 29 20 29 23 37 21 34 28 31 38
29 38 38 35 28 25 37 25 31 20 32 19 34 34 22 18 21 28 34 19 26 32 34 22 28 22 26 32 34 21 26 28 34 34 24 26 33 30 36 19 38 19 29 25 24 30 35 29 31 19 34 28 29 34 27 30 32 20 35 29 37 34 27 38
31 26 31 31 32 28 34 35 25 38 19 32 19 35 33 22 30 29 31 28 28 19 25 27 21 31 37 29 23 38 30 22 21 25 36 35 36 25 19 30 21 25 32 38 31 21 27 32 30 34 37 20 29 37 19 23 34 18 37 21 34 27 18 27
27 22 37 38 32 29 23 19 33 23 33 18 20 26 28 22 36 22 18 26 29 37 35 31 26 23 37 23 29 32 33 37 33 26 33 38 22 37 29 22 36 18 24 22 21 20 22 30 34 34 38 36 38 38 21 34 22 28 23 22 28 34 36 23
22 24 28 33 21 25 36 30 32 25 34 22 25 25 30 29 26 28 31 28 34 26 20 28 21 37 31 27 32 19 32 35 27 24 21 25 28 20 21 18 24 25 22 34 24 35 38 18 27 28 20 23 27 24 24 25 23 18 25 30 30 24 28 32
37 25 37 38 30 21 26 35 37 32 29 19 37 23 27 21 29 24 26 22 36 27 38 24 29 18 38 27 20 24 33 26 23 28 28 24 19 23 27 25 33 33 29 37 24 22 31 26 29 18 38 31 23 26 26 28 26 22 35 21 31 31 24 26
18 28 26 21 24 31 33 27 29 20 37 34 23 30 27 36 23 34 27 29 38 20 33 29 34 26 21 27 29 28 32 26 21 30 22 29 30 20 32 28 34 33 21 27 28 26 35 25 28 19 36 28 19 26 30 24 26 29 18 22 18 34 26 20
22 24 21 21 24 24 37 18 29 35 28 36 21 30 21 28 34 18 29 22 30 18 38 27 28 19 28 22 28 35 21 27 27 34 38 30 21 23 24 37 33 18 37 27 37 19 20 20 32 27 37 31 24 21 28 37 34 26 18 26 30 38 28 22
