P2
64 64
255
18 15 21 16 26 17 23 23 25 15 22 15 22 17 18 18 23 22 18 24 20 21 22 24 15 19 18 20 23 26 14 24 15 25 15 14 17 24 23 15 14 17 26 20 21 25 17 25 25 14 18 18 22 23 24 21 15 14 21 26 16 22 16 23
24 17 26 20 15 26 24 19 22 20 17 26 20 21 24 22 25 19 21 21 17 24 23 24 15 22 23 24 25 14 15 23 26 20 19 21 26 17 26 21 21 21 20 14 16 14 26 25 18 16 24 25 20 19 21 26 25 14 15 23 18 15 14 18
17 20 19 19 25 26 16 19 14 16 20 17 26 23 21 24 24 17 18 23 17 20 22 18 16 18 23 26 22 25 25 14 20 15 15 18 14 15 20 19 25 23 17 18 26 17 16 24 17 14 23 18 26 18 19 19 25 18 17 20 18 23 16 14
18 14 21 26 24 25 16 26 16 25 19 24 25 23 14 23 19 24 15 15 15 19 18 14 16 25 21 14 25 23 15 14 21 24 22 20 17 14 24 15 14 14 26 26 21 22 25 16 26 17 24 16 14 24 18 25 17 23 18 25 14 20 19 23
26 18 14 19 15 24 17 22 15 15 16 22 21 23 23 23 22 14 18 14 22 21 14 26 23 22 26 16 15 25 20 20 16 19 24 20 19 15 24 26 17 20 19 16 14 17 22 15 26 14 24 17 18 15 15 18 17 24 17 18 23 21 17 19
20 16 18 15 20 17 14 17 14 26 19 16 22 16 24 17 15 23 25 17 18 21 18 21 24 17 16 25 20 18 24 18 19 23 20 14 21 22 21 19 15 26 16 20 18 23 26 14 19 18 22 25 17 14 17 16 14 26 15 15 15 24 24 16
16 23 19 23 20 20 21 16 24 17 18 14 23 14 19 24 15 21 20 24 18 21 15 26 24 17 24 26 23 17 17 18 18 24 17 23 26 20 19 25 23 26 16 19 22 16 25 16 22 23 24 15 26 16 18 22 17 22 19 21 24 14 15 20
22 20 18 14 26 18 23 18 25 19 23 15 25 17 24 19 26 18 24 16 22 17 15 20 16 26 21 16 21 15 21 17 26 21 20 26 24 22 20 20 14 21 25 18 15 22 15 20 23 21 16 24 19 21 16 19 22 26 18 20 20 14 20 21
15 18 17 22 21 14 24 26 15 18 19 16 21 24 14 16 21 24 26 16 16 23 23 20 14 22 26 22 22 25 19 18 16 19 20 18 16 16 14 16 20 19 17 16 25 20 20 24 18 26 19 21 17 24 19 14 23 14 20 21 24 16 21 20
23 25 20 16 24 20 16 17 19 18 20 26 22 22 21 16 26 15 14 26 23 19 22 25 24 17 24 24 16 23 17 24 17 21 23 17 24 25 15 20 18 22 20 18 24 23 24 26 15 18 25 21 26 20 18 23 15 24 25 19 15 22 21 22
14 22 23 23 16 23 25 26 19 17 26 26 21 18 20 22 23 16 25 15 18 16 16 26 18 20 21 20 25 24 21 22 21 25 24 25 22 24 24 23 19 16 17 16 21 24 18 20 18 26 16 20 18 18 19 23 20 25 24 14 19 26 15 16
26 23 23 16 17 21 22 18 14 17 15 26 26 23 14 16 18 25 16 23 21 26 24 19 26 19 14 19 25 25 22 22 25 19 16 18 24 18 18 21 20 15 16 26 21 24 15 19 26 14 14 20 20 14 14 17 26 21 19 20 21 22 15 23
16 14 25 22 23 25 18 18 17 16 22 23 26 18 22 18 23 24 20 24 20 23 16 18 23 26 25 20 25 22 23 17 15 14 17 17 21 25 20 16 23 14 18 26 17 23 15 14 22 16 16 21 22 21 20 17 18 15 14 23 20 25 15 20
23 26 18 18 25 22 22 14 15 20 14 21 26 16 24 14 21 18 18 26 14 20 14 24 23 25 24 16 17 25 22 18 21 16 17 24 14 20 18 24 21 14 26 16 23 16 18 23 21 19 26 19 20 15 25 24 19 16 24 18 19 23 19 15
24 19 20 26 19 19 14 24 15 22 22 15 17 20 19 20 19 16 15 18 21 23 14 21 25 14 21 21 24 15 16 15 16 26 14 17 17 17 18 14 14 14 21 24 24 21 20 21 17 23 18 24 15 24 23 26 25 20 14 16 17 23 16 26
26 15 15 19 26 23 18 14 21 17 19 22 22 22 14 21 18 14 22 20 21 17 18 25 15 22 24 17 26 26 14 18 15 25 15 16 21 20 23 22 17 20 17 15 23 22 25 17 17 20 17 14 22 25 18 18 26 17 22 16 21 21 24 25
14 25 22 16 18 24 23 25 19 17 16 22 15 15 23 23 25 15 22 16 16 19 15 18 19 14 14 22 21 14 25 21 26 25 25 23 16 22 24 26 14 21 21 22 25 19 14 24 15 19 16 22 23 17 15 21 26 19 15 15 21 22 25 19
24 24 14 25 23 18 24 25 16 14 17 26 21 14 14 14 15 26 23 26 15 25 16 23 26 22 25 15 23 15 24 23 19 20 16 20 25 20 21 24 26 17 21 19 14 25 14 22 23 17 15 19 21 14 25 20 15 18 20 18 14 18 26 19
21 17 18 19 21 21 17 14 14 17 18 15 17 15 22 15 19 24 14 25 20 26 26 18 18 19 23 17 19 14 19 26 17 15 22 16 19 23 26 23 14 19 15 22 23 16 19 25 23 23 20 20 20 25 20 14 20 18 22 19 15 24 26 16
25 26 19 18 19 22 23 23 26 20 17 16 24 19 14 26 25 28 24 21 19 26 24 20 27 19 20 24 21 25 24 16 17 19 23 24 15 14 15 15 25 28 18 20 22 27 24 19 24 16 23 14 24 23 22 25 17 21 21 26 26 25 17 19
21 16 21 25 20 24 23 21 14 17 14 26 22 20 18 20 19 23 24 21 27 34 32 33 29 22 25 16 16 22 21 17 17 17 23 25 18 17 29 29 22 23 25 26 33 28 26 30 24 21 24 24 17 21 16 24 14 22 26 14 24 24 19 22
17 14 25 20 20 14 21 16 15 17 18 21 25 27 22 30 22 26 34 26 26 29 30 30 28 27 26 24 20 27 16 26 23 29 25 18 26 25 26 24 29 28 31 37 27 31 30 28 23 28 20 25 26 25 21 16 16 20 26 22 22 16 20 15
25 23 21 16 14 18 23 24 19 24 21 26 18 31 24 28 27 39 31 30 30 38 29 33 27 35 28 30 31 29 24 33 23 24 30 35 31 31 33 34 39 38 38 36 32 32 29 35 36 30 33 27 24 22 24 26 16 22 22 19 24 21 16 23
21 19 20 18 17 15 23 19 16 14 26 19 31 25 33 28 38 43 43 43 35 38 34 39 32 39 42 39 40 42 38 31 29 34 39 43 41 35 36 34 44 38 39 33 35 34 32 38 32 27 31 23 23 28 23 25 20 20 21 19 15 24 25 22
20 17 23 25 22 16 18 16 24 15 23 20 32 26 33 33 36 38 43 42 48 42 40 44 45 47 50 52 43 51 43 40 42 43 48 47 55 44 47 43 46 44 39 42 49 49 37 44 44 36 29 36 26 30 24 14 15 21 14 19 17 23 24 23
25 19 14 23 24 16 24 26 20 23 23 33 37 31 32 46 39 49 46 49 45 42 44 50 50 52 55 62 51 56 48 54 50 53 49 57 57 53 55 54 60 54 45 42 45 47 44 48 38 35 37 35 35 25 29 16 16 25 20 15 17 17 23 18
18 20 24 16 14 14 23 20 16 30 26 28 38 39 41 47 42 51 45 44 47 50 58 56 64 67 60 62 64 64 62 64 57 65 61 71 71 69 63 62 65 67 56 49 53 55 46 53 42 44 42 43 39 27 26 20 26 22 23 19 23 15 21 14
24 23 15 15 14 26 22 24 23 23 31 30 31 45 44 44 52 56 55 54 61 63 66 66 69 70 75 75 68 73 73 69 75 65 73 68 74 80 67 76 74 73 71 59 52 54 53 49 47 45 46 44 41 35 32 32 28 19 18 17 19 16 18 15
17 25 21 15 24 26 17 24 17 30 28 33 40 46 40 54 51 51 55 59 68 68 68 83 73 78 84 84 75 82 73 84 85 78 73 82 78 83 87 75 77 79 70 68 68 53 59 51 56 52 39 39 34 34 27 30 25 21 15 22 19 26 17 20
25 17 25 16 21 17 20 23 20 24 26 40 40 46 48 49 50 56 60 67 66 83 83 89 87 91 86 91 94 85 92 83 88 87 86 89 89 87 93 83 84 78 78 75 69 65 53 55 50 45 42 41 42 33 30 33 19 15 22 18 14 25 26 14
16 19 26 17 14 17 24 17 28 33 30 33 34 43 54 52 50 53 60 74 84 78 84 93 98 98 90 90 91 95 97 90 100 102 90 100 96 101 90 94 90 91 84 85 82 66 59 64 61 46 51 44 35 34 33 34 20 16 24 15 14 18 17 15
16 16 23 21 24 15 17 18 27 34 35 34 35 45 48 51 55 60 70 73 78 88 92 92 103 103 104 106 103 97 99 102 97 97 102 106 104 94 104 94 98 100 99 94 84 73 72 58 56 51 45 49 38 31 37 29 28 22 24 24 24 17 22 15
21 21 23 25 25 26 15 28 20 32 32 32 47 42 49 53 53 57 73 80 85 100 102 98 104 96 102 110 108 109 111 114 107 111 109 100 100 104 102 104 107 98 99 92 88 77 65 66 52 53 52 50 36 39 33 35 22 17 25 25 24 19 20 16
17 26 21 21 17 25 16 18 24 29 32 32 42 51 46 59 54 66 64 78 85 89 93 101 96 105 101 108 111 111 114 109 120 113 106 105 111 102 111 109 96 99 93 97 85 82 73 56 54 58 45 49 40 38 32 28 29 16 23 26 18 16 21 14
22 21 16 24 23 25 16 15 22 30 39 38 44 43 53 51 58 54 63 72 80 92 94 103 109 107 107 114 110 112 118 119 121 117 119 107 109 116 113 100 104 100 96 95 82 81 67 56 59 54 48 39 42 42 29 33 27 27 26 19 21 16 24 23
20 19 26 20 16 22 22 18 20 22 32 32 40 39 48 48 53 62 65 75 77 92 98 96 107 110 112 109 112 115 112 127 123 119 113 115 115 115 109 103 97 99 94 93 88 74 66 55 58 56 46 45 45 40 35 28 26 23 16 20 23 24 16 18
24 23 21 15 14 18 14 22 20 28 26 30 43 37 42 49 47 60 60 75 81 79 95 98 102 103 106 110 106 111 114 125 124 116 117 113 114 103 107 100 101 101 95 83 74 76 64 50 55 51 45 37 44 39 26 22 26 24 17 20 25 15 15 23
22 17 17 19 14 18 25 25 17 23 25 30 34 38 48 45 46 49 65 65 74 75 84 92 93 101 102 107 112 112 117 119 120 113 108 106 109 106 102 99 102 89 80 75 79 62 59 54 52 45 48 45 35 35 25 24 17 21 14 23 21 18 18 21
19 25 14 19 19 17 25 25 14 22 25 25 37 41 38 38 45 45 54 63 68 71 76 85 84 99 100 99 97 108 110 111 115 107 103 101 104 97 92 94 87 90 82 77 72 59 60 52 48 46 37 33 36 28 22 23 18 16 19 16 26 26 14 24
17 14 22 14 17 21 16 16 26 21 22 23 32 38 40 43 48 46 53 64 63 65 75 82 89 84 97 96 102 100 96 95 96 97 100 99 92 92 95 87 81 84 76 77 69 64 56 50 46 37 32 35 27 30 25 18 17 20 19 22 24 26 15 25
15 15 21 15 20 26 23 23 20 25 21 23 29 27 37 31 33 43 49 48 63 68 76 77 83 82 91 92 86 96 97 96 83 86 95 89 94 87 81 81 84 72 73 64 58 59 49 41 43 36 38 30 29 31 18 17 17 19 19 16 18 18 18 23
20 14 24 20 26 23 14 18 14 21 20 29 24 33 27 35 33 38 46 41 56 64 58 69 67 75 79 83 77 88 84 84 85 86 83 78 86 79 77 72 74 69 61 63 49 51 39 36 35 33 29 26 32 25 21 14 24 14 22 18 16 16 16 26
25 25 26 22 14 18 16 25 21 16 19 27 24 28 22 36 31 36 33 47 45 57 58 60 61 71 68 76 70 81 70 71 76 75 79 75 73 68 72 63 70 65 58 57 45 35 28 32 28 30 22 24 26 18 24 22 24 16 16 14 15 14 20 20
17 21 19 19 26 20 15 17 16 17 17 17 20 19 31 26 33 29 24 39 44 38 52 57 59 63 68 65 60 64 65 64 68 69 64 68 69 67 60 56 51 56 53 43 37 38 34 24 25 26 19 25 19 20 16 21 16 19 22 25 15 26 21 17
19 25 19 23 25 14 19 26 18 25 16 17 26 24 26 25 19 29 31 33 36 40 48 47 45 58 56 55 55 57 67 69 70 61 58 65 64 57 60 46 54 52 44 32 36 27 27 21 27 18 22 23 14 18 23 24 21 15 22 18 21 23 18 24
22 22 22 18 24 18 14 20 19 19 25 14 20 21 23 18 19 21 21 29 31 28 36 37 42 43 53 49 49 54 60 61 57 60 58 53 57 54 46 41 37 41 40 30 29 25 19 19 18 18 17 26 26 18 26 24 23 23 15 14 24 22 18 22
19 22 23 15 24 18 19 15 22 18 16 14 25 18 24 14 26 21 15 17 24 18 25 34 41 42 44 38 43 46 49 48 56 53 52 51 53 38 36 35 39 25 21 28 22 15 20 14 17 16 14 23 15 18 17 15 26 26 15 22 18 18 20 21
16 23 18 19 18 16 15 20 17 14 24 14 22 19 25 14 22 23 17 15 26 25 27 26 31 29 39 36 39 46 41 49 40 43 49 41 43 36 40 37 30 24 16 17 18 24 14 15 17 14 24 14 15 24 19 17 14 19 15 21 26 18 24 18
17 21 14 20 14 22 17 15 18 16 17 21 14 22 20 15 21 14 26 25 15 19 16 19 30 25 28 38 29 36 43 34 34 41 41 31 35 39 35 29 25 22 16 25 25 26 14 16 14 15 14 14 18 21 16 23 20 18 18 15 15 16 23 14
20 18 25 19 20 19 22 23 21 21 21 21 18 19 22 26 16 24 22 18 21 17 14 19 22 25 29 24 27 30 33 39 27 30 36 36 28 28 25 22 23 23 21 21 16 19 21 23 23 20 23 22 17 22 21 19 22 21 23 19 15 16 14 19
20 26 19 18 24 20 24 19 15 17 21 23 20 15 21 18 19 24 18 22 24 17 22 20 23 20 24 20 29 30 22 28 31 24 28 19 22 18 26 18 18 19 25 14 23 21 26 16 17 22 22 18 16 25 24 25 23 25 20 15 18 15 15 24
15 17 14 16 19 22 24 15 24 19 16 24 25 19 20 21 14 26 24 25 15 16 24 22 16 14 22 26 14 22 18 23 17 20 24 23 21 20 15 26 25 23 15 21 14 20 16 25 25 15 21 20 17 21 17 23 15 22 14 25 18 17 14 14
20 25 19 14 18 26 23 17 26 25 19 19 22 17 16 14 20 23 24 17 22 23 14 26 20 15 24 21 26 14 16 14 22 20 14 14 24 16 24 24 23 21 23 16 22 26 17 19 18 24 18 25 17 15 14 14 17 14 22 23 23 23 23 20
22 21 18 17 22 19 25 26 23 22 18 16 16 20 22 19 19 23 25 25 23 25 17 21 25 20 23 14 18 19 16 14 25 16 14 19 21 21 14 20 22 23 16 20 16 24 20 18 20 16 20 25 17 18 15 20 22 15 16 18 15 17 26 15
21 14 16 26 24 20 19 26 15 18 16 23 24 25 26 18 24 26 14 23 26 18 23 26 25 16 20 25 25 17 19 19 26 17 14 14 15 22 18 19 21 23 19 25 19 22 23 23 20 14 21 21 18 22 18 21 16 26 25 23 17 18 26 25
18 23 22 15 20 25 22 21 19 17 22 22 16 21 26 17 15 26 22 21 18 20 15 18 21 14 14 21 25 21 21 25 18 21 21 19 23 23 19 23 26 18 20 26 16 26 22 18 19 18 24 14 15 23 18 21 15 16 17 26 15 14 16 17
21 24 22 25 24 21 25 17 19 22 23 15 14 18 22 21 22 18 23 18 24 22 15 16 23 26 15 23 22 14 22 18 23 24 26 24 22 22 17 18 23 14 14 19 15 16 26 23 18 24 25 23 16 17 20 24 21 15 20 23 22 22 15 25
17 20 26 19 16 23 23 14 24 16 16 20 14 17 21 21 20 22 24 18 26 24 20 17 15 22 14 24 21 17 20 14 26 23 15 24 20 24 24 15 26 16 26 18 23 18 16 19 24 17 18 14 16 22 24 20 24 16 26 14 22 19 18 23
16 26 26 22 19 16 16 25 22 18 16 24 26 14 20 22 26 17 26 16 21 23 23 17 21 26 26 22 15 23 26 14 21 14 23 15 16 19 14 21 14 19 23 24 19 22 14 21 26 16 21 16 21 24 14 16 23 18 18 23 26 16 26 18
14 20 23 17 14 21 18 15 18 22 14 25 16 21 18 17 18 26 26 14 20 14 17 15 24 23 26 15 26 24 25 19 22 20 24 21 15 15 26 16 26 24 23 20 20 24 25 14 21 18 23 14 19 25 24 23 16 25 16 18 19 22 17 18
24 24 15 18 22 21 25 17 25 17 17 22 21 22 18 20 15 16 19 23 15 20 21 21 16 17 19 17 16 24 14 18 19 21 15 22 26 24 22 26 26 21 16 19 17 20 17 25 25 18 22 20 19 14 22 24 19 18 17 25 26 16 15 23
26 15 18 20 25 19 22 16 24 16 17 26 21 18 20 21 18 18 15 19 23 21 16 18 17 19 25 17 26 21 24 19 24 23 15 19 18 21 23 16 24 14 16 22 18 25 17 19 19 22 17 20 14 22 19 25 19 21 20 25 16 26 16 20
25 16 23 22 20 17 25 24 22 18 17 15 22 17 26 15 26 20 15 22 20 19 18 14 17 20 14 22 16 23 24 18 14 18 15 25 26 23 26 16 22 16 24 18 15 16 21 20 17 15 21 21 19 15 19 16 22 23 15 20 15 23 23 26
15 19 14 16 15 21 22 24 17 19 23 16 21 19 22 25 15 21 26 16 16 17 16 14 21 15 22 22 19 22 17 16 19 24 15 16 19 20 25 25 23 22 22 22 18 14 22 23 17 21 19 14 20 24 18 24 19 19 23 16 25 22 16 25
