P2
64 64
255
24 16 25 19 18 21 19 22 26 25 20 21 21 16 26 25 22 17 15 18 15 25 24 25 26 16 22 14 15 23 18 20 17 15 18 18 22 21 14 14 24 15 22 17 21 17 24 16 16 14 18 18 24 16 23 17 21 22 23 26 16 23 23 19
16 20 24 20 17 14 24 24 21 24 21 17 26 16 15 19 22 14 18 20 18 22 18 18 23 22 21 24 21 14 14 19 23 15 19 17 15 25 14 15 23 16 18 19 21 24 19 19 14 22 26 15 22 14 19 14 16 24 18 21 22 18 18 16
15 15 14 26 17 22 17 26 16 18 15 25 25 17 16 23 14 23 26 23 20 14 21 16 17 19 14 20 16 17 24 26 18 19 26 16 16 16 19 21 25 20 22 24 26 23 26 15 14 19 25 18 16 18 22 16 16 22 17 16 18 21 24 15
25 24 21 24 17 22 24 23 14 22 25 17 18 25 17 16 21 14 20 14 21 19 22 22 21 14 24 14 20 14 21 16 20 22 23 25 15 18 20 24 17 25 14 25 17 25 17 17 26 25 16 26 25 22 22 26 17 24 23 21 21 14 26 15
15 21 23 15 14 17 22 14 16 24 26 16 23 24 23 20 15 19 16 15 15 23 21 26 19 17 26 16 17 22 25 23 15 14 24 16 15 21 15 26 15 21 14 25 16 23 26 17 23 24 21 26 17 14 18 15 19 14 15 25 25 26 23 25
23 24 18 24 14 26 25 17 17 24 14 22 24 24 19 26 22 25 18 16 20 19 23 17 17 16 14 24 21 21 20 26 26 15 16 23 19 23 15 21 20 21 24 17 17 22 23 22 26 18 22 16 25 23 20 26 26 23 20 21 26 19 18 15
21 18 24 14 18 18 22 19 14 20 18 25 15 26 16 15 20 15 25 14 22 26 22 20 16 19 14 25 16 25 17 20 18 14 20 22 22 18 17 15 25 26 18 18 19 16 23 25 19 18 14 20 26 23 17 15 19 17 17 25 23 26 24 14
21 21 24 16 16 15 25 14 26 24 23 24 20 18 15 26 15 21 20 20 22 23 23 25 19 23 22 15 21 23 24 26 17 22 15 15 20 26 22 23 16 16 15 23 15 16 24 15 17 24 26 21 22 20 17 26 26 21 22 15 15 22 19 22
14 22 16 20 21 18 22 22 24 24 26 26 23 22 17 23 21 20 14 24 21 18 24 23 26 22 17 16 18 21 14 17 22 14 14 22 25 26 23 17 19 24 14 26 16 18 19 17 21 25 18 18 14 15 15 17 20 26 18 14 20 18 20 15
23 22 20 17 24 22 16 16 23 23 22 20 14 25 24 20 19 25 19 18 22 25 20 24 22 19 20 17 21 16 20 24 15 17 23 19 19 15 26 14 16 17 21 14 25 25 22 23 16 25 18 25 24 16 16 23 20 18 17 23 25 18 23 14
15 22 25 15 17 21 21 19 15 16 25 26 21 23 22 22 19 23 19 26 16 14 22 23 15 17 22 25 19 25 18 20 22 19 25 20 16 17 21 16 15 24 14 17 26 26 25 20 25 16 17 21 20 17 18 20 15 16 18 14 22 16 15 24
26 23 22 26 25 25 18 18 25 19 23 17 21 24 16 26 17 14 23 22 21 25 22 15 23 18 23 17 21 17 25 22 15 22 22 22 22 20 14 16 14 22 26 17 19 15 25 14 18 14 22 15 14 19 26 26 16 23 24 24 25 22 22 20
14 18 14 25 22 16 24 21 18 14 14 17 18 16 21 25 15 24 15 26 26 21 14 19 18 16 19 16 24 26 20 14 21 20 24 16 20 21 25 22 20 16 25 20 26 16 16 20 26 16 14 24 14 23 17 26 21 18 15 26 20 25 15 23
20 14 17 14 14 18 20 26 15 23 14 15 19 25 23 16 26 22 22 24 24 21 17 26 18 19 17 21 24 18 17 22 14 16 24 17 21 14 26 18 20 18 14 20 17 21 26 23 22 18 21 24 22 26 20 20 25 21 16 21 22 24 22 24
18 20 16 24 20 19 20 26 16 18 26 18 15 22 21 17 17 24 17 14 16 26 24 14 17 16 26 21 24 24 22 21 17 24 26 23 20 22 18 21 23 20 20 25 26 14 16 19 17 15 15 15 19 26 16 22 21 20 20 19 24 26 20 22
24 22 25 20 25 22 19 14 22 24 24 17 21 14 15 26 15 16 20 21 21 22 19 17 22 20 24 22 16 25 15 16 15 14 24 25 26 25 21 19 14 18 18 17 18 20 15 20 17 24 15 25 16 26 14 15 21 26 18 14 17 19 21 26
21 21 25 22 23 15 15 17 24 16 19 19 24 18 18 21 17 18 21 22 23 22 14 22 15 23 19 20 23 18 21 24 15 24 15 25 18 17 19 22 22 20 23 20 18 18 15 22 20 18 20 25 24 21 24 17 14 23 16 26 25 19 22 26
25 26 25 19 15 25 22 15 20 16 22 18 24 19 25 15 25 25 19 18 15 16 19 21 22 19 14 26 17 20 17 20 19 21 26 21 14 18 22 24 20 15 15 15 16 22 22 24 20 25 15 25 26 21 21 25 25 16 20 23 25 19 26 26
15 25 15 24 21 22 15 25 20 26 18 18 16 22 21 18 14 22 18 18 19 21 20 16 18 24 26 19 23 25 16 16 20 15 17 17 15 23 26 14 23 25 22 25 22 20 18 24 21 24 20 26 26 19 14 20 19 21 25 14 23 19 25 16
17 20 24 15 16 14 15 26 20 17 25 25 26 24 21 14 25 23 20 25 25 23 17 27 17 24 15 20 19 26 17 14 23 15 17 15 21 26 19 15 18 21 23 29 22 29 22 20 18 20 19 16 16 23 18 26 15 22 14 20 25 26 18 25
16 15 22 16 22 24 16 26 17 16 17 22 18 19 19 24 19 25 28 33 29 32 32 30 30 24 18 26 24 19 17 15 19 17 25 26 21 27 25 26 21 22 24 29 32 32 21 26 28 26 16 15 17 16 22 26 26 20 19 16 15 17 25 20
15 19 16 19 24 15 14 19 25 23 17 24 21 23 28 29 24 29 36 34 25 26 32 28 27 26 32 31 20 20 20 16 22 26 14 21 27 23 25 26 28 29 25 36 30 31 31 33 28 22 29 18 19 14 18 23 14 26 20 16 23 20 15 22
23 14 18 16 19 20 20 15 26 20 16 19 20 21 25 30 35 33 33 32 36 37 40 29 31 35 33 29 28 25 19 14 25 21 25 19 23 30 32 26 38 39 34 32 36 31 38 30 36 27 31 32 26 18 22 25 26 23 21 26 19 18 24 17
16 26 21 26 14 23 23 20 14 20 26 23 32 31 29 29 37 43 39 35 38 45 39 32 37 32 35 25 27 28 28 21 26 15 21 29 30 28 32 31 36 34 40 37 36 40 36 42 37 32 30 27 20 21 20 22 21 19 26 21 26 20 16 21
14 21 24 17 20 17 16 17 20 14 28 31 27 35 38 42 44 46 41 46 40 40 41 37 40 45 39 30 28 35 25 23 15 23 30 32 27 36 33 34 41 40 40 45 47 38 39 34 38 34 32 30 33 25 24 16 22 22 15 19 26 24 24 15
15 21 16 18 26 25 22 22 23 23 21 22 32 39 35 35 40 46 43 49 44 51 53 44 39 45 44 42 39 25 26 25 27 28 22 35 30 33 41 40 38 48 44 46 44 45 40 43 36 46 35 28 34 30 31 20 21 19 14 24 21 22 21 23
25 22 15 22 14 26 20 20 25 30 22 28 34 43 41 49 49 45 51 54 56 57 45 48 46 46 46 39 33 35 26 22 27 21 28 35 32 34 45 44 52 53 54 55 54 53 46 44 42 37 39 42 28 28 33 27 22 15 16 21 24 24 21 14
25 26 19 24 24 20 26 19 27 22 28 37 33 37 40 45 47 57 53 55 51 50 59 56 45 43 49 48 34 42 34 26 25 31 35 38 45 43 48 50 54 57 51 57 56 59 55 45 47 46 39 37 35 30 30 26 26 21 26 23 19 25 26 24
18 22 26 16 16 21 20 23 24 28 28 39 43 45 51 53 52 52 56 54 61 55 63 62 57 47 43 45 47 41 28 29 37 29 29 40 45 43 49 55 55 53 52 62 53 54 59 48 52 47 49 38 37 38 34 29 28 16 26 20 18 16 14 25
23 16 18 25 23 18 23 21 25 34 35 30 37 40 51 48 54 54 57 65 66 59 63 56 57 51 55 47 48 35 34 33 31 37 41 34 37 46 48 48 54 59 55 69 66 66 64 55 56 53 48 38 39 41 26 28 29 22 15 18 26 23 17 15
24 15 16 19 14 26 26 20 20 25 34 41 43 50 52 58 57 56 61 68 60 71 64 62 58 55 49 52 40 36 33 40 34 44 41 40 38 51 51 58 54 62 66 72 68 61 57 53 57 49 43 38 46 31 37 28 26 23 25 20 17 20 25 21
26 21 24 23 22 14 25 24 30 29 29 34 42 48 50 58 60 61 60 69 70 68 73 61 54 51 54 52 49 43 35 32 36 42 36 36 47 46 53 58 60 67 64 64 70 63 67 59 62 48 50 39 42 31 35 27 26 24 15 26 15 17 19 16
23 26 21 20 14 22 14 18 32 26 40 35 42 44 50 55 55 55 68 74 67 67 72 62 67 56 53 49 41 39 40 42 34 39 34 47 44 50 47 54 60 67 64 70 72 68 61 61 55 48 43 39 35 32 30 34 21 21 20 22 15 24 22 18
21 20 22 23 26 22 23 21 24 35 36 34 45 47 53 58 58 64 63 74 76 65 70 69 59 53 53 55 48 46 42 44 39 43 42 41 48 49 53 58 56 63 68 76 65 66 61 63 53 49 52 46 45 35 30 25 31 25 14 14 14 14 24 21
17 15 17 23 19 25 24 26 23 32 37 31 39 48 43 49 61 54 58 70 72 61 65 61 59 56 57 51 42 45 41 43 36 39 38 43 47 43 48 49 55 63 67 64 69 67 56 53 54 56 54 43 34 34 38 25 25 27 15 26 17 20 21 24
25 23 23 24 20 18 25 20 25 26 35 41 38 49 44 46 47 56 65 64 65 60 65 55 58 50 44 45 37 44 36 39 35 36 35 37 46 45 53 52 54 63 62 62 59 61 64 52 48 51 43 37 38 31 38 31 30 19 17 14 23 22 21 21
18 26 16 14 17 22 15 15 20 27 32 32 40 36 42 49 45 50 53 61 64 56 60 50 59 57 43 47 44 37 29 34 36 35 37 44 44 47 44 53 49 52 62 59 64 53 54 57 46 50 51 35 33 38 34 24 27 20 24 14 17 19 18 23
21 24 24 14 23 24 21 19 23 26 29 36 35 41 49 48 43 47 48 49 57 49 50 52 57 49 45 39 36 35 38 31 29 25 36 34 42 39 47 53 52 53 55 53 61 52 53 55 48 52 49 39 34 39 29 24 22 14 26 24 24 21 22 17
26 14 16 18 16 25 25 26 24 26 26 29 39 31 42 45 43 43 46 51 55 49 45 55 50 42 45 43 35 32 25 28 27 22 35 34 39 43 37 51 49 50 47 49 51 44 45 42 40 39 40 32 31 37 33 18 17 15 14 25 18 24 22 18
24 28 21 21 29 24 23 26 26 30 27 27 34 38 44 43 42 54 43 55 50 56 55 49 52 40 43 36 40 31 35 24 26 26 31 33 37 37 41 42 44 46 51 58 52 49 46 44 44 44 47 40 42 37 25 25 25 32 22 22 23 27 22 28
20 30 25 33 33 25 23 31 23 30 27 27 43 37 46 50 51 44 52 54 45 47 58 45 49 47 45 44 36 44 34 32 29 35 42 45 41 39 48 53 51 49 58 52 52 55 55 49 46 46 52 46 42 44 39 36 35 30 36 36 33 30 27 30
29 28 28 34 32 27 26 32 27 30 38 38 39 45 38 41 47 52 51 47 46 51 47 55 46 52 51 47 37 38 43 28 31 38 34 38 39 46 48 51 52 53 51 52 55 56 55 57 53 56 53 48 42 44 35 44 40 40 35 44 41 37 39 35
23 25 23 21 20 26 31 24 32 33 22 27 36 27 39 33 38 39 39 46 40 38 47 37 35 43 39 32 40 36 30 23 28 29 35 36 35 42 41 38 45 44 41 47 44 50 50 45 39 40 42 41 29 27 38 36 28 31 30 26 36 35 31 35
18 19 20 19 19 19 24 25 21 23 17 21 21 31 22 24 37 32 29 37 35 34 37 30 37 27 30 32 28 27 26 28 22 30 25 25 27 30 25 34 28 37 33 40 37 31 38 39 28 26 31 23 30 31 23 27 28 21 21 29 31 32 28 24
21 25 18 22 25 22 22 19 26 17 17 24 25 25 17 28 24 26 24 24 28 27 28 27 28 18 17 23 17 26 21 22 22 18 16 19 15 19 20 22 25 30 29 29 22 21 26 26 18 28 23 20 20 16 17 15 26 22 19 21 19 20 21 26
18 23 19 20 26 24 22 15 21 20 17 18 26 21 22 18 19 24 25 27 26 30 25 24 16 24 25 23 20 19 26 23 16 15 17 16 16 17 19 20 19 26 24 23 26 17 29 18 27 19 23 22 24 15 26 19 21 14 17 20 20 17 24 25
24 18 19 21 15 18 19 24 14 16 15 14 16 22 16 23 23 24 24 16 18 15 25 15 16 15 23 23 25 16 15 21 15 16 23 23 25 23 18 20 22 26 21 26 19 21 20 23 24 21 22 21 23 23 19 19 25 23 26 15 22 23 24 22
26 15 21 15 26 14 22 25 17 22 16 15 16 25 23 17 16 23 18 21 26 18 21 24 16 26 19 26 14 18 17 14 23 18 17 25 18 15 14 15 23 14 14 14 23 17 16 15 22 14 23 18 14 14 17 26 18 14 20 23 14 21 21 19
19 21 25 19 20 18 19 24 21 18 21 19 21 19 19 16 16 15 17 16 21 23 15 14 17 26 18 24 23 19 22 23 18 25 14 21 23 14 24 26 26 21 24 25 21 19 20 22 23 17 17 16 25 17 14 17 22 15 18 17 23 19 22 24
21 19 26 22 18 21 14 21 21 24 19 16 14 19 24 19 24 14 15 26 25 24 22 19 25 18 15 14 21 14 16 23 26 26 17 21 23 19 21 20 14 23 24 23 19 24 16 23 26 21 21 15 15 17 25 24 24 25 23 14 19 14 19 15
21 18 23 25 18 21 15 18 23 17 23 14 25 22 26 17 19 23 18 19 24 20 24 19 19 15 14 18 16 19 26 16 24 16 25 26 23 21 26 20 20 16 26 17 23 18 25 15 23 22 20 17 20 25 19 18 24 14 15 19 18 15 19 26
25 21 23 23 20 24 19 24 24 23 23 26 14 23 14 21 21 16 15 14 25 26 19 18 14 18 26 20 20 17 14 18 17 23 19 21 14 22 22 20 18 15 25 20 16 22 18 21 22 26 25 16 15 15 20 16 14 23 16 26 19 24 25 16
14 18 20 20 15 22 26 15 24 20 20 15 25 23 19 14 18 14 25 18 24 17 21 26 26 15 26 15 25 20 14 23 20 23 22 22 17 26 23 18 23 23 15 19 17 16 24 15 14 22 24 20 25 16 14 14 14 25 19 21 17 26 17 15
19 25 17 22 18 22 20 15 18 26 26 21 16 15 18 16 18 15 19 17 15 26 23 19 21 25 20 20 25 26 22 18 23 14 14 16 15 23 15 21 15 21 23 21 19 24 20 19 15 17 26 17 22 19 22 14 15 16 17 21 23 20 19 15
16 14 23 19 17 24 19 17 15 19 26 15 18 26 22 24 17 22 20 15 21 24 17 19 20 20 24 20 20 16 20 19 14 25 16 16 18 14 14 24 16 15 17 19 15 18 15 16 18 15 17 19 21 26 18 26 18 17 16 16 26 14 20 23
14 22 24 16 19 16 17 21 20 15 17 18 21 14 23 20 19 20 26 22 19 17 21 25 17 22 24 17 25 17 17 21 20 15 19 25 25 23 23 24 15 26 25 26 17 21 25 22 14 16 24 14 22 23 14 15 17 23 15 24 19 20 23 16
17 18 23 20 17 20 22 14 25 14 26 18 22 14 16 25 14 24 21 23 26 14 23 18 26 19 16 23 21 15 24 20 26 20 14 21 26 15 19 21 14 21 16 26 25 21 24 14 18 25 25 20 16 16 20 21 17 16 14 26 24 24 21 16
20 20 21 19 20 21 26 17 19 24 21 21 25 17 14 17 16 18 16 19 25 24 14 16 17 23 22 14 22 16 20 15 18 18 22 20 26 25 21 19 23 15 22 18 20 19 26 24 22 19 24 26 15 17 21 15 15 18 26 25 24 16 25 25
19 24 22 16 20 15 23 17 20 25 24 19 21 22 21 23 25 14 22 25 17 24 21 22 24 20 22 15 17 15 24 23 19 15 17 15 19 21 24 22 19 20 19 25 14 15 20 17 21 22 20 26 15 16 18 17 17 26 23 25 20 17 16 26
23 26 19 23 26 14 14 19 24 22 20 21 14 21 22 15 15 25 24 19 26 24 16 16 25 18 19 16 26 20 18 25 22 16 14 15 16 25 19 23 22 16 22 20 19 16 16 15 14 25 18 16 14 20 19 21 25 23 19 16 19 15 17 24
25 17 15 23 21 25 23 20 15 22 17 22 21 21 24 15 18 15 22 16 23 21 21 24 24 17 24 21 26 19 21 26 15 23 19 14 23 24 25 17 19 24 25 24 18 19 26 19 19 17 19 15 24 14 22 18 25 26 14 17 24 15 20 22
24 21 15 18 19 16 17 16 16 16 19 15 18 24 15 19 19 26 26 18 18 19 21 23 20 26 17 21 25 14 16 24 26 14 24 17 16 15 18 18 23 25 20 23 21 22 22 21 22 19 20 22 23 24 16 17 16 21 17 15 21 18 16 26
19 26 21 20 25 15 25 24 25 16 20 25 22 17 20 23 19 16 18 25 14 18 14 20 26 18 20 26 22 26 23 25 26 24 23 15 24 19 16 21 26 20 18 26 15 15 14 21 19 24 18 15 20 17 22 21 23 14 20 19 16 16 26 23
25 18 21 18 20 17 15 22 15 22 18 24 16 16 25 21 20 15 24 24 19 18 22 15 19 26 19 24 17 24 18 16 26 21 17 23 24 20 25 24 26 14 18 24 21 14 17 21 24 22 23 24 23 23 18 15 24 25 15 25 19 14 17 21
