P2
64 64
255
34 29 23 35 22 27 32 35 27 33 34 32 36 32 24 26 23 25 24 20 34 23 37 27 30 28 31 25 19 37 18 22 28 29 27 24 27 22 33 21 18 25 30 24 36 20 38 28 23 30 30 26 31 36 21 30 29 19 37 32 22 35 35 21
31 21 22 32 36 19 35 31 25 20 35 30 33 25 34 31 31 20 28 37 20 28 22 24 34 31 25 18 38 35 18 18 22 19 28 31 36 38 38 37 28 38 25 35 29 27 36 29 29 38 19 21 35 30 19 34 35 24 21 18 32 18 23 20
25 21 27 30 33 32 18 38 22 32 25 25 38 18 32 30 33 32 30 26 19 35 38 25 23 31 37 38 19 35 29 38 19 31 24 30 34 37 34 32 33 24 22 27 30 21 32 24 37 33 22 24 29 27 25 24 30 36 23 34 18 28 29 21
38 19 34 24 30 20 35 35 22 29 33 20 32 26 32 30 34 31 20 35 19 35 19 20 36 38 25 28 32 33 38 29 38 20 26 28 29 32 23 23 37 18 35 30 36 29 34 28 25 31 31 25 36 20 18 27 28 26 20 29 24 36 32 27
31 36 34 27 23 30 32 26 27 21 30 22 30 30 30 20 32 29 37 22 31 35 34 34 24 24 18 18 37 18 28 37 37 21 33 37 26 31 24 33 31 38 28 28 34 29 20 35 29 35 30 28 24 31 19 33 27 34 30 21 19 33 18 35
30 20 33 30 38 29 38 29 25 22 20 33 30 30 36 25 20 26 35 23 24 18 27 21 37 24 21 22 34 36 21 36 21 26 30 32 24 18 22 26 26 36 38 31 33 35 37 36 31 38 22 33 29 19 27 21 38 28 31 24 31 33 31 37
27 19 24 20 32 32 25 28 26 18 25 35 37 21 31 29 20 37 36 24 31 29 30 38 26 19 29 26 33 29 27 27 36 18 37 36 29 18 35 32 33 22 34 38 32 23 30 32 28 33 32 36 27 20 23 30 37 33 36 30 21 35 24 28
36 32 22 38 35 19 19 27 34 37 26 36 26 34 38 21 22 18 32 38 31 37 31 32 36 24 32 32 26 38 28 31 25 24 35 36 22 24 34 25 28 32 30 35 25 31 36 30 35 19 24 34 19 22 35 33 30 29 26 32 32 33 28 18
23 27 22 21 32 27 36 29 31 37 22 33 35 21 37 38 19 24 36 32 36 26 38 20 34 29 36 25 30 19 36 22 36 36 36 30 33 21 30 38 30 29 18 32 26 19 38 24 21 33 22 26 26 32 35 35 31 23 31 35 18 20 21 21
23 24 24 28 28 26 34 33 27 29 19 37 27 25 24 30 38 26 26 26 33 38 36 22 19 34 30 36 22 35 36 20 20 35 27 29 34 24 36 33 36 35 38 23 23 28 35 22 23 25 31 28 34 23 26 37 18 30 29 35 19 24 23 30
33 35 32 33 24 24 36 23 36 35 30 20 22 21 36 32 35 19 18 33 32 18 22 21 36 33 26 24 31 27 19 28 30 19 34 25 25 23 21 18 21 35 36 35 25 23 34 19 18 30 38 34 29 21 29 29 21 20 33 24 33 26 36 25
31 27 22 31 18 33 36 18 22 35 34 20 37 25 32 30 37 21 19 20 24 36 25 31 24 35 35 28 22 34 29 29 24 37 32 18 36 22 29 32 34 33 20 23 25 22 26 20 33 35 22 30 32 37 25 35 28 25 21 33 28 29 36 18
34 25 38 28 32 22 32 34 33 21 35 21 34 25 23 28 31 38 23 22 21 18 30 21 35 20 34 26 18 35 34 34 31 32 36 25 19 34 38 36 29 28 29 22 29 34 27 29 22 27 30 20 23 27 28 34 23 18 32 37 26 29 22 23
23 33 34 24 37 36 19 34 33 19 20 18 24 36 28 28 25 31 26 28 18 34 21 31 28 33 30 29 36 35 28 35 19 22 19 19 26 29 28 22 29 26 26 33 36 32 28 22 21 28 36 35 28 22 21 31 23 35 31 19 23 30 20 37
21 26 34 34 34 21 37 29 26 35 32 31 20 36 20 34 35 26 33 24 33 20 33 27 24 27 38 35 27 23 19 37 28 25 34 34 31 21 37 23 26 37 22 19 25 35 37 38 36 31 32 36 24 27 31 27 37 36 36 37 36 22 25 19
37 34 23 18 34 30 23 34 22 19 19 32 22 26 35 32 34 30 21 33 19 31 19 33 25 25 27 21 34 34 30 21 20 36 35 19 31 28 38 38 33 30 38 25 32 19 28 35 34 24 33 37 32 21 37 24 34 22 22 29 21 33 29 31
29 25 22 29 36 35 25 32 36 38 31 33 38 22 20 26 27 35 27 38 20 28 18 36 20 25 34 18 34 34 27 18 34 21 21 27 20 18 28 27 21 18 28 37 38 33 33 33 30 25 35 31 38 20 37 35 27 25 34 34 38 25 34 35
37 18 28 32 35 25 26 18 24 33 30 18 30 24 36 31 30 37 18 21 29 30 21 32 35 30 38 20 20 31 34 32 37 37 28 29 38 22 35 36 30 25 18 28 25 31 35 30 34 36 29 24 20 30 20 36 21 19 32 35 28 28 35 20
27 21 24 24 34 38 31 31 37 34 22 30 28 28 21 29 31 20 30 36 28 30 36 23 18 25 30 19 35 21 37 30 27 25 27 37 35 18 22 18 30 36 25 25 37 25 22 36 30 26 35 32 21 32 37 36 35 35 31 29 34 23 38 34
31 22 33 27 35 18 33 32 27 18 36 33 22 33 23 26 37 29 31 22 36 38 27 22 26 36 27 37 25 30 24 27 20 27 28 38 20 19 26 22 40 34 33 26 28 30 32 38 30 30 34 20 35 21 32 38 37 35 30 19 38 27 21 25
37 35 28 36 32 24 33 35 19 38 21 26 18 31 32 23 28 27 31 37 38 38 27 31 36 39 37 27 36 19 34 22 18 27 36 37 19 22 36 23 44 36 41 40 43 33 38 37 39 29 23 37 35 22 31 25 36 30 33 28 35 24 29 27
30 27 38 37 35 30 35 33 35 38 30 28 21 32 36 31 30 38 29 36 47 43 41 48 31 42 41 31 39 28 18 28 30 18 24 22 21 35 32 45 48 56 40 43 35 33 35 34 26 41 28 41 37 36 24 26 21 33 24 37 33 28 29 22
34 18 25 37 28 29 38 28 19 29 18 29 40 30 28 34 41 46 42 35 50 37 50 33 48 47 37 39 27 40 34 32 31 29 34 25 34 52 43 65 62 53 51 58 49 45 39 48 49 31 43 27 32 23 33 24 21 38 19 36 18 18 37 35
29 36 25 28 26 35 20 38 27 19 22 26 32 36 32 32 46 50 53 42 43 39 52 47 47 53 32 48 37 30 37 20 29 21 37 38 45 50 70 67 72 68 74 67 75 60 57 48 36 40 37 46 24 35 29 24 25 28 18 25 19 38 28 35
30 35 18 21 25 34 27 28 20 30 25 29 38 42 50 48 50 58 59 44 51 43 56 58 58 55 41 32 36 42 25 27 35 31 40 45 45 66 76 79 85 95 97 94 79 74 60 63 51 44 38 42 37 31 31 29 29 23 36 18 30 19 35 24
25 27 23 26 25 36 37 21 38 34 32 29 50 44 46 45 57 56 52 60 63 49 56 61 60 57 39 49 33 33 32 38 38 43 37 45 63 66 84 86 102 92 102 98 86 88 69 57 55 55 36 38 42 44 32 37 38 19 18 20 19 19 24 31
33 21 35 27 32 19 27 31 23 30 33 37 51 41 49 53 61 55 60 63 65 56 48 58 65 47 52 53 40 46 41 31 37 36 45 55 79 81 95 112 106 120 106 112 95 96 73 80 59 55 40 43 48 42 30 41 19 31 24 32 22 26 37 35
36 24 24 24 29 34 28 20 36 27 28 31 48 38 54 53 54 52 65 57 53 64 65 53 66 61 51 58 48 54 43 42 34 31 53 68 66 78 91 121 130 137 122 115 113 98 93 87 66 50 47 53 40 43 45 30 27 21 23 27 20 21 30 24
30 22 32 23 24 27 37 18 29 30 33 48 55 58 54 49 68 72 70 61 59 69 75 57 64 50 65 61 52 47 39 39 38 40 43 73 83 96 111 110 121 140 142 116 109 105 96 78 72 60 56 56 55 51 43 32 27 30 21 32 19 34 25 30
26 28 37 23 37 37 25 21 42 38 39 42 43 54 54 62 66 73 62 71 68 79 62 68 72 51 56 53 57 46 43 48 39 48 55 65 71 89 107 120 130 149 133 142 117 116 91 75 64 57 61 58 46 42 50 32 27 34 30 21 27 33 34 23
35 19 28 18 35 18 32 19 35 40 41 54 43 55 49 57 65 66 64 73 71 68 72 61 60 68 67 54 55 57 37 36 50 46 56 70 79 82 109 133 148 148 149 150 130 118 106 77 68 58 56 53 38 46 49 40 30 33 21 26 37 28 20 35
26 21 32 34 35 23 31 23 34 38 39 50 59 49 62 58 75 75 79 72 86 71 77 69 76 62 63 49 62 53 50 45 51 39 40 61 84 101 114 131 138 151 154 154 139 124 119 82 62 54 59 51 51 49 46 45 26 33 23 29 19 20 37 23
31 36 35 36 34 37 18 33 34 40 38 42 40 44 57 60 58 79 83 69 91 88 75 70 66 63 66 64 62 39 45 40 51 40 39 46 68 100 120 140 139 161 167 150 141 135 109 97 81 70 47 58 47 46 39 36 37 39 24 25 37 29 38 23
35 22 26 27 35 31 19 22 27 27 51 41 53 55 54 67 71 59 80 85 77 85 68 64 61 61 70 59 53 48 55 48 52 38 45 59 77 88 117 139 146 160 150 148 152 137 104 85 77 71 53 60 58 39 42 43 32 23 19 36 20 18 36 32
23 32 20 19 29 19 19 35 29 36 31 51 41 45 49 62 72 57 64 63 76 83 82 70 62 69 81 77 74 68 45 55 37 36 52 51 66 92 112 133 143 145 151 142 139 132 101 89 80 60 50 44 40 49 39 44 43 24 33 23 26 35 22 34
24 24 24 29 25 22 19 39 23 41 34 35 39 56 48 57 68 70 57 74 81 61 67 74 91 97 85 80 82 77 58 52 39 51 39 55 73 76 109 122 129 148 142 146 138 117 102 95 76 73 61 46 48 39 45 28 27 24 20 22 32 27 28 35
31 25 28 23 36 28 19 22 23 28 36 49 44 47 63 64 63 55 61 70 77 62 68 79 99 91 115 97 107 96 81 59 51 44 43 56 61 79 95 116 121 149 143 137 121 110 105 89 82 62 47 55 46 52 45 25 30 27 28 37 31 35 21 19
31 21 37 35 19 34 31 30 30 37 28 35 53 54 48 54 48 56 63 52 59 54 69 94 99 120 111 122 117 104 89 56 41 48 36 52 62 84 85 110 118 141 132 124 126 120 101 89 74 59 51 42 47 39 40 33 21 37 25 31 23 19 28 18
31 38 18 36 29 31 36 27 35 38 29 30 51 42 50 60 51 49 52 63 66 51 74 86 103 118 141 139 121 99 99 63 57 42 45 51 71 72 89 99 115 120 116 129 107 113 86 87 67 56 45 49 50 45 25 28 21 31 21 29 38 35 19 31
31 37 25 32 24 32 38 19 37 20 23 28 43 49 38 52 46 42 59 62 62 63 76 82 108 118 126 143 123 107 88 59 57 35 38 44 57 72 90 100 98 112 98 113 92 85 89 77 54 61 49 40 43 35 25 38 29 23 33 25 21 28 26 25
20 34 26 32 36 31 26 25 20 26 21 27 43 38 36 42 46 42 58 42 57 51 57 78 98 112 125 121 130 96 79 58 43 39 35 39 53 68 62 81 94 95 93 93 86 79 71 75 59 55 48 33 39 43 21 24 23 28 37 25 31 28 35 23
22 35 18 34 27 31 28 20 34 22 28 37 27 39 31 45 51 35 52 51 57 37 65 80 94 92 115 116 99 97 80 47 37 22 40 41 43 57 60 59 68 68 80 71 83 75 73 62 36 37 29 43 38 21 28 30 25 20 36 34 34 27 26 35
35 27 19 23 36 37 22 24 27 27 33 20 35 25 46 47 35 39 43 34 36 48 41 53 81 74 83 93 82 64 52 39 20 18 24 36 34 42 56 51 51 60 55 65 68 55 56 44 38 29 42 33 34 38 25 34 26 34 26 31 36 36 32 24
35 22 24 33 33 37 32 18 27 26 27 36 27 33 38 26 31 28 30 32 49 32 47 38 46 57 71 72 65 52 48 34 18 18 38 33 37 27 42 40 35 46 58 56 54 49 43 43 45 41 37 30 20 37 22 29 38 32 34 31 25 36 25 22
29 38 24 34 33 30 24 25 28 20 23 32 27 25 38 38 35 37 34 28 29 41 42 30 27 33 41 55 42 31 38 21 26 34 34 23 31 38 31 31 44 27 36 37 31 37 45 28 28 39 34 20 27 24 18 36 24 28 21 21 30 26 21 34
24 21 31 32 21 36 33 35 23 38 25 20 36 28 30 27 23 33 35 36 40 34 26 32 31 24 26 32 30 23 31 21 21 29 35 28 31 30 25 24 35 32 41 27 33 35 39 28 24 22 20 22 24 24 26 31 22 21 31 34 20 23 33 32
38 24 25 37 26 20 24 18 26 18 23 35 36 20 23 28 32 26 28 19 28 19 33 26 24 32 22 32 18 20 24 20 25 28 35 24 32 19 30 25 21 33 38 36 30 22 36 24 38 26 18 21 19 20 38 27 35 32 19 28 19 19 32 28
36 26 23 37 24 21 31 31 36 31 34 32 30 35 22 24 19 37 20 23 34 35 37 18 32 25 36 25 32 35 38 33 24 30 37 35 22 27 36 23 34 24 34 25 34 25 36 18 26 35 21 38 26 36 26 28 21 27 31 25 30 30 24 20
18 22 26 32 36 18 30 28 23 25 30 31 38 20 19 24 35 24 36 24 20 32 32 24 26 37 20 27 18 36 35 20 28 33 33 34 26 27 36 23 23 24 22 21 35 32 38 28 21 24 36 18 36 20 25 28 37 33 22 22 34 27 31 32
26 19 34 19 29 23 35 29 26 34 26 34 25 31 18 30 25 33 21 27 21 38 36 24 32 25 30 27 34 37 26 33 30 22 36 32 37 32 33 32 19 25 35 33 26 30 23 22 36 20 20 20 35 35 35 21 22 38 26 33 18 23 29 28
30 19 23 26 36 21 19 34 26 30 20 32 25 21 35 23 29 32 34 19 34 31 36 33 26 24 24 33 36 34 24 28 18 28 20 32 33 35 19 19 25 23 28 26 31 20 25 26 27 24 34 26 22 21 26 31 36 20 20 19 35 25 37 34
32 32 18 38 33 38 23 24 25 21 29 26 33 24 21 36 19 18 19 21 23 22 35 19 26 30 30 21 20 27 19 22 37 30 26 32 25 37 25 29 28 32 33 19 25 21 26 36 25 22 29 27 38 35 29 27 28 29 33 38 33 28 19 29
30 29 28 22 36 32 21 26 35 21 18 37 31 32 35 20 20 36 18 32 24 26 21 31 31 20 18 33 30 38 21 31 26 27 33 29 33 33 38 21 37 29 32 21 22 35 26 36 18 33 28 34 37 28 31 20 32 29 30 20 38 29 28 22
21 18 27 29 34 31 32 25 33 23 33 25 24 30 34 21 34 20 36 22 23 30 27 36 23 35 18 24 32 31 24 32 32 34 20 37 29 28 28 21 30 34 30 29 24 18 32 37 38 23 38 27 18 35 26 31 37 23 28 27 23 33 22 35
25 36 19 19 38 31 31 28 20 30 26 36 20 36 21 20 36 25 30 37 18 21 36 34 26 25 25 33 34 20 20 19 36 34 22 28 35 20 26 23 18 34 29 23 32 20 32 31 20 31 24 35 32 37 30 25 31 24 19 25 20 24 31 34
20 27 20 36 23 27 36 30 29 22 33 31 30 23 23 28 20 26 32 23 36 21 21 22 19 36 22 38 38 36 19 32 35 22 26 35 38 22 21 24 31 19 26 22 36 26 35 18 38 19 35 18 29 20 21 19 33 28 37 24 24 33 24 25
23 18 35 38 38 36 22 19 30 32 24 20 37 29 27 35 27 21 21 24 24 26 34 30 20 27 31 29 18 32 24 35 30 23 37 27 26 20 35 33 20 21 28 27 32 25 36 22 37 24 27 21 18 27 32 31 19 20 28 31 22 19 18 32
26 21 24 38 25 27 25 22 27 21 21 18 21 29 37 28 31 37 31 27 29 31 21 37 18 33 32 25 31 29 21 31 32 24 35 20 23 24 37 29 32 33 36 26 31 35 30 24 27 35 32 19 29 20 18 20 21 18 23 23 31 33 23 34
19 24 21 32 33 29 32 26 29 22 37 24 20 23 32 20 32 27 32 21 32 29 18 23 34 23 34 27 22 18 37 24 21 32 21 22 33 32 29 21 36 26 36 30 19 36 25 26 34 25 18 19 33 38 31 26 37 34 26 18 29 26 36 30
28 35 21 33 37 34 27 25 20 37 30 35 37 28 37 26 25 25 27 32 23 19 28 37 22 38 28 34 30 18 25 19 28 38 27 19 21 18 29 23 29 22 37 19 24 36 21 22 34 19 36 24 20 27 19 32 32 27 37 25 38 29 33 37
18 34 34 20 27 32 32 25 26 18 33 38 26 37 30 28 27 23 19 28 36 28 24 22 35 24 32 37 33 22 30 28 35 25 21 23 31 21 25 30 20 23 29 22 35 36 19 33 25 21 37 34 29 26 24 32 35 19 27 23 35 18 27 29
29 26 38 36 31 21 25 21 37 21 22 35 27 25 27 23 19 38 19 26 32 27 33 32 18 25 35 22 21 31 37 24 36 20 25 27 34 34 29 30 24 30 18 37 23 37 36 22 35 26 34 25 35 31 34 36 36 21 38 28 38 37 32 25
21 25 30 33 33 35 33 29 37 31 35 36 32 34 27 23 36 35 35 37 24 23 36 32 20 34 18 38 33 32 30 19 18 33 36 25 21 20 36 35 18 37 29 19 26 38 18 19 20 25 26 21 37 27 22 35 27 31 31 22 34 26 23 18
31 31 33 20 27 20 35 27 23 26 21 27 24 18 29 35 19 31 28 34 38 18 28 22 23 31 36 35 25 23 25 26 33 28 28 22 19 35 25 22 27 22 23 20 18 34 18 20 36 33 33 20 23 21 38 27 33 35 30 22 32 31 25 20
