P2
64 64
255
37 19 21 18 20 25 29 34 34 22 23 25 33 18 33 28 21 24 32 36 34 35 32 36 18 27 28 20 20 30 31 32 37 29 31 37 33 28 27 27 23 23 33 20 23 35 19 32 33 33 28 34 30 20 19 21 32 36 18 30 31 36 38 29
31 22 33 26 23 22 34 22 36 22 23 29 33 29 33 36 21 34 28 18 18 32 22 37 18 30 22 38 31 21 23 26 33 28 30 23 24 20 35 23 37 18 20 23 32 31 35 35 25 35 36 28 27 38 19 34 31 34 19 32 22 20 25 19
23 20 27 35 35 19 34 33 37 22 27 33 23 21 37 24 25 26 26 38 27 23 22 34 19 26 20 25 23 25 28 29 19 30 38 26 18 22 29 19 28 20 24 35 19 33 31 28 36 34 31 20 28 34 23 28 23 18 31 23 26 29 24 29
24 36 22 24 26 27 38 19 25 30 19 34 35 36 29 23 32 25 26 34 24 24 27 34 37 23 29 28 24 28 38 19 33 36 34 35 34 27 36 21 23 20 32 33 30 38 21 18 31 24 35 26 37 36 23 28 32 33 25 23 20 25 24 31
25 30 35 33 35 20 37 38 30 36 26 37 30 37 26 37 20 25 35 35 21 19 25 21 37 28 28 33 27 27 28 36 19 30 35 26 21 23 30 27 24 25 26 29 35 27 32 29 30 38 20 25 27 34 29 37 27 31 22 34 30 26 26 30
35 19 22 34 30 30 28 30 31 35 35 26 21 37 38 38 32 33 24 26 24 31 28 26 33 24 37 30 22 26 36 19 21 35 31 32 24 31 38 25 32 32 27 32 21 27 30 32 31 20 25 34 32 24 20 31 38 26 37 18 38 19 29 36
31 19 19 37 22 28 32 28 36 22 34 32 37 30 32 26 35 35 22 31 36 26 24 32 27 20 26 35 35 36 25 26 21 21 26 35 34 29 23 29 18 24 28 23 31 35 22 35 37 22 30 30 30 22 20 29 34 19 23 28 27 25 31 22
19 18 18 36 26 29 32 28 35 28 38 30 23 36 25 25 32 33 24 20 34 18 32 25 25 30 30 30 18 21 19 27 31 37 28 25 32 37 36 28 37 36 38 38 23 22 22 28 36 21 20 21 28 38 38 28 20 22 27 21 30 18 28 18
33 32 22 27 21 34 19 35 34 30 35 37 37 33 35 30 33 23 22 34 23 38 19 30 26 36 30 36 36 25 25 22 37 25 36 26 21 28 25 25 29 34 20 28 25 25 21 21 23 18 28 36 35 19 18 21 19 22 38 28 31 21 33 38
20 25 27 37 29 32 30 20 20 26 18 29 31 24 34 29 24 36 26 22 21 34 32 24 31 33 31 31 18 19 30 25 31 29 25 19 25 37 19 30 28 34 32 37 21 30 31 33 35 20 24 18 25 31 26 31 34 20 27 28 32 27 24 35
35 27 18 18 38 31 28 37 26 26 25 35 29 35 32 31 33 20 19 38 21 24 18 36 29 36 27 34 29 35 26 25 23 32 32 23 27 33 19 25 22 29 20 36 31 23 20 31 27 34 26 31 24 38 37 30 22 26 36 34 25 29 28 33
22 37 28 36 35 19 38 28 32 24 33 21 38 26 29 34 21 35 23 34 23 24 23 20 30 28 35 31 21 30 29 33 31 30 32 27 22 26 38 36 34 31 32 21 19 38 23 28 28 20 18 38 26 21 32 25 26 34 18 35 22 21 21 27
27 31 30 22 24 28 35 22 18 25 28 26 33 24 19 26 24 25 20 36 19 25 35 32 34 29 25 37 29 26 29 20 35 21 38 36 28 27 38 35 31 30 32 24 37 30 32 27 18 20 32 19 33 36 29 35 22 33 35 23 23 24 21 29
20 30 22 24 30 33 38 25 33 30 30 18 29 33 30 30 24 31 20 33 19 37 20 35 36 22 30 32 20 35 19 30 34 34 33 32 27 20 26 34 18 37 26 37 32 23 36 21 18 26 30 25 35 37 36 27 18 32 33 36 31 36 33 25
31 26 32 20 33 23 31 25 37 21 23 38 22 28 34 30 22 26 25 31 20 31 22 26 29 34 26 24 36 27 19 36 24 29 23 38 32 21 23 38 29 29 35 30 21 34 36 38 32 25 23 23 20 22 22 29 33 25 31 24 29 26 24 22
30 30 26 34 34 20 25 37 35 22 27 19 28 23 22 38 32 33 21 37 28 25 36 32 30 30 23 20 36 24 28 22 32 27 21 21 29 20 20 19 31 38 18 32 18 25 25 22 35 26 31 35 25 28 24 34 21 35 21 21 21 36 28 34
25 24 37 26 29 28 21 18 24 27 30 31 21 31 31 24 37 31 26 32 29 24 34 31 29 23 34 34 23 23 31 29 25 32 29 18 35 26 20 27 24 38 26 31 31 34 23 25 26 19 28 23 21 19 19 38 38 18 19 32 20 25 35 38
26 22 19 35 19 23 21 21 19 23 19 36 32 31 31 21 22 37 20 29 32 19 34 33 32 23 23 20 38 37 38 22 36 18 36 38 33 29 30 28 29 27 21 23 26 31 23 35 33 25 21 20 35 30 29 22 25 28 28 23 21 24 29 29
35 21 27 25 33 27 27 31 28 23 33 32 28 38 19 35 25 31 37 18 30 21 35 20 32 23 25 21 23 23 26 21 21 20 33 34 23 36 23 32 24 37 18 38 38 33 28 29 32 23 29 35 29 20 30 35 38 22 19 22 28 34 35 26
31 31 22 29 21 38 20 37 36 38 28 29 30 24 19 29 20 20 27 33 36 25 39 36 35 20 30 33 32 34 24 33 29 30 27 29 28 21 18 32 20 30 21 42 25 32 25 23 31 30 28 22 36 28 30 35 34 24 21 37 20 26 28 26
22 32 32 26 36 38 22 19 29 20 21 31 27 31 33 38 26 32 38 35 26 43 26 31 29 22 36 28 33 37 34 36 30 34 22 36 22 32 41 28 27 37 32 27 43 43 40 34 37 24 32 30 22 24 23 28 20 32 22 19 20 35 18 23
36 23 27 27 19 32 24 38 25 22 23 29 22 21 30 26 34 40 31 42 38 48 37 40 44 45 28 40 34 27 35 30 41 21 30 19 22 35 28 43 40 39 30 45 35 45 40 36 36 37 29 31 32 24 32 35 38 22 25 32 22 25 24 20
36 28 29 28 21 28 38 34 29 21 20 25 22 33 38 44 33 38 35 34 51 46 47 36 51 43 47 35 43 32 36 47 27 44 36 41 29 40 29 35 42 33 38 40 41 50 48 32 31 46 43 38 30 22 31 21 19 26 31 19 18 22 19 34
24 29 35 30 26 24 18 37 26 30 26 27 29 37 36 36 40 46 41 47 53 54 47 36 45 46 38 55 55 56 46 33 52 42 40 57 42 51 57 38 55 50 38 40 52 40 49 49 50 37 29 47 40 36 33 20 20 36 36 30 31 33 35 20
21 18 36 23 36 25 28 37 31 23 23 33 35 48 47 38 42 54 54 60 41 45 60 59 44 62 56 54 58 60 64 56 44 62 46 46 63 66 50 47 46 46 49 59 43 51 50 53 46 48 39 35 35 35 38 37 29 27 20 25 30 29 24 31
33 26 22 36 20 36 29 24 19 20 23 39 30 33 35 55 54 45 43 53 48 48 55 67 71 66 69 58 55 69 54 56 49 53 72 58 74 72 65 67 59 69 48 51 57 48 43 59 49 52 48 38 34 29 43 21 30 37 28 20 36 36 27 34
35 24 38 36 23 25 38 33 37 32 28 44 33 46 54 48 59 47 59 61 54 55 61 64 79 81 75 84 72 79 81 73 60 62 73 74 72 74 65 75 63 78 68 67 51 53 65 45 44 55 45 51 32 34 34 33 25 30 33 37 23 28 24 38
20 23 33 32 29 25 29 25 39 34 44 37 49 52 59 62 63 49 51 66 66 79 69 80 73 82 75 80 89 88 69 88 70 84 83 90 75 82 77 76 86 85 83 60 70 64 68 57 61 62 54 57 47 31 36 35 24 38 29 24 22 26 26 18
31 25 25 26 25 22 36 28 26 38 35 33 47 51 47 55 60 53 66 64 63 78 72 77 85 96 98 92 94 92 84 98 79 94 91 80 81 93 95 98 88 79 89 78 76 77 55 55 53 50 53 56 47 51 34 42 23 26 32 21 20 25 35 26
26 36 30 22 36 18 36 35 22 33 45 43 42 53 65 52 65 63 75 72 70 75 82 82 98 105 97 104 91 90 88 92 88 104 104 96 89 90 99 85 86 99 98 94 72 64 77 56 53 59 50 57 51 42 35 42 30 38 26 23 37 37 22 18
33 37 37 34 35 22 19 33 43 32 35 40 42 50 64 51 65 74 74 77 77 81 103 89 99 93 109 95 101 94 104 98 95 100 104 99 110 101 99 96 99 98 104 98 79 86 61 58 72 63 48 54 50 48 50 27 35 35 35 34 29 28 26 25
22 26 37 18 38 32 27 24 29 46 35 36 53 51 67 65 68 71 74 93 97 91 110 94 105 104 111 108 115 116 102 106 104 104 113 108 119 109 103 97 103 94 99 103 87 83 73 77 58 65 67 52 51 47 39 40 44 22 27 37 24 21 34 30
20 26 24 32 37 31 26 31 34 46 36 52 54 60 59 71 70 60 86 84 99 92 109 97 104 107 112 112 106 116 109 123 114 127 123 120 114 115 108 103 99 108 101 112 106 89 77 63 55 51 52 50 54 38 32 41 38 29 20 22 22 18 36 23
35 33 35 22 27 36 37 36 29 27 41 55 48 55 54 52 69 77 74 91 103 101 105 101 119 107 115 117 107 110 115 132 122 114 110 119 111 117 110 119 102 101 101 99 104 97 71 61 69 67 55 46 54 55 50 42 36 21 29 32 23 30 23 33
35 23 32 25 25 35 38 25 35 45 45 38 50 54 48 60 59 61 77 84 101 104 111 113 110 109 119 114 118 126 129 118 127 118 129 111 127 113 126 106 112 117 98 104 101 88 71 61 72 58 46 59 57 36 32 41 24 23 29 24 29 20 38 20
23 26 22 36 19 25 33 23 27 45 46 51 56 59 45 55 68 61 71 90 88 100 107 114 113 105 115 124 114 116 116 140 136 128 131 113 113 107 117 115 114 114 105 99 99 82 79 65 54 61 59 60 49 52 32 39 42 35 33 20 34 37 37 33
36 25 22 36 26 23 30 34 27 33 44 44 46 56 53 60 68 63 69 85 92 84 95 112 111 117 108 112 116 117 127 128 129 138 124 116 124 121 121 120 108 95 101 86 96 76 82 58 63 57 58 42 44 45 29 35 24 29 30 34 26 38 31 35
30 26 38 24 33 23 34 20 39 25 29 42 54 54 58 46 60 63 70 73 79 86 86 98 100 110 100 112 113 124 119 131 116 125 115 112 110 118 101 107 106 97 98 91 80 72 64 69 48 51 54 56 51 33 45 42 28 26 19 19 36 21 29 32
21 32 22 31 37 23 37 21 31 23 44 37 43 45 38 56 62 52 61 62 83 78 83 99 96 112 109 103 108 108 125 106 107 116 111 115 112 107 104 108 93 88 81 76 88 78 58 57 60 42 55 50 40 40 40 25 33 20 26 26 25 26 33 37
21 31 24 24 21 32 27 36 23 27 36 46 44 48 38 51 45 44 62 73 70 69 89 97 102 97 110 107 106 107 99 105 107 97 103 102 112 93 97 101 100 98 81 80 68 68 56 42 44 55 43 35 47 29 36 25 37 32 21 38 28 30 38 21
21 26 29 34 38 29 23 22 28 34 39 34 30 37 45 35 51 49 57 57 69 81 83 75 78 95 91 94 93 97 95 108 88 105 100 109 107 105 96 99 85 84 83 80 74 51 44 51 45 35 39 31 46 36 22 21 34 28 34 23 21 33 38 18
28 24 21 35 18 24 31 32 37 24 25 21 31 29 33 41 33 46 40 62 58 56 65 71 83 74 77 91 85 83 84 91 87 87 91 85 96 99 83 83 78 77 70 62 61 61 55 43 49 47 38 40 40 31 21 28 35 23 21 30 25 34 23 23
21 22 18 33 21 19 26 23 34 38 19 21 29 25 29 38 37 46 47 45 62 70 55 62 79 82 70 85 87 83 87 87 87 81 76 83 84 86 83 79 72 74 74 61 59 57 43 47 33 41 35 36 32 26 35 22 26 37 29 34 21 18 18 36
37 27 36 34 20 31 19 38 33 18 19 20 35 24 35 42 27 31 36 35 37 60 67 55 70 60 69 65 79 83 83 73 75 77 73 82 83 65 72 73 59 57 60 56 38 51 42 37 35 40 40 24 31 19 28 24 28 30 34 26 20 21 23 38
34 22 31 23 38 28 26 23 29 24 32 21 25 28 31 23 34 36 26 29 49 40 42 63 60 57 61 61 72 59 80 68 65 73 79 63 59 72 63 68 65 55 50 44 43 29 29 29 25 30 31 25 20 36 30 37 29 32 37 32 31 30 26 36
31 29 18 30 33 36 35 26 32 20 38 24 25 19 37 20 34 26 41 21 25 33 38 55 40 51 64 53 68 62 55 60 76 58 66 64 67 68 58 50 52 46 46 37 42 26 37 37 39 34 38 38 29 18 31 36 36 28 29 19 21 24 36 27
29 25 25 36 37 27 30 25 22 28 30 32 29 18 24 37 32 23 25 33 33 35 26 49 43 43 57 48 54 54 57 49 64 64 60 52 47 51 47 40 36 36 39 26 34 30 36 33 19 38 30 22 29 38 19 21 38 24 24 36 27 18 37 37
27 36 35 35 22 31 27 18 20 21 25 35 23 36 20 28 24 22 19 24 26 31 38 40 47 44 53 56 54 47 47 54 63 46 53 51 42 42 34 38 31 37 27 31 31 24 34 24 33 32 24 34 33 28 30 36 38 36 32 22 23 31 29 20
22 25 38 28 23 37 34 38 35 29 32 33 34 22 30 20 19 24 37 23 34 38 32 31 26 38 38 41 46 45 54 38 50 52 50 51 36 34 35 29 36 32 34 28 31 29 28 25 33 32 34 31 21 20 26 36 31 21 19 29 20 24 38 26
33 28 22 28 38 33 33 27 32 21 35 18 22 31 34 31 20 34 20 32 32 27 22 38 32 30 34 27 41 31 42 34 39 51 31 44 28 29 27 38 32 36 38 18 23 29 29 22 26 33 24 21 25 36 35 26 22 30 33 34 38 28 28 20
25 34 33 31 22 33 34 28 33 30 38 33 29 34 29 31 36 25 33 31 21 26 32 30 27 25 34 30 32 41 34 42 37 39 24 25 21 20 19 28 38 24 23 37 23 32 22 35 37 28 33 29 24 20 22 26 35 32 18 18 21 21 30 25
25 28 32 33 34 21 34 35 18 32 19 35 35 31 21 19 23 38 24 36 18 27 32 25 22 33 35 34 28 20 21 36 38 32 27 31 21 31 22 18 21 27 18 34 36 22 30 27 21 30 33 25 21 30 22 24 32 25 24 30 31 38 18 33
34 24 31 29 37 26 33 29 19 36 26 23 31 18 37 30 20 27 32 31 20 31 33 33 24 32 34 23 28 25 37 38 19 26 20 28 25 38 29 20 34 23 37 27 26 36 27 37 18 26 30 23 31 35 19 20 24 33 38 29 25 37 37 23
24 23 22 24 35 24 37 26 30 30 27 30 38 32 19 21 28 33 30 28 36 22 25 26 19 30 28 22 30 30 20 24 26 26 31 38 20 23 38 27 31 38 34 35 32 18 37 27 21 26 20 36 38 22 29 32 22 27 21 36 28 38 30 36
28 33 26 26 19 18 32 28 38 20 22 20 31 30 31 28 32 21 21 29 20 36 27 29 34 38 35 35 24 24 35 38 33 31 23 23 31 25 36 36 33 35 20 22 36 23 24 31 25 33 36 29 21 33 21 35 20 24 22 34 27 20 30 27
23 30 22 30 29 18 36 23 29 32 31 38 35 22 33 33 23 37 27 31 27 34 36 28 19 32 33 27 23 22 21 30 36 35 34 30 29 25 31 33 35 37 32 26 30 24 34 19 25 37 36 31 31 19 31 33 21 19 36 29 37 36 23 30
24 30 37 34 33 33 19 26 35 29 23 19 36 20 22 38 24 29 38 29 27 25 26 34 19 18 25 24 30 19 26 28 35 24 32 23 23 30 37 25 34 28 30 18 24 26 18 32 32 34 35 23 34 33 36 34 38 18 32 20 32 26 33 18
18 35 37 21 23 35 32 23 31 18 36 30 25 26 24 18 35 21 27 26 23 18 31 33 23 28 19 24 25 32 36 18 19 28 36 35 37 27 28 26 27 20 24 35 25 19 37 27 31 27 28 27 24 37 19 27 18 27 38 32 18 27 32 32
31 35 20 28 31 25 18 38 32 27 34 30 19 35 36 20 34 21 32 29 30 33 18 23 22 36 34 38 22 24 25 36 25 35 37 34 23 36 24 27 33 32 23 32 30 22 33 36 20 35 34 25 29 31 23 18 26 25 27 20 36 36 27 37
25 24 32 37 24 30 24 32 25 35 18 20 28 35 31 22 31 25 38 34 31 29 34 26 29 33 29 18 22 21 30 25 32 38 22 19 34 33 34 23 27 30 28 25 33 34 34 30 29 35 34 21 26 30 18 25 19 37 30 35 20 19 34 32
33 24 34 27 35 22 24 26 35 20 33 36 32 36 27 29 38 27 31 36 22 38 31 31 25 19 18 18 35 34 38 25 22 23 21 24 21 19 31 36 18 26 19 33 21 30 24 18 20 23 26 29 30 27 26 32 32 31 21 31 25 35 37 32
23 31 27 36 27 22 34 21 37 23 25 28 34 33 26 35 35 31 26 38 30 36 21 38 38 29 32 34 18 31 20 25 31 37 38 18 26 29 29 18 38 35 31 35 32 27 25 26 20 19 31 18 34 20 37 25 32 18 20 30 27 36 22 30
27 31 36 18 33 36 29 25 22 21 25 36 36 33 37 35 36 25 28 28 36 37 31 25 20 29 24 32 38 35 25 25 37 33 18 31 37 20 18 34 31 24 31 20 27 28 26 23 25 19 27 26 38 31 30 25 31 23 33 31 30 27 19 36
33 34 27 37 18 22 30 26 38 32 23 32 22 25 24 28 37 27 38 37 18 24 34 28 19 18 18 34 18 19 35 37 22 37 38 20 28 25 21 35 18 38 22 22 27 38 26 27 20 20 20 19 29 22 23 23 31 33 26 32 22 22 30 27
