P2
64 64
255
25 16 26 22 23 18 15 23 19 21 18 18 20 23 18 16 14 17 16 21 25 21 18 25 18 14 26 25 20 14 19 24 21 15 17 26 16 17 21 17 23 22 15 21 25 19 19 14 26 21 19 26 20 17 16 24 23 14 22 22 17 14 21 16
20 14 21 21 15 25 15 16 14 24 14 14 22 17 21 15 24 17 25 24 16 23 16 19 21 26 23 26 25 16 18 16 22 25 24 20 20 26 22 22 20 26 15 20 19 23 25 26 14 18 16 20 26 19 26 26 17 15 14 22 17 23 21 22
24 22 26 19 20 15 21 17 24 19 21 16 22 25 24 24 17 21 20 15 20 23 20 16 15 26 14 26 20 24 25 23 15 26 17 18 16 14 22 23 26 14 20 14 17 24 23 16 18 17 22 22 25 26 24 19 21 19 24 16 26 22 23 15
25 14 23 14 20 21 20 17 23 14 15 20 25 16 25 20 24 16 14 20 18 20 20 26 19 21 16 19 18 25 25 19 16 26 23 14 15 25 16 17 18 21 26 15 24 20 21 20 23 16 20 21 18 16 22 16 17 16 24 21 23 21 21 21
16 17 17 19 14 23 21 18 20 22 18 20 24 24 19 14 18 23 22 15 17 23 23 17 18 14 26 19 19 15 20 17 19 20 18 25 25 17 23 14 14 14 21 26 16 19 26 16 26 14 23 15 15 25 26 25 19 15 18 21 23 22 19 21
25 20 23 18 26 23 21 19 18 24 14 23 19 21 16 26 15 15 23 21 24 26 24 14 19 20 20 22 18 20 19 25 14 18 21 15 14 24 26 20 20 15 22 22 23 17 19 20 26 21 19 14 25 26 24 25 19 22 18 23 17 26 18 14
21 14 23 26 20 17 20 20 20 16 22 25 14 20 18 22 23 20 15 17 26 18 18 22 22 25 14 17 15 26 19 25 21 24 19 22 17 14 16 23 20 16 22 24 22 21 20 25 20 24 17 20 23 15 17 14 14 26 20 25 21 22 21 26
17 26 21 17 23 16 20 24 18 16 23 24 24 16 15 25 21 19 17 14 14 24 24 17 25 24 19 22 22 24 16 20 25 16 26 24 14 25 26 24 23 19 26 23 22 26 21 22 24 26 25 17 16 25 26 25 22 15 17 19 26 22 26 24
21 19 16 21 23 16 18 24 26 22 18 23 26 20 15 15 18 21 19 15 19 23 20 16 21 22 25 16 18 23 21 17 24 17 25 25 19 21 16 16 14 20 16 20 17 17 14 20 20 17 20 16 25 20 19 17 26 15 19 15 24 23 18 18
18 17 19 20 19 21 14 14 17 24 22 21 18 20 21 16 16 18 18 17 16 21 15 14 23 22 22 23 26 14 19 19 14 18 17 18 18 20 25 17 24 20 17 17 20 25 26 21 15 20 24 17 18 17 26 16 20 25 16 17 20 17 26 23
21 18 15 21 22 15 25 24 19 18 23 24 17 19 20 25 24 26 21 15 26 15 16 19 18 20 25 21 22 17 21 24 16 24 19 17 16 17 24 26 17 26 15 20 20 23 24 22 24 14 19 19 20 21 19 18 15 26 22 17 22 17 14 21
25 22 21 26 17 23 21 21 22 19 25 22 25 22 19 22 24 24 19 21 16 14 14 24 19 14 19 26 25 25 20 24 24 22 26 23 14 23 22 23 26 16 18 16 18 21 14 18 18 21 15 15 17 14 20 18 23 19 22 20 25 26 21 25
24 26 21 25 23 19 24 15 17 26 20 23 25 14 18 19 23 14 25 26 16 25 20 22 25 22 24 18 16 21 23 20 24 17 23 26 18 22 20 23 19 16 17 19 19 26 14 19 21 26 14 15 20 25 22 17 19 16 16 19 16 16 17 23
24 16 22 14 19 24 17 20 21 17 22 24 19 21 19 26 25 16 22 16 21 15 25 22 21 25 20 25 23 15 16 16 25 25 16 15 25 19 25 17 19 25 14 19 16 21 26 20 22 21 15 26 18 15 17 26 24 14 16 20 23 21 22 15
20 22 24 24 22 15 19 23 19 25 22 25 22 26 24 14 15 16 18 16 18 22 17 16 17 15 20 24 20 18 15 18 25 24 20 26 23 23 21 22 21 26 20 16 14 21 18 24 15 24 26 24 14 20 18 14 25 17 20 20 15 19 16 19
16 22 24 19 17 23 26 26 19 26 24 20 16 22 21 16 17 21 14 22 26 14 16 22 16 26 20 26 21 18 16 20 21 23 24 19 17 20 26 15 17 20 19 16 24 20 17 23 24 19 26 22 22 14 26 20 26 22 18 19 20 22 26 22
16 21 23 16 15 17 14 15 15 26 14 23 16 26 23 14 16 26 15 26 14 19 17 18 24 24 26 23 25 17 22 19 25 17 22 26 18 18 20 16 15 24 16 26 19 23 21 24 19 22 21 25 23 18 21 16 23 14 24 16 18 15 23 16
23 14 15 20 16 15 22 24 25 15 15 23 18 22 26 16 17 25 22 20 14 23 19 22 23 20 20 14 19 24 23 17 23 22 14 22 26 14 15 26 26 15 21 18 23 26 19 23 26 16 25 23 19 15 15 19 16 25 14 23 18 18 23 25
26 23 18 19 26 20 20 23 20 26 16 17 26 16 26 14 18 21 15 24 19 20 16 17 21 24 18 18 15 15 16 14 21 25 22 24 23 22 21 20 25 19 18 21 19 20 18 20 21 18 25 16 14 23 17 20 25 17 17 19 16 15 26 16
23 25 25 25 17 22 25 25 18 21 14 19 20 26 15 17 27 21 28 27 19 29 23 28 21 23 24 23 19 22 26 15 14 14 16 16 20 26 20 19 26 20 21 19 28 23 20 17 17 16 25 17 18 23 24 19 25 19 15 21 22 23 25 21
23 14 14 26 18 22 19 18 23 17 23 25 21 16 22 24 20 22 32 30 29 34 32 28 32 18 22 16 22 17 19 22 17 18 21 25 24 21 19 28 31 24 31 30 23 22 33 21 27 27 19 25 21 25 24 22 20 17 26 23 19 22 26 23
21 21 24 24 18 21 23 14 17 18 16 19 23 25 27 22 29 25 26 29 29 30 28 25 27 25 31 30 26 17 19 20 15 18 21 18 17 23 31 26 24 30 31 32 25 35 32 34 25 24 24 19 26 22 14 14 26 23 24 23 17 18 23 21
23 24 14 22 19 18 20 21 15 16 14 18 21 27 32 26 31 36 34 34 38 31 34 40 34 30 24 33 21 25 25 26 20 20 17 24 25 29 28 29 28 32 39 40 36 29 36 28 28 31 28 28 17 20 25 18 22 14 23 22 16 21 17 18
24 16 18 16 20 26 23 23 18 25 23 23 22 30 35 30 31 36 34 35 43 38 40 33 35 37 37 29 34 23 22 20 14 20 23 29 23 31 35 31 35 40 39 44 44 40 39 43 32 27 28 32 20 21 18 23 16 14 18 21 23 21 17 20
23 17 20 18 22 17 17 21 20 26 20 29 29 38 40 35 37 45 43 46 45 44 44 44 43 35 35 35 34 34 25 18 21 29 29 26 30 28 37 37 42 37 47 40 46 49 36 40 38 40 32 32 23 32 22 24 19 16 25 16 16 19 16 18
21 20 17 16 18 19 15 25 25 18 23 30 35 32 41 44 44 46 44 50 44 49 47 42 40 39 45 38 28 36 34 27 19 28 34 32 36 33 36 47 49 49 52 45 41 53 42 38 45 37 41 28 36 27 21 18 22 15 17 15 21 25 14 26
15 22 24 15 18 14 22 23 14 28 27 32 33 40 46 39 43 46 53 48 50 46 45 55 52 42 39 35 40 35 32 23 28 25 27 38 42 34 41 49 45 48 47 46 46 51 46 46 44 38 34 37 28 36 33 20 16 18 26 15 18 21 20 18
25 20 18 22 22 14 16 15 26 29 34 30 37 35 49 50 52 53 48 59 53 57 60 48 46 44 39 47 33 30 38 25 25 34 34 38 43 46 47 51 50 50 49 51 49 51 49 56 54 46 45 35 31 36 31 27 23 26 21 20 16 17 20 14
21 22 24 15 20 23 17 15 24 27 31 35 36 45 41 45 46 52 55 61 59 57 55 57 55 57 50 40 47 38 35 36 28 38 30 42 45 47 48 52 49 57 54 54 64 61 56 50 52 50 43 47 35 30 33 30 20 20 15 22 18 18 15 19
26 18 25 15 26 15 19 16 20 31 27 40 43 39 47 45 52 62 54 65 67 59 66 61 51 58 52 49 42 33 38 32 39 31 37 40 44 52 46 55 62 63 61 57 57 57 65 56 52 49 49 48 42 36 38 23 28 19 26 16 14 19 18 22
21 24 26 16 21 17 25 16 19 33 34 36 36 41 44 51 60 62 63 64 62 70 60 67 54 55 49 49 46 41 43 33 43 35 42 42 50 43 50 59 56 59 61 60 63 68 63 63 54 57 47 42 42 38 27 26 26 16 17 21 26 18 25 15
22 19 19 15 20 25 19 26 32 34 38 31 44 41 44 58 52 59 69 67 70 70 61 60 56 62 57 52 42 38 40 35 34 38 33 43 49 51 52 53 55 58 64 65 66 62 60 56 55 52 50 45 37 32 34 29 28 25 25 16 16 21 24 22
16 22 17 16 22 24 24 22 32 31 31 34 39 42 49 58 52 66 68 69 79 72 72 60 64 52 59 52 41 47 41 41 39 36 37 43 42 45 52 62 62 66 67 76 74 63 65 60 61 57 53 43 42 34 33 32 30 24 22 15 25 15 15 20
21 21 24 14 23 26 20 21 32 34 32 43 41 41 49 52 57 58 69 71 76 66 62 62 56 53 47 47 48 44 40 35 34 33 40 35 39 46 57 60 63 67 61 75 75 63 67 54 52 50 49 47 46 40 37 31 28 25 26 18 26 18 21 16
25 21 17 23 25 18 15 25 31 35 29 41 39 42 47 53 61 64 59 59 72 64 67 64 62 58 50 52 39 39 34 34 33 37 44 46 38 42 49 51 63 58 67 67 64 64 58 65 56 53 44 47 46 42 30 23 25 25 24 20 19 18 23 17
22 17 25 25 17 23 23 17 30 30 37 42 44 44 48 48 53 53 55 56 59 63 63 64 60 58 46 44 41 33 33 40 36 40 36 36 42 47 52 51 61 64 55 68 68 57 63 56 54 55 49 39 37 30 31 26 29 18 24 17 26 26 21 17
22 22 19 14 22 25 25 18 26 26 26 32 32 35 48 52 46 49 61 53 59 59 59 53 60 49 50 48 39 38 38 32 36 28 36 34 41 46 49 55 51 56 53 57 64 54 62 55 47 43 48 37 35 36 34 23 28 17 15 17 14 20 15 14
26 26 23 20 19 18 22 26 20 21 26 30 40 37 46 48 47 52 47 52 49 60 51 48 50 48 45 44 40 33 32 26 30 35 34 30 35 37 50 48 46 52 59 58 53 58 59 52 42 43 42 43 39 39 26 28 23 20 23 14 24 20 21 25
18 21 17 17 14 21 21 24 22 27 29 34 30 42 35 43 51 41 46 52 57 50 48 54 41 49 45 44 42 35 31 22 30 27 33 39 37 44 39 49 53 55 48 47 54 54 54 46 39 38 36 41 34 30 30 24 23 22 17 22 23 15 17 26
22 19 21 17 21 26 18 26 26 19 33 30 41 34 37 43 52 44 53 47 46 45 47 55 53 42 40 46 36 33 29 36 30 32 29 38 45 46 42 47 51 55 53 53 50 46 47 55 53 41 37 41 40 38 29 22 20 23 31 29 29 26 30 30
29 29 25 31 28 22 22 33 32 30 33 27 37 40 47 45 51 53 48 49 47 48 53 45 53 48 48 44 40 33 33 33 33 30 33 41 40 45 42 51 48 47 50 60 60 53 58 46 46 53 50 47 41 44 34 36 36 34 28 32 30 36 35 36
32 31 35 35 28 27 31 31 35 32 38 36 40 36 49 41 49 54 53 57 49 54 50 57 54 54 47 41 40 41 37 33 29 37 39 43 48 45 47 49 48 55 59 59 60 49 52 50 52 49 42 50 37 41 37 36 44 43 42 34 45 40 35 38
22 27 30 21 22 22 33 29 31 27 29 27 29 27 32 33 46 47 44 43 44 44 44 46 40 47 43 31 37 28 29 30 30 35 36 35 36 39 43 41 37 40 40 40 43 51 46 40 46 38 44 41 30 26 37 33 37 27 34 26 28 35 35 36
20 17 25 24 19 18 28 21 20 17 21 28 23 24 34 29 37 29 35 30 36 30 32 37 38 26 28 32 26 30 27 21 25 18 21 28 25 36 31 32 33 40 37 30 35 41 30 37 34 33 36 24 21 25 31 28 26 26 26 28 32 32 29 28
22 23 25 22 14 19 20 20 25 21 17 18 23 14 26 28 30 21 22 23 33 33 29 31 27 24 29 17 25 14 18 18 25 20 26 26 16 19 24 27 26 26 23 33 23 21 30 32 21 25 22 21 14 24 15 26 17 19 23 21 16 23 15 23
23 24 21 25 19 17 21 15 22 22 23 26 21 23 16 16 15 21 26 18 30 21 21 24 21 22 25 23 18 25 15 22 17 22 15 15 20 19 19 21 27 25 22 18 19 25 27 23 18 16 14 23 19 19 20 15 16 17 21 22 20 24 23 19
18 14 26 18 18 25 17 19 24 26 16 18 18 23 16 26 24 25 21 17 16 14 16 18 22 24 18 25 17 18 24 23 14 23 21 19 26 26 25 16 16 24 19 26 21 19 19 25 14 14 26 17 19 20 20 23 23 15 24 18 24 19 23 19
17 14 19 21 24 20 24 17 18 23 15 16 22 14 14 23 15 24 16 18 22 26 14 26 20 26 14 17 26 19 19 24 25 16 21 19 23 22 21 16 23 17 16 21 17 20 16 20 14 22 21 25 25 18 17 21 16 17 18 14 23 16 19 24
14 23 18 23 26 22 14 23 16 14 25 25 17 15 16 21 14 26 25 18 25 24 24 19 23 19 14 16 17 14 20 17 15 16 15 17 16 16 17 26 14 25 14 18 14 26 25 21 20 19 21 19 26 16 16 22 16 21 18 19 16 25 23 21
24 26 25 17 23 18 24 23 23 22 17 24 17 20 24 16 22 17 23 24 26 25 19 14 16 14 25 21 26 16 19 22 18 19 23 17 25 26 22 17 24 19 17 18 26 17 26 14 21 17 23 25 24 15 22 22 17 14 18 19 20 17 14 18
19 26 20 23 21 23 19 25 24 24 15 17 14 16 16 22 20 19 22 16 22 23 16 20 24 23 18 24 17 26 24 22 18 23 25 26 21 16 19 22 21 25 18 19 18 18 25 22 19 22 16 15 19 25 15 15 18 18 17 17 22 14 21 17
15 22 21 26 18 22 19 24 16 14 24 21 18 24 18 22 23 26 25 23 24 25 15 22 18 19 23 21 15 14 21 23 15 14 19 19 14 26 20 15 18 24 18 20 21 21 16 18 14 23 15 24 26 20 20 16 26 19 17 22 15 14 19 15
24 26 26 25 22 16 21 26 20 25 26 23 14 18 24 19 19 23 25 22 25 26 15 26 24 19 23 16 22 24 23 16 14 14 17 23 25 15 18 20 17 22 19 17 23 23 16 20 23 22 24 23 20 16 24 16 21 22 18 17 19 24 17 25
21 22 20 21 25 18 16 24 24 14 25 20 14 25 26 25 24 20 18 18 19 26 18 18 23 22 26 16 24 26 14 21 19 15 14 22 15 23 16 23 18 15 21 17 21 14 16 14 23 25 22 14 21 18 17 24 16 16 23 14 22 21 24 17
14 22 17 16 24 20 20 16 25 23 19 17 26 16 22 25 26 20 20 15 22 24 14 17 15 14 22 19 14 22 17 19 20 25 18 21 24 14 22 25 19 21 20 26 25 24 26 15 14 19 20 15 25 20 20 25 25 17 20 26 21 24 17 26
21 22 17 14 24 16 25 22 15 22 19 22 26 21 17 19 25 18 21 18 24 24 22 25 25 24 20 20 23 17 25 16 19 20 21 26 21 16 20 20 18 22 22 14 26 25 16 22 24 26 15 18 22 24 20 14 17 17 16 21 18 17 25 15
16 22 26 25 21 26 18 26 25 26 16 16 26 21 14 24 26 19 25 18 20 15 20 25 14 23 25 22 23 26 22 21 25 23 19 19 17 17 22 17 19 20 26 17 24 26 19 21 18 17 26 18 14 17 14 25 21 20 23 24 17 14 24 15
21 16 22 22 26 15 20 15 23 26 14 16 21 19 17 21 20 20 19 23 17 19 26 24 20 23 20 22 15 17 23 26 17 24 15 18 17 19 15 19 26 22 25 19 19 19 21 15 20 14 19 16 26 18 22 22 17 14 24 24 15 18 14 21
24 17 20 21 23 18 25 17 24 25 24 26 16 26 23 25 16 24 15 15 17 23 15 19 24 18 16 23 17 15 18 20 16 22 19 25 25 21 24 26 24 24 26 23 15 20 24 16 14 20 22 18 14 17 23 22 25 23 22 21 26 22 19 26
14 23 20 21 15 25 15 25 16 17 26 21 14 18 21 19 22 20 18 15 23 25 24 22 24 19 23 17 21 19 26 17 26 26 16 20 17 15 20 22 16 16 16 14 18 20 18 26 14 24 26 16 26 22 17 18 16 19 14 20 14 14 15 22
14 26 21 20 15 21 26 22 23 20 17 22 19 20 14 17 24 20 26 14 14 22 14 22 20 18 16 20 24 18 19 18 26 16 23 20 24 19 15 14 22 18 24 17 26 26 17 26 14 21 17 15 22 18 22 15 26 17 16 15 25 22 20 16
25 14 18 25 24 19 14 26 18 20 25 22 17 26 25 26 18 20 21 20 14 23 15 24 21 15 17 22 25 20 21 18 21 17 26 22 19 17 18 26 23 15 18 22 14 17 25 20 23 18 14 18 17 14 14 25 24 21 16 24 19 24 21 26
19 21 22 21 14 25 22 23 25 25 20 23 14 16 16 16 17 14 18 15 21 15 20 21 16 17 20 20 16 18 15 26 26 21 16 23 18 19 15 24 25 22 25 14 23 24 21 19 16 26 17 14 18 18 15 22 16 26 23 23 16 16 16 23
26 15 22 22 18 23 17 22 23 25 15 16 18 25 24 25 14 16 25 18 19 17 17 23 22 20 16 20 19 23 15 21 24 19 20 23 21 22 19 16 20 15 19 16 21 18 19 23 20 16 15 26 19 15 16 24 18 15 23 17 17 20 15 23
