P2
64 64
255
17 19 20 19 23 14 14 25 24 21 24 24 18 15 24 19 26 21 15 21 15 25 23 18 18 19 26 22 21 19 16 14 17 15 22 25 26 24 20 24 16 17 14 17 20 14 15 24 16 17 24 24 24 25 25 26 24 15 21 24 26 15 20 17
22 18 25 24 19 19 23 25 24 21 18 20 25 21 23 17 19 26 25 17 21 20 18 20 19 16 18 25 25 26 25 23 18 19 15 14 24 24 23 24 24 24 23 17 23 14 24 25 22 16 15 25 22 15 17 14 17 24 15 23 16 20 17 17
19 16 19 25 21 25 24 20 21 20 20 16 17 16 24 24 19 23 22 19 15 23 20 15 19 25 23 14 26 18 15 17 25 17 23 23 18 18 19 23 24 20 18 14 20 20 15 24 25 24 25 19 17 22 23 15 25 23 25 16 23 26 22 21
14 21 17 24 21 25 14 24 21 15 18 20 26 26 19 14 25 14 21 24 17 16 14 21 17 22 20 23 21 26 22 17 23 24 18 20 17 21 16 16 16 21 18 24 20 17 16 21 17 23 18 14 26 19 22 17 16 25 24 16 21 22 17 18
22 15 23 26 17 21 26 26 22 17 23 19 21 18 17 18 18 20 15 21 25 22 26 15 17 21 17 23 21 15 16 19 15 25 21 14 26 17 16 17 21 15 19 17 20 24 20 15 14 24 21 15 15 20 24 18 25 21 24 23 16 25 22 23
17 26 26 21 17 19 24 16 23 25 18 22 26 14 24 18 16 25 18 14 14 14 16 25 16 24 23 25 18 16 26 22 16 15 17 20 16 25 16 14 14 24 24 21 14 15 24 21 16 14 22 20 25 26 25 18 24 25 20 19 14 26 20 21
22 16 21 22 20 26 20 14 24 14 14 20 23 24 22 19 21 25 26 20 23 17 23 18 24 17 15 16 24 21 26 16 25 19 21 20 22 14 16 22 24 24 22 18 22 21 21 26 15 25 19 15 15 19 14 16 19 22 19 26 23 17 26 21
24 23 19 24 14 22 22 17 24 24 22 24 26 25 16 17 21 23 20 16 26 26 15 20 22 20 19 24 17 22 18 21 19 23 24 20 23 20 15 21 21 21 22 22 22 16 19 19 23 15 17 26 16 16 20 18 18 19 14 16 26 26 26 14
20 17 25 20 18 20 16 24 24 18 23 14 21 26 22 24 20 19 22 22 18 16 14 20 16 18 26 21 15 23 15 19 24 22 14 25 14 20 26 26 23 17 25 22 22 18 26 19 15 25 15 16 19 19 16 22 21 14 26 16 21 19 17 25
19 19 22 18 19 25 19 16 16 26 14 21 18 18 19 16 21 24 22 16 22 21 23 21 15 20 21 23 18 19 17 15 14 19 21 21 24 18 21 23 24 18 22 21 20 14 24 19 15 16 15 24 17 19 20 26 26 21 24 24 17 23 23 17
19 14 15 26 26 18 19 17 14 21 18 15 19 22 24 20 14 16 21 17 20 24 17 25 15 19 18 22 22 26 25 22 19 21 14 26 15 25 26 26 23 18 25 25 26 14 22 21 18 19 26 17 17 18 20 19 18 23 21 19 25 20 19 23
26 24 16 21 15 18 15 16 23 19 15 15 15 25 19 25 18 21 17 15 20 23 25 25 26 14 17 18 25 18 14 26 15 26 21 15 26 20 17 26 14 24 24 14 26 14 26 25 26 16 21 21 25 23 26 20 23 21 25 19 14 14 25 19
21 19 25 17 22 22 20 21 19 17 18 20 24 22 21 17 15 15 15 15 25 18 20 26 15 21 14 22 24 16 18 18 22 18 19 19 20 19 20 18 17 23 15 21 24 20 26 17 24 17 19 15 14 25 18 25 21 14 21 15 25 20 25 19
19 26 22 24 21 21 26 21 14 22 25 20 23 16 18 21 18 17 15 16 26 14 22 19 14 26 15 25 21 18 17 14 15 23 17 23 23 15 24 18 21 14 26 26 17 24 24 25 15 22 16 25 15 22 20 26 19 23 18 24 24 26 18 22
20 14 25 17 14 21 17 17 19 16 15 20 20 23 25 16 15 15 20 23 18 22 14 25 23 16 16 21 14 14 22 14 16 19 22 14 14 24 24 23 22 20 18 16 22 19 25 16 16 21 16 14 22 17 17 21 24 14 14 16 15 18 18 25
17 18 16 25 26 25 17 16 24 19 20 15 18 14 15 15 24 16 19 18 25 14 24 23 24 16 26 21 24 21 21 24 25 19 21 26 21 26 22 17 15 19 23 14 24 21 16 26 20 18 20 20 20 24 18 21 26 22 21 26 23 24 24 20
17 21 22 18 26 14 26 19 23 19 17 19 22 25 15 26 23 23 26 15 26 18 14 17 20 23 26 18 26 24 16 20 16 22 17 14 24 26 19 16 21 21 21 22 17 24 15 20 21 23 18 26 14 16 20 15 18 18 19 14 26 18 17 25
24 20 26 21 17 15 19 18 16 26 14 14 17 20 20 23 24 24 16 26 21 24 19 17 18 15 20 15 24 22 26 14 21 16 16 14 26 23 23 20 17 15 19 18 22 21 18 25 23 16 17 25 16 25 25 23 24 19 23 26 20 16 22 17
24 23 14 21 14 22 21 17 14 20 21 18 19 21 20 25 20 16 16 22 20 17 16 24 25 25 26 26 20 18 17 25 20 22 21 23 15 23 14 16 16 25 16 20 20 21 16 19 17 18 16 21 20 14 21 19 23 18 20 20 17 22 19 19
20 26 19 19 14 24 25 22 14 15 25 26 16 14 24 18 21 24 17 20 26 26 22 27 21 22 26 15 22 20 24 21 15 14 25 20 24 17 20 22 25 21 17 24 20 20 28 20 22 20 25 24 20 19 25 24 21 25 21 19 16 20 16 25
15 21 22 16 21 26 16 21 21 20 14 19 14 15 17 22 28 26 33 24 27 23 27 23 27 24 17 25 18 26 25 21 26 20 25 15 23 17 28 19 30 25 33 27 29 28 30 26 22 19 24 17 18 18 23 18 19 18 20 16 23 19 21 19
26 22 26 23 16 26 20 17 25 19 25 14 15 27 30 29 22 26 36 29 26 31 29 26 35 32 25 31 24 25 25 24 17 22 24 16 16 23 28 23 29 36 33 34 29 26 34 35 30 30 31 21 23 16 14 23 14 26 24 16 16 24 24 14
25 18 25 17 22 25 25 21 26 19 25 26 24 26 24 34 30 31 32 31 38 31 39 34 38 38 26 31 27 35 35 27 28 33 26 26 37 29 35 26 39 39 35 40 36 37 33 27 35 27 27 27 18 25 21 14 24 18 26 16 25 23 25 24
26 15 24 15 16 26 25 21 19 26 23 21 25 29 30 34 33 32 39 33 41 35 43 33 40 37 46 45 41 40 35 29 35 32 37 42 46 36 34 36 44 35 45 40 43 35 43 32 39 39 25 25 30 26 27 21 14 23 18 16 24 25 21 22
25 21 21 19 23 16 14 21 14 23 19 26 23 38 40 36 39 36 40 39 38 40 45 51 42 45 45 51 45 42 49 48 40 48 47 42 47 43 52 44 50 41 37 46 47 39 43 37 42 31 31 35 26 22 20 26 17 26 15 26 20 21 17 19
19 14 18 15 16 24 25 22 26 18 22 30 33 33 34 40 39 44 50 50 46 52 55 50 61 59 63 62 63 60 59 51 51 54 49 53 63 64 58 59 49 54 56 49 47 41 41 49 41 37 39 36 31 24 31 25 19 17 19 15 26 22 25 21
18 20 14 20 25 17 16 16 19 30 24 36 28 39 43 40 41 53 47 46 55 51 56 65 65 63 65 62 70 67 62 55 58 61 59 63 70 62 60 60 61 59 63 57 47 47 51 44 42 38 39 43 39 28 33 22 16 23 21 26 15 21 20 20
25 21 24 18 25 26 25 22 26 31 29 32 35 36 46 47 44 49 57 52 61 64 61 71 73 70 74 76 76 72 76 76 73 76 64 71 70 79 77 78 78 72 72 58 54 50 51 45 51 43 40 33 41 36 28 29 20 26 15 25 17 18 18 19
25 26 22 20 14 22 21 20 26 31 25 40 42 45 51 43 46 52 58 55 61 73 69 77 81 79 83 81 79 76 78 86 76 76 80 75 79 77 82 80 82 82 75 68 59 54 62 51 57 52 41 38 42 36 30 27 23 19 26 18 22 17 15 24
21 25 16 19 22 17 21 17 21 33 26 30 44 42 49 55 58 58 65 69 68 74 79 84 87 90 84 84 93 81 80 94 88 86 91 83 86 83 92 90 81 90 80 82 73 63 57 61 53 56 52 47 37 31 32 32 21 22 18 15 23 16 15 20
21 25 18 26 20 21 21 18 20 35 28 39 44 50 53 49 57 58 64 74 77 77 90 91 90 91 90 89 96 92 96 100 102 91 93 93 92 98 96 96 92 95 83 88 81 74 58 60 50 58 49 38 43 42 27 35 30 22 24 16 18 26 15 15
14 20 26 25 21 14 16 18 25 23 36 41 37 51 54 47 59 62 68 81 78 89 87 96 93 101 99 101 100 95 105 96 106 100 97 106 99 96 104 99 94 93 87 84 83 82 61 61 51 56 53 49 43 40 27 30 20 18 16 26 22 15 21 26
16 14 15 18 25 22 20 22 32 28 29 42 39 49 48 59 54 62 65 81 85 89 99 97 96 97 102 111 101 101 105 107 112 112 107 101 99 111 107 105 104 102 100 97 89 77 68 56 60 56 52 49 40 39 32 36 31 21 21 25 18 22 26 15
18 24 25 21 26 25 16 23 27 32 38 34 42 43 48 59 59 59 73 77 86 96 97 98 100 98 105 107 103 115 115 114 112 109 111 113 115 106 108 109 102 103 91 93 91 82 71 59 52 51 49 43 37 31 37 26 31 24 26 21 20 25 21 15
17 17 21 20 14 14 23 22 21 26 34 37 36 50 45 48 51 64 71 76 90 90 101 101 99 110 104 113 105 114 113 120 122 115 122 119 105 114 112 111 109 103 100 92 89 83 63 65 55 51 45 42 45 37 29 32 24 22 14 14 15 23 15 17
16 16 20 14 25 15 24 22 20 32 34 35 37 44 45 46 53 61 73 74 84 85 97 102 103 101 108 111 117 119 111 121 121 123 122 114 114 104 104 105 98 102 96 92 80 75 61 60 48 45 50 46 35 36 32 25 25 22 15 21 20 16 16 14
18 24 26 17 22 20 16 16 28 29 30 29 40 35 40 48 51 51 62 78 75 84 88 95 105 96 99 115 110 118 114 120 131 118 121 117 110 103 107 102 95 92 90 84 80 73 61 52 49 49 48 37 40 32 36 30 24 14 21 15 20 22 21 20
14 17 21 26 18 19 21 23 27 24 29 32 38 33 44 47 54 46 61 64 81 75 90 96 95 96 98 107 109 115 109 115 115 121 113 109 113 106 102 100 100 86 85 78 69 69 55 56 46 50 40 40 40 35 24 22 24 19 20 25 26 25 26 17
24 25 20 23 16 19 15 15 16 21 32 29 38 43 43 46 49 43 55 66 73 79 85 87 95 89 101 95 98 105 103 110 108 101 112 105 103 100 101 89 91 92 77 70 73 69 62 49 47 41 40 32 29 29 29 28 21 17 24 18 26 15 19 21
21 26 18 23 22 20 25 20 20 21 31 25 32 36 38 44 39 50 56 64 61 69 75 77 80 85 88 101 93 103 93 99 102 96 94 98 97 98 96 95 91 76 71 67 68 60 46 48 46 38 33 31 32 28 27 23 14 14 21 23 17 22 18 15
21 19 14 14 24 15 20 25 15 18 25 29 24 28 31 35 42 44 46 54 55 63 69 77 84 77 88 92 96 89 94 92 91 91 98 90 92 82 87 89 75 81 67 69 58 58 47 35 34 38 31 30 23 29 26 23 20 26 24 20 22 15 15 25
19 14 16 14 26 20 24 18 22 15 20 26 23 35 34 37 41 34 36 52 59 60 61 72 70 71 85 80 82 80 85 87 80 76 89 82 89 75 77 80 79 65 58 60 47 48 43 40 40 34 35 28 23 29 21 20 25 18 25 18 24 26 23 24
17 15 15 18 18 20 14 16 23 21 19 18 26 26 25 35 29 30 34 45 52 49 51 63 61 63 65 70 80 69 79 80 70 74 80 81 79 67 77 64 65 60 63 55 43 35 28 31 34 33 30 28 29 25 20 20 15 15 14 26 17 15 17 19
23 20 24 25 25 23 14 16 15 15 15 23 22 27 30 29 32 29 27 33 33 39 55 54 57 59 68 65 65 68 71 74 69 72 64 63 60 66 66 63 58 57 44 41 33 31 33 26 24 28 26 25 14 25 20 16 23 20 18 22 23 15 14 17
16 26 26 24 24 18 23 25 21 16 17 14 14 26 16 20 22 21 21 25 30 44 41 44 46 58 56 58 61 55 57 60 65 64 62 60 60 59 56 51 50 44 38 41 34 27 21 23 28 29 23 21 22 16 22 24 22 22 25 25 24 25 22 21
25 20 25 20 24 26 18 18 19 25 24 25 24 19 24 14 24 22 19 17 20 35 31 32 46 41 45 48 53 55 57 56 52 57 62 58 56 48 50 44 42 32 29 31 23 22 20 22 20 20 21 16 15 19 14 17 22 14 16 17 20 23 23 24
22 23 23 23 14 16 22 21 26 15 19 21 21 25 23 23 26 24 16 25 24 28 24 34 41 38 44 46 47 49 53 51 52 49 46 52 45 41 42 34 33 25 30 21 26 25 21 19 14 21 14 15 17 21 20 20 25 21 15 24 22 16 22 19
14 26 24 14 19 18 25 15 18 24 22 16 15 15 24 15 17 21 19 16 22 17 21 23 31 35 42 38 42 45 47 39 41 49 43 42 37 34 32 27 26 29 21 15 22 19 22 22 21 21 18 25 22 16 19 22 24 17 19 22 17 21 15 19
26 15 23 22 25 14 15 19 22 24 24 14 20 15 25 15 26 14 22 25 14 17 19 20 18 31 32 36 29 33 37 35 45 40 38 32 38 29 27 32 22 21 24 15 19 17 20 26 15 16 18 24 25 26 15 18 15 14 15 25 20 21 20 25
20 15 19 17 21 24 26 18 14 24 14 22 20 25 22 21 19 15 24 25 24 21 24 16 25 27 19 24 23 28 38 34 29 39 35 28 31 32 19 22 21 22 21 17 16 19 22 14 20 14 17 15 21 22 26 15 18 22 23 20 15 22 14 22
23 14 24 19 20 26 16 20 21 21 20 22 14 19 26 17 25 18 26 24 20 24 23 18 19 17 26 28 27 29 20 24 26 25 26 22 18 18 18 22 19 15 16 26 20 22 24 14 16 21 23 23 22 19 15 15 22 21 17 22 25 15 26 26
25 17 17 19 19 14 26 24 16 21 21 14 18 24 23 18 20 20 25 20 17 20 16 14 21 20 20 20 23 26 24 25 22 20 18 16 25 17 18 20 16 24 15 22 21 19 16 22 19 17 26 17 17 25 14 19 20 26 23 24 21 18 21 26
16 22 21 18 26 15 22 14 17 18 23 25 14 22 16 21 19 23 16 25 16 25 14 15 22 21 25 26 18 21 16 19 21 14 15 24 25 17 22 21 17 18 26 19 25 15 17 19 20 23 19 19 17 18 17 22 19 19 20 14 17 15 15 19
15 19 25 19 19 14 15 20 18 22 21 14 15 25 20 16 16 23 25 22 22 23 16 24 23 18 18 16 16 24 14 24 24 21 17 24 22 15 17 23 23 14 16 25 16 25 16 26 14 20 15 26 16 24 24 26 19 17 18 24 19 25 16 19
17 22 16 21 22 14 19 21 18 19 24 17 22 20 19 15 22 18 15 23 18 19 21 16 18 19 25 22 14 15 20 18 26 21 23 24 14 16 20 19 21 18 14 23 25 20 15 17 19 17 22 14 18 18 20 18 19 18 25 19 16 16 22 14
24 17 19 25 21 25 15 17 24 26 17 20 15 19 26 26 26 23 26 16 21 25 23 19 22 25 22 26 20 19 16 18 15 24 18 21 16 18 18 19 19 24 16 18 25 26 25 21 19 25 20 15 18 24 24 20 19 21 21 17 18 15 21 16
26 24 22 20 18 17 14 24 19 19 16 17 23 15 22 14 26 14 17 15 18 20 22 25 18 15 19 19 14 21 16 14 20 23 17 19 16 17 17 20 18 26 23 22 19 23 21 25 25 24 25 20 16 20 19 26 19 20 22 25 17 17 23 20
21 20 15 20 15 19 15 20 19 19 15 16 17 22 17 20 16 26 16 23 19 23 26 23 24 21 24 26 20 24 14 22 20 26 23 16 17 22 18 25 19 16 26 18 26 20 21 17 20 23 14 21 21 22 16 23 17 20 23 16 26 26 14 26
22 19 22 15 15 24 26 19 18 23 26 17 20 17 23 23 25 19 24 26 24 16 14 22 26 24 14 17 16 23 14 15 20 21 25 15 22 14 17 22 22 16 17 21 17 21 14 23 15 26 21 25 16 19 15 15 15 25 22 17 22 18 17 22
15 22 22 26 17 25 23 22 15 15 16 25 17 17 19 18 26 18 18 25 25 17 19 20 16 20 25 14 17 15 23 16 17 19 22 17 25 23 23 25 25 17 19 21 20 17 26 24 17 21 19 20 24 16 17 26 21 20 22 24 14 21 18 17
16 14 15 15 19 19 21 16 15 23 19 20 24 23 16 21 14 18 20 22 20 24 25 14 16 24 20 14 14 25 24 16 25 26 21 15 22 22 17 15 26 16 21 26 16 24 21 19 20 23 25 16 24 22 22 15 15 17 14 15 24 16 25 17
18 15 15 14 26 23 21 20 23 21 20 18 18 15 20 14 22 15 19 26 20 22 23 14 19 14 15 20 14 19 22 20 20 18 24 18 19 20 21 15 20 14 26 19 22 23 26 24 23 24 14 24 15 18 14 19 22 21 15 15 20 23 16 24
14 14 19 17 15 25 20 20 17 18 15 25 15 22 15 16 14 18 14 20 17 21 20 15 22 19 18 19 23 17 23 14 20 18 21 25 20 17 20 15 24 26 15 20 15 19 20 15 18 21 15 17 23 17 18 14 18 21 14 15 24 25 23 18
15 26 22 20 19 21 20 19 19 20 19 20 24 15 24 21 23 23 15 15 15 15 23 20 26 25 18 16 26 22 26 22 20 21 14 23 23 20 18 18 23 23 14 24 16 22 21 15 20 20 26 25 16 17 17 23 16 20 14 14 18 19 19 18
