P2
64 64
255
26 18 14 23 25 18 20 24 26 14 25 25 22 15 17 15 25 23 18 14 24 14 26 20 18 24 19 23 23 15 26 21 20 25 26 22 16 15 20 20 16 26 20 17 25 24 18 24 20 23 21 19 17 25 22 26 21 26 20 22 17 25 24 24
15 23 25 21 16 23 17 24 24 14 15 26 24 14 19 19 17 15 18 17 18 20 16 19 22 15 14 18 21 15 17 26 22 16 15 26 22 26 26 14 14 17 24 20 19 18 25 19 21 25 24 18 24 14 15 15 21 24 15 26 16 20 18 22
18 14 23 16 18 17 23 17 20 25 24 24 18 22 22 20 18 21 19 16 21 26 16 18 18 21 23 21 20 15 15 24 22 17 18 14 26 14 23 22 23 22 20 25 15 23 16 19 15 26 14 17 14 23 19 26 14 18 16 25 23 17 26 22
17 16 23 21 24 15 25 21 26 23 17 18 19 14 17 24 24 18 20 17 21 21 20 25 25 24 25 22 21 17 21 23 14 15 15 15 15 18 17 23 22 20 24 26 19 23 19 23 14 14 18 15 24 19 25 18 19 19 15 24 20 22 15 23
23 17 23 21 14 14 20 14 25 26 17 20 22 20 20 15 15 17 23 15 16 18 14 16 26 18 22 21 21 19 18 17 22 19 21 16 16 22 24 18 16 20 18 23 14 17 18 15 25 26 22 16 16 25 25 20 25 15 19 23 24 23 25 20
15 20 26 18 24 21 24 15 25 14 16 14 26 14 19 19 21 22 23 21 24 14 15 14 21 15 22 14 24 19 22 21 24 19 22 21 14 22 21 19 15 20 24 15 18 26 14 23 15 20 20 18 17 22 26 20 24 18 22 21 18 22 24 23
17 23 17 14 20 26 17 24 23 26 21 23 26 25 16 14 22 18 20 26 24 17 14 19 17 24 19 14 19 17 15 24 14 20 23 18 18 18 18 18 25 15 26 24 21 22 14 24 17 26 24 24 22 21 21 23 26 24 26 19 17 25 24 25
20 14 17 25 22 18 17 19 18 21 15 24 14 14 26 20 26 18 15 14 26 26 18 14 17 23 17 22 17 24 19 22 21 14 23 18 24 14 19 19 20 24 19 25 20 25 25 26 14 15 25 20 26 19 15 14 18 16 21 15 26 26 23 21
21 25 26 24 22 26 25 22 24 21 15 15 18 19 22 15 24 26 14 21 22 23 23 24 26 14 15 16 18 16 20 26 22 23 22 17 23 23 20 15 18 14 20 21 25 19 20 23 17 15 19 22 20 23 25 23 17 19 24 25 18 25 22 26
15 16 20 22 22 26 16 17 17 19 15 18 14 26 21 16 15 18 16 19 24 24 17 18 20 22 21 22 17 20 19 23 25 18 19 23 23 19 17 22 20 24 19 18 17 23 16 15 22 14 14 23 14 23 22 19 23 21 21 26 23 23 23 23
23 14 25 25 22 23 17 23 26 22 24 24 22 25 19 21 18 17 25 17 24 15 18 21 22 22 20 24 20 24 14 20 20 20 14 15 15 15 23 25 17 24 18 20 16 23 14 24 14 15 14 24 15 19 20 24 18 16 21 22 25 14 25 20
19 19 16 16 17 17 18 22 19 24 18 23 25 15 24 16 18 20 18 26 25 19 18 25 16 22 19 21 17 25 21 17 24 18 17 22 25 22 24 21 25 20 14 21 14 23 23 16 14 16 24 18 14 18 22 22 18 26 24 20 15 26 24 23
15 21 20 14 22 25 21 16 16 15 23 26 14 24 15 26 25 17 25 25 17 25 25 21 25 16 24 20 16 18 19 23 22 26 23 21 14 20 24 19 15 15 14 19 24 21 24 14 15 23 19 26 19 16 14 19 18 19 14 15 21 18 25 16
18 17 24 14 20 24 21 26 16 21 17 22 26 26 16 24 22 23 16 15 18 15 25 16 15 21 16 17 22 24 16 24 21 18 21 18 26 25 16 16 25 23 26 24 20 15 21 21 18 16 18 17 16 15 24 18 26 18 21 26 26 21 20 19
16 26 21 25 21 20 24 23 15 15 21 14 26 19 24 22 17 16 14 15 23 23 24 15 15 17 18 22 14 23 25 25 25 19 19 20 17 18 22 17 17 20 22 25 22 26 20 24 21 14 23 24 23 22 18 18 22 18 24 17 15 15 23 16
16 15 24 23 21 25 24 16 20 16 26 16 25 23 15 22 21 23 22 14 21 19 23 17 23 24 25 16 14 23 17 20 20 23 17 16 14 26 24 15 21 16 16 26 23 22 24 24 17 21 14 22 20 24 18 14 14 26 21 15 18 17 23 24
15 17 24 18 25 23 23 19 18 15 21 15 21 22 19 23 23 16 23 19 17 15 18 20 23 15 23 20 23 16 18 25 14 18 18 24 14 25 24 20 21 22 17 23 26 14 20 20 16 24 25 17 14 24 23 22 14 14 22 23 19 17 17 18
22 17 24 17 26 17 16 17 23 20 23 20 23 14 20 23 16 18 26 18 24 18 18 25 20 26 14 26 22 23 24 16 22 16 26 21 26 14 25 23 20 18 25 25 23 18 23 24 22 21 19 18 20 23 18 23 22 15 21 16 22 17 19 16
19 18 17 26 23 18 22 24 24 17 20 16 22 17 15 15 15 20 14 18 16 24 25 25 23 17 17 18 14 25 22 16 22 26 25 19 25 14 25 24 25 22 16 16 26 24 16 20 23 21 26 25 25 23 25 18 22 19 20 14 21 19 17 14
26 22 16 16 19 17 18 18 18 18 22 21 24 26 25 25 17 27 29 23 26 19 26 17 21 24 14 26 18 15 23 14 23 25 21 24 22 26 24 23 19 21 27 23 20 28 17 19 18 21 18 17 23 15 26 18 14 21 17 15 17 16 18 26
22 15 23 22 24 15 16 22 14 16 16 19 22 18 18 19 18 20 32 25 24 34 33 22 27 19 19 27 16 21 14 17 22 21 20 19 25 20 27 26 24 23 25 26 32 26 29 26 28 26 16 23 17 20 23 22 24 19 24 14 19 22 16 19
19 14 20 17 21 19 23 20 24 24 16 19 16 21 31 20 31 33 36 29 28 25 30 24 29 27 29 28 22 17 22 20 23 23 23 15 17 28 22 33 23 34 36 36 30 25 25 35 25 26 24 29 16 16 14 19 26 19 15 25 15 17 23 14
25 22 14 17 18 19 14 20 15 18 16 24 19 25 22 33 37 27 31 41 37 38 33 28 34 28 26 30 25 30 28 31 27 27 29 33 33 27 35 30 39 32 31 32 31 38 35 33 27 36 24 20 29 24 21 14 18 24 24 17 14 18 16 22
19 22 23 17 22 19 19 14 26 18 22 18 25 27 32 32 35 38 39 34 35 41 45 43 39 45 40 34 38 36 43 36 34 34 38 40 43 38 37 41 32 43 33 42 42 36 41 31 37 28 34 24 27 21 24 24 18 19 26 17 21 15 23 25
17 23 23 19 14 20 25 24 21 23 20 31 24 35 37 39 41 40 41 44 46 43 37 43 50 43 51 51 50 42 43 49 40 47 40 45 52 43 48 48 50 45 38 49 45 46 38 40 45 42 34 38 32 23 26 14 19 19 23 18 24 20 14 22
23 23 16 17 20 16 15 15 25 23 24 30 28 36 34 34 37 50 47 43 50 44 44 48 52 62 54 56 54 53 49 57 57 46 49 55 52 54 53 57 51 48 47 44 46 48 44 44 45 37 41 40 38 31 26 19 23 22 26 24 26 23 14 15
20 14 15 17 21 25 22 23 23 30 30 30 31 33 41 46 50 42 46 55 52 52 53 64 64 60 68 68 62 61 65 60 59 54 65 59 65 61 70 63 65 63 57 56 51 51 50 41 41 40 34 40 38 36 31 29 21 26 21 24 26 21 26 25
14 20 21 21 21 17 15 19 20 23 25 28 33 43 48 46 43 56 49 60 61 62 64 65 76 71 72 76 78 69 64 65 75 73 73 73 73 73 73 68 74 75 62 57 58 53 59 53 45 48 47 44 38 29 32 28 23 25 25 14 25 19 26 18
21 14 20 21 18 21 19 17 23 24 34 40 37 44 48 45 50 60 62 55 64 73 71 78 74 84 86 79 80 79 72 82 81 78 78 87 83 76 76 82 82 78 79 66 59 57 59 57 50 48 49 40 41 30 28 21 23 24 16 16 26 23 17 23
17 17 23 21 14 26 22 17 25 31 37 34 40 42 44 56 57 63 60 66 66 81 87 81 82 89 91 91 84 82 82 93 94 84 88 84 92 90 85 87 79 80 76 76 67 67 60 59 58 56 49 44 37 37 32 34 28 24 18 22 17 25 15 19
14 18 22 24 26 26 14 20 22 32 30 38 35 47 42 58 55 65 67 67 74 78 83 87 92 99 97 96 101 93 99 98 99 99 95 89 91 96 93 98 88 88 85 79 81 71 66 56 53 48 47 45 35 39 31 32 28 23 25 19 14 23 21 20
21 25 23 24 25 22 17 16 29 32 32 34 42 44 45 50 60 58 73 78 89 89 90 101 93 96 98 102 106 96 104 99 106 98 106 95 96 98 102 99 101 92 95 84 83 79 66 62 54 54 47 49 47 41 27 26 30 20 20 25 26 17 23 22
14 24 24 22 22 26 21 27 25 26 30 39 47 40 46 51 51 62 67 77 93 94 102 98 95 104 106 102 102 99 104 112 116 107 102 102 99 101 104 104 104 105 102 97 95 85 73 59 61 58 44 48 47 37 34 29 20 28 26 25 26 16 17 15
22 16 16 23 14 22 17 21 28 33 38 34 47 41 53 48 55 61 72 85 90 89 95 94 101 102 112 108 112 115 114 116 111 114 115 107 110 108 112 102 100 101 100 100 85 75 73 59 59 56 44 44 40 31 38 35 20 28 26 18 25 17 22 20
26 26 18 21 19 16 25 26 30 35 30 37 37 41 47 50 49 54 65 73 81 88 99 98 99 108 103 113 108 107 111 121 115 118 115 107 110 113 113 99 102 106 93 86 83 84 64 54 60 52 44 46 43 42 35 26 23 17 24 25 22 14 21 21
24 26 22 17 25 16 22 21 20 24 32 34 33 44 43 55 52 64 67 77 85 88 87 92 106 101 104 109 118 115 121 117 123 126 121 114 115 115 113 110 105 98 96 86 87 77 65 63 59 48 50 42 37 39 33 26 23 18 24 24 19 15 16 26
17 25 26 22 21 25 18 15 18 29 28 31 43 47 44 46 56 59 70 66 83 86 94 91 98 99 99 107 114 111 115 126 132 119 110 111 115 106 100 104 101 93 95 90 79 71 66 53 56 49 50 40 41 39 33 23 29 26 18 22 14 15 24 18
17 20 15 20 14 14 17 16 20 27 23 27 41 35 48 41 44 56 64 65 71 82 83 85 90 96 96 104 111 110 112 112 112 122 108 113 103 106 105 95 97 86 83 84 81 64 66 53 51 45 46 41 35 32 28 32 27 19 25 14 16 24 16 21
21 14 26 15 19 21 22 22 23 27 30 27 34 35 37 41 44 51 51 59 72 73 78 80 89 94 94 107 109 108 108 106 115 109 101 107 106 96 101 94 84 92 84 78 75 61 61 52 46 49 34 43 28 29 25 21 15 16 26 19 19 15 15 22
19 20 24 24 25 17 15 26 18 22 28 28 32 33 40 37 41 44 48 62 65 71 79 82 90 95 98 100 100 102 102 101 104 98 95 100 101 92 99 87 90 80 81 65 62 60 56 48 41 41 34 35 33 33 23 22 20 17 24 17 24 22 22 15
16 18 24 24 26 16 18 19 15 18 22 27 23 37 37 41 41 42 43 49 55 64 73 76 74 82 88 90 94 93 94 96 85 96 94 86 88 94 86 83 80 78 77 65 59 54 50 38 41 42 29 31 29 23 22 19 19 21 17 20 26 23 25 20
23 15 14 19 25 24 22 25 20 15 23 19 29 31 28 29 30 40 43 49 54 58 62 66 75 80 83 85 83 79 80 84 83 78 83 89 86 85 85 76 76 72 58 58 53 48 42 40 39 36 37 34 30 19 26 24 22 18 14 25 23 25 23 16
23 15 25 22 24 24 17 21 21 17 19 22 26 25 32 26 33 30 36 45 49 57 60 55 68 63 66 79 76 76 76 75 79 73 72 77 75 79 70 70 59 61 56 53 43 44 31 36 28 32 26 30 18 26 14 24 15 20 21 26 20 21 24 18
15 21 17 21 21 14 21 19 22 19 22 21 16 26 23 27 32 25 34 31 41 46 43 48 52 56 68 60 68 67 75 74 70 73 66 69 66 68 60 58 63 56 51 38 35 32 34 24 33 25 26 19 20 16 16 20 16 21 25 17 22 14 26 17
22 22 16 19 26 25 14 20 19 18 23 24 23 25 16 24 29 20 25 33 39 42 37 50 56 48 53 54 64 55 59 62 58 59 67 57 61 55 59 46 44 48 44 43 30 27 26 32 19 19 18 14 16 22 26 25 16 24 15 26 21 16 21 15
23 15 25 26 20 24 25 19 17 25 24 26 19 16 14 14 25 23 26 26 28 35 36 35 41 44 45 45 51 55 55 64 62 57 63 56 48 50 53 41 43 36 30 35 23 20 19 18 19 20 16 25 18 18 21 24 25 19 22 21 20 17 26 16
17 25 24 21 22 20 23 17 17 25 21 23 24 14 26 19 15 16 25 18 15 17 31 37 39 38 42 47 52 44 44 45 57 50 56 46 43 49 47 41 34 28 21 21 14 25 21 23 26 24 25 25 17 24 21 15 22 20 16 26 16 24 15 20
17 18 26 24 14 18 15 23 14 25 17 24 18 23 23 20 19 26 15 18 26 19 21 26 32 29 34 45 41 41 48 40 48 41 48 47 45 44 41 34 26 31 20 26 21 19 18 18 25 14 17 24 15 18 23 25 24 21 26 15 14 26 25 22
23 24 18 21 22 15 17 22 18 16 19 14 19 20 16 16 18 25 16 17 14 18 19 26 26 30 27 32 39 31 39 35 41 40 32 38 29 34 31 28 26 19 14 23 26 15 25 24 24 22 26 21 16 26 14 18 21 24 24 20 26 25 17 15
22 26 21 25 21 21 16 18 20 24 20 20 17 26 24 26 23 24 18 18 23 23 18 15 25 19 23 23 32 37 32 34 32 33 28 25 29 22 22 24 25 20 26 26 21 18 24 15 17 16 17 23 23 26 26 20 23 26 26 23 21 14 25 16
15 22 21 23 19 14 20 26 24 15 15 15 26 26 25 16 25 17 25 18 15 19 26 21 18 22 24 27 28 23 21 30 29 23 21 20 20 16 23 17 17 20 20 18 16 26 24 16 23 23 22 24 24 25 14 23 16 21 23 14 14 22 23 19
24 18 22 22 17 21 25 16 20 18 22 22 18 25 14 23 15 26 26 17 17 26 17 19 14 20 20 22 18 21 16 26 16 24 21 18 24 19 20 22 23 15 17 21 15 15 24 20 25 26 21 16 16 14 14 15 14 21 20 20 22 17 16 15
18 14 24 26 21 25 21 25 19 17 15 22 22 25 14 19 18 20 25 16 21 18 14 14 25 24 16 21 15 24 26 21 14 26 21 15 20 22 25 15 22 21 23 17 16 20 26 24 21 19 22 22 15 25 25 17 22 24 18 22 16 15 26 18
25 17 18 23 19 18 16 18 18 22 16 22 24 26 16 23 21 17 17 23 17 20 15 26 17 25 19 21 23 18 21 15 22 23 20 23 22 21 20 17 22 25 20 14 21 14 26 25 21 21 18 21 22 18 24 20 26 20 22 21 25 26 26 23
24 20 23 25 16 18 14 19 21 14 25 23 20 21 18 23 16 15 16 15 25 18 23 16 14 15 15 25 14 16 23 18 24 21 19 19 24 16 26 23 14 20 23 24 15 16 17 15 14 17 17 16 16 26 26 25 16 19 17 16 26 15 24 23
17 15 15 26 16 18 26 16 25 16 23 21 19 15 17 20 20 25 19 22 21 26 15 17 22 22 18 24 14 25 15 19 15 18 22 20 16 22 14 23 23 15 20 18 20 15 17 18 20 16 26 15 26 15 19 20 21 21 15 15 23 16 24 20
16 24 19 19 20 25 14 25 17 25 22 15 20 18 21 16 22 18 23 19 22 15 26 18 19 23 15 18 23 20 18 19 25 14 21 21 19 21 22 16 21 22 19 25 23 17 26 25 18 26 16 18 26 19 18 25 25 17 23 25 23 22 19 26
23 17 18 16 19 23 20 16 15 24 16 16 22 21 16 21 22 20 26 19 23 17 21 16 25 24 18 26 16 21 15 20 25 22 21 19 24 18 25 24 20 22 18 14 24 23 24 20 21 16 22 26 20 24 16 19 20 17 24 22 20 15 18 18
23 20 23 24 19 16 17 23 16 15 20 19 15 16 18 14 25 25 24 23 21 16 26 17 16 20 26 20 18 14 15 21 24 24 22 18 26 15 14 23 22 24 15 24 14 21 21 23 16 17 15 14 15 22 25 20 16 21 23 18 24 19 23 20
21 20 25 14 21 20 19 14 21 14 16 24 24 21 16 15 16 25 16 21 15 20 15 21 25 18 15 24 21 23 19 15 16 21 25 17 23 22 24 15 16 21 18 25 14 18 21 16 26 20 26 17 22 20 21 16 18 17 23 20 16 26 22 22
24 17 17 24 15 19 25 19 15 19 25 20 19 22 26 23 23 26 15 15 17 17 26 19 21 18 16 25 20 22 23 16 26 26 23 15 19 18 23 16 17 22 24 20 24 16 15 24 25 15 15 22 20 21 20 22 22 15 21 20 20 21 26 24
15 23 16 14 25 26 23 24 25 14 14 15 24 14 17 14 22 15 24 18 18 26 21 21 20 18 25 21 17 15 26 15 25 18 22 21 16 26 21 23 18 24 25 25 15 14 20 18 16 22 18 23 26 23 22 23 16 14 24 26 20 24 20 25
22 18 23 21 14 24 18 20 21 18 23 23 21 17 15 19 14 14 15 18 25 23 23 15 23 26 19 17 22 25 20 15 24 19 14 18 16 23 22 18 19 17 20 14 14 22 19 16 20 21 19 20 22 22 17 22 23 21 24 16 19 23 20 20
23 15 21 26 24 20 24 16 22 16 16 24 16 23 26 17 18 17 15 25 16 23 19 17 22 14 16 25 16 21 16 17 20 14 21 16 17 15 23 23 19 26 22 17 23 15 16 24 20 20 22 20 21 17 15 20 18 20 19 15 19 19 16 17
