P2
64 64
255
19 21 36 21 18 18 31 24 38 30 36 22 23 33 27 31 23 23 31 29 34 37 22 25 22 21 22 28 37 29 21 38 28 22 24 26 21 35 35 34 37 37 35 35 21 23 32 38 27 21 34 32 29 29 26 38 31 35 19 34 38 36 38 26
33 19 20 32 25 19 29 19 28 29 25 32 33 38 26 25 26 36 29 28 33 23 19 24 31 18 23 25 35 25 37 31 26 26 30 32 29 30 26 19 22 21 38 26 18 24 22 24 31 30 21 34 19 29 33 23 27 33 31 28 24 21 32 19
38 31 33 35 32 37 18 31 27 23 35 23 21 18 35 34 35 28 32 38 36 18 18 27 33 21 22 18 26 36 36 18 26 35 33 37 35 34 26 20 27 34 21 30 19 20 38 38 27 21 20 24 37 26 24 30 21 27 25 21 32 37 34 19
29 31 30 31 21 36 21 36 37 28 27 28 32 20 28 18 24 28 35 19 18 27 18 24 20 38 24 21 33 20 24 37 25 19 33 36 33 23 20 21 32 18 34 27 35 21 35 36 24 30 23 27 26 31 37 30 22 22 22 25 24 25 28 35
33 33 24 33 32 26 20 33 21 20 34 28 35 27 25 25 37 37 35 30 27 18 21 29 31 35 18 20 36 22 33 18 28 25 26 26 27 18 30 22 24 25 18 32 27 30 38 26 34 33 32 28 36 32 25 27 21 38 22 34 31 19 38 22
34 24 30 20 19 26 31 20 34 20 35 23 25 35 34 22 28 18 30 32 30 33 22 34 31 30 36 32 37 28 25 25 22 26 19 21 20 23 31 31 37 24 22 25 29 23 32 32 35 33 33 37 33 28 34 30 36 19 30 38 35 30 36 27
22 34 23 26 35 23 26 31 31 36 37 34 35 24 32 33 21 20 20 27 35 20 29 34 26 19 23 36 28 20 22 34 30 29 34 33 35 35 24 24 26 34 18 25 25 37 35 30 30 25 28 32 27 28 30 24 25 38 24 20 36 30 30 20
29 29 23 19 29 31 26 30 29 20 36 30 38 18 27 30 29 29 34 20 31 28 27 37 24 37 18 32 27 38 37 21 28 37 18 35 26 33 38 30 28 26 19 35 29 22 34 21 31 21 38 21 24 25 32 19 18 32 18 21 37 22 21 36
37 38 25 19 31 26 37 36 24 20 24 22 21 25 32 38 23 27 33 31 38 29 18 21 26 38 21 29 22 22 23 26 21 23 25 37 34 22 26 28 21 18 18 31 26 32 35 26 27 35 28 37 18 19 18 35 33 21 29 37 18 26 23 20
35 25 18 29 25 33 30 29 29 20 33 32 31 18 37 19 20 31 33 29 27 32 30 20 29 36 20 19 22 18 28 34 21 20 18 32 35 33 27 24 24 34 30 33 34 38 33 38 31 38 28 38 18 37 23 23 21 25 18 28 38 19 22 37
25 21 37 18 36 26 30 19 25 37 36 28 31 33 32 34 28 32 19 29 34 19 27 29 34 37 28 34 21 33 38 29 27 25 37 34 27 24 32 29 30 33 38 33 34 34 31 29 29 29 19 26 24 21 23 29 37 26 27 37 30 18 23 29
21 35 23 23 24 21 23 18 25 21 28 19 33 21 28 30 30 19 28 30 34 25 31 19 18 22 33 28 27 27 36 38 27 36 31 33 24 19 38 24 34 31 26 31 28 26 22 34 28 18 23 25 20 22 38 33 27 20 23 38 27 20 32 33
20 28 22 26 18 32 20 27 28 24 28 35 28 36 25 29 18 19 38 25 26 38 25 36 35 20 18 35 37 35 25 36 36 37 35 22 21 33 30 22 20 27 38 31 28 23 34 26 34 20 28 27 31 21 35 25 23 19 27 18 37 37 23 33
31 37 31 29 38 33 27 19 37 22 33 31 28 25 24 36 24 20 32 34 25 32 20 29 36 36 24 25 28 31 24 30 21 27 29 18 36 25 35 33 34 21 30 21 26 21 38 24 29 20 25 23 38 33 28 20 33 34 24 22 33 35 23 34
27 38 18 27 28 23 33 18 31 19 31 23 31 31 37 20 25 37 27 18 33 36 23 31 30 22 30 23 27 21 30 21 33 34 22 38 24 22 26 31 31 38 29 19 21 23 35 35 37 29 22 25 22 27 35 30 31 19 29 34 25 26 27 31
36 27 38 29 37 28 38 38 26 22 31 36 27 35 38 29 21 25 20 21 27 35 18 37 24 19 30 32 35 34 38 23 28 34 29 30 24 36 23 34 29 25 22 32 37 28 20 33 24 38 33 36 37 31 26 36 27 33 34 27 29 26 37 24
27 31 26 25 25 27 19 19 28 32 28 36 26 33 26 38 35 36 25 27 32 20 28 25 33 24 25 32 34 31 38 31 35 38 25 21 30 30 33 22 31 28 20 24 18 24 31 29 28 19 24 36 22 24 18 38 38 23 31 33 27 35 28 20
26 18 19 31 29 29 36 24 32 32 20 32 35 21 31 24 20 25 21 35 35 27 35 19 30 22 25 37 22 35 38 19 36 31 20 25 21 25 21 32 24 18 38 38 20 34 33 28 36 18 25 38 27 30 27 29 35 30 20 24 24 26 18 37
19 31 36 22 33 32 30 20 32 36 19 25 35 19 33 26 33 18 32 36 36 33 35 33 25 34 34 33 22 37 18 20 21 27 26 24 37 27 31 31 32 23 32 33 37 31 18 30 31 31 18 30 34 26 30 37 37 24 37 29 20 27 24 27
38 27 27 35 29 25 21 22 19 30 34 23 36 19 22 31 31 31 31 36 42 23 28 39 25 24 36 26 29 38 19 26 22 18 33 27 38 34 30 35 39 23 39 22 29 37 25 35 29 22 30 26 24 27 38 21 23 26 23 21 30 37 22 26
36 36 24 33 18 19 23 19 19 19 36 21 34 31 29 41 28 39 38 35 29 30 36 35 37 36 32 31 27 31 34 28 27 30 19 27 34 34 26 23 24 31 39 31 41 33 35 27 39 33 29 35 36 30 38 22 21 37 37 25 22 32 34 34
38 23 35 20 28 26 23 22 38 32 22 27 29 34 43 44 29 40 41 34 45 49 38 34 44 41 29 43 21 33 111 32 18 37 35 31 22 27 42 32 31 29 49 46 43 41 36 33 38 35 41 41 29 24 22 20 30 19 27 38 18 25 23 32
27 30 19 27 26 25 38 26 38 25 19 33 21 32 30 48 40 32 37 47 41 33 34 32 49 42 39 39 34 106 31 25 35 38 29 27 31 33 29 42 33 45 41 39 53 49 38 32 31 35 32 34 37 35 34 24 24 38 22 35 36 37 32 27
29 29 20 38 28 30 24 37 32 18 36 25 44 35 37 32 35 38 36 57 57 42 48 49 45 47 39 44 27 35 210 25 32 19 33 29 43 46 46 47 53 53 42 43 52 47 39 40 36 36 32 28 31 38 36 18 23 36 30 25 32 19 18 36
25 34 37 27 28 21 32 22 27 29 25 32 33 47 43 39 38 51 60 44 44 54 59 41 54 50 43 52 45 116 126 31 38 39 43 35 36 32 41 50 46 45 54 41 58 45 60 39 38 42 52 31 43 38 41 20 33 38 35 34 34 22 35 35
18 32 37 31 30 29 30 30 34 31 23 41 47 34 48 51 51 47 59 59 52 45 48 58 44 49 51 41 36 124 198 36 28 23 43 46 37 48 41 44 51 53 56 51 65 58 47 54 41 45 40 52 46 36 36 32 23 29 38 36 22 22 35 21
31 35 29 29 33 34 33 33 38 37 33 44 47 47 50 54 50 56 59 52 55 54 67 47 54 53 45 56 36 216 124 40 40 41 31 50 55 43 59 55 64 62 60 56 51 53 54 48 51 49 49 54 42 40 35 22 26 22 20 24 21 35 26 34
35 20 31 35 34 27 25 20 22 28 43 50 39 49 47 51 61 63 56 65 70 65 53 64 64 54 61 41 125 138 119 40 31 46 124 51 50 60 48 60 50 52 69 56 66 66 54 61 56 58 60 55 34 31 34 36 21 31 31 26 32 31 31 36
24 25 37 27 38 37 25 37 38 36 39 47 46 54 50 64 61 56 69 72 63 61 57 72 53 55 57 46 52 126 212 42 51 38 123 43 43 48 48 56 54 69 70 66 73 73 72 54 62 47 44 59 37 51 37 28 37 33 23 18 25 32 18 29
25 34 30 21 19 31 21 37 31 41 39 54 49 53 45 65 58 72 75 76 65 78 73 62 65 65 66 46 50 218 132 139 48 37 40 136 59 53 53 71 65 68 69 62 62 65 69 65 66 48 48 59 37 43 41 38 26 37 19 23 21 31 33 33
37 29 27 34 20 31 22 19 40 36 42 44 56 54 55 65 54 70 72 63 75 78 65 80 71 69 58 58 51 132 219 141 46 50 46 44 134 50 59 59 73 76 77 82 65 80 74 73 60 50 52 58 47 41 33 43 29 30 19 35 23 34 22 30
35 28 36 34 38 30 21 31 32 38 44 50 50 58 66 59 74 66 77 84 82 84 74 66 75 67 65 50 52 213 218 43 40 41 56 52 45 149 57 65 74 75 71 81 76 77 72 72 57 67 52 45 51 44 49 39 37 28 34 38 27 34 23 19
27 29 27 36 23 27 30 30 28 41 42 47 39 55 57 56 60 76 65 80 78 89 67 66 73 61 55 54 142 143 41 209 46 46 53 52 144 66 66 57 63 81 73 90 80 73 75 73 63 52 55 55 45 51 51 43 38 26 34 30 37 23 19 24
22 24 31 28 36 35 20 24 33 40 42 43 49 46 49 52 69 66 77 67 71 79 82 66 73 62 59 146 62 41 225 40 134 49 46 44 147 63 65 64 62 68 75 87 68 72 68 66 62 59 50 59 40 47 44 43 31 26 35 21 28 33 36 22
36 32 35 39 41 27 25 26 47 42 36 47 49 58 63 58 73 76 71 74 79 78 88 69 67 60 70 71 154 60 148 228 48 49 51 57 149 54 70 61 67 78 89 78 74 88 81 65 66 67 70 68 49 51 53 49 45 42 27 39 38 44 44 31
43 30 30 49 39 41 40 34 53 50 50 56 57 62 60 77 82 80 85 84 74 85 79 83 73 69 78 69 155 64 148 67 227 62 58 71 58 151 79 68 75 93 85 78 94 95 81 90 88 70 72 68 69 54 67 46 57 43 51 48 39 53 47 47
50 50 42 50 35 53 41 55 58 53 47 68 60 67 80 70 82 92 85 77 93 84 86 76 92 73 78 166 79 69 60 241 74 153 60 70 73 161 91 84 92 97 94 100 102 103 101 87 97 93 74 71 76 72 65 64 56 49 63 60 62 53 67 60
39 52 44 55 59 52 51 46 61 65 68 62 69 83 77 73 89 84 86 100 87 84 85 98 80 80 79 72 172 79 251 70 68 159 77 78 91 81 174 84 91 88 105 103 99 96 108 102 97 86 87 90 91 86 80 69 76 73 66 77 70 61 72 75
43 50 56 40 48 39 51 47 46 51 59 62 63 56 60 68 67 71 75 78 81 79 83 79 71 70 76 64 157 64 155 139 58 142 56 73 80 155 82 71 86 86 78 89 87 95 81 86 77 73 69 73 79 80 77 71 69 68 52 70 52 62 54 60
36 46 46 34 38 42 33 36 38 36 43 42 64 64 52 56 61 57 73 75 79 70 73 63 66 68 68 60 141 55 132 145 41 143 52 56 145 55 61 71 73 74 73 78 77 66 68 80 70 69 56 71 71 57 53 61 55 42 44 48 51 48 50 47
38 35 29 32 29 39 27 34 27 33 41 44 40 51 54 45 44 56 62 58 67 64 52 61 48 64 63 140 51 134 120 42 29 121 42 138 56 54 47 47 54 67 60 66 51 52 62 50 64 63 60 59 39 38 52 47 37 49 43 38 40 36 43 42
33 20 28 26 36 33 27 38 20 27 31 22 24 39 49 47 35 49 36 46 46 41 52 42 44 35 127 41 39 129 124 28 26 124 40 30 127 31 46 50 53 52 54 39 45 56 47 37 39 40 30 29 27 29 25 32 24 30 23 37 26 39 19 38
32 29 28 36 33 33 32 25 30 18 30 19 35 33 39 47 39 46 49 35 42 39 52 48 48 119 32 43 41 119 109 32 107 22 20 33 29 114 47 39 43 41 39 46 38 46 43 35 31 39 27 32 23 39 25 33 24 38 35 21 33 22 31 29
29 32 33 21 28 22 27 28 23 19 28 32 19 37 42 39 33 38 45 48 39 47 47 47 41 130 25 38 110 28 107 22 116 34 33 26 116 30 37 41 34 29 35 30 30 41 39 43 27 28 32 35 22 32 25 19 25 19 28 29 23 37 29 34
22 29 21 27 21 32 19 32 30 28 29 27 25 22 32 41 36 43 37 38 33 29 33 45 34 113 37 104 19 20 121 25 35 114 35 112 32 24 23 31 40 30 27 30 42 44 26 39 39 36 19 28 31 23 38 35 21 29 34 23 32 38 29 18
37 30 37 18 27 38 22 30 32 29 25 18 29 20 20 22 24 24 31 40 31 27 35 38 31 21 115 19 113 35 119 30 35 115 20 32 119 20 22 27 36 26 23 23 39 35 22 23 24 23 24 23 38 21 29 29 30 36 25 20 19 23 35 20
19 30 29 31 32 22 28 33 33 33 19 28 38 27 35 35 33 34 28 23 21 25 21 38 23 118 32 112 37 25 105 38 19 26 123 117 19 34 24 36 25 23 20 32 33 22 27 32 30 26 26 34 32 19 38 33 26 36 34 31 36 29 34 26
21 38 25 32 18 38 27 34 33 27 38 32 30 29 28 25 35 35 26 25 18 22 25 18 108 19 113 28 24 21 18 119 38 24 27 115 115 37 25 26 29 35 30 37 18 38 28 37 37 31 26 18 18 24 34 29 23 37 35 38 32 37 25 25
31 30 34 30 38 27 37 25 23 18 27 18 37 28 32 24 25 32 38 35 25 21 29 103 21 104 24 21 24 27 26 30 111 19 115 23 26 105 34 33 21 28 27 18 28 18 19 33 33 21 22 25 26 33 21 34 27 33 38 25 22 27 27 35
33 18 30 27 23 27 28 30 20 23 36 34 19 33 33 24 19 18 33 19 36 18 35 121 110 22 28 23 34 25 29 20 115 105 32 28 114 18 36 29 30 33 37 34 26 31 26 31 32 19 25 35 31 30 29 32 34 21 33 37 29 31 27 18
37 28 33 38 33 30 35 23 25 34 18 26 19 27 20 32 19 24 18 32 36 32 25 111 113 29 38 29 29 30 35 21 34 201 32 34 118 20 38 20 33 25 24 36 34 27 24 24 27 36 35 21 31 29 21 25 23 28 19 27 38 35 31 32
28 31 34 37 27 28 23 27 32 18 37 19 37 28 25 28 23 21 24 37 33 31 115 115 37 37 37 35 30 36 30 26 37 117 112 35 120 31 22 32 38 21 32 20 32 21 24 24 27 34 28 31 37 29 30 26 20 30 18 37 36 24 31 36
25 30 20 33 30 28 33 26 23 19 34 35 32 25 25 36 35 34 18 37 33 104 34 27 119 19 31 18 28 19 18 23 24 36 197 21 37 122 34 30 34 38 35 23 24 25 33 37 38 23 30 32 19 34 19 19 38 22 28 18 27 18 27 30
25 32 22 31 31 22 36 25 32 22 20 30 33 18 21 36 32 34 23 18 30 118 31 114 31 24 29 35 21 23 28 30 31 114 23 21 108 31 21 35 29 31 38 19 19 35 30 31 26 35 25 33 29 20 20 22 25 23 20 29 26 36 18 33
19 20 36 37 21 23 20 34 24 27 30 34 20 24 19 18 36 19 31 23 19 121 107 28 32 30 35 29 31 32 31 34 108 21 34 20 120 21 31 19 34 19 38 27 34 25 23 36 33 27 30 31 34 19 33 21 36 29 26 27 32 20 24 29
34 23 18 20 38 26 36 24 34 26 37 33 19 31 19 31 26 32 35 29 26 121 109 31 36 31 26 25 33 24 25 38 36 19 25 25 104 19 37 29 36 28 22 19 35 37 32 29 24 20 21 30 38 26 36 28 34 26 28 25 26 23 21 18
36 31 28 27 21 35 30 28 27 38 20 29 28 37 19 31 31 27 19 37 28 201 25 38 20 33 19 37 33 18 21 21 24 35 30 122 21 25 26 34 25 24 35 24 36 20 33 24 33 19 29 23 19 32 21 22 21 22 20 29 24 25 23 37
37 33 18 29 19 37 22 19 32 35 24 33 22 30 30 19 29 24 28 21 23 19 107 34 26 19 34 36 30 19 30 27 31 36 34 19 103 27 38 33 32 19 18 23 24 37 34 38 32 28 18 20 38 27 24 30 28 38 34 29 38 29 23 32
38 21 34 38 19 33 28 24 29 36 34 31 35 25 29 25 32 37 24 28 30 121 24 33 37 32 31 23 37 18 37 22 29 24 18 29 119 28 22 19 20 30 23 32 36 18 35 37 34 25 38 27 25 22 26 30 20 21 31 28 22 31 20 22
20 29 31 33 36 37 33 31 27 25 22 32 23 21 37 38 37 30 33 24 103 19 22 33 29 30 25 20 32 38 38 30 36 27 23 22 22 28 36 35 18 22 20 34 19 23 18 29 37 20 31 37 29 27 33 30 29 20 38 38 30 21 19 35
28 29 37 20 21 37 31 37 31 27 24 19 34 38 18 23 18 30 24 20 108 23 25 19 31 26 33 29 25 27 38 25 22 25 28 29 38 36 18 26 33 32 25 29 32 22 28 28 24 21 20 33 25 34 19 26 37 38 31 33 31 20 21 25
19 18 26 18 18 34 37 27 34 18 29 32 33 30 26 26 21 30 25 27 25 37 28 26 36 24 38 31 30 35 21 30 33 38 29 30 22 36 22 29 34 18 24 27 21 37 36 29 19 30 25 33 26 28 25 27 37 22 33 37 19 35 25 18
33 20 21 27 33 28 36 30 29 20 21 35 24 26 34 24 21 34 36 32 32 30 24 36 34 26 36 26 34 29 34 26 30 32 27 24 23 33 29 32 33 35 27 24 21 35 27 23 31 33 25 38 29 21 22 38 19 22 30 30 27 23 37 27
21 21 35 20 33 29 34 34 20 21 37 31 21 19 23 29 19 34 20 29 18 38 37 27 22 37 32 33 29 32 27 36 18 23 18 22 19 24 22 18 25 26 29 24 34 34 29 32 18 33 38 29 22 23 32 18 32 18 30 29 24 20 19 31
