P2
64 64
255
26 28 28 26 23 35 30 20 25 35 29 28 33 36 28 25 34 34 23 18 22 35 25 29 31 31 33 25 34 20 33 26 21 20 30 23 33 18 25 37 24 32 30 34 35 20 25 24 21 36 22 20 34 38 27 31 24 27 33 20 22 28 33 33
36 28 24 35 27 30 31 30 38 25 27 36 33 27 26 35 21 37 34 19 27 27 36 36 36 31 20 29 38 28 35 32 23 30 20 35 26 36 29 30 34 30 35 28 31 38 36 20 36 33 35 22 28 22 23 36 30 30 26 26 23 28 26 21
26 24 21 19 26 24 21 22 18 36 28 20 30 30 30 31 24 31 23 21 19 37 29 26 19 27 29 32 34 22 34 26 26 36 20 33 38 21 36 22 36 34 27 28 37 24 30 24 22 19 18 30 27 32 24 38 25 20 24 22 22 25 29 21
22 32 25 33 27 24 33 27 23 32 35 35 29 22 28 26 33 25 33 32 21 29 24 31 28 33 38 21 35 31 18 35 18 22 36 26 28 19 27 30 31 28 34 35 38 18 37 22 35 21 36 31 35 28 25 31 25 32 38 30 34 34 19 18
28 34 28 22 34 26 37 21 28 24 20 36 24 34 34 22 26 32 30 25 35 37 19 26 32 24 35 18 36 23 27 25 25 21 35 37 28 21 22 23 38 31 22 32 23 30 24 25 34 22 31 36 24 19 28 37 29 19 30 36 33 34 19 22
28 27 38 31 23 24 24 35 22 27 24 31 29 33 36 38 36 26 19 24 35 23 19 25 31 34 37 29 38 33 21 22 27 36 27 18 35 34 34 25 30 32 20 22 32 37 27 19 35 32 35 22 24 35 24 19 35 19 24 29 26 24 22 30
29 33 23 26 24 34 21 31 31 32 25 32 25 20 18 32 23 35 24 35 34 33 38 20 38 19 21 27 31 28 29 32 33 24 31 29 34 19 25 20 34 29 35 35 31 21 29 35 25 30 24 37 37 31 34 26 20 38 20 35 28 30 35 31
28 30 18 26 31 30 33 27 32 19 28 33 23 37 37 18 20 33 19 18 31 21 24 31 23 29 23 36 35 32 26 31 32 37 22 27 37 27 25 30 27 35 38 26 31 19 33 31 25 22 27 30 18 32 30 21 21 37 36 29 24 24 27 18
24 18 30 33 33 36 32 27 20 31 36 27 18 38 32 27 24 26 25 29 18 33 33 32 28 23 22 21 24 38 30 23 38 33 35 28 33 20 31 29 36 23 24 19 21 21 23 27 27 30 29 21 31 36 23 31 34 29 31 22 24 19 31 29
28 26 29 34 20 32 20 29 31 32 32 28 28 37 20 22 36 31 21 20 19 26 18 29 23 35 18 24 35 23 27 30 34 26 35 21 34 25 24 38 29 32 33 29 27 21 22 25 28 32 26 29 31 30 32 36 35 21 20 28 32 22 23 27
36 22 20 36 24 34 22 36 23 29 29 24 30 29 35 20 34 32 26 24 36 35 29 21 23 28 31 35 28 34 25 28 34 30 36 19 32 21 37 32 22 34 20 33 28 29 29 27 31 18 24 29 25 35 24 19 36 27 31 28 24 18 28 29
34 18 20 19 20 23 24 19 37 36 25 25 34 37 20 30 19 21 33 36 37 32 29 34 37 19 25 29 25 32 31 18 26 25 23 30 33 27 29 28 18 36 33 23 37 35 21 38 20 26 28 35 27 29 20 37 27 33 36 37 35 29 25 26
26 23 33 26 24 26 36 31 33 33 37 37 25 34 36 31 26 37 24 29 28 25 29 29 33 22 34 28 34 29 21 24 27 19 22 18 27 23 24 28 30 24 21 36 34 28 37 24 22 21 24 23 31 30 30 24 38 32 25 19 32 33 24 31
33 36 32 33 33 19 31 31 19 21 30 35 24 33 26 33 32 32 28 28 26 23 20 34 27 18 19 18 28 31 23 24 34 28 34 20 19 36 37 21 35 37 32 38 26 36 31 33 20 25 33 38 21 32 28 21 21 26 36 26 21 24 26 25
33 38 19 31 25 20 25 38 34 30 24 19 35 35 27 36 21 27 20 35 20 30 18 36 25 21 30 25 34 37 28 33 37 28 37 33 24 19 32 28 32 33 37 34 24 18 19 37 36 27 26 19 18 19 18 29 28 19 27 30 28 21 22 24
38 18 34 20 30 21 22 37 25 31 35 38 38 19 22 36 38 35 25 28 34 27 37 18 19 35 23 21 26 31 36 30 28 21 26 30 27 24 27 35 33 20 28 32 26 38 24 19 34 22 21 26 28 22 20 26 19 29 19 30 27 35 24 18
31 38 24 30 19 24 20 35 22 22 26 29 18 37 27 20 20 36 37 25 25 25 33 26 33 37 22 33 18 26 22 27 30 32 21 34 24 34 23 23 31 21 38 35 32 21 32 26 27 31 27 30 27 33 24 29 36 35 23 26 30 34 23 32
32 37 35 30 25 29 23 31 37 32 29 28 34 24 19 22 22 22 20 20 27 27 26 27 19 22 20 32 32 21 32 23 23 18 22 31 31 22 19 38 33 22 26 23 38 36 36 36 34 24 33 35 28 20 37 34 24 25 29 34 22 36 35 28
25 29 38 29 32 37 28 34 19 37 30 18 38 28 21 20 29 28 25 28 27 29 32 29 24 31 19 34 25 30 32 30 19 25 38 30 37 18 25 36 20 27 18 35 34 26 30 24 22 33 26 24 35 19 36 29 36 36 29 19 25 23 34 36
21 28 27 32 27 33 35 21 23 33 30 21 35 27 29 18 25 36 27 36 28 31 33 36 40 30 31 20 28 25 27 26 30 37 27 30 28 22 29 32 39 36 23 28 30 37 36 25 21 31 21 25 21 30 19 38 26 24 36 18 38 27 28 32
21 20 20 26 27 37 32 20 32 35 29 32 21 32 31 36 36 29 45 42 27 40 43 39 40 41 23 34 34 23 38 26 38 26 30 29 33 38 39 41 26 27 29 42 31 25 34 29 37 33 26 30 34 33 21 35 24 21 37 28 19 28 25 37
27 26 33 33 34 32 27 34 18 18 38 18 36 35 31 42 32 31 31 38 47 32 31 34 36 44 33 27 30 30 34 33 21 28 35 36 39 42 30 34 43 35 46 35 29 35 44 29 30 42 34 41 22 29 30 24 26 31 34 23 28 25 27 35
18 29 32 26 38 25 31 20 31 34 21 20 25 40 31 44 49 37 49 53 34 42 49 47 41 50 38 34 36 35 22 34 28 21 24 39 37 27 38 44 45 48 45 50 46 42 35 34 39 33 33 44 31 32 34 29 31 19 19 36 20 33 24 25
22 18 28 18 34 22 37 26 31 31 37 25 36 37 30 33 41 47 36 39 48 43 54 39 40 51 38 45 46 25 26 20 33 23 33 34 31 36 44 43 46 44 53 46 56 55 43 48 52 41 41 43 38 41 19 23 22 36 22 35 26 35 26 25
27 34 30 31 24 22 26 28 19 31 35 44 47 33 34 46 49 39 42 46 49 43 58 48 58 41 50 47 49 45 28 25 22 33 33 40 31 41 44 40 43 57 47 41 50 56 53 49 39 52 45 32 44 36 40 31 29 28 37 19 34 35 37 37
31 31 18 32 29 26 36 29 32 29 24 32 48 50 39 58 49 58 55 46 57 48 52 44 47 54 40 38 38 34 38 39 35 39 30 45 32 39 43 57 50 49 50 54 61 55 49 51 50 38 38 50 40 36 35 34 26 27 20 29 26 30 35 28
38 24 35 38 26 26 25 34 31 23 45 30 40 42 47 56 55 57 55 63 54 65 54 48 62 43 55 38 45 39 41 26 26 37 35 36 36 51 55 60 63 49 65 56 56 60 65 52 46 47 45 46 33 40 33 35 33 26 26 38 32 24 37 30
35 21 29 25 25 19 28 19 21 37 33 39 34 56 53 50 61 54 58 56 60 56 59 52 69 46 59 55 54 41 34 39 29 31 34 53 57 53 55 48 51 52 59 60 61 63 65 49 52 45 41 37 39 32 40 39 35 32 29 26 22 19 20 20
27 33 18 23 27 31 18 38 39 45 49 46 48 46 59 47 65 67 65 64 60 73 69 54 56 63 54 49 52 51 51 39 48 48 36 54 52 62 53 64 71 61 64 63 57 58 71 63 49 60 45 42 40 33 40 26 36 34 22 25 21 20 18 18
31 29 27 19 25 18 34 38 39 31 41 46 51 45 47 58 59 73 71 59 73 74 61 63 72 55 51 58 52 50 54 35 40 41 40 47 60 60 49 68 66 59 62 74 65 78 60 72 65 66 46 56 53 37 39 38 33 35 30 30 20 27 27 34
18 36 30 27 21 35 18 26 23 41 39 53 41 42 60 69 64 58 80 80 81 66 78 79 68 73 57 58 49 42 39 47 51 36 54 57 58 60 67 58 67 75 73 82 80 79 60 72 69 59 46 47 46 44 51 40 33 30 20 37 36 36 33 35
27 26 18 37 38 38 35 40 25 33 37 40 53 54 59 52 56 64 67 72 75 84 85 65 73 71 67 51 57 46 45 50 55 50 43 55 62 51 56 63 69 82 78 88 76 86 72 68 60 65 55 51 56 39 37 47 26 22 33 25 37 38 26 21
37 31 26 37 28 25 21 36 35 42 37 43 41 48 48 63 75 59 74 86 86 75 80 65 70 55 59 63 47 40 57 44 41 43 44 47 44 58 63 74 61 78 74 88 78 82 65 60 70 55 60 52 54 37 40 28 32 20 28 22 37 28 32 34
28 38 26 29 21 19 23 20 30 46 46 46 46 54 53 64 63 70 70 71 79 78 73 73 59 69 61 51 63 47 49 44 45 56 43 52 59 61 54 57 70 64 82 84 75 70 63 73 69 67 64 63 45 36 49 34 33 27 18 21 30 34 25 20
23 20 37 28 37 28 26 22 29 44 49 53 43 52 59 59 67 77 66 69 72 76 81 61 58 54 69 64 46 50 46 46 44 51 41 42 58 60 58 54 75 80 73 83 67 76 68 74 59 59 59 53 50 39 50 32 32 36 31 27 36 30 25 27
26 35 32 27 28 31 18 25 22 37 49 39 39 52 62 65 58 63 77 66 70 61 65 74 55 58 67 53 45 47 34 44 41 43 51 57 50 57 57 65 69 66 70 73 61 71 62 55 52 48 45 51 45 50 45 32 30 35 37 24 37 34 38 21
32 34 18 20 20 19 21 18 37 30 39 34 36 47 46 64 52 52 63 68 76 67 71 68 60 57 63 62 55 47 41 49 33 45 34 42 46 59 49 68 72 69 74 61 66 70 69 62 56 48 44 45 56 35 36 31 39 25 38 32 36 28 23 38
19 18 29 30 30 31 34 26 26 43 39 36 38 41 57 54 60 55 71 54 64 62 61 66 49 66 43 54 46 49 38 38 32 31 40 39 42 44 59 52 53 62 64 73 55 68 59 54 57 46 59 46 47 42 45 27 37 26 34 31 20 35 23 30
38 18 32 33 32 30 35 36 23 41 29 33 50 48 38 49 45 61 61 51 62 58 59 48 51 57 52 41 51 35 46 36 28 41 38 36 50 39 61 63 56 57 62 61 69 58 49 64 43 52 57 44 43 31 40 29 23 24 26 26 22 24 31 32
40 22 27 30 23 33 36 39 35 27 34 44 54 43 42 54 49 53 64 68 61 66 52 66 60 49 57 46 46 35 46 42 46 44 38 52 41 60 51 45 65 63 52 56 64 57 57 57 55 49 60 38 40 44 40 42 30 34 37 44 25 30 44 44
24 44 39 30 27 44 43 31 41 36 37 35 43 58 59 61 62 49 51 62 52 67 50 58 54 63 57 41 56 55 49 31 29 47 35 53 59 46 53 66 60 58 55 67 60 68 59 60 59 61 61 51 44 55 45 42 30 40 34 31 36 33 39 38
35 41 37 41 41 42 34 47 42 48 47 38 53 55 50 56 63 65 65 56 62 54 59 65 49 65 48 52 54 50 55 50 37 40 46 42 45 52 59 66 58 63 66 70 65 72 65 68 59 55 53 64 41 45 38 39 54 36 56 49 51 37 49 53
25 37 41 41 26 40 37 27 40 38 42 31 46 43 52 36 52 55 41 53 53 60 58 59 44 50 45 46 39 43 46 43 31 33 38 39 43 36 58 44 48 57 61 62 44 49 60 55 49 52 55 36 45 50 43 48 44 31 36 35 30 39 30 46
36 24 22 24 34 30 21 40 27 30 30 22 34 28 41 33 45 33 49 37 38 39 39 46 39 44 47 32 42 31 28 40 42 27 24 37 33 46 31 51 43 41 52 51 46 45 38 33 40 34 40 42 24 27 36 30 35 44 42 30 43 30 35 42
24 30 26 36 30 21 23 34 22 19 25 28 26 23 29 25 36 28 26 44 28 32 41 45 42 35 27 28 33 25 20 36 28 24 21 26 24 19 26 29 26 25 39 36 42 38 42 43 26 37 24 35 26 28 26 18 20 32 21 36 36 23 32 20
27 23 18 19 38 21 32 31 34 26 27 31 18 22 26 38 22 27 34 31 22 26 39 26 32 23 30 31 35 25 29 20 36 22 18 27 31 20 32 29 28 24 39 42 34 38 26 32 26 34 30 38 28 18 32 25 37 25 35 38 34 27 30 27
27 31 19 28 35 20 23 33 33 32 38 36 25 25 26 27 24 27 33 32 20 19 25 35 36 36 38 36 23 36 19 22 20 30 35 21 22 20 20 26 26 38 37 24 26 20 19 22 31 26 25 21 28 24 32 18 29 25 20 19 29 19 38 18
18 25 33 24 29 37 29 38 27 37 34 31 18 33 19 28 28 37 19 19 30 38 21 19 35 30 26 37 25 30 25 25 25 21 28 37 38 21 26 34 32 37 35 28 26 19 26 34 18 33 24 32 28 36 26 31 31 38 20 26 24 28 28 38
33 19 20 38 23 30 37 34 38 27 25 20 29 23 24 27 25 28 25 31 29 38 35 32 20 30 21 28 23 27 28 28 26 37 38 34 18 20 31 20 32 24 38 35 19 31 36 36 21 32 19 33 25 36 35 32 27 20 25 31 33 37 33 26
28 19 25 26 28 22 22 32 36 28 18 21 24 37 27 28 34 36 38 38 35 27 32 23 24 30 29 22 23 37 32 36 20 30 36 21 21 23 31 34 33 19 28 36 37 36 36 38 18 19 31 26 29 33 21 21 20 34 18 21 23 31 29 34
19 20 29 20 27 22 24 34 34 32 31 19 19 35 23 25 33 22 21 31 38 37 30 37 22 27 33 36 23 21 35 38 18 27 29 31 26 26 33 24 24 19 32 29 25 22 34 29 35 20 34 26 22 38 28 34 19 26 35 30 30 32 20 29
19 22 36 27 37 37 19 22 22 34 29 26 26 31 21 27 33 20 34 28 37 27 20 23 31 26 29 27 28 18 19 35 36 21 25 19 27 23 26 22 37 22 26 26 30 22 30 25 23 20 28 29 20 35 19 38 27 25 30 25 36 24 37 31
25 32 27 27 30 19 30 36 24 25 30 37 27 37 29 18 38 31 20 28 29 22 32 26 34 28 33 32 35 21 21 19 35 36 36 20 23 27 32 22 25 18 30 34 22 24 36 36 26 38 31 26 32 21 28 33 32 33 20 18 24 28 29 24
25 18 21 36 36 33 36 23 22 23 21 26 21 30 22 29 36 32 24 32 34 33 33 28 23 23 27 26 23 31 25 22 29 19 24 21 35 25 38 30 22 34 23 34 19 38 25 23 28 34 32 27 22 21 18 34 23 37 18 21 22 22 29 21
25 33 35 25 26 29 23 20 21 23 21 37 18 28 26 25 20 36 36 37 33 37 19 38 36 18 26 20 22 36 33 20 36 26 24 26 37 37 31 35 37 35 30 23 23 35 26 35 23 18 26 32 36 19 32 23 34 37 34 31 23 31 26 25
35 21 18 22 24 37 21 31 37 26 36 36 38 32 25 31 26 31 37 38 24 27 30 22 25 25 20 27 21 37 28 31 35 20 27 27 32 31 35 36 34 32 26 19 32 25 34 20 29 18 23 24 25 35 24 21 24 25 30 23 26 20 36 36
34 36 35 22 34 34 25 29 23 36 37 20 20 24 26 29 24 34 18 32 33 23 30 29 24 30 32 25 21 22 27 24 30 37 37 26 31 32 31 18 28 38 18 26 34 18 22 19 21 22 21 32 31 22 32 23 35 22 38 25 35 27 30 25
27 24 38 23 32 19 36 26 28 29 25 35 35 19 38 28 34 35 35 34 25 25 24 37 34 18 18 24 31 30 18 36 26 19 18 34 18 38 27 33 35 26 28 31 21 33 31 18 33 35 30 19 21 20 38 23 36 29 27 18 18 37 37 31
20 19 36 26 34 38 24 26 30 37 20 31 22 29 22 31 19 38 26 30 19 34 34 29 33 35 34 28 19 38 30 24 24 18 34 18 37 31 24 33 35 35 21 35 35 24 32 30 23 23 25 29 37 33 25 35 32 36 33 36 19 24 27 36
38 26 32 23 25 27 20 38 23 25 36 20 19 20 29 35 38 18 36 33 37 29 19 24 20 26 33 38 28 27 26 31 20 20 21 32 29 19 37 23 23 22 29 35 23 20 24 32 20 30 35 32 24 36 21 34 22 32 18 32 22 37 34 22
37 31 28 18 34 21 35 36 21 27 37 37 22 27 33 26 30 23 32 38 36 35 30 23 37 38 36 38 21 36 32 36 20 38 33 26 24 27 27 31 30 27 38 35 21 29 31 19 36 22 19 25 19 20 37 27 21 22 25 34 20 19 19 32
29 24 30 32 24 19 32 27 18 31 35 30 24 32 28 35 35 28 23 27 24 23 21 29 30 25 28 29 37 25 36 24 36 26 18 18 26 30 22 27 38 33 37 22 25 37 35 19 21 24 33 30 32 23 29 37 26 27 25 18 27 26 19 29
25 19 28 21 38 19 24 29 35 34 21 27 22 18 29 28 38 30 38 18 23 29 22 35 20 31 28 18 29 37 19 26 35 36 29 30 21 30 30 20 22 18 37 34 27 19 27 23 21 32 32 28 26 31 19 35 23 27 32 38 24 33 30 34
37 29 36 34 25 25 34 36 38 20 30 27 32 24 36 38 18 24 22 30 25 24 21 21 28 19 29 32 37 24 30 20 35 30 29 33 19 27 20 34 27 25 36 18 33 30 38 30 26 21 29 26 32 33 30 33 33 22 36 31 24 18 35 23
