P2
64 64
255
22 23 23 26 16 24 26 23 21 21 19 17 23 15 25 23 22 24 23 23 25 26 25 16 25 23 24 14 18 17 20 20 26 26 23 15 15 14 23 16 17 19 15 24 25 14 21 21 16 17 15 23 21 26 14 26 19 23 26 21 14 16 23 25
23 15 22 21 24 25 21 14 26 25 18 16 15 18 24 26 21 19 25 20 25 22 21 15 19 19 24 20 24 21 24 20 25 16 25 14 25 21 25 22 24 14 16 17 19 21 19 16 23 16 15 15 16 21 21 19 18 17 15 23 25 18 18 23
19 26 24 22 25 26 17 17 21 19 24 17 17 16 15 15 18 16 19 24 14 16 19 24 22 19 25 21 14 23 26 23 21 17 18 17 25 22 16 20 22 21 26 15 19 17 24 17 17 20 20 21 22 17 20 17 19 24 15 16 26 18 21 26
16 24 21 14 19 15 24 17 17 26 17 14 17 16 14 16 23 25 15 25 21 21 23 16 19 23 20 17 26 23 17 20 25 22 15 21 21 25 15 16 21 15 22 18 19 26 14 14 18 24 16 24 22 22 19 20 26 15 20 21 26 14 22 25
17 22 23 20 15 26 22 22 14 26 23 21 25 17 22 26 26 22 18 26 16 18 14 23 22 16 14 17 19 21 16 24 14 16 14 15 14 25 22 22 23 18 14 22 25 26 19 21 24 20 26 14 22 21 26 14 22 26 23 22 26 21 22 14
18 14 22 23 21 22 18 17 14 16 25 22 25 25 26 26 24 21 16 17 21 17 16 14 23 14 23 24 23 16 25 21 25 21 14 18 21 14 24 24 18 19 14 25 15 15 23 23 22 18 24 23 21 17 17 19 19 15 14 16 17 24 15 14
24 23 26 14 20 25 16 17 24 14 24 15 21 22 17 26 17 16 15 24 24 26 25 25 20 18 15 22 22 18 18 18 21 19 17 25 19 21 17 16 18 24 20 25 23 24 21 14 20 17 25 23 21 16 18 22 18 22 15 16 26 23 15 17
20 17 17 15 23 24 26 21 21 26 15 15 17 25 24 14 19 21 25 19 15 18 14 20 26 20 20 22 24 16 19 24 20 14 14 19 20 15 21 19 26 26 14 16 22 17 17 18 16 23 21 17 22 15 22 19 26 20 20 23 23 22 23 19
25 22 23 20 19 26 26 19 26 26 22 25 14 22 20 26 22 17 26 17 25 24 22 20 26 24 21 25 23 24 16 17 25 17 15 16 23 18 24 22 17 14 26 24 14 21 19 22 26 20 17 23 25 16 24 20 15 21 16 20 24 14 16 18
21 17 19 26 21 14 14 14 26 17 20 22 19 16 26 15 20 16 23 25 20 21 24 21 21 22 24 23 25 25 17 26 20 23 22 18 19 24 17 19 23 23 16 26 23 18 17 14 15 24 18 21 19 14 19 26 23 25 17 19 17 15 25 23
25 18 19 15 26 21 19 25 17 20 20 24 20 25 18 21 20 23 18 19 19 16 22 24 22 25 23 22 17 20 24 26 19 15 19 25 20 16 17 17 15 17 21 21 14 22 26 26 20 20 22 23 16 15 19 22 24 23 16 17 24 16 22 14
19 24 26 20 25 26 20 14 17 21 26 22 18 21 25 19 21 20 15 14 23 18 22 17 19 14 26 17 22 17 19 18 21 20 17 19 22 25 14 23 22 26 24 18 19 24 21 15 14 24 15 20 21 19 25 23 22 22 24 18 15 25 26 22
26 26 19 15 25 16 18 18 20 15 19 19 14 20 16 15 25 21 20 15 25 26 22 18 16 24 16 17 24 18 26 24 16 17 17 26 20 15 14 16 21 15 16 17 20 15 25 20 16 25 16 23 26 26 21 21 16 14 23 22 24 18 21 25
19 14 16 25 20 19 23 16 21 25 15 20 23 25 19 22 19 14 14 17 20 23 16 24 18 25 15 24 23 17 26 17 16 14 16 22 22 21 25 24 22 19 21 14 16 26 18 15 22 18 15 16 20 18 14 21 15 22 19 18 16 15 17 20
16 25 18 21 20 21 22 25 18 18 18 23 15 22 23 25 16 21 18 17 15 25 19 21 22 17 25 23 22 22 22 15 15 26 25 22 20 16 21 17 24 24 18 15 17 24 18 18 22 25 16 19 19 14 24 19 15 19 20 25 21 26 14 24
14 14 24 21 17 15 14 23 26 23 25 22 24 18 25 20 19 16 23 23 22 21 22 20 20 14 19 17 16 17 17 17 16 17 26 16 23 15 22 22 16 26 26 14 24 22 20 24 24 19 19 14 17 26 16 14 17 23 26 26 18 22 22 17
22 25 14 20 19 20 20 15 14 18 19 26 15 24 16 26 21 23 21 26 16 25 26 21 17 14 19 15 17 15 21 23 14 20 26 26 19 14 25 19 16 18 23 26 21 15 24 26 20 16 19 22 20 18 16 19 26 15 16 26 17 18 26 24
21 23 25 14 20 22 15 26 25 25 15 14 16 15 19 21 18 14 14 16 16 26 22 25 25 15 19 26 24 20 23 15 21 15 18 15 15 20 22 19 14 23 19 16 20 25 17 20 19 18 25 18 21 16 16 17 21 17 15 24 14 20 24 17
23 15 20 20 15 23 26 23 23 16 16 26 17 25 18 24 26 20 23 14 25 18 25 14 19 15 15 15 24 15 15 15 15 26 14 25 14 21 25 23 26 23 25 24 18 23 26 15 24 15 20 17 25 22 18 21 17 26 21 17 17 25 20 24
15 21 22 22 25 18 24 24 23 22 14 16 24 25 17 23 22 21 21 27 18 28 21 25 23 24 19 23 21 24 20 16 16 20 25 18 18 20 21 23 18 23 17 19 25 20 22 18 15 26 23 24 20 24 16 21 19 20 17 14 23 25 24 25
21 18 15 15 14 22 14 14 22 21 19 25 23 23 17 18 29 32 21 26 32 28 28 24 28 22 17 17 18 20 23 22 21 24 16 25 19 18 29 20 30 26 23 29 31 28 29 21 27 18 18 16 24 14 17 21 16 23 20 22 16 19 20 22
14 20 17 26 24 19 23 15 26 20 25 23 16 27 29 21 29 29 34 35 37 28 32 28 28 30 29 27 27 15 27 24 17 22 17 25 20 31 32 28 31 36 37 32 33 27 29 32 23 27 31 22 21 17 24 22 16 21 22 21 16 22 25 16
26 23 22 21 15 14 24 18 19 20 20 27 26 30 28 26 27 36 39 35 41 39 37 29 39 30 34 28 26 32 31 25 24 34 34 36 30 37 32 36 33 37 36 37 29 41 39 33 34 29 34 31 22 21 16 17 16 22 24 20 19 19 23 23
19 16 14 20 21 18 17 25 20 26 16 22 29 29 26 38 30 32 36 39 37 39 40 40 39 40 40 36 42 43 32 38 29 39 35 41 42 41 36 35 37 33 37 41 33 39 37 42 30 32 35 32 26 29 23 21 26 14 23 26 14 17 26 17
21 21 21 25 16 15 23 14 17 18 17 32 27 34 32 34 36 36 43 47 41 38 44 50 52 50 53 44 51 52 51 45 37 38 51 49 52 43 50 46 52 42 38 49 42 46 36 43 38 31 35 30 35 30 24 19 24 21 21 21 24 14 21 14
17 21 15 15 14 26 15 24 25 19 27 23 31 34 41 40 39 42 51 53 46 53 47 55 52 53 52 53 53 54 54 49 53 54 52 58 61 62 61 55 55 55 56 51 50 53 50 43 37 44 39 33 36 28 31 24 24 26 19 17 25 24 20 25
16 25 26 16 18 19 23 20 22 29 25 30 32 32 46 45 46 44 45 46 54 58 63 62 69 66 62 72 62 61 59 61 64 58 69 61 60 65 62 71 69 60 57 53 46 54 48 45 47 38 40 32 28 34 29 21 21 20 17 16 17 17 24 17
24 21 21 26 26 23 16 23 27 30 23 31 38 38 41 50 43 49 47 48 57 57 70 70 75 78 76 80 69 69 70 70 74 76 76 72 72 76 74 72 74 75 63 60 62 59 55 51 45 43 43 43 40 33 30 25 19 14 21 20 25 16 26 23
17 25 15 15 15 15 23 22 27 33 33 36 38 37 51 42 54 55 52 59 63 75 73 78 77 85 84 86 82 85 77 77 84 85 80 86 80 87 82 75 79 78 75 66 64 54 61 56 53 47 45 47 34 40 31 22 27 14 21 14 24 14 14 14
15 17 23 18 20 22 25 19 27 30 29 39 42 47 49 50 53 54 63 64 72 73 76 79 89 83 91 85 84 89 90 94 94 89 92 83 94 93 83 90 82 81 81 74 66 62 53 52 52 52 43 40 33 40 37 30 20 21 26 25 24 26 25 17
20 17 19 16 18 19 21 17 26 34 36 35 38 39 44 56 56 60 63 69 80 82 87 84 89 91 95 92 95 98 100 100 95 97 89 95 98 98 92 93 93 96 85 86 80 72 59 62 61 57 51 38 40 38 39 31 25 25 20 18 18 14 19 21
14 24 26 24 23 22 17 17 31 32 30 38 42 40 45 53 59 60 63 80 88 93 90 100 102 103 101 106 104 102 107 106 107 101 100 95 100 96 96 96 102 89 96 89 84 72 68 62 55 58 46 49 43 36 27 33 20 18 26 21 23 21 16 26
22 20 19 22 21 19 26 21 23 25 30 41 36 47 47 53 57 57 68 85 91 99 101 93 100 100 105 104 107 108 108 110 112 111 110 105 100 109 100 106 99 100 102 95 95 78 68 64 63 48 45 50 41 41 30 26 24 28 26 22 14 16 17 16
18 18 14 20 26 16 20 25 32 26 38 42 36 46 50 53 58 58 67 76 86 88 94 104 102 108 103 103 113 109 112 116 111 113 114 104 108 113 106 102 101 100 94 91 85 81 74 61 52 50 50 45 36 34 31 33 22 21 18 16 22 20 23 17
22 17 21 22 15 20 22 23 31 31 36 37 39 44 46 56 52 66 63 73 86 97 101 99 109 107 104 116 110 117 118 122 119 122 116 111 111 114 103 110 100 102 96 93 90 80 63 63 57 52 44 43 41 41 28 25 23 25 26 16 20 22 21 14
17 15 14 19 19 21 14 27 29 30 26 34 41 45 52 53 58 58 67 79 77 92 98 93 106 103 101 103 113 111 120 120 124 122 120 108 118 104 102 102 96 92 94 87 81 79 73 59 58 50 43 40 33 32 31 25 28 16 19 25 16 17 24 15
26 19 24 23 21 18 18 21 27 22 32 38 41 37 47 43 47 50 64 69 80 88 88 95 97 107 105 105 115 120 116 116 132 123 121 110 105 114 111 102 93 91 85 86 78 67 60 61 54 46 49 37 33 32 25 21 24 19 24 21 15 16 14 25
24 22 19 14 14 24 19 24 23 27 26 34 34 34 37 45 47 50 62 62 70 85 80 93 93 102 107 99 114 106 110 121 117 122 110 112 104 104 105 104 98 96 90 82 71 64 58 55 46 51 44 45 33 33 25 22 26 18 17 15 25 16 18 20
17 15 18 16 22 15 22 26 23 30 29 37 38 37 39 49 42 54 55 62 67 72 79 83 95 93 103 101 106 105 108 111 105 101 112 104 109 102 95 96 90 85 87 74 70 65 53 49 45 39 41 33 37 37 29 30 25 24 17 15 19 18 18 22
14 15 25 20 21 16 22 22 16 23 20 34 36 33 41 45 45 39 54 62 67 66 72 76 90 88 89 91 96 98 93 94 100 103 105 97 94 99 98 95 86 78 71 66 68 61 47 49 36 40 40 40 37 25 21 25 16 26 17 23 26 15 22 19
19 18 16 26 22 26 19 21 17 22 19 25 28 27 31 39 43 36 48 47 56 60 65 77 80 79 89 88 96 92 97 85 91 90 90 89 93 92 92 78 83 72 74 67 53 51 44 40 41 35 29 38 35 26 25 18 25 23 14 20 22 21 20 25
15 18 18 25 22 16 21 22 25 19 21 28 28 24 30 28 29 37 36 50 58 56 61 70 79 75 80 84 87 79 82 77 81 84 88 88 77 82 80 82 74 64 70 56 59 45 39 42 30 30 27 26 24 25 20 25 18 22 16 25 24 19 14 20
16 23 17 15 19 17 20 15 14 17 19 15 20 26 27 33 27 30 39 45 50 55 56 62 60 64 67 68 79 73 73 78 72 73 75 78 73 69 76 70 66 64 57 49 43 47 28 32 28 32 30 27 27 20 26 20 16 19 19 22 14 17 24 17
14 14 17 23 25 17 18 16 26 20 14 19 22 18 24 25 25 26 36 40 44 45 53 56 53 62 62 69 72 62 68 65 65 75 64 69 67 69 69 67 62 51 44 46 41 32 25 28 33 20 22 17 22 22 19 17 20 16 24 26 14 21 26 19
24 26 15 17 14 21 21 20 22 16 21 23 16 18 16 22 24 22 33 29 34 34 38 41 47 47 53 51 56 61 69 70 65 65 62 65 59 61 61 52 47 45 48 37 28 26 26 22 19 22 16 21 20 19 17 24 22 25 17 26 21 18 17 24
18 23 20 15 18 26 17 25 22 15 18 23 23 20 21 18 18 27 25 28 23 32 31 36 44 43 43 51 48 57 59 62 62 58 56 53 56 49 46 43 42 37 33 34 26 24 18 26 24 24 26 17 21 22 16 19 18 16 22 14 18 21 23 22
23 23 16 25 18 15 25 21 17 25 26 16 23 16 24 23 14 16 14 17 25 27 21 33 29 43 39 44 45 50 49 45 53 51 50 52 53 38 37 39 38 31 25 16 22 15 19 22 24 17 14 21 16 15 26 19 18 18 15 17 14 15 24 15
23 17 23 24 21 14 19 23 22 23 22 24 23 14 15 22 25 22 24 26 22 24 16 28 24 30 36 44 39 41 48 49 45 39 49 44 36 43 40 39 27 26 22 23 15 20 17 17 16 14 17 23 22 21 18 18 18 14 19 17 22 25 26 22
14 24 20 15 25 24 14 15 23 23 25 22 22 21 19 14 16 23 15 15 20 16 22 21 30 24 32 38 41 41 32 33 35 35 33 41 31 36 34 24 27 15 17 25 23 17 17 22 17 24 25 21 18 25 16 16 22 18 14 14 23 14 22 25
21 18 22 18 24 18 15 16 22 16 17 22 20 14 16 23 24 17 26 20 14 19 22 18 23 26 22 27 35 29 37 29 32 39 34 27 27 33 19 28 20 21 16 16 16 17 15 21 22 24 14 15 16 21 25 21 20 26 24 18 25 19 15 17
24 20 14 23 16 25 15 22 14 20 26 19 24 23 19 21 24 15 26 20 20 23 16 14 23 24 17 28 26 29 28 26 31 23 22 20 28 26 17 14 15 24 15 20 15 25 20 23 22 19 20 26 20 17 21 22 15 24 25 14 25 22 14 18
19 16 20 26 21 25 25 26 25 15 24 20 16 16 18 22 23 22 16 22 18 16 19 26 22 23 16 22 15 19 16 16 26 23 26 22 18 25 15 17 14 20 14 16 23 20 19 20 20 15 20 18 14 15 26 23 17 19 25 25 20 23 20 21
16 25 18 14 18 22 24 17 17 17 26 24 17 17 21 20 26 16 25 16 21 15 20 21 14 19 22 18 24 18 25 22 17 15 14 23 23 16 15 25 23 17 19 26 14 20 18 26 20 24 21 22 21 18 18 15 19 22 23 20 25 19 21 18
17 20 17 24 20 22 20 24 24 18 14 19 25 23 22 18 21 24 26 26 16 22 15 17 26 22 23 16 18 16 15 24 21 18 25 24 19 18 19 25 23 14 24 17 26 22 15 17 17 23 15 18 16 20 22 26 26 18 17 22 20 16 19 17
23 19 17 19 20 17 14 18 14 17 24 23 22 15 17 20 16 18 14 19 21 16 20 23 26 18 23 24 15 22 20 16 23 16 22 24 25 23 17 16 22 15 17 24 18 23 14 15 24 20 17 14 14 17 25 24 26 14 16 26 21 24 16 17
18 26 17 15 15 20 14 21 22 25 24 17 14 18 21 19 21 23 19 18 23 24 26 21 21 24 18 18 25 18 25 16 19 25 20 24 25 15 21 16 17 25 25 20 24 15 25 24 26 14 18 26 24 18 25 26 19 16 17 16 21 26 22 23
23 19 17 25 25 18 17 15 26 15 18 21 14 19 22 22 21 24 19 24 15 24 25 18 21 26 23 16 25 17 24 21 25 19 23 26 18 26 19 14 25 26 19 20 20 24 19 22 26 20 18 14 15 14 25 25 16 23 24 16 14 20 14 19
24 15 14 21 22 17 16 19 20 19 20 20 22 23 22 19 22 26 20 18 19 18 20 25 14 26 17 23 24 22 19 24 17 24 15 23 14 19 14 25 14 16 19 15 25 25 26 18 24 15 20 15 25 21 16 14 17 23 22 16 14 25 23 22
20 24 14 15 24 20 26 23 26 24 16 24 16 24 15 24 21 18 25 22 17 16 18 25 19 14 23 14 22 19 17 21 16 14 20 15 23 25 25 14 16 18 23 23 22 18 14 25 24 23 17 19 21 19 22 22 22 18 15 25 17 21 24 20
20 26 18 25 23 24 16 24 16 14 26 18 23 25 25 14 15 24 24 14 26 14 21 15 24 24 18 17 22 20 14 21 22 16 19 19 22 20 21 22 22 18 21 23 23 15 25 17 21 16 21 26 18 14 23 16 17 25 19 19 17 16 25 23
16 20 19 15 23 16 22 15 25 23 26 15 21 25 26 15 25 25 23 25 19 26 26 19 24 21 20 17 21 24 15 25 25 21 16 20 25 22 22 24 26 15 19 23 25 16 17 14 17 15 22 16 22 16 24 14 17 20 26 18 25 25 16 23
23 14 25 16 21 21 17 23 23 25 19 15 19 21 20 24 25 21 15 17 14 16 24 15 21 22 26 14 16 14 26 21 21 17 23 20 23 23 18 18 24 22 14 16 23 14 23 15 19 17 17 24 21 23 24 25 22 15 18 14 19 17 17 20
15 18 23 20 18 15 18 21 24 16 19 19 16 16 18 21 20 26 17 16 14 24 22 16 21 17 25 14 21 25 23 16 18 26 22 23 15 20 25 18 21 19 25 23 25 19 26 23 14 23 19 14 18 20 20 23 15 26 15 14 22 23 20 16
20 24 16 20 21 16 19 17 18 16 20 20 19 26 17 18 25 16 25 21 18 16 26 26 14 20 22 18 23 26 20 18 22 24 26 21 18 19 15 21 25 26 20 18 25 22 14 19 21 25 19 21 21 16 16 20 23 21 26 20 15 18 18 19
