P2
64 64
255
30 32 20 19 29 27 38 36 31 33 38 34 35 38 24 26 31 26 30 21 22 18 31 23 21 32 20 32 30 23 26 31 26 18 32 28 21 36 36 31 25 24 19 22 22 26 20 30 32 28 26 20 23 31 20 35 29 24 35 38 18 25 28 21
34 34 20 36 31 25 26 29 25 29 26 29 33 24 23 38 26 33 34 34 28 29 22 33 19 35 21 32 31 28 24 22 28 34 19 33 22 36 36 24 36 35 23 29 18 21 18 27 35 18 28 34 26 34 27 38 20 34 21 27 19 30 35 30
29 38 33 33 31 20 30 23 27 25 21 20 30 20 27 34 32 38 38 37 25 28 35 25 37 18 38 22 27 35 38 27 37 33 35 26 38 37 25 33 28 27 31 29 25 18 23 27 27 21 36 25 22 26 26 33 28 34 28 36 31 29 29 22
19 32 35 30 38 32 31 33 34 27 20 25 26 29 28 38 27 25 31 20 30 26 28 32 27 19 30 31 37 33 20 18 36 24 21 18 32 28 26 36 28 21 28 32 27 32 29 34 18 23 34 25 26 26 20 19 24 27 31 30 28 32 32 35
19 36 27 37 29 28 31 20 35 38 38 35 18 35 26 32 24 27 25 26 32 30 26 26 28 25 27 27 29 22 33 27 18 24 35 21 18 34 18 22 30 34 38 26 22 32 28 30 37 29 32 24 32 18 24 38 19 27 22 34 26 34 27 27
18 20 37 37 37 25 25 28 28 26 29 30 18 37 25 37 36 20 34 19 36 38 27 18 38 22 36 34 21 23 35 22 27 22 35 19 21 18 33 26 32 21 25 27 27 29 30 38 37 32 38 28 37 21 27 29 34 36 21 28 34 20 23 20
37 18 35 31 38 32 37 33 29 23 18 25 19 22 35 27 36 36 20 36 31 25 35 25 23 19 35 30 31 36 26 35 35 19 24 28 28 24 31 33 25 36 32 25 26 30 27 33 28 34 24 27 29 23 33 38 34 31 23 27 27 32 20 21
23 27 27 23 32 37 34 24 23 27 35 37 24 26 28 38 24 31 19 27 37 23 24 30 24 27 32 34 23 37 21 24 19 20 27 27 32 30 18 33 19 25 22 25 26 32 28 31 25 25 27 32 31 30 32 32 38 31 18 24 38 30 29 24
21 33 24 30 36 26 32 35 20 23 29 30 21 33 34 23 30 35 22 26 30 37 34 26 28 35 33 32 37 23 19 35 21 22 29 27 34 25 20 19 26 37 19 36 19 27 26 18 23 30 38 26 25 32 31 32 34 24 32 25 38 26 35 21
32 28 32 25 19 26 33 32 33 27 23 37 34 36 30 24 20 24 38 31 27 33 28 22 24 22 18 35 22 35 35 34 35 34 21 35 31 38 34 36 19 27 29 31 19 27 32 18 38 21 25 19 30 27 28 30 34 29 27 30 35 30 22 27
37 27 30 21 20 23 24 25 28 27 24 28 28 33 26 33 32 20 28 20 38 26 19 29 36 19 26 27 38 30 35 19 25 35 26 28 34 36 36 31 19 27 18 30 31 29 27 19 35 33 18 34 38 33 18 23 38 38 32 37 23 31 18 29
38 34 25 24 21 26 24 27 24 29 25 19 20 34 24 28 27 36 34 26 21 32 35 33 37 20 35 26 33 19 35 18 22 21 30 33 26 28 22 25 21 35 37 38 34 22 38 23 25 33 37 18 38 32 38 33 20 20 25 34 36 20 26 26
31 30 27 20 32 38 30 21 25 35 30 28 19 22 26 19 20 21 34 27 26 32 38 24 20 38 25 26 30 24 37 22 22 31 21 20 22 35 29 30 26 38 33 37 22 24 23 24 36 30 22 21 33 37 35 31 27 33 30 37 22 25 18 25
31 34 32 18 38 23 36 38 32 35 37 29 35 18 21 32 33 28 20 30 31 22 31 18 31 27 18 29 37 36 18 35 25 36 19 21 23 30 28 36 26 25 35 33 18 37 30 18 37 32 30 36 33 34 24 30 26 20 22 35 23 38 35 27
33 38 33 25 22 22 26 21 38 18 18 28 35 30 20 18 28 26 20 29 28 36 19 34 34 22 22 37 36 20 38 30 24 32 25 27 31 35 18 26 21 25 27 20 34 19 21 32 36 31 24 36 19 24 20 33 38 35 31 21 21 31 20 29
38 20 24 36 35 32 27 38 30 27 29 28 30 23 20 18 32 32 28 33 21 35 37 21 32 36 30 28 33 26 34 27 28 22 33 19 32 29 34 37 25 24 33 22 19 37 31 24 32 21 38 21 21 31 29 27 24 21 36 26 36 27 37 33
32 29 22 33 38 36 29 33 20 20 31 19 19 23 19 27 21 25 22 36 34 28 37 23 38 26 24 22 24 26 25 20 37 28 27 27 27 25 33 19 19 34 37 19 32 32 31 24 28 19 30 36 36 32 35 19 30 22 27 35 33 26 37 34
37 28 38 27 24 38 36 36 20 26 32 30 21 30 30 25 28 19 23 25 25 29 36 33 18 30 23 32 38 24 20 36 38 18 23 38 20 34 19 26 35 35 38 21 38 29 19 36 36 19 28 33 24 34 28 27 18 18 18 24 36 37 26 26
30 35 23 38 22 27 23 37 24 22 24 23 26 28 32 28 22 37 25 19 33 21 36 25 37 28 25 25 23 19 35 27 22 37 30 33 18 23 19 24 24 21 23 34 33 30 38 37 35 22 20 30 21 31 26 31 34 22 36 35 25 26 18 30
25 33 31 30 28 33 22 20 32 21 33 25 36 23 18 31 27 39 35 25 36 33 37 23 36 37 36 24 24 26 19 23 38 31 35 35 24 23 31 36 26 34 35 28 23 31 32 20 22 25 20 36 20 33 23 34 18 26 30 23 28 23 23 38
38 25 18 23 25 38 29 25 29 23 25 33 33 22 19 39 39 32 38 40 33 32 41 38 35 31 30 21 37 28 29 18 20 26 22 27 24 37 39 33 40 29 28 28 41 35 30 37 26 34 34 26 27 24 37 21 25 31 23 21 27 37 19 24
31 38 26 26 19 29 37 18 27 37 31 31 27 24 24 24 26 38 45 48 44 47 38 45 30 33 26 35 35 18 22 26 29 25 103 38 38 37 29 35 43 29 37 35 47 41 35 34 29 42 23 41 26 34 36 32 28 20 26 34 26 24 27 33
20 19 19 28 22 22 32 19 28 22 19 31 30 44 41 42 48 34 46 53 45 51 43 34 46 35 47 34 43 41 27 34 29 36 111 39 32 40 36 49 35 47 44 37 48 35 50 32 49 34 29 38 32 19 33 30 30 22 23 36 29 22 31 37
20 37 32 25 22 20 27 35 19 28 35 41 43 40 49 48 35 38 41 54 38 37 41 47 50 37 46 30 44 116 31 35 18 117 41 26 29 45 42 51 37 53 40 57 39 56 41 42 39 35 46 35 38 38 20 33 32 20 26 25 27 31 28 23
31 21 19 28 22 18 25 26 23 35 21 28 28 30 33 45 49 48 45 44 45 48 46 46 46 43 36 50 50 36 127 36 24 27 120 35 38 50 40 44 42 46 46 53 42 52 57 53 54 48 43 46 30 40 38 18 36 38 35 34 33 18 25 33
27 31 30 37 33 28 24 31 29 27 40 33 46 49 40 46 43 61 56 49 54 62 51 54 58 60 45 49 41 33 43 114 34 32 121 114 49 52 48 57 60 59 56 52 45 51 53 48 53 54 42 32 49 28 36 26 37 30 23 33 27 30 24 37
29 18 30 25 22 26 32 33 29 26 32 30 49 46 41 45 59 51 52 59 50 69 53 56 53 57 56 56 51 41 41 125 37 32 218 51 47 49 61 49 53 60 58 67 66 54 55 58 47 41 39 52 35 39 31 34 38 24 18 28 24 20 35 35
33 24 23 20 26 26 18 31 40 24 31 44 52 48 47 53 58 66 64 52 63 68 71 51 53 65 60 53 54 44 39 117 40 214 126 49 40 54 43 56 57 52 56 68 68 71 68 67 61 51 57 51 51 37 27 33 40 31 38 19 28 38 36 37
36 27 35 29 25 30 21 25 39 25 45 47 48 56 59 56 69 54 71 63 67 62 72 74 60 68 65 60 59 36 36 40 124 222 119 48 58 59 56 61 52 60 63 58 76 56 61 52 58 63 43 55 40 38 37 42 25 31 22 18 25 28 23 38
21 27 22 30 26 28 33 36 35 46 36 49 37 57 48 53 59 65 74 59 72 74 62 68 74 60 62 62 41 39 46 130 138 120 50 215 54 51 53 66 68 73 60 78 69 75 67 56 69 60 55 61 38 52 38 36 38 38 29 18 27 28 30 32
24 22 30 36 18 26 32 31 42 39 48 54 49 61 61 61 71 64 66 80 68 80 73 60 69 70 69 63 53 39 128 137 138 52 122 55 132 46 52 57 66 75 64 81 69 74 63 75 67 68 53 58 48 35 44 34 42 33 25 18 31 37 23 38
25 24 36 23 27 21 35 23 32 33 40 46 56 43 66 68 55 70 65 73 68 70 65 80 76 65 59 49 61 59 133 123 49 219 45 124 51 49 60 55 59 81 78 79 69 78 79 66 55 63 56 47 50 43 40 39 30 22 31 25 35 18 33 18
30 37 31 36 33 20 34 38 35 45 33 49 47 45 65 58 55 67 64 68 72 81 76 78 78 64 56 52 58 48 207 49 57 224 132 42 60 65 54 64 66 81 75 83 79 75 83 65 73 68 47 57 40 44 49 43 43 36 30 30 19 38 32 30
37 37 23 29 32 27 34 31 39 35 37 36 44 45 61 51 59 65 72 77 68 84 81 74 71 73 69 63 62 139 129 42 45 121 219 46 50 57 67 63 72 65 73 79 74 80 72 68 57 57 53 61 44 36 39 30 27 30 25 21 33 26 34 29
27 24 32 32 30 24 40 36 45 51 39 52 55 58 53 73 77 64 81 84 90 71 80 77 82 59 68 57 54 145 53 133 146 137 60 131 65 61 60 72 71 85 81 77 74 73 79 75 71 74 72 62 58 51 49 50 39 40 40 43 40 30 35 38
43 28 39 34 31 36 40 34 51 39 47 58 68 66 62 72 82 71 83 83 77 88 89 74 81 65 73 66 154 68 49 51 226 141 58 147 61 71 66 69 83 79 90 87 91 80 93 74 71 82 65 74 68 55 68 60 52 45 45 49 53 46 54 51
38 54 47 52 45 40 37 43 42 43 52 59 65 69 68 68 82 85 77 77 87 91 83 91 74 87 76 151 82 79 71 73 242 71 226 81 79 88 88 89 89 85 84 101 104 103 98 84 91 94 83 68 81 67 73 66 56 54 63 61 63 67 69 55
40 48 43 54 50 59 41 61 60 49 57 68 61 72 69 89 85 81 88 92 97 83 89 83 84 91 85 163 71 77 82 243 62 164 151 84 84 91 77 86 91 101 91 100 90 92 93 87 91 102 84 91 85 82 78 72 62 59 75 71 65 69 79 76
42 42 39 47 44 41 44 43 44 54 58 54 55 59 72 75 68 67 69 79 77 76 84 78 78 84 168 69 60 72 144 66 143 155 60 157 80 79 78 76 88 80 89 84 90 86 92 92 91 84 75 74 71 81 69 55 56 64 57 52 61 59 64 64
48 39 37 30 43 45 43 42 48 43 38 51 52 57 53 72 59 64 71 80 71 69 67 77 61 154 66 56 67 131 46 51 53 143 217 61 58 58 70 74 70 77 69 71 78 68 64 74 73 79 72 65 71 65 54 57 45 56 43 48 50 48 50 57
28 36 44 34 29 41 32 42 25 34 35 37 37 43 52 61 49 50 63 58 56 62 58 57 141 47 59 57 142 38 41 49 38 32 124 210 45 47 55 63 62 67 69 59 70 63 56 64 48 53 60 48 51 42 33 35 43 37 33 40 43 38 30 34
25 28 21 22 38 22 23 20 38 33 33 28 30 27 46 47 40 51 37 40 55 47 41 52 38 135 42 46 28 112 29 21 26 35 247 35 36 36 42 41 47 49 58 55 51 53 49 47 37 45 45 39 45 31 28 35 24 36 30 26 34 21 29 37
21 23 19 21 25 30 20 24 19 22 28 28 33 24 33 46 32 50 39 48 51 50 52 33 34 46 132 30 40 36 118 28 36 33 201 120 33 44 31 46 41 33 37 44 52 47 36 41 30 28 29 38 27 37 21 23 26 24 34 20 29 32 34 21
37 27 25 27 27 30 21 20 32 31 23 34 38 35 26 29 28 37 41 41 30 47 41 45 38 118 32 35 24 24 111 34 37 111 122 28 118 37 41 40 42 33 36 41 34 35 42 33 29 26 39 25 31 18 27 21 26 18 32 34 32 23 22 29
33 31 35 38 26 33 35 29 23 30 30 37 19 24 37 32 26 34 40 35 36 36 39 34 43 39 114 20 22 25 106 21 20 104 103 110 30 28 24 34 39 37 33 38 27 42 25 44 22 21 23 36 35 26 24 22 29 33 34 30 36 34 38 18
21 26 27 20 21 20 23 20 31 25 23 22 22 32 25 27 26 29 38 33 36 23 41 30 24 115 38 28 26 35 32 122 21 35 196 109 33 36 28 26 21 34 27 36 27 28 37 36 19 25 34 21 21 21 27 24 26 24 29 23 30 28 29 25
23 33 21 19 27 19 32 25 35 18 29 22 32 34 32 20 25 30 20 21 33 24 30 34 26 33 106 22 37 21 35 110 30 30 20 255 28 37 35 29 27 25 25 22 23 32 35 35 37 29 35 22 24 29 34 25 25 31 29 33 34 37 21 31
20 27 31 38 19 28 38 31 35 38 19 36 29 38 26 20 33 25 25 26 18 22 29 27 27 20 108 29 20 23 21 29 110 26 25 106 207 19 38 34 18 27 33 37 32 26 37 24 29 31 31 38 31 21 38 28 32 32 25 29 23 32 38 32
27 37 18 30 27 23 32 25 27 26 28 37 20 22 30 21 31 31 20 24 19 28 24 19 33 29 26 122 28 30 29 35 105 25 19 190 117 29 31 26 37 37 18 23 32 30 28 25 19 36 29 28 35 31 34 33 27 36 25 31 32 25 22 25
38 32 25 22 35 36 25 35 24 32 23 28 36 36 36 36 18 20 34 38 27 35 23 20 21 38 24 120 19 18 22 26 29 123 193 121 34 28 20 32 34 36 31 18 18 33 33 30 38 27 30 21 29 25 32 38 33 21 34 37 20 20 30 38
21 21 29 29 31 34 19 18 35 19 29 32 19 28 27 28 31 22 28 23 32 28 36 20 23 34 38 121 24 22 28 36 33 121 123 206 28 33 38 32 32 23 37 34 23 37 38 34 21 30 38 19 26 34 33 25 20 23 26 28 37 19 20 21
19 29 30 23 30 29 23 30 23 38 21 28 38 24 27 28 23 37 18 29 18 31 32 24 30 35 32 28 105 37 36 36 36 30 252 123 20 25 34 32 19 20 28 18 38 32 36 22 22 33 24 19 38 26 32 38 37 27 34 30 34 36 20 37
24 37 21 30 25 36 18 24 27 27 33 33 34 19 30 24 31 37 30 35 27 25 27 25 27 24 30 37 117 28 37 20 24 27 204 118 108 36 35 38 35 26 21 33 26 36 29 27 35 27 31 31 31 33 35 33 20 36 25 34 19 38 37 19
27 20 20 25 20 23 32 36 28 37 37 24 36 35 26 35 27 38 37 32 24 26 33 32 38 33 24 117 32 25 38 21 20 33 18 198 115 22 20 26 38 36 18 35 19 26 18 23 24 35 26 28 37 22 25 19 29 33 31 37 29 33 31 22
18 33 20 24 31 27 26 32 23 34 37 26 34 36 34 33 35 35 34 25 36 29 34 30 37 33 103 35 23 21 18 24 20 34 123 106 30 115 38 21 37 34 30 20 36 36 23 24 18 38 27 37 24 33 24 26 29 32 21 36 37 37 25 28
21 29 29 26 29 31 23 18 26 32 20 23 23 36 21 25 31 34 33 26 33 28 36 37 19 32 33 27 29 34 19 20 23 20 118 105 104 34 29 25 29 19 18 29 38 24 29 23 20 30 29 37 30 27 24 24 31 19 37 30 35 24 28 24
35 30 23 26 31 25 38 19 31 37 23 29 36 38 38 28 23 37 31 22 31 35 35 22 31 24 24 33 20 26 36 36 19 120 33 191 36 20 26 26 38 37 27 22 31 19 28 35 32 35 19 37 24 35 24 22 23 33 35 28 22 28 20 23
37 21 36 37 30 23 20 30 30 19 26 35 36 21 26 29 32 23 29 21 29 21 29 22 23 30 26 20 34 37 22 38 22 24 113 21 112 26 27 26 31 18 26 18 20 20 21 24 33 27 18 25 38 31 25 21 36 26 38 25 23 34 30 35
19 25 34 37 34 25 37 21 29 21 30 22 35 20 31 24 34 24 35 36 22 31 30 29 19 33 18 22 29 23 32 35 37 32 26 195 29 26 38 33 19 31 20 30 19 27 30 25 23 21 37 29 36 31 36 31 34 24 22 34 31 20 18 24
27 32 20 34 34 21 34 25 26 33 19 38 36 30 37 30 29 32 24 35 27 22 18 38 23 37 25 29 31 28 36 38 24 32 26 25 122 19 25 32 19 37 24 35 20 22 36 38 28 21 30 19 27 35 27 34 22 37 27 20 26 36 35 26
23 25 29 22 21 32 31 37 38 24 25 24 29 22 19 23 26 18 18 23 26 33 24 36 21 24 37 36 31 32 33 31 37 31 20 107 21 34 31 20 23 29 34 35 23 34 24 37 36 24 25 30 27 18 19 37 32 21 31 19 18 26 37 35
27 20 37 36 24 21 30 32 31 32 22 18 28 29 37 26 30 25 19 32 23 18 35 19 18 35 22 26 19 37 37 28 22 23 28 22 29 23 25 28 22 29 29 26 36 19 29 21 22 29 36 26 22 18 23 37 36 21 29 21 29 36 34 37
31 22 26 25 35 34 20 27 35 32 36 21 23 33 35 37 32 23 19 25 25 33 38 32 29 30 37 30 20 38 23 21 31 28 29 27 23 25 20 25 22 38 19 22 29 21 36 30 36 34 21 37 18 20 22 28 19 32 18 25 18 18 24 27
31 32 23 38 33 21 21 29 22 23 32 24 38 18 27 20 26 30 34 33 34 21 18 20 18 18 24 24 19 28 22 31 35 34 35 35 36 20 38 21 25 30 28 29 18 27 28 20 21 27 38 37 30 32 33 21 27 32 33 19 25 32 18 31
