P2
64 64
255
22 29 21 19 25 27 23 36 25 34 30 29 28 28 34 36 26 33 30 37 18 22 27 27 23 28 31 21 32 19 38 32 21 22 34 37 27 36 38 28 29 23 36 23 18 24 29 34 22 38 27 32 29 34 18 27 18 33 27 36 34 26 34 23
33 31 31 28 18 27 27 35 29 29 23 35 36 20 30 38 21 29 22 35 23 22 22 38 23 32 32 20 24 24 33 19 20 37 25 24 21 27 36 23 37 31 37 23 34 33 29 31 35 24 37 19 34 36 19 22 33 18 27 26 36 24 32 34
18 20 37 34 25 22 29 36 20 19 29 21 18 18 26 32 37 27 37 20 22 29 20 24 27 37 21 37 36 34 27 19 26 37 21 18 35 27 22 36 19 24 18 20 27 33 38 29 32 22 33 24 38 38 28 29 26 33 22 28 31 31 22 26
25 30 20 37 34 34 24 37 26 18 32 37 31 30 21 28 37 26 27 20 24 32 28 25 37 38 26 25 35 29 37 32 37 26 32 25 23 20 21 36 25 38 28 22 28 29 21 33 33 20 35 36 35 30 21 18 25 22 28 29 25 23 38 25
32 19 26 18 37 18 18 26 30 32 25 37 31 19 31 35 21 22 22 20 29 31 22 19 38 20 32 29 31 20 26 22 29 28 18 32 21 34 32 35 35 18 26 23 29 26 24 38 33 29 32 31 29 31 19 25 29 30 26 33 36 32 38 28
37 22 35 21 38 32 27 37 24 28 33 21 22 24 30 21 38 25 19 34 23 36 26 34 29 23 31 27 30 24 36 23 33 26 22 32 19 37 37 33 24 21 30 23 36 34 28 29 26 21 20 33 19 18 31 36 37 24 30 28 18 37 19 25
29 34 29 29 35 23 24 27 18 36 35 18 37 35 20 18 26 20 27 29 28 20 37 38 38 19 20 19 28 32 22 38 34 28 20 37 28 24 25 30 30 33 22 36 38 25 21 32 31 20 31 23 27 31 29 27 36 18 28 34 21 37 34 37
19 21 30 38 38 26 24 29 32 25 26 25 38 23 32 38 37 19 18 34 23 25 32 25 29 21 33 38 27 25 20 20 35 35 37 18 22 23 32 23 32 25 27 38 23 32 34 20 37 21 38 37 32 23 31 38 18 31 36 36 36 32 38 27
18 26 37 18 31 34 18 34 23 38 19 19 31 29 18 29 33 37 18 32 29 23 21 32 24 37 20 24 26 33 18 33 22 38 22 23 36 25 18 23 22 30 29 29 24 22 30 37 29 22 36 25 37 37 37 23 32 25 28 37 32 37 18 26
30 36 35 35 26 36 21 25 35 33 27 23 37 22 35 29 21 35 27 30 18 29 23 26 31 20 30 18 27 22 33 33 24 38 37 22 33 31 28 27 38 37 25 32 27 37 24 36 37 22 34 38 26 34 38 23 33 20 26 24 28 27 31 30
30 21 25 25 27 35 30 31 32 34 26 27 23 21 36 28 25 18 18 34 31 21 37 19 31 18 22 31 34 25 20 37 28 25 18 37 31 18 24 35 25 31 23 18 25 35 27 33 32 33 33 27 38 29 22 26 30 22 32 20 29 30 25 31
30 22 23 36 21 20 38 25 18 20 20 33 20 25 25 23 30 18 38 26 22 24 31 19 26 20 28 19 32 30 33 37 36 31 30 34 22 18 38 36 38 26 28 24 36 20 21 24 19 28 26 36 38 22 21 25 36 25 25 36 28 30 38 20
18 31 26 24 22 30 19 32 34 34 23 23 24 31 37 24 24 18 22 23 27 31 26 30 30 20 29 18 35 25 33 20 19 34 27 19 24 37 18 38 29 24 23 35 33 18 35 28 18 29 25 18 38 37 30 28 18 30 23 22 33 26 32 35
31 33 26 19 20 38 34 24 33 21 26 21 34 21 20 29 33 18 27 19 20 35 23 28 35 38 38 33 33 21 18 23 36 34 20 22 20 32 21 22 22 36 32 18 25 23 33 34 36 21 35 36 28 38 30 18 29 38 24 35 38 28 21 38
36 29 21 30 31 36 26 34 20 30 19 22 19 36 35 25 21 19 38 20 34 27 35 32 31 35 34 27 23 37 37 29 25 36 32 19 20 33 35 25 18 20 21 30 37 22 21 19 32 23 38 18 20 21 19 21 34 21 28 38 35 24 20 36
30 24 33 33 24 28 29 37 29 38 30 29 30 29 36 27 26 33 30 37 25 20 23 36 28 34 26 26 20 22 27 33 19 29 27 29 28 27 35 30 38 25 32 31 36 18 34 31 29 32 23 27 18 33 31 22 38 24 29 38 26 30 36 36
37 36 25 18 32 23 23 22 20 21 37 31 28 29 30 33 29 23 21 29 22 38 26 26 37 21 19 26 20 28 25 25 20 37 29 38 35 31 25 34 26 26 23 20 33 29 19 21 25 37 20 33 22 31 25 20 37 36 18 29 32 38 30 34
32 18 24 24 27 26 34 33 29 26 34 30 29 35 26 26 21 28 30 25 37 28 31 37 23 19 27 20 20 22 38 28 19 30 22 26 33 32 32 31 29 28 23 22 24 37 31 35 20 33 24 36 28 36 25 29 28 38 24 35 30 30 22 26
18 34 19 26 32 34 23 27 29 20 21 26 30 27 31 34 36 23 36 24 38 27 27 28 23 19 29 33 30 36 23 25 23 28 25 31 36 37 36 18 24 31 37 29 22 22 36 24 24 37 34 37 33 22 20 27 24 23 24 30 32 20 22 23
29 23 38 21 20 35 38 19 28 38 33 32 32 21 28 34 23 38 23 26 22 41 36 27 30 29 23 24 20 36 21 23 31 36 34 18 35 18 26 27 30 31 40 27 37 37 21 24 21 34 22 22 27 23 28 32 22 29 27 28 23 36 21 19
26 24 34 36 27 37 38 26 34 33 32 18 34 24 39 40 28 30 35 41 44 41 41 42 40 37 30 24 26 35 27 19 20 19 21 36 26 35 40 41 26 45 44 30 40 35 40 40 29 35 35 37 20 30 19 24 35 33 24 37 18 21 22 19
35 32 20 35 24 36 35 22 22 19 19 18 28 41 42 26 39 36 41 49 41 37 45 46 34 40 30 31 28 26 27 31 35 24 31 27 38 43 30 32 32 31 36 38 39 47 28 42 33 27 31 24 35 28 32 30 29 34 35 25 36 35 31 37
29 26 27 29 25 33 27 26 22 36 27 38 33 30 45 40 43 41 36 39 43 46 41 46 48 42 32 35 38 41 46 39 47 33 46 38 35 46 36 35 37 41 34 37 52 53 39 49 31 43 43 39 28 34 19 21 28 36 32 37 18 23 30 22
25 28 37 35 18 29 19 30 33 34 21 41 38 40 47 37 38 48 39 45 54 56 37 54 44 43 56 54 41 56 48 41 36 49 50 52 50 46 40 47 47 45 48 56 47 48 52 51 43 41 45 44 32 23 22 20 30 21 30 28 21 22 35 24
37 24 38 34 21 26 27 22 28 24 23 40 34 30 33 40 48 39 51 52 58 47 61 53 64 65 53 57 61 55 61 49 55 51 47 51 50 56 49 55 64 63 50 61 53 55 49 51 41 48 34 45 29 44 36 21 20 25 18 21 38 30 34 20
18 19 38 29 24 35 20 25 21 40 23 39 49 38 40 55 49 55 56 63 59 58 68 60 69 65 61 73 70 61 58 66 64 50 69 70 75 60 65 67 54 54 57 61 55 60 62 51 44 55 35 39 39 33 39 23 31 22 22 35 20 30 23 34
22 18 31 24 22 37 32 38 37 24 29 43 35 52 53 48 58 56 50 50 66 59 68 71 76 81 81 72 67 66 64 72 78 60 80 63 68 67 84 80 63 73 62 66 67 52 67 59 53 58 39 51 33 36 39 37 30 27 33 23 19 23 34 28
33 27 20 30 29 36 38 20 33 30 44 50 50 55 51 64 48 68 51 56 65 66 75 79 82 88 74 88 90 72 77 83 79 72 85 83 85 86 84 73 76 67 72 62 57 60 60 65 63 48 55 48 54 37 29 25 27 33 24 22 31 22 27 29
32 29 21 24 19 19 23 25 38 45 34 32 55 40 59 61 53 61 63 77 77 81 90 91 93 97 98 88 80 87 82 97 98 79 80 91 85 86 94 91 84 77 92 78 70 60 54 59 66 59 56 43 53 48 33 45 32 20 25 26 19 30 22 32
20 22 19 22 32 24 32 33 29 27 37 42 43 46 60 62 60 55 69 82 79 86 93 90 97 97 104 97 88 85 87 92 92 101 103 95 89 97 102 94 94 94 97 90 71 71 77 68 64 62 53 54 39 46 33 30 37 25 26 37 23 23 21 26
34 20 19 25 35 36 37 30 23 34 34 42 46 56 55 68 64 58 65 70 77 100 100 91 105 103 113 108 105 104 110 109 98 99 97 92 109 112 94 94 93 93 88 81 76 82 64 57 62 55 66 53 54 55 37 37 30 27 18 21 35 19 38 20
35 32 24 30 31 25 36 22 27 27 49 51 50 43 60 67 75 64 83 83 95 106 95 98 97 98 116 112 110 104 117 111 102 105 101 105 116 115 101 111 110 109 100 93 90 93 70 78 71 67 49 50 39 44 47 31 40 28 18 33 19 33 21 29
18 34 35 32 33 19 29 31 41 43 43 51 56 52 60 51 69 66 83 82 97 112 113 113 109 118 109 116 119 103 125 111 109 117 115 104 109 118 114 111 114 113 102 112 102 95 75 62 68 67 56 56 59 39 51 37 33 37 33 26 31 38 24 30
32 38 19 26 24 33 31 38 35 47 50 41 44 47 50 70 72 72 71 95 88 97 99 113 104 122 106 120 107 111 126 121 114 129 128 109 124 121 109 106 101 103 108 107 91 90 77 63 67 54 60 63 49 55 43 47 25 37 30 27 32 18 32 18
19 22 31 31 35 26 23 20 30 40 49 47 58 44 64 52 62 65 77 89 96 110 107 111 106 108 113 120 126 113 132 125 135 124 132 121 121 116 126 106 115 98 98 96 96 94 67 71 55 60 62 45 51 55 39 38 25 36 37 24 38 26 24 35
25 38 23 26 25 30 33 25 31 36 41 45 38 51 61 52 67 57 68 76 91 89 107 111 100 103 125 124 116 128 130 133 135 133 131 129 122 109 117 106 110 96 101 94 81 91 82 64 71 51 62 57 49 47 40 42 37 25 25 27 22 21 33 20
18 26 31 18 22 22 34 22 24 31 46 40 43 53 48 57 62 73 76 84 94 87 90 99 103 103 110 118 128 113 127 134 131 139 125 118 129 124 123 112 114 107 102 99 91 87 62 68 49 62 59 49 55 38 42 44 22 19 28 22 26 35 29 33
26 18 23 22 38 20 30 28 29 32 43 41 50 43 51 60 46 50 67 85 93 90 98 106 95 116 112 106 122 114 117 117 122 116 117 117 122 108 115 106 102 97 90 99 79 73 64 67 49 47 41 57 41 36 47 39 24 22 38 28 32 21 38 36
26 38 26 27 30 34 23 24 18 27 36 43 33 52 46 48 62 58 67 61 84 79 81 97 101 98 115 101 104 107 121 118 125 114 116 106 120 99 114 102 97 101 85 90 68 72 67 66 44 50 39 43 46 41 29 36 38 36 34 38 30 26 23 22
33 27 23 25 18 31 18 25 21 25 24 40 34 43 46 46 40 52 66 63 66 70 85 93 83 100 95 106 102 101 112 99 99 100 99 102 115 95 111 104 90 80 82 75 70 76 55 51 58 46 44 41 49 33 29 38 29 24 35 38 18 32 27 37
21 28 31 26 18 30 18 29 37 33 23 24 32 40 51 39 50 57 56 59 58 68 83 73 89 85 103 88 106 106 103 96 106 105 94 102 103 99 104 98 95 89 73 65 69 71 63 43 39 47 45 40 41 40 31 24 34 20 33 18 21 28 25 25
35 26 34 37 20 35 21 18 35 37 25 30 29 29 35 42 42 41 47 49 71 64 72 70 74 93 88 94 101 91 85 97 101 98 94 102 81 81 80 81 88 82 76 58 55 53 57 40 35 38 42 33 36 37 35 35 29 27 34 22 20 19 18 29
26 18 23 23 22 27 33 25 19 23 23 32 32 39 37 33 39 31 36 58 64 70 63 73 76 67 82 77 92 82 85 89 91 89 84 78 76 82 79 73 71 66 55 60 64 53 38 46 38 33 37 38 28 26 31 27 21 32 25 34 32 21 35 35
37 22 34 33 30 24 24 25 25 22 25 37 30 36 36 33 45 41 37 52 40 61 53 61 57 69 81 64 64 66 72 77 79 86 80 73 65 65 66 62 68 52 51 55 43 49 44 46 36 39 43 41 18 33 22 28 37 29 30 24 35 33 33 20
36 30 36 34 20 20 26 26 36 25 25 34 20 21 38 22 27 37 26 42 40 53 46 51 61 57 61 59 65 67 81 82 71 81 66 63 71 55 69 52 64 44 46 48 41 37 29 29 41 38 39 21 29 38 36 31 33 20 33 18 38 21 18 24
35 31 24 27 35 24 19 35 34 23 21 37 26 37 37 21 37 28 30 24 27 28 35 38 44 42 55 62 61 66 65 56 72 73 63 59 58 49 65 44 50 42 40 30 25 39 25 27 20 22 28 33 38 23 18 34 38 18 34 24 19 36 29 27
38 35 38 30 29 34 24 36 31 34 26 36 33 35 18 29 27 33 24 34 21 33 33 35 49 54 47 48 50 47 53 53 70 49 58 67 64 47 52 46 39 39 34 33 26 35 34 18 20 38 22 24 19 26 23 23 30 27 35 23 23 27 35 38
24 33 35 21 21 31 20 27 24 30 23 35 33 19 36 28 21 30 26 30 24 34 28 24 43 34 43 37 55 55 59 43 55 44 59 61 44 46 39 31 35 43 27 36 34 29 20 29 26 36 38 18 28 31 29 35 21 31 34 36 19 24 26 23
35 33 26 27 36 32 31 27 32 28 18 22 36 36 18 36 38 20 23 37 18 31 23 32 42 39 47 31 50 55 43 49 48 54 36 38 35 38 42 29 34 26 33 31 22 30 24 38 20 20 36 18 25 34 29 27 31 38 31 27 35 32 25 24
31 32 31 26 37 35 38 29 36 24 19 35 20 28 29 22 32 23 38 32 18 22 26 26 33 25 32 28 45 38 45 50 42 33 45 48 36 35 41 29 19 30 25 33 24 35 21 20 19 32 31 25 30 26 30 21 19 23 38 35 37 18 33 21
32 38 27 24 34 18 31 30 26 19 30 21 18 35 20 31 30 23 33 36 33 37 24 19 29 26 18 21 29 29 35 28 35 27 41 36 37 29 24 18 30 36 33 20 35 22 29 23 18 22 24 22 21 26 33 21 32 34 35 21 26 24 20 18
24 27 30 29 27 29 27 35 25 18 36 36 24 29 22 21 32 24 38 22 30 22 37 37 31 38 22 28 28 31 37 37 20 25 29 30 22 32 18 38 30 31 36 30 25 35 33 36 33 25 36 32 36 23 33 37 35 32 19 26 27 31 31 20
18 24 34 25 36 28 36 29 33 35 28 32 27 20 33 28 19 28 34 36 34 19 20 35 31 32 31 28 24 22 29 36 30 28 33 33 24 29 20 32 33 31 29 26 29 27 30 28 32 38 21 33 29 18 31 33 28 28 27 21 28 31 26 19
18 33 35 21 19 27 19 19 29 34 18 38 25 18 21 20 38 31 27 30 22 26 26 20 23 37 29 21 34 19 20 21 35 34 32 38 33 26 33 20 21 27 34 31 34 21 18 32 37 27 36 33 29 29 33 33 23 34 32 22 29 27 24 20
22 23 36 18 27 31 32 25 34 31 24 34 31 19 31 33 21 18 19 21 35 28 26 27 38 35 29 29 21 26 33 26 26 18 32 33 19 36 18 31 25 22 18 34 26 22 38 28 18 26 25 29 26 19 20 33 31 19 27 19 19 33 27 29
18 33 33 23 36 25 31 19 27 31 32 20 31 22 26 37 31 19 22 19 37 28 24 36 26 19 29 30 20 31 30 32 37 35 31 38 23 21 28 24 25 33 30 28 19 20 24 25 26 19 23 33 28 19 20 23 21 22 30 26 24 18 21 27
35 25 32 28 21 37 37 32 37 18 27 27 25 20 18 27 22 38 30 24 28 31 27 22 24 30 28 30 35 33 31 21 18 34 26 30 20 28 20 24 32 35 37 33 18 26 23 19 25 21 31 25 26 20 34 34 24 20 31 37 30 29 34 33
27 25 32 21 36 20 35 38 18 22 33 33 35 33 22 24 35 26 24 29 35 29 37 20 24 32 27 25 35 30 30 38 28 22 21 25 21 25 30 23 20 32 30 36 31 18 18 36 38 23 26 24 37 37 24 18 32 36 26 28 33 24 27 28
27 30 34 27 36 25 27 34 26 38 26 29 36 26 20 32 33 28 34 34 22 18 30 21 29 38 27 28 35 25 18 27 33 20 31 24 33 33 24 24 27 32 26 23 36 37 26 27 36 31 20 27 27 24 29 22 22 35 27 36 31 36 26 21
22 35 33 21 24 23 23 31 27 26 25 30 22 35 37 29 31 38 36 29 37 33 36 18 33 24 33 26 26 29 29 22 21 30 26 28 29 37 34 37 33 36 18 37 33 27 21 22 36 20 22 37 30 21 26 37 24 32 23 34 34 28 22 37
33 37 31 31 23 24 25 38 36 22 20 32 19 30 31 26 29 32 36 20 37 32 33 34 27 26 25 29 25 35 21 26 34 36 25 22 23 36 20 33 26 29 25 28 26 25 34 30 35 25 24 18 30 34 28 18 18 20 21 38 29 27 26 27
20 38 18 33 37 35 21 35 25 20 35 37 25 26 31 26 22 19 32 37 26 26 20 30 26 21 24 30 19 36 29 30 35 31 33 19 18 35 31 35 27 32 22 29 32 36 19 34 29 23 29 24 22 27 37 21 18 22 36 20 22 25 26 35
21 34 18 35 34 18 21 20 19 31 28 29 22 33 28 37 22 31 31 22 24 24 31 26 21 19 25 31 31 26 35 21 23 30 19 31 24 22 37 30 29 34 25 25 18 20 32 28 24 26 28 25 19 30 37 22 29 31 26 31 36 37 35 36
22 25 22 29 23 18 35 33 25 27 28 38 24 24 32 30 26 35 22 33 32 31 31 26 38 35 24 29 28 23 31 37 26 36 36 35 30 29 28 37 37 30 28 34 26 26 37 37 23 24 34 23 24 20 23 33 24 31 24 27 18 32 18 27
