P2
64 64
255
19 28 35 20 37 24 32 38 35 28 32 32 23 18 22 32 19 23 32 34 37 34 21 27 35 24 22 18 33 33 25 37 32 38 34 25 37 25 21 31 19 20 27 20 35 32 28 18 19 38 21 22 38 37 32 18 21 20 35 19 35 21 19 32
21 34 33 29 36 22 28 33 21 30 29 32 22 26 27 34 31 36 31 29 30 33 18 23 24 32 24 22 30 25 29 19 36 21 19 20 21 23 20 18 31 21 26 19 32 35 34 28 30 32 24 21 35 29 25 34 34 21 33 35 31 24 24 35
35 30 32 33 31 32 23 33 22 18 37 20 23 24 26 19 26 19 30 19 32 23 28 21 32 38 18 28 18 37 29 22 28 23 21 25 37 38 37 35 37 21 21 18 20 34 36 20 22 34 31 24 21 30 31 29 32 21 18 20 27 29 34 26
32 20 34 36 33 23 20 23 38 35 37 29 38 27 25 18 28 30 38 31 18 22 34 31 31 20 26 28 38 32 32 23 38 24 24 29 19 32 23 32 28 33 23 38 29 23 37 36 38 36 32 26 22 26 20 21 37 28 30 26 31 21 36 18
36 21 31 31 26 26 19 27 24 25 29 34 20 38 34 19 27 20 23 19 29 36 26 24 35 35 26 30 25 20 30 21 21 25 27 30 21 29 38 35 35 22 19 21 21 37 31 24 27 30 25 28 21 22 32 26 29 32 27 21 30 19 27 23
35 18 37 34 19 20 35 30 37 28 38 22 25 33 34 27 18 33 22 19 33 31 21 27 23 29 31 19 33 20 36 18 36 34 22 22 31 19 23 35 33 26 24 24 18 34 22 29 23 19 32 31 20 35 25 33 21 30 36 18 29 22 28 38
34 37 25 19 26 38 22 29 33 28 32 32 35 25 29 26 33 38 34 31 20 25 29 31 23 19 32 26 20 19 37 32 22 22 24 26 26 28 32 34 23 37 34 31 28 24 25 33 28 32 24 18 26 37 26 34 38 27 34 23 27 28 18 22
18 22 19 18 29 25 19 24 24 25 33 18 35 20 19 35 33 22 29 26 38 21 35 36 36 18 27 28 29 38 32 24 26 23 32 25 34 36 26 32 29 23 36 20 29 24 26 32 38 18 37 29 35 37 21 26 37 21 24 26 24 20 35 24
25 19 31 18 37 31 29 24 36 37 27 34 19 27 23 31 38 28 27 34 19 18 29 25 21 32 37 29 33 32 33 24 33 37 33 19 37 21 29 26 22 35 28 18 22 27 19 29 29 23 18 22 23 33 25 24 18 31 21 36 29 30 22 24
18 30 28 34 18 28 32 34 29 29 27 27 20 22 30 31 18 29 25 33 36 22 21 27 20 25 34 19 21 35 18 20 27 38 31 33 28 18 23 30 24 38 18 19 20 36 21 37 25 33 24 36 35 22 21 36 35 33 35 38 26 25 30 35
22 33 36 33 32 26 34 35 22 23 24 25 36 24 29 35 32 34 27 33 35 18 20 35 29 36 30 28 29 30 29 19 20 34 26 34 27 38 32 38 33 33 29 37 24 30 35 35 20 25 30 28 28 36 29 25 26 33 28 20 27 27 26 35
28 25 25 33 33 18 30 23 20 25 22 21 27 37 38 28 34 26 32 21 30 35 38 33 27 28 20 24 35 18 30 22 37 31 36 36 31 28 23 20 38 31 25 26 31 31 36 27 23 21 32 34 32 37 28 28 20 24 26 32 18 37 20 34
34 27 26 33 30 27 19 36 21 25 31 35 30 29 26 37 26 31 19 26 32 23 29 23 29 27 38 20 38 23 24 33 35 25 18 28 31 36 19 26 32 34 25 26 22 21 18 26 27 35 37 34 36 21 21 26 36 32 29 18 31 31 38 33
28 27 21 28 37 25 20 36 35 24 28 34 30 24 22 29 27 33 21 22 34 24 33 32 25 35 27 23 26 35 26 29 19 32 19 31 31 38 24 20 30 37 37 28 38 35 19 37 24 22 34 23 36 26 21 20 31 28 20 25 26 31 21 38
32 20 28 28 31 27 24 25 36 19 19 35 19 28 32 29 34 29 18 24 25 36 25 35 34 21 18 30 29 35 29 23 35 37 22 36 19 18 34 20 23 33 32 32 18 36 27 34 19 19 23 21 21 36 29 21 23 27 36 31 30 23 35 23
18 22 33 23 23 32 38 34 31 18 30 19 19 29 36 27 18 34 35 35 34 23 19 38 31 36 22 31 22 33 35 31 31 28 29 38 24 29 28 27 19 21 31 35 33 32 25 29 29 31 36 34 34 34 34 30 34 33 26 28 21 38 38 24
32 38 27 34 27 24 19 26 33 20 35 19 32 27 33 22 18 30 29 27 32 18 19 32 33 23 25 38 35 24 33 24 29 30 37 23 38 35 21 19 35 22 35 23 32 20 24 34 21 30 33 19 24 31 27 19 33 33 27 28 25 27 30 30
19 34 37 34 36 34 20 26 30 35 19 36 24 37 34 20 18 22 29 30 34 34 28 26 34 38 18 25 27 28 29 23 26 36 30 33 22 29 20 18 18 26 25 19 38 22 37 30 25 31 32 32 34 37 22 26 34 18 35 24 31 20 36 32
27 31 28 24 23 32 25 33 29 32 27 30 36 31 28 31 36 28 35 19 23 30 20 38 25 24 30 23 24 28 25 30 27 29 21 22 26 26 20 33 33 22 35 24 29 22 36 33 31 21 35 20 19 24 20 25 22 33 22 37 34 31 27 29
33 31 26 29 18 26 18 33 19 20 37 19 19 30 38 38 20 32 29 41 40 22 32 38 23 42 29 32 47 47 41 43 23 23 23 28 24 19 29 25 28 29 25 26 23 24 26 30 32 27 28 20 24 26 23 35 18 32 18 22 38 31 21 38
34 21 29 35 36 27 25 24 32 27 35 36 22 29 23 25 23 25 39 27 42 36 27 50 34 44 56 48 42 43 49 51 35 28 23 33 33 25 40 33 38 42 34 46 41 45 32 44 27 32 29 38 33 32 24 28 29 30 34 36 23 27 24 21
33 34 37 28 25 37 24 27 29 22 23 23 27 31 36 26 29 40 37 49 48 45 55 57 57 63 56 55 60 53 64 43 53 47 45 25 23 34 24 45 34 34 33 42 31 42 33 38 33 39 33 31 32 37 38 30 33 23 31 38 29 36 19 35
21 35 34 35 36 33 22 34 36 27 28 28 36 24 31 39 39 32 39 36 37 47 60 85 87 83 74 69 82 68 69 59 65 40 53 45 28 28 41 44 50 46 52 47 43 33 45 50 31 40 27 38 41 37 31 31 21 19 37 33 32 21 22 18
20 34 20 38 24 28 23 35 37 33 26 24 24 32 32 31 38 41 36 54 54 87 98 100 105 106 112 96 101 77 75 78 56 54 51 42 48 36 35 42 35 38 38 55 42 53 56 39 45 35 42 43 44 29 21 36 32 31 18 36 26 23 37 38
21 19 26 33 32 27 30 30 37 24 23 31 42 36 50 43 49 47 60 52 75 92 117 133 131 137 141 139 110 92 79 79 62 61 67 59 60 49 35 49 53 49 48 55 52 56 42 58 54 35 41 47 27 27 25 32 29 29 28 19 31 25 31 31
31 31 36 37 22 29 31 19 27 30 23 32 48 32 40 52 40 62 65 82 109 113 131 148 157 166 170 150 137 115 92 92 85 71 67 61 63 57 51 50 60 52 63 60 47 50 51 50 54 48 42 51 38 29 40 34 37 31 25 18 31 33 22 30
20 18 18 25 32 26 33 25 23 31 27 45 38 42 49 50 58 58 70 84 118 136 150 182 176 184 186 180 150 136 110 103 100 81 74 64 66 47 43 51 60 58 55 65 66 68 60 57 59 43 54 54 51 47 42 29 20 33 32 33 33 21 37 23
26 36 24 36 30 23 37 36 23 29 39 39 42 41 48 48 56 69 68 90 129 155 176 196 220 204 207 206 183 158 131 108 90 91 73 77 57 60 54 48 62 71 61 72 56 69 52 65 59 64 54 40 50 45 45 31 23 33 28 23 37 30 22 21
34 35 38 23 33 31 20 22 41 36 48 40 52 44 60 47 50 56 79 97 138 170 180 222 238 227 217 216 203 178 142 104 103 97 78 70 69 58 57 52 69 72 65 73 68 57 63 58 53 49 53 48 42 49 37 28 32 29 31 29 29 24 24 25
32 20 28 32 31 24 35 28 24 36 49 44 41 60 60 51 68 56 78 120 145 170 203 210 232 226 227 217 205 172 144 115 94 88 72 67 76 72 64 54 55 67 69 61 71 64 68 65 53 61 53 57 54 43 32 35 31 27 30 22 18 23 25 35
28 22 30 26 33 26 18 20 27 37 51 49 43 48 66 66 60 68 91 121 153 164 199 205 229 222 225 215 193 170 146 112 96 99 75 71 73 65 64 66 67 76 63 64 71 74 63 65 61 68 66 60 49 41 45 34 39 35 37 21 23 24 34 19
23 25 18 22 19 28 36 37 43 41 34 52 59 56 58 64 61 63 90 105 137 174 192 194 202 214 207 192 175 162 124 118 113 94 87 74 77 55 67 68 65 63 66 69 82 78 64 61 61 69 66 55 44 41 39 44 30 26 32 29 21 18 21 18
34 29 29 35 20 26 23 35 27 33 47 38 51 57 49 52 56 71 78 112 126 157 182 180 196 207 189 181 167 143 135 110 106 93 77 61 54 63 65 58 65 70 70 71 90 68 68 77 58 55 60 55 55 52 50 29 27 22 30 32 25 38 36 26
36 30 24 22 36 35 26 26 40 37 38 35 45 44 67 62 62 69 84 108 120 152 155 169 174 170 179 163 159 137 121 118 95 93 74 55 63 62 57 74 78 71 73 81 78 84 71 61 67 53 65 46 45 41 45 34 27 26 18 22 31 22 19 23
25 22 19 24 28 31 31 29 24 30 41 44 53 43 54 68 69 79 91 92 98 114 131 149 169 165 160 137 140 120 106 109 99 69 66 56 43 50 64 58 67 73 63 64 72 77 62 59 57 60 51 50 52 43 31 27 31 33 25 23 25 28 34 28
31 18 31 28 23 29 24 22 34 42 48 41 54 50 47 64 57 88 90 100 111 118 128 132 149 144 142 125 128 114 105 99 80 72 49 46 52 45 55 56 59 66 69 67 68 76 57 72 54 61 49 43 55 47 46 40 42 23 32 21 20 38 32 20
26 31 27 35 26 29 38 38 30 45 35 49 43 58 45 59 62 68 75 98 109 104 124 114 124 147 126 116 115 98 86 86 65 59 56 40 51 59 53 66 64 72 66 67 65 72 64 62 56 48 54 59 37 45 30 32 35 33 32 36 20 18 22 24
19 23 35 30 27 20 19 31 25 42 47 50 52 48 56 59 56 70 82 96 96 106 108 124 125 128 117 122 98 84 80 67 56 42 41 49 38 44 47 50 56 66 66 67 60 56 58 59 51 50 48 52 37 40 44 28 30 20 30 36 23 30 27 30
25 24 29 30 18 25 30 19 26 42 27 29 43 46 56 58 57 62 79 73 86 98 100 113 98 98 111 97 84 75 63 68 58 54 35 37 35 47 51 44 47 63 60 68 55 56 55 53 44 53 50 40 45 39 45 37 18 32 30 35 37 30 34 18
34 20 27 24 19 27 19 29 34 25 27 45 39 34 42 54 62 53 73 82 85 87 86 104 100 89 97 88 90 75 58 52 51 48 41 44 32 54 43 43 47 58 54 59 61 48 52 57 57 51 42 32 30 28 40 29 37 30 20 21 23 35 35 38
36 24 32 31 32 29 38 30 26 28 40 29 43 45 50 46 50 64 71 75 74 79 80 79 78 80 95 75 79 61 56 52 45 41 43 38 42 45 41 55 50 51 51 59 44 51 52 39 41 39 51 41 46 33 33 19 38 21 26 35 29 19 32 30
34 33 18 22 21 26 20 30 30 38 30 29 41 47 49 40 38 44 58 60 70 80 72 86 68 82 83 61 64 58 42 47 46 40 26 44 39 42 33 47 43 56 53 49 56 37 53 45 50 35 48 39 37 24 26 35 35 35 27 34 21 30 31 18
31 35 28 21 28 38 32 19 22 26 35 27 21 25 33 43 36 41 53 49 59 60 71 66 58 69 72 69 64 56 46 44 43 32 38 25 32 41 41 37 51 36 52 53 40 49 37 42 30 38 27 28 24 30 28 34 25 20 21 29 33 25 38 22
28 34 18 26 19 24 29 30 23 32 35 27 31 32 24 29 37 32 38 43 45 56 50 53 56 62 44 58 52 45 27 43 30 30 19 29 21 33 25 26 38 43 38 45 44 36 43 43 37 41 23 33 33 32 30 22 31 33 23 38 18 21 35 19
31 34 34 29 26 29 26 26 24 22 29 24 23 34 31 23 27 44 32 31 32 36 44 49 51 37 44 41 45 29 21 34 25 20 28 30 34 20 27 25 35 44 30 37 33 26 29 40 32 31 31 31 28 23 19 30 26 21 38 21 35 28 32 23
19 34 30 34 23 19 28 19 23 24 24 35 35 36 25 32 26 40 25 31 39 24 30 39 46 36 38 39 30 37 34 28 38 37 26 20 34 19 25 21 33 37 25 36 25 38 41 23 22 34 24 23 29 35 33 37 35 23 35 33 34 29 33 32
22 37 35 26 31 30 22 22 25 38 18 30 29 37 22 21 20 30 34 38 31 35 34 29 35 26 19 36 19 37 23 20 21 29 20 25 34 36 21 36 38 38 31 31 28 35 25 38 22 28 33 18 35 18 24 38 25 18 35 20 33 37 34 27
20 18 18 20 26 29 25 21 18 23 36 21 18 20 35 26 20 38 30 19 25 35 29 19 19 34 35 30 28 35 19 29 19 32 35 34 31 27 23 19 29 26 28 31 37 32 37 24 29 34 26 21 28 19 34 19 24 25 36 30 23 19 36 37
36 22 31 30 32 36 23 18 37 18 38 38 35 26 34 38 21 23 18 23 31 38 30 24 34 25 20 26 31 30 19 38 20 26 34 29 23 21 35 31 38 21 38 35 33 27 25 27 37 34 21 21 19 32 25 32 36 18 30 27 29 31 23 37
21 38 27 18 35 37 38 29 21 38 19 22 20 20 32 25 32 36 35 23 29 18 29 28 24 36 25 31 28 24 37 31 27 36 22 38 26 34 37 34 29 23 32 24 21 36 36 33 24 19 27 25 18 33 28 33 22 28 20 21 23 18 19 33
25 29 37 22 30 36 18 20 26 18 24 23 18 34 34 36 24 38 24 36 33 29 22 33 28 36 33 31 34 22 26 32 21 29 37 18 21 37 28 33 24 26 32 25 35 30 24 37 29 31 30 28 37 31 36 20 20 30 24 27 27 27 30 26
35 28 21 32 18 33 24 25 30 33 25 29 37 33 26 29 32 33 36 36 22 20 30 22 27 38 18 28 26 28 29 35 35 28 33 31 23 26 20 29 38 31 30 36 31 37 37 35 22 29 38 36 20 22 20 35 26 38 18 23 20 26 36 29
19 36 23 31 33 33 30 19 37 32 25 34 32 23 31 24 23 25 27 19 31 29 31 18 28 34 30 31 18 25 23 19 37 38 26 20 35 23 18 27 19 38 23 18 31 28 21 20 19 20 34 20 34 28 36 30 25 18 32 23 31 22 34 21
24 34 22 21 28 34 28 33 31 35 28 31 32 30 34 27 19 33 20 28 26 21 22 34 20 35 21 33 27 34 34 36 19 26 37 24 38 29 22 26 30 28 25 21 20 35 24 22 33 36 25 19 18 36 21 26 20 22 18 30 32 24 28 38
23 18 29 25 27 25 30 22 35 26 29 25 38 36 28 38 20 20 33 38 22 21 23 29 27 35 28 36 24 34 31 25 22 23 36 37 34 24 32 25 35 32 26 26 18 21 37 38 18 31 20 22 35 23 35 36 37 34 33 23 38 30 29 36
19 32 31 19 21 26 21 32 25 35 23 30 36 33 27 38 30 25 24 32 24 20 19 20 26 36 26 21 36 25 35 23 33 22 38 27 25 36 37 27 27 23 37 22 23 32 27 30 21 32 27 24 29 24 19 32 22 38 35 19 31 19 22 20
24 38 32 30 38 34 19 23 38 38 35 33 30 25 37 22 36 26 21 31 36 29 32 27 23 24 32 33 21 27 28 28 33 19 30 38 22 18 31 30 26 32 22 25 38 35 33 24 20 31 18 29 23 33 20 23 27 32 34 21 18 34 24 36
20 35 37 21 30 22 27 37 30 19 18 24 31 19 36 37 21 22 20 32 38 30 19 31 20 20 27 27 24 30 32 36 35 27 18 31 38 26 34 23 34 34 36 34 21 19 23 21 32 23 26 33 21 30 24 26 37 35 21 30 18 24 32 32
27 30 30 24 26 37 28 18 30 23 22 27 30 25 22 38 32 23 30 29 33 37 18 23 37 28 36 36 27 24 23 25 36 38 34 34 36 30 27 34 34 32 36 23 37 28 20 32 29 34 33 36 29 27 37 32 27 33 26 18 22 26 37 19
21 29 29 18 30 20 25 29 28 33 18 34 21 20 25 20 24 21 31 32 34 32 36 24 26 36 32 26 22 22 25 38 21 33 26 25 32 25 28 21 20 31 21 21 28 35 36 29 27 35 25 25 36 34 30 33 19 24 21 26 32 33 21 34
20 37 32 21 23 28 35 35 28 38 27 34 31 36 28 21 28 26 38 31 23 21 38 21 22 35 30 37 34 32 23 33 36 26 33 24 26 27 35 34 31 33 29 26 20 38 34 18 26 23 20 24 24 24 33 35 27 32 19 19 31 22 24 32
22 20 22 19 38 25 36 25 38 23 22 32 34 30 18 32 32 28 32 31 31 31 28 31 29 22 18 19 21 25 18 34 37 19 27 35 18 29 18 18 21 27 19 29 33 33 32 35 27 23 22 31 27 20 21 20 18 35 25 37 30 24 38 23
22 20 38 36 25 19 28 38 34 28 21 26 34 37 28 35 36 31 23 18 36 36 29 32 23 29 19 35 22 33 25 32 19 31 18 22 35 26 38 26 32 34 19 35 30 18 32 19 22 26 22 38 33 20 37 34 19 22 33 30 22 36 36 36
35 19 32 24 25 20 19 21 25 22 21 19 26 27 28 32 27 21 34 24 35 29 18 26 31 30 25 36 21 37 24 31 34 25 37 29 34 33 32 24 23 28 25 36 36 18 36 21 34 20 36 37 30 26 28 35 37 35 20 22 25 35 33 21
