P2
64 64
255
26 14 22 16 14 22 20 17 16 17 24 17 20 17 22 20 25 14 20 19 22 20 22 17 20 14 19 15 18 23 18 24 22 23 24 22 21 25 26 23 17 22 20 21 20 22 23 22 18 23 24 23 16 26 19 15 18 20 14 23 26 21 15 18
22 18 21 22 24 22 18 20 18 23 15 24 14 18 20 21 22 17 26 23 25 18 21 18 24 17 21 19 21 15 26 17 15 22 25 16 19 17 15 14 15 23 19 16 14 17 14 19 26 23 14 20 26 17 14 17 22 19 18 23 25 22 24 16
18 23 16 24 26 23 16 22 18 14 16 24 18 16 19 19 15 25 21 21 26 16 18 15 23 25 23 17 22 15 21 14 14 22 18 16 25 14 23 15 17 18 19 15 17 21 24 24 16 24 16 14 26 14 21 20 23 20 17 15 15 17 20 19
22 23 24 23 20 17 20 19 17 15 18 24 14 19 23 21 22 17 24 21 23 16 24 16 26 18 26 25 19 23 18 25 18 17 17 22 22 18 14 21 16 14 14 26 22 20 17 14 14 23 22 19 16 20 19 23 20 18 18 25 16 21 23 21
23 18 22 22 18 15 24 21 18 25 23 21 14 26 23 16 14 18 25 21 16 25 16 26 16 22 23 23 21 21 20 17 21 16 16 26 14 17 14 20 16 23 14 20 23 14 23 25 18 25 14 26 22 24 24 21 23 26 24 15 24 14 19 19
21 20 20 22 25 22 17 16 20 16 17 19 16 18 25 14 14 24 14 20 25 18 15 20 24 15 14 18 24 14 20 20 18 14 21 19 20 26 22 23 25 25 21 24 20 16 24 24 25 22 19 17 14 23 16 15 17 15 16 15 25 24 18 17
19 15 22 23 20 23 19 18 21 24 19 20 19 19 22 19 15 20 24 14 15 16 14 24 21 26 18 24 15 17 25 25 21 17 18 15 17 16 17 14 26 19 15 16 25 16 16 19 20 19 14 23 24 22 23 15 25 17 18 14 16 26 22 16
17 14 16 17 14 20 24 25 22 16 17 15 23 25 15 20 16 21 23 15 20 17 24 22 20 21 21 19 18 26 19 15 20 19 25 18 17 22 14 21 23 25 20 23 19 14 21 21 22 16 21 18 15 16 21 22 26 19 25 20 16 22 24 17
19 15 22 21 18 16 23 15 19 18 17 15 24 23 19 16 23 18 20 21 18 25 19 14 25 19 18 25 19 23 19 22 23 20 24 16 22 14 14 23 14 25 17 21 21 18 17 22 16 25 22 22 15 16 16 25 19 19 22 17 20 20 23 17
16 21 26 17 20 22 16 19 14 16 25 19 22 20 14 17 21 19 22 21 22 18 18 22 15 16 17 17 23 23 23 22 18 15 20 14 22 18 15 16 15 23 17 14 22 26 19 15 16 15 26 15 24 24 23 24 25 20 20 19 21 21 16 18
17 18 19 16 20 15 16 22 26 16 17 19 14 19 16 24 24 25 16 22 25 14 20 14 16 18 25 20 20 15 22 23 19 18 26 15 17 14 16 23 17 14 15 20 16 18 26 16 14 18 23 14 24 20 17 18 19 24 15 21 26 15 26 20
19 18 22 20 26 24 21 20 22 19 20 19 26 18 15 24 20 19 19 26 25 23 25 16 19 20 20 21 15 17 21 18 19 22 23 19 23 19 17 21 24 22 19 22 25 21 24 21 17 14 18 25 17 14 26 23 20 15 14 24 25 22 16 17
21 21 19 16 17 26 26 26 23 21 20 26 26 18 18 15 17 24 22 17 26 23 20 21 21 17 23 21 15 22 15 20 19 25 26 18 18 15 18 19 17 15 20 22 19 16 18 20 15 22 25 21 25 16 18 21 25 26 18 24 21 18 24 17
14 26 15 18 17 26 21 24 18 16 15 16 21 14 23 17 14 23 25 15 22 19 26 24 19 16 16 20 24 25 14 20 16 14 24 19 23 14 22 23 23 16 14 24 26 19 23 15 15 16 22 22 20 22 18 22 16 21 23 23 22 22 16 24
20 21 23 17 19 22 14 15 25 24 24 16 14 20 19 26 16 24 23 15 24 24 21 19 19 20 14 26 20 15 19 25 23 25 15 22 26 21 22 22 24 15 25 16 19 25 20 25 14 16 26 23 18 15 24 21 15 15 18 20 17 17 23 26
18 19 22 21 23 21 16 18 25 22 22 23 20 18 14 20 20 20 15 15 17 19 26 18 14 25 17 25 24 15 21 15 19 15 15 24 16 21 17 23 16 16 18 23 19 25 22 18 25 22 17 22 23 16 15 20 24 25 24 22 23 25 26 19
25 25 22 25 19 17 16 24 22 23 18 24 26 22 21 22 25 15 16 19 25 20 20 25 19 17 23 19 19 15 20 18 15 22 22 16 15 16 18 26 20 21 21 20 24 16 25 21 15 16 25 18 16 25 19 17 15 16 18 24 17 16 25 15
20 14 16 17 17 25 24 26 18 22 20 24 20 20 25 22 17 25 16 14 18 22 18 16 18 26 25 20 22 14 15 23 16 20 23 15 22 14 23 15 25 22 20 15 23 21 25 20 22 22 25 14 14 23 23 19 14 26 26 22 14 18 19 16
14 22 20 24 21 26 23 17 19 16 16 20 17 14 20 26 22 25 18 17 18 20 24 26 15 14 21 18 14 22 25 18 23 24 25 18 26 15 17 18 24 14 25 19 26 20 24 16 20 16 17 17 20 16 17 22 15 18 17 18 21 25 15 16
22 17 22 23 17 24 25 20 19 16 16 14 15 15 17 16 25 16 29 17 20 21 23 21 24 27 18 20 17 22 22 21 26 20 24 26 14 16 23 22 26 20 18 18 29 27 19 19 16 20 21 21 20 19 23 21 20 18 14 16 25 18 21 26
23 21 24 22 16 21 25 25 19 17 14 19 15 24 18 29 19 23 33 22 23 33 28 25 27 27 26 19 14 14 18 24 19 26 16 22 15 24 19 25 28 33 30 26 28 33 25 26 28 27 23 18 19 25 17 24 26 17 18 20 20 17 26 21
18 24 23 25 22 15 26 16 22 24 24 17 23 27 31 26 25 23 30 30 27 25 37 24 24 22 28 27 27 19 22 18 29 22 28 20 27 20 20 24 26 36 37 35 30 25 32 32 24 27 24 23 18 19 16 26 14 25 18 26 16 19 26 15
24 18 22 19 15 15 16 15 26 21 20 20 19 31 30 35 32 39 28 35 34 38 29 40 39 29 25 36 37 28 25 34 27 24 31 33 25 33 28 33 27 39 41 34 30 34 31 33 38 34 32 20 17 17 15 25 15 26 18 21 15 14 20 23
20 20 16 20 21 20 17 24 22 21 23 29 20 25 30 31 29 36 41 37 42 43 35 37 38 41 37 45 34 37 41 36 29 38 33 34 46 41 36 38 40 39 45 37 34 33 39 33 37 29 28 27 29 17 21 17 21 16 14 23 20 14 24 25
18 23 18 19 19 20 16 24 14 14 18 27 23 38 31 38 45 37 45 40 41 45 44 46 48 48 49 52 50 50 45 43 36 41 42 49 44 53 49 48 52 45 41 39 37 40 47 35 41 32 38 27 29 27 24 23 15 22 20 22 18 24 21 17
26 15 17 26 22 23 23 15 25 28 28 28 29 30 43 38 47 44 50 47 48 52 46 52 61 52 54 53 58 59 53 55 50 51 55 62 59 52 58 63 58 57 53 49 41 48 51 41 39 43 41 35 31 28 31 20 16 22 19 20 25 14 21 17
18 20 15 24 22 21 17 16 19 27 27 32 38 33 41 45 42 41 49 48 48 57 57 55 60 62 65 61 71 62 66 56 60 58 66 66 68 62 62 64 57 55 59 48 50 50 45 46 46 45 44 34 28 31 33 22 15 16 21 19 14 25 26 14
24 20 17 17 24 26 18 21 17 23 27 31 40 36 48 49 54 45 58 58 55 62 64 72 69 77 76 78 70 79 75 68 76 72 69 77 67 72 78 68 67 63 63 60 57 56 59 52 45 48 49 44 39 38 32 31 19 24 22 24 15 16 23 23
22 15 26 19 23 14 17 14 28 22 30 34 39 43 42 52 54 52 61 65 69 68 72 73 82 82 76 82 84 77 78 78 77 75 77 76 81 76 87 77 83 71 79 74 68 61 57 56 45 52 49 47 41 37 27 29 22 22 16 16 16 17 17 16
16 14 14 18 21 17 25 17 18 34 26 31 36 47 45 52 56 61 59 67 77 79 83 87 82 82 94 92 90 90 89 82 94 87 86 86 94 89 82 81 86 83 85 82 73 60 57 52 52 52 45 46 38 33 30 34 23 18 22 15 19 16 19 14
20 26 20 17 21 21 20 27 24 31 37 38 40 45 49 48 54 57 68 77 80 88 87 92 87 88 92 97 97 94 91 93 97 90 97 94 89 101 101 99 95 93 84 78 81 66 69 58 61 46 53 45 46 37 30 23 20 21 23 17 24 22 19 17
18 22 15 18 18 23 21 22 27 29 35 35 44 49 52 55 51 64 73 72 88 85 97 92 96 96 95 105 105 99 107 100 105 102 98 97 100 97 103 98 92 89 93 84 83 73 72 55 63 51 53 47 45 34 27 32 22 20 17 17 15 23 22 24
14 20 22 22 25 25 24 19 22 28 35 34 36 47 47 58 55 60 66 86 91 96 95 95 99 101 98 99 104 104 102 104 117 104 113 100 110 109 101 106 98 104 93 96 93 79 69 64 51 59 49 40 45 34 32 25 20 16 22 21 17 24 17 25
25 21 25 15 22 21 16 22 25 25 35 33 37 47 45 55 58 62 65 78 82 97 99 101 108 102 110 103 104 114 118 111 116 118 113 105 106 113 110 109 105 96 94 96 85 78 68 55 52 52 48 48 41 42 33 34 20 18 24 16 14 17 17 18
24 16 26 24 14 21 26 16 24 25 29 40 36 40 44 56 56 54 73 74 84 87 93 101 109 102 102 107 112 117 121 125 117 124 112 119 117 111 108 111 98 94 93 87 86 83 68 66 49 54 46 49 37 38 29 31 20 24 25 15 21 23 19 17
24 22 25 26 22 25 21 24 30 31 38 36 35 43 43 49 53 56 66 70 88 89 91 100 103 100 105 103 111 120 121 125 120 118 113 116 118 115 104 103 96 100 87 85 87 77 72 62 52 50 45 40 34 41 34 33 25 26 16 14 20 18 17 16
18 25 15 26 15 15 22 23 17 21 33 38 40 37 51 45 45 58 67 66 80 84 89 99 102 105 105 109 115 114 120 124 127 126 119 109 110 110 110 97 100 99 91 86 76 75 60 50 52 48 50 36 34 36 31 25 24 23 16 20 21 24 23 14
15 14 24 17 15 25 15 23 25 28 27 38 38 44 44 49 51 46 60 67 76 87 85 91 94 96 96 102 114 109 116 112 119 111 110 105 107 108 106 104 97 90 91 82 76 67 63 55 43 51 37 42 33 30 25 26 20 21 18 24 24 18 19 18
23 20 21 25 20 15 24 20 22 30 28 37 33 35 39 48 47 47 51 62 73 79 78 82 91 95 101 98 106 104 107 107 114 105 110 100 101 107 100 89 92 86 87 81 64 66 60 48 43 37 34 36 36 37 26 27 14 25 23 16 16 25 16 16
16 21 24 26 18 24 17 18 23 19 22 30 35 30 42 46 47 50 48 55 64 76 73 80 84 89 92 100 96 101 95 94 102 99 100 103 95 91 88 88 81 84 77 65 61 57 54 41 40 38 37 32 35 22 25 28 26 22 17 25 25 23 21 14
25 19 22 18 17 22 20 26 19 15 27 31 23 35 30 40 38 44 42 53 56 69 75 69 78 84 81 87 93 91 86 92 84 96 97 86 97 89 91 87 78 77 65 64 58 55 47 44 35 41 40 32 23 31 23 15 17 23 14 23 24 17 25 26
14 20 21 18 19 20 24 24 15 22 22 21 23 23 30 29 33 36 41 47 52 60 60 71 70 74 75 85 79 87 84 83 82 83 85 87 81 75 74 79 67 67 67 63 55 44 34 41 31 36 33 29 29 19 25 24 20 24 26 21 21 18 23 18
18 23 22 24 21 26 22 23 26 15 14 19 20 26 30 26 27 27 34 39 41 51 57 56 67 73 65 68 69 80 80 80 73 82 78 69 81 69 67 65 68 62 63 56 46 40 36 39 28 35 24 29 24 16 18 26 18 14 21 20 18 19 22 23
24 18 16 20 22 25 24 21 20 20 16 24 17 19 24 29 31 35 35 34 35 47 51 57 60 59 69 69 69 66 67 74 73 66 68 64 65 70 62 62 56 52 47 44 44 36 33 32 28 28 30 23 21 22 17 24 26 23 18 17 15 25 24 20
16 14 25 25 18 26 22 15 23 20 26 15 25 16 21 23 28 31 31 31 36 32 36 40 47 55 50 56 59 63 59 64 65 69 62 59 64 51 52 54 45 52 48 36 28 27 22 23 18 28 22 16 22 25 17 20 24 24 16 22 24 25 25 25
14 14 26 21 17 16 14 21 16 19 24 25 25 23 24 26 17 18 25 20 23 35 35 33 37 50 44 44 57 51 54 64 58 61 54 61 59 47 46 47 41 37 34 31 26 25 26 23 27 24 23 21 15 22 16 15 19 26 25 25 14 19 21 21
23 14 26 21 18 17 15 25 18 22 20 15 22 23 22 20 20 15 16 23 19 24 28 28 31 42 37 42 46 48 51 53 46 49 49 46 48 45 46 36 37 28 22 22 26 18 17 19 15 26 16 25 24 15 16 19 15 15 16 17 15 16 26 24
17 19 17 24 23 23 16 19 14 26 15 14 15 22 14 19 16 17 24 22 14 18 28 27 33 37 42 40 47 47 40 50 50 40 49 48 43 43 40 38 25 28 19 24 23 24 18 16 23 21 15 26 24 23 23 26 18 24 16 16 16 15 16 19
26 19 25 26 24 24 15 18 24 20 25 17 24 17 25 25 22 26 21 16 24 25 17 15 26 28 36 37 31 39 34 43 40 39 41 39 34 32 35 30 21 16 14 16 23 17 22 14 20 23 17 23 15 21 24 18 21 15 26 16 23 20 26 22
23 26 17 23 24 17 19 25 19 18 15 22 25 18 18 15 16 18 20 17 17 25 19 14 25 19 27 25 32 36 27 38 31 30 26 27 24 28 23 26 18 16 15 21 21 25 20 18 19 18 18 25 19 20 26 17 26 20 21 25 26 19 25 26
16 15 15 22 18 24 17 21 23 14 14 25 24 18 22 16 23 18 26 25 18 18 15 15 24 20 19 21 17 20 24 31 24 33 25 21 27 22 21 21 25 19 18 23 24 21 16 20 21 26 15 25 15 20 23 16 26 23 17 25 24 21 18 22
21 23 14 19 23 23 24 23 25 22 17 15 21 14 20 16 15 21 26 26 22 14 21 21 20 18 23 25 17 19 16 19 22 23 14 24 25 26 15 21 26 19 20 14 18 18 23 23 16 18 14 16 24 19 22 26 24 20 16 21 18 20 17 25
26 26 21 25 14 25 14 15 18 18 19 17 18 17 24 25 23 20 23 22 26 24 15 20 19 22 24 21 22 16 17 15 26 14 15 16 24 17 25 21 25 20 22 24 18 15 25 16 26 23 22 24 19 20 16 20 26 15 16 17 16 24 24 22
17 20 17 19 17 24 19 23 25 16 24 24 21 14 26 21 21 26 22 16 23 16 15 24 23 14 19 18 19 14 19 16 26 26 19 26 24 19 23 20 15 25 16 15 23 26 25 25 14 23 26 15 23 26 14 24 15 23 17 19 14 26 15 24
19 24 16 25 26 21 17 15 17 15 24 24 17 24 18 15 25 20 15 16 16 14 16 17 24 18 14 19 26 17 17 23 24 20 19 21 18 18 16 24 26 15 24 20 26 20 19 25 20 18 19 16 26 22 20 19 24 21 22 16 21 14 16 23
18 20 14 18 17 18 22 17 16 17 19 24 15 22 20 26 26 25 19 15 21 15 16 22 21 25 20 22 25 22 22 20 14 14 26 25 22 14 20 21 18 25 26 23 17 14 23 14 24 17 26 23 23 19 19 26 16 22 15 25 20 24 24 19
26 19 18 26 15 21 16 14 18 26 17 25 16 16 21 19 22 19 23 26 22 22 18 17 26 16 16 23 23 14 23 23 14 17 15 22 22 18 26 15 25 24 22 23 25 14 26 20 21 23 20 20 17 21 22 15 20 26 24 17 17 22 15 22
15 20 23 14 15 26 24 26 25 14 22 17 18 18 26 26 15 22 20 17 22 26 23 21 23 24 14 17 20 21 26 26 17 20 21 26 24 20 24 21 23 21 20 14 19 20 18 16 21 18 18 15 22 23 15 15 23 19 21 14 14 22 20 16
24 23 17 18 14 26 24 19 15 20 15 17 17 23 23 14 26 16 14 23 19 17 24 21 14 15 23 22 23 21 18 16 15 14 17 21 22 22 15 25 19 18 18 23 19 15 16 26 17 24 14 18 21 18 20 14 19 23 23 19 20 25 19 25
16 25 19 17 15 16 17 19 16 22 26 22 23 24 19 23 18 26 22 26 20 25 15 15 21 21 26 14 20 19 25 18 19 25 22 14 17 26 20 21 22 17 24 18 20 25 19 17 26 16 15 18 16 14 17 22 22 24 19 20 18 14 20 19
18 19 26 24 25 20 19 19 19 19 25 17 20 14 22 23 16 14 21 22 18 24 16 26 14 15 18 16 18 14 15 21 22 21 24 19 25 20 25 25 24 16 22 22 22 24 21 26 17 15 24 16 16 14 22 26 25 24 17 18 14 16 24 22
17 14 24 16 19 14 24 15 22 25 26 25 21 22 14 23 19 23 26 22 26 19 24 20 19 19 16 15 15 26 18 16 25 15 21 23 26 20 24 24 20 15 15 22 17 16 22 17 20 17 15 21 19 19 15 23 14 20 21 16 22 23 18 15
24 20 17 19 18 24 16 24 23 14 15 18 25 14 17 22 21 23 18 25 21 14 16 25 26 25 22 14 26 22 22 20 22 15 21 26 18 21 23 16 24 24 20 20 26 14 26 14 21 17 15 22 15 19 19 19 22 16 19 22 14 23 18 14
20 24 24 26 15 14 26 19 14 26 17 24 25 26 26 15 19 20 18 18 18 23 14 23 16 15 26 18 22 19 25 19 20 23 21 24 23 14 17 25 18 15 17 20 21 26 23 24 20 15 26 20 17 22 23 18 15 19 19 24 16 20 24 15
