P2
64 64
255
28 24 23 26 21 30 19 23 30 33 25 36 22 30 35 37 32 27 36 38 28 20 25 31 18 26 29 19 23 26 33 25 34 21 32 32 20 22 22 25 19 37 33 21 27 31 33 23 33 19 18 20 28 32 27 18 27 34 35 19 33 35 22 26
27 31 20 25 36 19 18 34 21 24 20 38 27 34 36 37 20 22 34 38 38 38 28 31 34 31 31 21 26 24 33 28 24 25 22 21 30 26 24 29 29 20 19 18 18 35 36 36 18 28 33 26 24 34 24 35 36 32 36 35 22 23 21 35
37 25 28 19 27 25 36 33 36 28 38 38 35 35 27 23 27 28 23 30 32 20 33 24 24 19 37 27 25 21 25 33 36 38 37 26 19 31 18 31 19 38 25 24 37 20 34 21 38 18 37 18 19 23 26 33 33 25 32 19 35 25 38 18
27 18 24 29 35 25 35 32 20 37 38 33 36 20 25 22 28 26 25 37 36 34 25 35 38 32 25 28 31 19 35 21 28 21 22 29 36 29 25 35 28 34 31 27 19 20 18 31 21 34 30 24 25 23 38 18 30 18 38 18 31 36 23 22
32 33 23 36 36 37 33 36 33 37 24 22 31 20 34 34 25 37 20 21 22 35 24 27 32 33 30 30 33 38 28 38 24 30 36 33 35 19 25 34 30 30 25 38 35 30 27 28 31 35 19 22 27 37 26 21 36 23 28 35 21 37 25 33
25 21 35 38 35 38 38 23 23 37 20 20 30 25 20 36 36 22 20 37 21 31 20 28 37 19 19 20 19 21 37 21 34 23 36 23 22 31 22 30 36 33 37 31 37 23 34 18 27 36 32 20 18 27 18 38 34 34 27 31 30 18 31 23
38 33 19 22 36 33 24 28 28 37 30 38 31 33 23 32 26 34 22 25 23 35 24 32 28 29 19 34 22 21 23 31 33 34 25 35 38 31 24 22 32 30 19 34 24 36 31 21 26 25 36 38 19 32 29 20 31 27 24 27 19 20 24 20
26 28 28 32 23 18 38 25 30 27 27 18 19 28 31 19 37 23 19 18 22 26 25 37 24 26 18 25 20 22 33 25 20 23 23 27 37 38 36 36 33 32 23 28 21 32 33 35 35 19 30 18 35 21 28 26 20 32 20 37 27 20 24 30
26 30 21 29 30 33 31 36 25 36 30 34 31 37 29 36 34 28 37 27 26 35 32 22 20 22 23 21 26 38 37 21 30 22 36 31 19 35 21 36 24 38 20 34 33 33 24 32 23 23 31 21 27 34 20 22 37 24 25 32 18 33 22 38
23 28 31 38 26 19 28 25 26 27 18 27 30 21 32 24 27 30 25 18 34 21 34 30 34 26 33 37 22 23 33 37 20 37 24 24 36 32 23 26 19 29 37 24 20 26 34 28 36 23 23 23 34 28 21 30 29 32 20 18 36 33 30 27
32 37 28 37 20 27 18 35 37 33 23 23 20 35 21 28 25 23 26 22 34 21 26 30 35 18 32 22 27 28 29 20 18 22 24 34 22 22 21 26 20 36 26 22 18 27 28 23 29 34 22 34 25 18 37 36 20 36 27 36 29 23 32 33
38 22 30 36 21 27 26 37 26 29 19 25 37 27 29 19 28 31 22 24 31 36 28 25 24 34 32 34 22 25 21 31 25 23 23 24 30 19 26 31 28 35 37 33 33 33 24 34 20 35 35 20 24 27 29 19 21 18 21 37 31 23 19 32
32 31 18 36 33 21 19 26 24 29 26 38 32 37 32 31 34 27 18 30 36 18 22 28 18 34 29 27 35 22 27 29 30 25 23 18 38 19 28 21 18 21 29 33 31 34 33 27 34 20 19 23 24 24 30 25 29 25 37 36 34 34 21 23
37 31 23 23 22 35 18 34 30 26 24 37 23 28 20 25 25 20 26 18 31 24 28 31 29 37 24 31 29 22 27 37 21 23 23 20 29 23 29 38 26 38 29 19 29 19 32 25 27 28 26 32 27 29 30 35 18 34 33 29 30 23 34 20
26 33 20 27 18 25 25 22 34 33 22 26 31 33 27 37 33 24 28 31 36 27 38 26 22 37 38 25 19 29 20 25 30 25 34 27 19 34 24 31 38 23 21 35 29 37 35 35 29 36 32 24 22 37 35 27 37 32 23 38 25 38 21 26
35 32 34 19 32 27 28 25 19 29 34 25 33 28 34 27 24 32 30 25 35 19 22 18 36 20 29 33 26 36 22 18 27 22 35 30 33 34 34 24 34 33 35 18 26 21 20 29 22 29 22 22 25 29 33 38 27 19 31 22 25 36 26 38
22 35 35 37 36 33 25 37 30 21 26 18 26 22 33 23 36 36 19 25 38 23 31 20 36 31 38 36 26 25 27 26 31 32 30 24 33 18 27 19 19 35 31 30 26 21 28 22 29 29 22 29 24 31 30 38 20 18 23 19 23 31 28 31
32 20 29 37 31 31 34 19 23 38 30 29 27 26 33 28 29 26 33 20 18 25 25 22 38 25 31 35 25 30 18 21 26 31 22 18 36 37 23 33 21 32 34 22 35 23 19 30 21 26 31 20 35 30 28 35 32 27 19 24 19 26 29 25
35 19 24 33 32 20 33 24 24 34 28 31 27 27 31 29 34 20 30 23 29 34 19 38 34 30 25 31 18 21 23 33 32 33 23 30 27 26 30 30 20 22 31 21 26 34 33 30 18 25 21 32 19 18 21 27 18 35 18 38 38 19 37 29
20 25 19 35 38 24 22 34 26 27 38 19 29 26 32 31 20 33 36 36 31 40 22 41 40 36 21 22 36 36 18 37 29 29 34 26 34 33 24 36 29 27 40 39 30 40 21 24 21 36 22 24 34 25 36 35 27 30 25 27 25 33 29 20
26 18 22 26 36 28 18 31 34 35 32 30 26 29 19 27 28 24 34 30 46 28 41 29 37 26 28 27 28 21 38 38 26 30 36 33 25 21 32 33 36 49 35 38 37 29 45 29 37 37 19 36 18 19 25 19 18 31 36 25 21 29 36 27
22 31 28 27 25 36 22 38 24 28 22 21 36 23 24 33 41 45 38 33 36 49 47 37 44 29 29 41 33 35 31 36 34 23 27 21 31 43 40 53 50 66 67 70 49 45 38 42 28 36 24 28 33 25 38 19 24 20 30 31 32 33 24 33
35 24 35 20 35 36 35 32 28 21 24 38 31 29 29 48 37 39 44 51 35 52 52 40 46 33 36 37 29 26 38 19 18 35 22 38 32 40 57 64 61 73 67 75 78 64 67 47 45 34 39 40 26 29 27 28 30 18 34 24 35 31 30 31
28 31 34 24 35 22 33 26 34 19 26 21 33 36 35 49 52 35 51 52 51 50 39 40 43 35 39 47 29 44 29 38 38 20 25 30 52 59 63 72 77 89 96 79 78 75 67 74 57 36 49 34 24 25 19 21 38 37 32 37 31 20 29 34
38 24 33 37 38 20 25 18 38 31 36 29 44 31 34 36 57 38 43 51 42 46 48 45 59 48 55 47 47 39 34 38 33 26 32 45 56 66 90 98 88 104 98 104 105 91 79 68 72 59 39 30 42 25 41 38 23 26 37 19 33 22 30 24
28 31 29 29 22 20 23 23 37 36 29 44 49 34 48 55 44 42 54 53 52 58 55 63 56 76 76 83 76 51 54 42 37 34 34 57 72 87 82 100 116 114 120 120 120 102 92 83 79 68 47 40 38 29 30 32 25 37 28 35 35 21 31 31
29 20 21 29 32 33 21 19 37 25 30 38 49 40 57 41 55 47 51 68 51 51 55 63 91 91 94 87 89 87 57 57 28 40 54 61 71 83 105 103 131 133 124 131 116 125 114 99 77 69 46 38 42 44 44 42 30 21 29 36 27 34 19 25
36 23 32 32 23 34 28 28 30 42 37 49 45 53 58 59 57 57 67 55 70 68 64 92 92 99 109 99 110 100 68 71 51 41 57 62 68 83 113 120 133 138 150 136 134 131 110 100 84 79 67 44 40 36 32 24 37 35 33 19 37 26 18 29
29 35 27 21 29 28 29 25 37 31 44 44 53 47 50 63 60 70 66 61 60 63 73 90 107 109 132 137 109 108 78 69 51 45 62 74 83 92 117 125 143 153 173 146 140 133 120 101 88 75 69 54 52 48 37 31 27 38 23 18 34 37 28 29
31 18 23 29 30 30 19 39 41 38 31 45 48 49 62 52 60 56 62 62 74 83 83 98 115 132 136 154 125 114 82 68 65 49 50 58 73 89 108 119 136 146 163 154 152 130 111 98 99 78 72 43 46 39 39 31 37 31 25 30 30 36 36 35
34 33 18 22 36 34 25 21 31 46 41 48 52 44 47 50 71 57 72 85 85 84 103 126 131 138 151 145 128 108 79 64 65 45 55 57 73 100 111 117 139 146 145 146 146 134 118 97 82 70 60 60 39 36 41 30 24 31 34 19 33 20 22 37
22 25 19 20 33 26 30 30 36 44 33 35 42 59 60 71 70 68 75 101 99 105 115 132 126 134 131 132 115 112 81 78 64 53 57 58 84 96 106 113 123 129 150 136 130 121 117 111 90 79 54 59 43 53 47 36 41 21 29 36 20 36 19 34
18 37 26 26 34 27 24 37 39 36 48 41 42 43 47 53 70 84 85 111 120 121 112 131 134 128 141 125 117 90 88 51 59 54 57 51 62 84 88 103 125 135 127 123 135 122 103 91 81 80 55 59 43 45 43 29 43 30 21 24 33 25 23 30
28 29 19 18 34 23 37 24 40 41 42 48 57 48 64 67 78 81 105 107 122 121 119 122 137 123 133 130 115 90 69 47 47 55 41 54 60 75 93 104 104 118 114 112 123 107 102 89 69 56 53 56 55 41 38 33 44 26 24 24 31 38 36 22
20 25 22 29 31 22 37 19 24 33 41 40 58 49 49 62 72 92 99 105 115 131 135 127 118 129 131 121 92 77 76 51 40 52 40 52 52 70 69 90 104 100 95 111 95 89 84 80 65 53 54 46 48 37 40 42 35 39 29 28 31 21 38 37
27 19 36 32 29 27 29 39 39 43 36 47 56 55 52 67 80 87 101 119 128 138 125 139 132 118 114 92 91 83 70 56 44 40 46 50 43 68 78 85 92 89 88 91 84 87 78 74 70 54 56 60 40 46 32 30 29 31 31 35 35 22 19 18
29 35 21 18 22 21 35 22 24 25 45 34 51 48 58 67 88 87 98 127 127 138 134 132 135 131 115 96 89 89 74 61 44 38 52 47 41 62 54 64 68 77 66 78 70 67 66 56 65 64 56 48 55 50 47 32 30 30 24 23 38 36 32 18
37 27 20 27 37 37 35 37 23 39 39 33 43 42 70 81 74 102 104 125 120 136 144 157 150 138 125 102 90 71 61 60 49 36 33 35 47 41 56 58 69 69 68 72 62 55 62 59 59 44 60 53 39 33 37 38 23 32 18 32 18 33 18 28
20 37 28 36 19 30 22 34 23 33 34 44 45 39 65 78 83 90 102 121 125 146 147 149 148 123 112 97 87 81 77 63 51 29 48 34 35 50 48 56 65 52 53 67 64 66 55 62 50 49 38 51 37 31 45 23 18 23 19 25 36 37 28 26
26 20 23 26 35 35 20 26 18 23 41 46 41 52 53 58 80 99 93 117 119 124 139 144 138 134 112 102 94 69 55 44 46 28 30 42 52 46 44 55 42 52 50 62 46 59 53 50 42 42 49 50 37 31 41 26 23 26 19 21 31 36 25 32
31 23 25 32 23 23 28 29 37 28 41 40 40 34 53 66 64 86 95 111 112 120 119 134 128 111 109 98 88 79 51 46 29 28 35 32 30 39 54 52 43 57 54 58 46 46 56 56 38 37 48 34 41 39 25 31 30 38 20 35 35 33 28 27
29 37 38 38 23 25 33 34 26 24 27 24 37 45 47 53 74 78 93 105 95 115 108 116 111 95 91 77 78 75 60 34 33 20 39 27 34 32 49 35 48 36 53 54 46 50 46 35 49 38 29 34 32 38 29 36 25 31 36 22 30 21 36 24
35 32 34 29 26 25 20 35 18 33 32 35 32 27 46 42 55 65 80 79 100 105 108 101 100 101 88 68 76 68 39 28 31 37 32 22 29 39 47 40 47 35 50 46 45 43 44 36 33 34 38 33 23 26 36 35 20 21 18 25 24 29 37 31
31 29 23 26 35 18 25 28 21 27 24 30 37 32 28 46 42 57 62 69 71 76 79 87 75 76 67 63 58 55 51 31 28 35 22 32 40 32 42 37 45 48 42 35 33 46 44 32 42 42 27 37 30 32 28 33 37 23 36 24 25 36 21 22
30 23 20 27 37 32 29 33 32 18 21 25 24 35 36 37 37 44 50 65 77 67 80 79 79 59 58 56 40 39 38 22 29 36 23 19 38 24 22 38 40 37 29 34 28 42 30 26 28 38 20 19 36 24 18 25 23 31 34 29 31 28 30 27
34 37 23 23 27 26 30 34 38 24 31 36 37 22 19 25 20 39 52 53 56 62 63 54 65 58 47 44 39 29 35 22 24 37 21 35 30 33 27 37 22 32 41 22 32 37 32 33 24 30 23 19 37 37 18 20 24 26 27 32 23 38 27 29
24 28 24 30 26 38 22 18 29 34 19 24 26 22 27 38 37 37 36 32 38 46 54 47 54 47 38 47 39 18 32 37 34 38 21 31 30 21 35 21 28 31 24 26 34 18 28 19 31 31 19 28 22 36 36 36 29 18 38 32 29 35 19 35
36 30 24 27 20 38 24 22 38 37 23 24 34 26 30 25 18 37 37 20 37 40 44 30 40 42 37 39 23 18 37 35 28 36 37 21 20 22 37 23 37 20 37 19 31 25 23 24 34 37 21 22 30 18 25 27 28 34 34 18 29 38 24 31
30 31 38 21 19 18 38 30 18 32 30 31 27 24 22 28 25 38 34 25 19 23 21 21 27 36 22 19 30 33 36 21 34 30 18 26 25 22 24 32 37 36 35 25 21 33 35 33 22 37 22 21 37 28 36 19 20 37 32 30 23 26 38 26
22 22 32 21 26 33 26 32 19 27 38 32 35 32 21 22 29 19 24 24 34 22 27 35 25 21 36 30 24 25 24 20 18 38 36 30 22 30 21 29 27 34 23 19 30 26 36 30 23 26 31 18 24 20 18 19 37 34 36 19 18 31 22 19
24 34 33 36 30 34 24 27 36 18 24 26 19 24 23 29 36 21 38 27 21 20 34 35 34 29 29 18 25 32 23 22 34 33 21 36 18 26 33 35 34 29 22 21 38 29 37 35 24 35 25 23 30 25 33 28 18 21 21 25 32 37 18 34
37 30 36 37 25 31 24 35 18 38 23 33 23 36 31 37 19 32 37 28 38 28 31 19 24 26 30 34 22 30 33 24 19 32 24 24 34 35 35 30 30 36 38 35 28 25 18 34 33 35 24 23 29 28 21 25 36 24 23 29 36 37 25 37
29 24 20 27 34 35 21 21 19 25 27 19 34 28 35 19 21 21 27 20 34 18 23 30 36 18 34 37 34 26 26 25 25 33 33 28 37 28 29 21 30 37 36 23 32 33 27 36 29 34 33 35 32 19 35 27 22 35 28 25 35 28 23 22
27 18 30 23 31 31 23 20 29 28 19 29 23 32 32 18 32 33 24 36 26 29 32 29 26 23 27 20 18 37 38 26 29 38 31 26 38 31 19 34 20 28 35 29 22 38 28 19 26 22 30 29 29 31 26 28 31 19 35 36 28 23 22 38
26 38 35 21 21 19 21 30 35 26 30 21 21 24 20 26 20 21 26 21 22 25 23 31 27 36 35 30 35 35 35 21 22 24 37 23 29 19 18 33 27 33 22 38 36 31 37 28 19 21 26 21 21 38 24 21 18 26 38 19 34 37 28 29
29 27 38 26 27 34 25 28 24 32 24 19 19 23 34 38 32 38 35 22 31 18 36 33 38 30 19 32 30 36 32 37 32 35 38 19 38 23 34 20 24 29 28 23 38 27 34 27 36 31 20 34 18 34 28 22 32 28 38 37 37 18 27 38
31 27 21 34 30 34 23 37 29 35 36 21 22 20 23 29 35 18 35 35 33 36 38 22 25 34 34 28 37 37 25 21 22 22 28 19 22 29 32 31 22 29 37 24 30 36 21 31 26 34 20 27 29 31 30 18 23 33 23 24 20 29 20 24
19 22 27 31 25 24 38 20 35 34 36 21 28 26 24 31 32 36 38 21 36 19 35 35 27 19 23 26 21 27 37 20 23 26 18 27 37 20 32 29 38 25 36 33 18 32 34 28 30 20 37 34 29 19 38 26 36 36 19 19 34 28 20 26
23 29 18 28 30 24 36 30 27 26 24 36 18 27 20 34 18 38 19 33 32 19 37 29 23 24 33 21 37 21 22 25 26 34 26 36 27 18 37 32 30 36 28 37 23 31 34 24 21 22 33 26 37 32 28 35 38 18 30 18 32 23 35 23
23 25 20 29 35 27 22 24 35 28 28 31 29 36 23 34 37 37 23 29 21 37 28 22 27 19 19 28 22 38 37 18 29 37 27 29 26 25 29 33 22 22 19 28 20 37 23 19 35 31 20 29 19 21 18 27 27 20 26 22 21 18 33 20
29 20 36 22 18 29 23 27 36 25 37 18 28 35 28 22 21 38 26 36 25 31 22 38 25 21 34 32 38 27 32 22 27 24 38 36 23 33 36 33 29 37 37 23 31 21 22 36 25 18 31 37 36 19 20 25 29 36 27 30 27 24 28 31
34 37 28 34 18 33 34 24 26 19 22 38 26 18 23 26 36 34 35 22 35 33 28 22 35 21 35 21 30 36 32 21 25 30 35 33 19 18 23 21 22 20 24 38 22 19 35 25 25 20 37 23 28 19 31 25 27 30 22 34 36 22 34 37
29 23 22 36 32 35 21 24 37 35 25 37 23 20 28 38 18 30 31 18 29 29 23 24 38 24 30 27 24 25 32 36 27 18 24 32 22 36 21 38 19 29 27 36 22 25 21 22 38 25 30 18 25 38 22 35 29 18 20 21 28 34 26 37
23 36 24 35 19 30 37 23 24 35 29 35 35 22 27 34 29 24 30 24 19 36 33 35 25 20 32 33 24 26 18 27 30 20 29 28 34 21 27 36 25 23 37 35 38 33 27 22 32 19 18 20 24 21 25 20 26 35 32 20 23 32 25 36
