P2
64 64
255
23 27 27 31 38 25 33 37 26 29 27 30 33 26 32 23 29 21 35 27 30 33 29 19 18 21 33 34 34 30 37 25 19 30 34 24 26 34 34 20 27 28 18 23 21 18 22 20 22 36 18 18 20 29 37 27 18 28 21 28 26 34 31 30
31 38 29 32 36 21 30 32 20 21 22 19 25 37 37 28 25 31 19 34 33 21 28 24 23 24 32 29 37 18 37 23 22 37 30 37 22 29 29 23 19 29 19 35 32 18 24 31 37 21 34 28 21 38 22 33 24 32 36 38 24 22 23 19
19 38 29 31 31 26 27 30 29 38 35 30 20 25 34 27 26 37 32 23 20 23 22 38 21 24 28 35 21 21 32 37 25 29 23 38 29 26 38 19 33 19 25 31 26 37 29 37 35 20 21 20 37 30 38 21 37 35 28 31 23 20 34 20
19 28 22 36 30 30 34 19 31 25 35 30 30 38 31 34 18 22 35 18 18 29 32 38 31 32 36 32 25 35 26 23 20 36 26 24 26 19 25 30 23 18 27 19 37 25 32 35 18 37 22 32 22 32 34 19 21 33 19 22 31 20 21 35
24 23 23 24 31 19 34 26 36 38 32 21 28 31 24 23 36 36 35 31 38 23 30 23 26 27 25 29 25 36 30 33 35 32 22 24 31 27 27 22 29 23 32 28 33 33 19 36 19 28 31 27 30 26 26 27 29 27 23 32 23 23 27 19
35 31 36 24 37 19 24 33 18 32 25 27 33 30 33 18 35 25 25 22 23 27 24 31 27 34 35 18 26 25 24 36 22 24 29 24 21 30 18 23 18 30 26 34 29 36 27 30 22 19 18 26 24 20 30 26 33 25 28 31 19 19 35 29
21 33 20 20 26 23 27 28 35 33 26 21 29 31 38 28 24 20 25 20 23 19 25 23 29 36 28 27 36 23 25 25 19 30 24 21 24 19 24 22 26 26 18 23 27 22 21 27 25 22 26 18 23 33 28 20 28 25 33 36 28 38 30 38
36 27 33 23 31 25 23 33 25 31 27 38 36 27 36 25 26 28 27 37 26 31 38 21 36 28 38 33 32 27 35 34 18 32 21 21 26 18 38 18 25 25 38 25 21 33 22 30 26 19 33 25 37 37 34 38 30 30 29 26 27 18 28 31
34 22 19 37 38 34 38 35 25 36 27 18 24 30 38 19 30 26 34 26 34 24 33 23 21 38 25 22 31 34 32 36 27 30 19 19 35 18 23 18 27 37 29 37 38 24 34 35 24 30 37 20 32 24 20 25 30 24 34 34 20 19 26 20
30 28 25 28 34 20 33 24 31 29 29 28 38 25 26 24 30 20 22 19 25 36 26 32 25 21 24 36 27 29 27 23 36 33 25 29 19 19 22 35 37 32 36 27 31 24 18 27 35 24 23 26 34 29 28 22 20 22 25 24 26 34 25 26
27 33 21 18 34 20 32 31 34 25 29 36 25 38 26 19 19 37 29 28 31 37 18 36 18 30 34 34 38 36 19 28 26 37 18 31 28 18 36 36 34 29 27 34 32 36 38 38 20 32 32 25 25 25 31 20 36 25 33 20 23 30 32 31
38 20 30 30 19 34 29 34 33 18 37 25 22 30 20 27 38 36 26 21 31 20 20 35 36 27 19 38 27 36 20 33 21 26 18 23 20 33 25 30 38 37 26 28 38 18 30 36 33 19 32 33 21 38 34 26 29 19 18 24 31 29 31 24
22 31 27 34 22 28 25 32 22 23 34 34 37 35 29 22 35 30 34 19 23 37 29 24 26 26 31 26 18 22 37 30 18 21 18 34 22 37 35 23 30 20 37 37 33 24 30 23 31 25 35 27 26 22 24 34 18 30 25 27 25 24 20 34
30 21 33 30 32 32 30 28 26 35 21 25 23 29 24 25 37 26 27 24 32 37 38 19 30 33 21 27 34 31 24 22 36 18 23 31 37 35 33 38 35 38 23 35 26 30 21 27 32 31 38 29 23 29 23 27 24 31 24 37 20 20 34 26
34 23 20 32 28 34 19 21 30 33 24 18 30 25 37 23 19 27 27 35 25 35 25 19 18 27 18 28 25 37 33 21 20 25 28 25 25 29 28 36 34 22 27 28 18 24 38 28 20 19 37 21 25 18 20 32 25 31 26 33 37 25 35 38
33 36 35 37 37 18 24 31 38 21 22 23 37 37 32 27 23 22 35 37 27 24 34 33 38 32 30 29 37 30 23 25 31 23 31 25 29 32 18 32 36 20 24 23 24 36 30 30 19 19 23 37 20 37 22 31 19 36 27 27 31 34 18 38
20 29 37 20 19 29 35 27 26 34 19 34 38 22 27 29 35 28 37 26 36 19 34 26 18 20 23 38 27 28 33 20 22 26 30 18 32 31 19 24 37 25 31 20 37 22 24 35 18 30 21 23 27 36 20 29 24 26 36 25 20 32 27 20
32 31 21 27 33 22 32 31 34 30 35 23 19 27 32 31 33 20 35 19 35 32 31 27 34 21 23 22 29 26 34 27 25 30 18 32 34 34 29 21 22 36 27 25 19 38 19 31 25 38 24 35 27 20 22 33 20 28 38 27 38 34 18 30
27 31 26 18 18 35 30 29 20 22 37 33 29 18 26 35 30 37 35 23 36 24 25 24 38 18 34 22 32 29 20 21 23 20 34 28 19 36 26 22 35 21 32 26 38 29 23 20 28 34 20 32 22 19 29 18 23 28 28 28 23 30 25 26
28 28 36 31 25 32 25 20 33 35 32 31 34 31 37 38 21 28 31 27 39 31 29 36 28 38 29 30 30 27 33 33 23 37 22 38 20 23 34 37 25 36 34 36 41 31 37 40 20 32 21 35 19 18 36 33 30 21 29 35 19 24 30 30
18 26 25 38 18 19 22 31 33 21 27 27 33 35 28 27 32 42 44 35 41 37 37 40 29 31 30 23 35 22 31 29 32 24 22 20 29 35 23 24 38 26 28 32 35 43 39 29 25 26 36 28 23 32 29 30 27 28 18 21 29 20 25 18
33 31 23 35 20 37 36 27 29 33 37 29 26 29 25 26 39 34 32 41 35 31 29 39 41 38 33 42 20 21 28 18 36 29 36 22 25 32 44 31 29 41 48 40 47 31 38 37 27 30 27 23 29 25 22 27 30 27 20 26 24 29 22 21
20 34 31 37 26 28 35 32 34 20 26 29 30 31 42 35 31 36 33 34 33 48 45 52 32 42 43 42 29 22 19 21 21 20 30 25 37 46 36 50 46 46 53 43 39 48 34 39 44 32 35 38 33 19 18 19 38 30 28 33 26 19 33 31
27 31 22 26 38 20 35 24 26 36 27 41 25 42 37 36 48 45 45 44 53 51 45 54 49 43 48 47 32 41 37 35 31 37 40 25 33 40 32 35 37 49 45 46 54 48 43 47 34 38 31 32 38 38 21 30 35 36 32 26 21 34 20 33
19 30 19 30 24 21 35 28 24 20 28 31 45 34 35 38 49 46 51 58 43 60 49 58 39 49 43 32 42 41 29 39 32 22 40 34 42 43 44 52 52 41 48 42 55 42 59 52 45 45 40 40 46 27 25 32 33 33 27 24 23 37 37 21
23 32 38 32 34 32 26 18 29 37 23 44 31 51 42 43 40 54 55 54 59 49 51 63 59 49 47 38 32 44 26 26 37 38 34 40 33 48 40 59 57 59 58 60 65 49 43 46 48 45 47 35 45 43 34 23 33 32 34 34 22 26 22 29
20 29 30 31 19 20 33 27 28 36 26 34 40 35 46 49 63 53 62 67 53 61 57 62 45 57 59 44 45 51 34 44 42 30 34 32 43 39 58 60 56 57 66 59 68 48 56 56 63 55 55 37 33 39 33 35 25 35 25 18 32 28 28 33
26 28 30 20 28 29 22 31 33 36 32 49 49 57 53 44 60 58 54 53 73 54 60 65 52 50 54 52 49 46 38 45 36 47 45 41 56 59 55 55 55 54 57 56 56 57 60 55 64 63 60 56 43 40 30 32 33 30 21 22 30 19 34 25
38 27 30 37 31 36 24 32 36 28 45 46 56 43 57 50 58 69 57 67 69 61 69 54 67 54 51 62 45 50 46 46 52 39 36 39 42 62 55 57 64 73 67 68 69 63 68 58 52 49 49 40 47 44 42 25 33 35 25 38 36 28 20 18
19 24 33 23 23 37 33 26 32 45 43 46 52 57 65 60 59 56 74 73 65 80 61 61 63 65 51 49 59 41 46 49 53 38 41 44 48 58 62 68 68 65 62 65 62 73 58 68 60 63 64 60 39 47 46 35 22 34 24 33 38 23 26 31
32 21 24 36 28 33 29 24 30 32 35 51 46 49 63 51 53 60 77 67 83 64 65 61 69 57 53 59 42 46 53 36 54 51 50 56 44 60 67 63 64 60 70 70 81 83 68 76 60 63 59 57 57 48 50 32 41 29 31 18 32 36 22 38
26 24 32 22 38 25 33 38 36 42 38 48 58 63 48 60 65 60 72 78 71 86 73 63 64 59 52 64 46 47 51 45 42 54 53 39 61 65 63 54 77 66 73 82 83 82 66 73 73 57 51 43 41 45 48 27 32 36 35 32 19 37 38 27
20 27 21 20 29 27 29 34 34 30 42 50 55 45 49 57 56 60 71 75 76 78 76 64 71 62 64 67 51 59 37 44 47 48 44 49 56 52 53 59 66 63 83 77 74 70 79 61 60 65 63 45 54 54 33 38 44 23 28 38 28 25 36 25
37 35 31 28 19 35 36 37 38 45 33 51 47 56 65 60 64 63 78 69 70 84 76 78 66 63 69 61 58 48 47 41 38 41 52 39 61 66 64 58 60 69 85 80 68 68 67 71 71 53 56 49 49 41 50 29 44 39 33 30 18 35 24 23
35 32 29 33 19 32 30 27 40 40 51 36 58 44 63 56 62 73 72 69 75 71 69 69 77 67 61 48 42 43 38 50 37 49 50 49 61 54 51 67 74 71 68 65 70 63 75 63 61 60 63 57 52 52 33 42 39 19 25 22 31 18 33 30
24 20 27 18 28 22 31 27 30 31 44 40 48 48 51 52 51 66 76 67 61 72 69 65 68 51 49 54 59 41 41 46 54 35 40 38 55 60 64 63 67 59 78 79 81 75 61 68 66 58 63 47 49 38 49 35 26 31 26 19 25 23 25 30
30 21 36 35 22 27 20 29 33 39 32 33 43 50 49 47 60 61 73 76 61 75 70 73 53 67 52 60 58 55 50 39 47 44 32 52 54 58 52 58 56 62 73 77 74 65 60 72 60 56 62 42 45 40 45 25 32 18 21 20 33 28 18 38
23 26 28 24 22 21 24 21 33 26 44 41 36 55 45 57 49 58 53 55 68 67 60 66 68 55 58 42 39 38 47 39 29 35 48 41 47 57 61 58 62 51 64 64 70 72 65 55 57 54 47 56 41 49 28 32 26 25 31 25 24 18 30 24
29 26 30 28 20 24 26 35 24 39 28 43 37 39 53 61 62 61 53 63 54 51 64 65 62 60 51 55 46 45 37 38 29 38 33 39 46 57 42 49 45 53 63 49 66 59 61 46 48 54 51 54 44 38 43 27 37 35 21 19 27 20 33 31
32 22 37 21 32 23 38 39 23 32 43 41 41 48 59 44 46 64 52 64 58 58 58 58 56 64 50 42 41 42 32 41 47 30 33 47 49 42 63 46 56 50 64 61 65 60 67 58 56 64 57 53 41 51 35 35 25 35 31 26 32 24 40 33
37 29 34 33 45 41 30 45 37 38 33 49 44 49 58 50 55 61 65 60 60 64 69 56 60 49 62 55 49 45 42 38 40 33 44 40 48 56 57 66 57 56 59 54 59 64 53 69 64 49 64 52 54 39 39 40 42 44 31 39 47 50 44 40
33 48 43 47 42 47 35 41 32 41 41 32 36 50 42 53 53 47 54 50 50 67 53 69 66 53 44 60 51 41 38 42 41 42 39 40 46 46 46 60 60 71 65 58 60 69 52 72 57 54 54 48 49 57 37 43 47 41 36 52 41 48 45 45
42 29 36 42 29 40 39 31 44 40 41 45 33 42 42 37 56 53 54 58 50 61 49 47 52 44 41 40 36 50 34 32 31 42 48 37 45 40 51 58 53 54 58 55 50 59 55 57 56 53 40 49 38 44 41 50 46 37 30 30 42 43 35 31
24 21 41 35 24 31 31 28 29 31 21 39 37 36 27 34 35 33 43 33 39 44 36 46 51 49 40 47 42 42 35 34 29 28 28 26 36 40 40 47 48 49 50 53 49 38 48 37 31 37 39 44 35 34 41 42 36 29 26 32 34 41 25 27
34 20 32 31 29 19 26 18 19 25 29 32 30 20 39 24 33 40 33 30 31 38 25 34 43 24 25 19 20 29 28 30 30 30 23 33 38 37 41 31 38 31 44 37 46 38 42 25 22 35 28 38 26 24 37 32 25 38 18 37 26 23 20 31
22 27 24 20 24 27 18 22 20 23 34 37 25 30 32 26 30 26 29 26 42 24 36 23 34 24 24 32 23 28 22 18 36 30 37 30 22 37 31 24 34 36 41 30 36 37 30 35 35 36 28 30 29 31 22 29 19 18 29 26 35 35 37 34
30 26 27 32 18 18 25 33 22 20 27 32 29 19 19 34 32 21 31 37 18 35 37 27 36 36 32 20 19 22 22 18 29 32 33 25 25 18 37 18 35 23 28 29 35 26 29 26 19 28 23 36 20 30 37 32 37 33 32 29 31 31 30 21
20 37 32 32 23 32 21 31 23 37 30 36 25 23 29 37 32 21 30 26 34 37 35 29 21 24 27 21 26 21 34 21 36 33 23 23 26 24 37 32 37 26 23 24 24 19 38 19 30 25 21 32 30 24 26 37 27 36 22 23 22 38 19 26
20 34 37 26 38 21 23 18 36 37 22 32 34 38 19 29 21 24 31 29 30 21 29 38 28 28 34 30 24 36 21 34 31 33 23 33 22 37 18 24 34 36 35 37 30 29 20 36 37 19 33 31 20 20 34 37 31 20 21 22 21 33 22 22
23 19 19 38 29 26 19 28 25 18 38 23 21 36 24 35 38 24 32 31 27 23 30 24 28 30 25 29 28 28 38 21 28 21 23 18 24 32 37 22 18 26 32 19 22 26 25 38 22 23 28 38 22 28 25 31 30 31 35 30 27 21 31 26
34 36 29 18 23 35 31 34 36 22 25 26 28 28 23 25 32 22 25 20 29 25 34 18 30 31 34 35 38 26 33 21 26 38 21 26 36 18 27 33 19 34 29 36 24 34 19 23 33 28 35 38 29 38 28 21 37 23 36 29 21 19 31 33
29 35 20 38 33 36 28 23 36 31 29 36 35 19 24 35 33 38 29 25 29 21 30 21 28 33 24 31 25 23 38 20 18 34 32 27 35 35 30 19 30 20 24 21 22 36 29 32 36 38 36 37 18 30 36 38 35 37 36 32 35 24 25 21
27 21 28 33 38 26 25 31 35 34 21 24 31 38 21 30 31 33 34 18 32 27 38 34 30 22 22 37 28 19 26 20 23 36 24 35 33 30 29 38 32 20 19 19 29 27 38 36 26 29 21 30 22 27 20 30 38 30 29 19 36 30 36 32
23 20 36 28 24 18 32 19 33 30 28 18 30 34 27 21 30 33 38 35 26 27 25 24 31 26 22 31 20 21 37 38 26 20 26 20 29 22 29 21 22 18 31 37 37 23 21 30 37 23 26 22 24 19 35 24 30 28 35 35 31 25 23 20
31 31 28 33 37 26 20 24 19 30 36 24 29 29 19 22 37 29 33 31 20 35 30 20 35 37 22 37 28 31 19 35 32 25 25 31 32 20 19 27 24 38 22 18 29 30 21 25 36 21 30 24 20 38 24 27 32 26 27 29 38 35 18 19
23 27 23 29 35 25 34 21 21 36 34 23 22 22 18 18 29 23 32 21 18 29 21 26 28 34 21 19 22 23 18 35 21 27 25 23 32 36 26 27 25 32 22 31 36 24 35 29 38 38 26 36 38 31 20 27 18 30 18 31 34 25 26 37
26 24 30 19 20 28 33 37 30 36 21 26 24 28 22 21 23 32 27 26 37 38 23 24 36 23 36 37 19 24 18 30 24 22 32 29 32 24 25 36 22 23 21 36 33 27 27 23 29 23 19 32 36 31 21 18 21 35 38 38 22 28 36 27
34 20 34 26 32 30 24 29 21 34 28 25 25 19 38 37 28 31 34 37 33 27 21 24 20 35 34 33 25 22 22 38 19 18 22 36 22 24 32 25 18 36 24 20 33 26 21 19 23 33 20 21 18 35 30 32 24 37 38 37 29 20 31 37
32 23 35 37 36 37 21 32 32 30 21 26 37 33 30 24 20 32 18 20 31 19 36 20 22 36 26 28 36 33 34 20 20 35 35 23 32 23 37 23 38 29 23 36 30 21 31 35 37 22 35 18 21 29 37 38 37 18 25 36 38 38 29 22
32 37 30 21 19 18 36 19 19 26 30 32 36 34 32 32 20 28 21 38 20 29 29 36 31 35 35 20 38 31 30 29 38 26 30 27 18 27 27 28 23 31 36 28 22 37 27 30 36 33 38 18 35 24 36 21 26 20 36 35 36 36 34 25
24 36 24 37 20 20 30 20 22 19 34 32 30 36 28 37 36 35 28 36 19 25 23 38 25 34 30 32 27 19 22 37 38 37 22 28 29 30 29 18 33 20 29 20 35 37 35 33 37 23 21 26 36 37 36 19 36 33 33 30 22 36 21 18
34 21 23 35 33 38 19 19 38 25 29 29 25 29 22 20 30 24 37 30 38 31 24 26 35 27 21 31 24 25 33 27 28 31 20 22 18 30 30 34 23 38 36 24 27 25 33 29 37 24 26 32 20 33 18 29 37 19 19 20 22 36 32 21
18 38 23 32 24 26 34 27 32 22 31 33 34 19 23 29 25 38 29 30 19 35 24 26 36 36 23 36 27 35 38 27 26 24 30 19 38 35 38 21 22 37 19 25 28 23 21 37 31 18 38 19 37 25 33 24 38 28 32 20 24 26 35 29
28 29 37 25 21 36 21 21 32 30 20 38 24 38 20 36 30 20 31 32 19 28 38 24 31 29 28 19 26 20 19 21 23 23 24 28 25 24 35 36 23 22 19 25 23 22 26 33 37 24 31 33 35 33 20 31 30 25 20 22 36 30 34 31
