P2
64 64
255
38 24 18 24 38 22 26 21 29 26 24 34 25 35 25 36 19 36 24 32 21 33 37 24 24 36 34 31 29 28 24 21 32 37 28 30 37 32 27 35 32 28 30 27 23 30 31 24 31 25 32 27 19 33 35 28 33 22 23 28 31 20 30 29
31 20 27 29 23 38 29 27 22 21 35 32 34 34 37 22 22 30 35 23 18 27 33 24 35 22 33 28 34 37 29 37 35 20 36 19 20 29 27 19 30 26 30 28 37 32 37 23 27 34 19 33 18 33 23 24 36 32 21 27 31 31 24 20
23 19 38 28 38 18 26 32 34 23 36 34 35 19 19 35 21 32 25 28 29 25 25 34 18 28 28 36 28 18 24 23 32 24 30 19 20 35 28 22 23 23 22 33 33 23 19 34 26 29 35 37 31 33 35 37 19 25 20 23 28 29 28 38
30 36 23 18 33 24 31 28 33 33 28 38 22 20 36 20 33 32 21 23 36 31 26 23 18 30 32 35 34 21 23 21 36 38 20 18 35 20 34 18 24 38 26 30 24 20 25 19 24 20 32 25 28 18 25 30 29 24 38 23 26 19 22 26
28 26 25 33 38 24 29 35 30 28 21 23 22 27 27 22 26 19 31 29 38 38 34 28 30 36 29 20 19 25 32 22 34 23 32 32 28 26 21 26 34 23 30 23 22 35 19 21 33 38 19 36 33 24 29 25 31 36 18 25 21 19 24 36
31 21 18 25 23 37 19 23 32 35 30 36 37 25 30 19 37 31 34 34 32 35 20 21 27 29 27 21 32 38 29 38 37 21 20 29 37 25 32 19 36 20 29 27 33 22 28 21 27 28 26 18 27 35 27 25 33 26 24 33 31 20 25 34
21 19 28 38 36 19 23 24 21 32 30 33 20 23 26 33 23 31 21 22 22 32 22 22 38 23 23 23 30 38 25 35 24 29 31 19 33 29 18 30 31 35 28 34 31 29 36 37 33 37 21 20 34 20 34 25 37 30 19 33 26 27 36 36
31 18 31 22 33 31 19 34 31 20 37 21 33 18 24 33 21 27 38 31 20 33 27 35 23 18 27 24 18 28 20 34 33 25 27 25 20 32 33 30 36 36 36 28 31 34 29 35 25 29 20 25 26 29 33 20 19 38 20 37 31 25 21 26
33 37 32 18 22 38 36 28 21 36 33 25 28 22 28 33 37 38 24 32 37 27 25 23 23 22 24 32 29 22 21 26 26 31 29 38 27 33 37 30 29 32 31 25 28 36 34 37 21 28 34 29 29 34 19 24 22 28 21 37 38 32 20 38
34 19 28 26 19 38 37 36 38 19 28 33 24 34 22 24 28 33 22 22 38 30 38 27 36 29 36 23 18 21 26 28 24 21 30 26 37 32 29 19 20 20 34 21 23 31 33 27 26 23 32 30 21 26 25 21 36 30 31 25 24 30 32 18
32 27 30 23 27 31 37 27 22 29 26 33 22 29 23 23 34 32 21 34 26 26 26 27 37 33 33 21 33 35 36 38 35 26 29 25 27 33 26 20 34 20 24 19 22 26 31 18 26 22 37 18 36 38 34 35 32 31 19 36 32 38 28 29
38 24 19 25 35 28 25 38 21 32 26 37 19 24 29 20 35 35 37 36 27 19 36 31 20 32 27 31 27 32 19 20 29 37 36 20 25 19 30 21 36 32 37 30 28 35 25 35 21 25 37 25 31 24 33 37 28 23 22 27 36 28 34 34
27 37 37 23 18 35 27 32 19 21 25 20 23 21 25 19 32 35 20 22 27 36 29 36 36 20 18 37 27 30 24 37 22 31 30 31 33 23 38 29 28 21 30 37 33 24 27 28 25 37 20 34 29 37 27 30 20 23 33 29 32 38 25 36
26 35 31 28 31 20 19 20 37 30 27 32 28 35 36 38 29 18 25 38 23 29 24 18 29 38 29 37 23 20 24 23 32 20 33 20 19 28 26 25 19 23 38 19 38 33 21 34 24 20 23 27 38 20 18 24 31 19 23 18 31 27 30 18
20 33 18 25 28 20 36 33 27 21 31 33 32 38 25 29 23 33 29 30 31 32 29 27 27 18 30 21 33 35 31 29 38 32 29 38 18 37 25 32 38 37 38 27 19 25 23 33 20 36 24 34 21 21 35 37 31 28 34 36 38 22 21 19
18 19 36 19 32 24 31 23 22 36 29 19 26 27 23 31 36 38 38 22 28 36 31 38 23 28 29 23 21 30 27 28 24 28 36 25 23 25 20 37 19 38 35 36 37 28 18 19 18 22 20 29 27 30 22 20 21 21 32 29 34 36 29 23
28 38 23 20 34 19 33 36 36 22 24 29 26 26 23 29 24 26 26 19 24 30 23 28 35 25 35 26 35 24 34 20 22 18 29 28 35 23 34 21 33 36 21 25 23 27 18 38 26 27 30 27 33 24 28 31 38 29 18 19 35 18 18 38
26 32 32 19 21 36 25 22 35 20 28 37 34 22 31 24 35 28 27 36 34 28 26 23 27 25 35 30 20 23 28 26 21 37 19 24 29 31 28 22 25 21 22 38 25 20 38 29 32 19 27 22 26 37 32 21 22 20 21 20 38 24 27 32
30 33 26 31 37 27 32 19 36 36 18 33 26 19 23 30 19 27 20 31 22 27 20 22 30 29 31 20 34 28 38 28 22 44 38 37 43 32 32 23 26 31 29 34 29 33 37 23 35 29 25 32 36 27 31 29 21 24 38 18 27 19 25 20
32 32 36 37 19 28 19 22 20 21 22 18 33 30 25 37 19 28 26 29 27 27 24 34 21 32 23 38 37 34 35 44 32 43 51 40 44 48 41 30 27 31 24 37 27 31 28 32 36 23 31 21 28 18 23 25 20 21 31 20 19 32 21 22
35 30 21 21 18 36 29 29 29 37 36 19 24 36 39 32 33 39 36 43 37 35 39 26 43 31 24 27 29 38 33 35 46 57 50 42 49 47 40 47 45 48 26 43 35 26 43 30 22 25 21 29 38 38 23 31 19 21 28 37 34 36 18 23
37 32 20 36 19 21 32 20 35 20 25 30 28 25 33 44 37 47 31 48 49 35 34 47 28 38 26 39 24 42 49 40 48 64 59 67 66 65 67 49 59 43 37 43 39 47 34 40 28 38 37 35 32 19 26 26 35 19 28 19 26 26 33 21
33 27 27 19 21 36 24 24 28 19 18 38 30 39 35 35 49 33 45 37 45 47 40 42 44 40 42 34 44 45 56 50 66 73 71 80 75 92 87 76 59 54 48 46 42 43 41 39 46 32 42 24 40 32 23 31 29 20 26 37 23 38 20 35
22 22 23 18 25 32 21 35 21 37 37 30 30 40 49 33 50 36 49 52 44 46 49 52 38 48 46 46 55 62 65 57 58 84 90 110 112 117 107 105 89 63 62 53 37 50 56 52 35 42 42 36 31 23 19 37 21 34 28 31 36 18 29 26
36 36 33 20 19 38 25 20 27 30 28 44 40 46 47 51 47 56 59 59 61 58 44 60 48 51 42 38 50 59 73 67 83 92 113 116 123 122 134 125 98 94 64 47 56 54 48 42 57 49 38 39 47 37 37 37 24 31 37 20 31 28 29 19
18 19 24 19 30 31 35 36 32 40 31 42 38 50 53 46 56 44 59 58 51 63 62 52 54 50 44 60 62 71 75 85 93 114 124 151 159 159 138 138 113 98 94 67 45 54 44 51 44 57 53 34 35 41 40 21 31 38 34 32 33 33 34 35
33 27 27 29 31 19 24 36 34 24 42 43 51 53 49 61 57 52 47 68 63 53 67 51 45 53 43 56 70 72 64 87 110 116 147 161 165 167 165 140 125 104 104 68 65 60 59 57 43 61 42 39 50 35 31 33 33 25 23 20 38 35 19 38
34 18 37 23 29 36 29 25 34 32 44 40 53 48 41 46 61 58 57 57 69 59 70 68 61 63 49 67 70 62 80 85 117 135 160 176 175 179 175 150 138 129 98 77 69 67 62 62 56 51 42 41 52 41 27 26 33 26 30 33 36 27 24 30
28 31 37 33 22 26 38 21 33 43 49 42 48 53 51 46 55 53 68 58 72 58 65 56 55 59 56 60 67 57 77 88 116 138 146 162 179 199 181 166 152 114 100 96 73 62 70 63 61 59 43 56 54 43 33 32 22 25 38 29 31 34 25 36
36 19 23 18 28 22 18 23 24 34 36 37 56 47 59 58 71 67 57 68 77 65 59 59 56 71 58 53 70 65 59 80 112 128 133 168 173 182 175 161 151 126 96 90 81 78 73 68 69 62 61 52 54 41 42 37 42 33 20 24 26 37 22 23
35 27 24 35 26 24 22 33 40 37 39 49 48 49 48 54 61 67 80 79 70 82 68 63 75 59 66 62 68 60 60 90 93 118 139 162 166 187 173 156 157 143 113 81 83 75 63 57 59 70 46 62 58 54 43 41 40 34 27 34 34 33 28 38
35 27 20 36 27 31 32 22 35 46 32 36 59 47 47 70 71 68 80 81 83 68 80 69 70 66 57 59 61 67 59 61 84 112 144 149 166 162 169 157 155 139 108 101 74 81 79 73 61 59 55 52 56 46 32 31 29 25 31 32 21 19 22 18
35 38 35 35 32 35 27 32 30 31 38 49 52 49 57 54 66 65 79 81 90 73 72 78 67 72 53 63 55 58 49 75 77 108 119 145 153 172 156 150 156 131 120 111 102 88 66 64 63 70 55 51 56 50 36 32 37 34 32 30 24 29 35 24
21 35 37 20 28 19 34 37 27 30 39 47 48 56 60 69 61 65 67 76 85 82 78 81 58 69 56 64 59 45 43 68 78 91 112 125 138 156 150 138 128 134 113 111 96 76 67 58 71 53 61 54 50 46 47 42 35 28 31 26 20 38 31 36
18 30 25 26 36 28 26 20 34 46 49 50 46 61 58 57 73 76 72 69 77 78 80 61 62 62 68 53 54 48 52 62 77 81 98 109 139 143 145 134 139 121 125 119 107 89 81 71 59 68 55 43 53 44 43 43 29 24 21 35 20 32 24 25
20 20 32 19 31 20 32 27 31 27 48 35 42 47 47 54 62 56 60 73 67 75 66 75 57 53 58 60 47 42 55 64 76 93 100 101 124 138 142 139 130 130 118 104 92 95 84 64 54 56 56 54 54 51 48 32 30 20 23 24 37 19 18 18
21 36 21 26 35 19 25 19 29 29 30 45 43 57 50 55 63 68 67 59 76 57 71 68 53 62 62 47 59 36 55 72 70 78 94 120 133 134 146 148 140 130 121 117 97 94 65 71 69 64 57 43 52 37 45 27 31 34 18 22 34 30 37 27
18 30 24 34 27 20 21 36 35 38 28 39 35 57 41 51 63 60 56 54 59 71 69 61 63 60 55 42 49 52 53 61 78 81 94 118 132 137 154 142 131 127 122 101 108 82 73 51 50 51 42 47 45 49 33 25 26 21 20 27 22 20 37 21
22 38 37 20 24 22 30 18 36 33 36 30 40 55 47 56 63 64 62 55 59 61 68 50 46 52 47 58 54 34 47 53 60 76 86 104 131 139 142 134 128 123 116 101 85 85 58 46 60 43 53 52 35 31 36 40 18 33 37 20 25 24 30 27
27 38 38 19 36 30 26 23 19 32 34 39 37 32 44 52 58 47 44 53 57 55 48 54 52 47 54 42 51 31 37 59 67 85 87 93 119 130 127 136 122 117 99 89 89 72 54 62 60 38 54 44 39 45 23 40 33 20 21 35 34 22 20 19
24 21 20 19 38 27 29 22 27 28 28 41 46 41 45 45 46 39 52 51 59 52 46 40 57 47 54 35 32 41 41 51 46 71 74 91 109 103 118 108 104 97 102 95 85 68 64 45 38 42 36 49 41 26 21 31 28 21 24 31 28 22 36 20
37 31 27 35 24 35 37 31 19 31 20 22 39 38 30 39 45 40 42 41 54 47 39 47 49 46 40 44 29 31 25 41 44 51 71 75 88 94 109 102 87 94 77 81 66 53 53 43 45 32 34 38 25 23 36 26 35 38 23 18 21 32 24 23
26 18 34 34 26 19 30 38 28 28 23 26 39 42 44 31 49 50 51 47 45 41 47 39 40 47 37 32 44 23 23 37 46 42 52 63 67 88 91 79 83 86 76 68 47 52 34 50 36 42 41 39 36 38 26 19 34 21 35 29 34 37 22 38
21 22 31 24 36 36 18 21 33 30 33 35 25 32 33 37 40 31 39 42 48 38 49 30 45 40 44 41 40 28 25 19 24 31 38 53 69 75 78 70 61 64 66 59 51 35 33 30 38 34 34 26 28 20 22 32 19 18 24 19 31 30 23 30
34 28 30 33 19 27 23 35 36 20 26 22 30 36 39 22 36 42 40 36 34 40 40 37 28 24 22 26 32 25 32 27 35 41 38 41 54 58 58 47 44 61 42 35 36 32 28 26 39 41 33 26 21 27 38 33 27 36 38 28 28 31 24 20
29 24 35 37 35 21 18 37 37 29 37 38 25 21 19 29 21 23 33 21 30 31 34 25 22 38 26 18 31 21 33 27 20 24 28 34 31 33 32 40 35 26 32 22 40 33 41 30 26 26 25 30 18 34 33 37 33 26 20 24 35 23 34 26
24 34 37 27 33 32 37 32 31 19 24 28 25 35 20 37 27 30 38 19 28 32 23 19 23 30 31 34 33 35 31 25 18 31 26 29 21 19 35 37 27 38 23 20 27 18 30 36 23 18 20 20 28 38 33 18 24 31 37 33 19 23 37 21
38 20 26 37 24 33 22 28 36 35 25 36 25 32 18 19 37 25 27 35 33 19 28 26 23 31 37 28 30 33 35 32 22 29 20 23 20 32 26 33 37 24 35 20 31 27 29 19 38 35 36 37 37 33 26 26 37 30 31 36 21 30 18 21
19 24 19 20 35 27 19 19 35 23 23 19 38 18 33 35 20 20 31 18 26 27 26 30 31 31 24 21 25 30 33 20 35 28 37 38 29 28 28 23 18 23 30 28 37 28 27 29 36 31 26 33 18 25 38 34 27 28 38 34 38 29 18 21
29 33 38 18 18 28 33 19 18 21 37 35 26 18 37 34 34 23 38 18 30 36 28 18 37 28 23 26 36 31 32 28 23 34 19 33 38 28 22 37 19 29 31 37 18 24 20 33 36 33 20 26 26 34 36 33 26 21 18 20 28 24 18 33
26 25 32 32 29 25 23 20 21 25 30 20 21 24 34 27 28 20 18 30 30 25 38 34 37 32 18 33 29 33 25 23 38 36 37 26 21 34 23 34 37 35 19 24 26 29 32 30 34 34 27 20 36 22 28 31 23 25 22 32 18 35 29 27
36 20 20 21 26 29 36 23 23 18 19 23 26 38 37 38 20 19 25 25 32 27 33 30 35 35 28 20 22 18 25 38 38 23 20 29 35 33 38 18 28 34 24 29 31 22 28 22 19 23 38 24 34 24 24 31 24 34 24 31 28 37 32 35
29 32 31 29 32 27 28 37 38 22 19 30 32 37 33 24 21 21 21 35 26 24 20 30 22 30 29 35 31 36 35 21 29 26 38 29 25 33 23 28 36 34 25 25 22 21 29 24 26 18 36 36 30 18 24 26 37 32 21 26 29 31 28 27
23 20 34 30 19 21 38 18 27 26 33 19 27 18 29 20 30 18 38 20 28 20 28 18 23 38 24 36 29 28 28 37 30 29 20 28 19 26 29 23 22 37 23 26 28 26 28 23 25 30 20 29 22 22 30 36 31 24 34 27 21 23 32 38
34 31 24 38 21 18 37 18 32 24 23 23 21 37 27 18 21 38 34 26 19 36 38 31 28 21 36 30 25 19 32 30 18 30 21 23 22 24 35 27 21 20 30 28 37 26 33 36 26 21 34 38 21 20 25 23 28 35 36 20 20 30 25 35
38 27 26 25 31 37 18 24 24 30 27 33 20 38 19 33 30 20 19 33 32 36 23 37 38 18 38 29 24 37 28 36 29 25 37 33 19 21 27 19 31 18 30 26 18 24 30 32 21 36 25 21 30 28 32 31 18 22 25 23 19 22 36 21
26 18 28 20 19 19 38 21 35 26 22 31 28 19 19 26 31 32 35 20 18 24 34 20 24 37 29 18 37 18 27 18 25 26 23 25 38 18 22 24 18 28 32 37 28 34 24 32 38 27 21 24 19 37 26 32 31 26 21 33 19 18 24 25
36 36 30 26 26 19 26 25 21 26 19 22 31 22 29 27 28 28 32 28 28 33 29 30 29 22 26 24 33 22 34 28 24 24 21 34 18 26 35 38 30 27 25 34 25 27 32 23 22 38 25 19 36 23 38 37 18 19 36 34 33 36 32 28
36 37 28 35 37 33 23 27 28 23 30 35 34 23 30 34 23 38 27 29 20 31 21 38 38 18 31 21 20 22 23 29 26 33 29 35 30 18 28 33 33 20 21 37 34 31 38 28 37 22 31 29 21 31 24 38 18 19 34 19 34 24 18 35
32 36 37 23 26 30 23 30 32 20 22 21 19 32 30 20 35 35 37 35 20 31 25 24 28 31 23 21 31 18 32 36 38 23 25 34 35 18 35 33 35 26 33 21 18 28 36 27 26 24 20 19 30 19 30 35 38 24 21 38 24 28 24 33
34 21 33 35 31 30 30 26 20 27 25 25 30 29 37 33 31 35 20 19 33 38 33 38 22 21 36 27 27 35 29 31 38 28 28 22 35 37 32 35 23 28 31 18 33 35 24 25 31 20 34 21 27 28 23 20 23 38 35 38 32 28 37 18
18 26 18 24 21 26 32 30 30 38 35 34 22 28 36 38 27 34 35 25 24 33 26 35 31 21 32 37 26 33 38 30 20 32 29 25 36 29 32 23 30 23 37 18 18 25 33 38 31 37 21 20 27 22 34 29 30 27 33 22 28 28 26 18
22 22 25 33 19 27 37 24 37 31 29 25 24 36 34 26 34 33 26 22 38 34 30 21 22 23 38 19 37 22 26 33 29 24 24 21 22 33 27 35 32 34 32 18 29 32 24 18 34 38 27 23 27 37 35 36 32 28 35 25 26 35 18 34
37 22 35 21 38 32 22 33 33 19 22 21 18 38 32 27 23 29 38 20 24 20 18 21 32 23 21 35 29 25 35 31 34 24 31 18 31 27 24 37 30 29 36 35 36 24 25 28 29 22 37 32 35 38 24 34 22 34 33 22 19 31 23 21
