P2
64 64
255
33 34 23 30 19 19 23 27 33 27 35 36 38 27 22 35 21 32 19 24 18 29 18 21 26 20 21 25 38 29 35 34 19 33 23 31 24 37 26 38 24 31 25 20 29 30 36 19 20 26 18 36 32 18 20 18 32 27 31 20 28 33 31 30
22 25 36 25 27 21 33 35 34 36 18 23 28 22 25 37 18 31 33 24 22 28 26 37 35 29 26 19 35 28 34 37 36 28 35 29 32 37 25 19 26 32 32 22 19 34 35 22 29 24 25 36 23 38 28 23 18 23 31 31 25 25 36 33
34 30 23 22 31 24 30 31 28 19 26 21 37 36 33 27 22 34 21 29 30 20 29 30 26 27 23 37 28 38 28 18 23 27 33 18 31 31 32 35 25 23 21 18 32 35 37 25 32 36 22 35 29 19 30 31 29 34 34 28 34 26 31 22
27 26 31 21 24 21 26 21 30 24 36 22 38 33 28 19 31 20 25 25 19 20 27 25 25 37 34 38 19 34 29 38 37 34 25 33 23 27 22 37 26 22 32 18 37 30 31 38 25 25 26 31 23 28 32 38 25 35 25 19 27 18 26 27
35 27 30 33 24 23 28 38 27 29 36 31 35 18 31 23 27 28 27 22 23 22 18 28 38 26 27 25 29 36 22 25 21 18 29 35 23 34 29 25 31 24 30 31 20 29 27 27 37 23 27 30 18 36 26 21 32 27 29 25 19 30 37 32
24 24 26 31 31 21 19 23 19 34 22 21 26 23 29 24 22 33 34 27 31 37 31 20 23 29 18 24 24 26 27 37 21 28 20 38 38 22 37 33 36 26 32 19 29 32 27 19 37 25 37 37 35 24 36 22 19 29 19 36 27 23 33 22
24 36 29 28 29 20 24 29 27 27 31 36 24 18 37 19 25 37 32 28 19 34 28 34 28 23 30 32 21 24 33 19 38 28 26 26 21 33 37 27 18 21 18 34 28 28 26 25 38 25 19 35 22 32 19 28 34 30 34 31 29 35 26 25
35 37 34 38 26 22 31 27 37 32 33 36 26 19 37 22 23 20 33 20 36 37 31 26 33 25 18 21 27 38 33 29 22 29 26 27 38 22 22 27 31 29 22 25 34 27 25 21 29 24 26 19 26 19 35 19 24 38 22 34 26 32 38 37
30 33 20 25 24 27 21 33 21 23 26 35 37 28 36 34 32 34 19 18 30 29 27 20 22 36 34 22 33 21 30 27 27 30 21 25 24 30 25 32 25 36 34 31 20 33 28 35 24 34 21 19 38 31 33 35 21 32 33 24 24 33 29 32
31 32 29 35 18 21 30 31 30 21 18 35 34 19 32 27 30 21 30 23 21 34 30 34 26 38 33 36 32 20 19 28 33 31 33 34 33 25 19 34 22 34 30 22 36 23 31 27 23 20 31 21 32 19 22 26 21 25 29 37 34 27 30 24
30 21 24 24 33 35 23 34 28 28 26 34 26 34 18 36 36 28 26 38 34 30 38 22 36 27 18 34 23 34 37 21 22 27 27 33 18 28 31 28 33 31 30 20 23 29 27 35 36 22 19 19 31 21 36 25 28 26 34 25 28 31 25 20
31 29 27 35 28 18 34 26 29 28 22 24 18 25 21 22 22 31 36 31 27 38 36 25 31 30 28 31 35 34 28 33 34 22 35 23 38 21 20 27 29 32 29 36 28 19 31 32 34 33 38 30 24 25 28 31 34 26 34 18 34 33 32 25
19 36 20 31 33 34 33 27 35 34 27 23 25 37 36 35 27 33 25 32 29 34 18 19 20 35 18 33 29 18 30 18 23 36 21 24 22 36 21 22 18 28 22 32 35 34 32 20 33 37 34 26 21 31 32 30 21 27 19 30 34 22 36 33
26 31 26 33 29 19 18 18 36 21 31 18 21 19 18 38 21 37 38 18 31 33 32 26 24 31 30 28 27 36 36 25 18 27 25 28 29 31 25 25 36 28 32 25 28 26 20 37 33 20 26 37 23 36 32 23 28 38 23 21 22 35 32 36
24 30 37 31 26 31 33 34 23 22 26 33 37 37 34 38 38 28 34 36 19 31 20 38 38 30 33 25 21 37 28 30 31 35 23 24 30 25 27 35 22 25 32 30 38 21 25 26 30 35 20 31 38 27 25 23 30 27 33 18 37 34 33 28
32 30 33 24 31 19 22 31 29 31 28 33 24 25 32 19 29 27 33 36 25 20 21 24 37 21 27 25 33 34 23 18 25 30 31 21 37 23 19 29 26 37 25 20 27 21 36 19 31 36 33 31 19 32 18 37 24 33 33 19 18 19 37 31
23 20 32 24 21 25 37 25 37 31 27 33 22 22 24 29 25 28 21 23 18 34 29 21 19 36 30 32 37 24 35 34 23 23 34 29 23 30 34 32 25 22 20 28 31 25 23 22 31 32 30 27 20 21 35 25 32 31 20 36 28 34 28 30
19 18 20 36 22 35 24 33 25 26 28 32 25 33 32 29 34 27 37 36 32 26 34 27 32 34 33 32 32 31 21 20 33 29 37 37 36 21 29 31 31 33 23 27 26 31 28 19 31 27 24 27 20 26 33 21 38 33 25 34 21 22 37 38
38 33 33 26 22 33 32 34 18 23 36 25 35 27 35 37 35 22 38 30 34 34 22 36 28 30 26 25 21 23 21 19 31 28 28 20 21 21 26 18 27 36 30 28 23 28 27 30 23 30 37 34 32 34 34 36 29 22 28 23 30 27 31 27
34 18 33 23 34 22 33 30 34 21 22 32 31 25 32 21 29 29 35 29 32 22 23 38 38 29 21 35 35 29 26 31 36 31 35 30 37 28 35 28 37 41 27 29 32 21 33 27 37 24 27 31 28 31 36 28 33 23 30 19 22 32 18 18
27 21 35 36 20 23 34 35 33 27 34 37 19 18 36 22 25 36 36 33 40 26 25 27 33 31 29 24 36 25 22 26 23 26 38 35 35 30 26 32 36 42 27 30 35 30 41 40 38 25 19 32 24 38 24 33 20 33 18 35 19 35 18 30
33 32 29 24 35 19 21 35 19 21 38 28 18 36 35 29 36 31 29 46 32 46 42 38 28 32 44 33 34 21 25 107 33 33 25 23 29 43 24 30 36 44 41 49 48 36 44 47 45 31 25 38 28 23 33 37 30 22 23 28 24 21 34 31
28 30 34 30 23 24 31 32 36 27 32 27 25 40 40 48 45 47 34 53 33 51 41 51 39 35 33 37 31 36 20 31 106 23 21 31 43 46 34 43 33 42 33 46 45 35 46 47 42 38 44 26 21 20 26 38 20 28 33 19 32 25 26 36
30 38 23 18 22 33 23 20 25 34 29 34 38 43 37 47 45 39 52 42 37 53 38 51 43 36 49 30 28 30 40 113 32 25 39 111 43 31 39 48 40 48 52 43 45 46 44 42 42 50 49 37 38 24 26 30 23 37 31 21 33 33 25 32
31 20 31 34 20 29 28 25 20 31 30 39 45 44 36 36 42 41 53 48 57 45 49 43 44 53 53 36 47 28 41 115 24 22 41 33 131 42 49 42 43 58 59 48 55 42 51 48 45 54 44 47 32 39 23 33 27 29 35 22 32 25 24 24
28 25 30 27 29 23 27 37 26 24 27 37 48 48 47 43 58 47 59 58 60 54 64 47 47 49 47 38 41 48 121 126 38 29 26 44 130 49 56 41 51 45 57 59 49 54 56 47 55 53 44 48 49 34 39 24 33 25 36 24 34 28 29 30
20 38 36 20 28 27 32 27 19 27 28 30 40 51 40 56 56 46 66 61 51 53 50 63 53 47 59 41 39 136 44 30 120 40 41 37 36 143 60 44 62 60 51 66 50 60 66 61 59 57 55 45 42 36 42 25 24 34 38 28 24 21 19 18
32 23 29 20 21 37 22 37 29 30 29 37 42 40 61 46 57 68 59 52 57 63 65 63 67 65 57 49 40 138 47 33 30 127 31 120 131 45 57 64 55 52 66 69 61 55 70 58 61 46 55 55 49 33 40 26 40 21 30 18 27 22 22 35
21 29 27 32 32 29 33 33 39 37 42 51 43 45 59 66 65 70 57 61 76 57 61 70 59 63 53 58 140 54 46 44 33 37 130 136 127 62 58 63 52 59 72 61 76 63 59 68 62 47 46 39 48 39 31 40 30 32 32 30 21 20 35 24
23 36 24 23 18 33 21 31 37 34 39 46 54 51 52 64 54 55 74 77 70 70 78 75 74 69 59 131 60 135 52 36 39 122 125 126 55 60 55 65 59 68 71 68 77 71 68 60 70 57 49 42 51 45 34 33 32 36 20 27 25 37 30 35
30 31 37 31 23 26 36 32 35 28 37 48 39 53 47 58 58 57 68 71 65 72 80 71 63 53 138 52 58 56 121 46 139 134 47 38 142 59 53 63 73 78 75 84 71 64 64 73 57 68 61 46 50 47 42 38 41 22 29 31 34 37 36 24
30 29 24 30 37 29 37 31 40 31 42 39 45 57 58 60 58 71 76 82 82 68 84 63 58 63 145 59 50 132 40 131 134 49 40 44 63 148 61 71 66 71 73 80 78 83 67 78 61 59 51 43 53 39 39 38 28 20 38 21 25 25 23 29
22 34 38 29 26 33 37 39 44 35 46 41 55 46 62 63 70 66 71 71 76 84 72 71 67 75 152 58 58 137 40 130 54 140 56 56 49 151 57 57 78 73 77 74 86 81 68 68 63 64 67 59 40 41 49 48 40 23 36 32 19 29 21 34
29 21 38 29 37 29 27 40 31 27 32 40 40 60 60 56 61 61 63 81 78 83 76 73 65 142 52 64 59 124 129 52 135 52 57 39 129 54 63 61 58 64 74 84 73 70 67 73 55 69 63 53 55 46 50 42 40 25 29 30 34 26 24 28
23 38 23 29 42 43 33 25 38 39 56 55 46 49 52 61 76 80 80 73 90 89 74 83 82 156 62 71 69 136 47 138 63 145 58 50 148 68 65 61 69 79 77 85 82 72 75 68 64 73 55 54 47 48 50 54 48 40 37 42 36 30 41 40
35 31 42 40 47 41 31 46 49 44 58 66 54 63 58 68 75 87 87 79 83 92 75 71 84 164 65 61 66 154 63 147 137 65 63 62 67 148 76 69 89 86 79 83 89 88 75 86 80 78 81 61 61 53 62 57 49 40 52 43 49 57 54 54
49 46 39 54 51 53 51 52 41 63 64 51 55 61 74 68 81 82 92 80 87 95 90 93 94 75 161 80 62 70 231 141 73 73 59 69 153 78 80 82 95 92 86 96 84 95 93 91 95 74 78 81 73 76 67 67 67 53 54 65 58 59 61 62
51 50 49 43 49 55 56 61 61 51 63 60 71 66 70 74 77 79 94 88 94 81 100 99 82 86 85 173 88 70 69 241 153 66 64 167 72 90 77 91 101 90 108 91 100 109 98 94 102 92 87 83 79 77 67 69 66 79 70 65 66 70 67 63
43 46 41 50 41 53 51 48 57 49 61 51 69 61 61 66 80 77 81 84 91 80 72 89 76 75 69 63 158 60 151 139 57 140 64 160 74 78 80 91 76 92 95 92 87 88 92 95 87 73 73 74 72 75 58 67 57 55 64 66 70 58 53 72
47 49 31 42 50 41 49 38 38 53 39 56 52 52 60 69 60 65 74 62 66 68 62 59 58 58 65 61 50 140 132 130 39 46 140 60 153 72 58 61 79 64 71 66 82 85 76 69 67 72 73 58 52 54 46 61 56 54 47 51 49 50 49 47
34 36 33 36 34 39 28 35 26 36 36 36 36 52 47 52 47 59 59 60 53 67 58 68 48 55 59 46 40 121 131 127 44 45 49 136 55 132 65 55 51 55 64 53 65 58 54 50 63 59 50 44 42 37 43 40 39 47 48 40 45 48 39 42
20 21 29 26 30 30 20 34 26 34 33 27 27 34 41 49 34 55 55 46 47 48 57 54 46 52 33 29 122 125 24 114 29 39 31 117 132 35 36 34 43 38 47 51 52 42 48 49 51 32 41 39 32 38 39 39 20 31 30 30 31 28 37 20
21 23 21 21 34 37 38 26 33 29 28 27 23 27 29 34 33 32 45 41 53 47 47 48 42 38 48 34 121 116 109 23 38 28 39 41 128 128 31 44 48 32 36 47 47 47 33 31 32 38 41 35 31 30 37 36 34 23 34 31 28 24 33 31
38 32 33 23 18 33 38 22 26 24 18 33 37 21 27 25 34 40 35 40 41 32 31 29 35 38 27 35 114 117 38 118 24 28 28 22 121 127 28 36 44 42 35 46 29 33 42 39 26 34 36 38 36 36 34 28 38 36 36 37 34 29 20 38
23 34 20 20 32 29 20 25 24 33 32 33 33 36 25 21 28 24 34 31 26 28 34 36 34 38 21 38 19 207 29 115 26 23 36 108 107 32 21 34 43 36 37 38 43 26 43 42 41 32 24 27 34 37 37 29 20 25 22 34 22 26 29 38
21 26 27 27 21 31 23 20 36 23 20 20 31 35 33 37 22 21 25 27 24 22 35 23 30 27 33 19 200 21 112 30 21 23 118 33 24 110 24 30 24 21 27 27 39 26 24 29 36 24 19 31 37 38 22 22 18 29 34 36 21 18 23 21
32 19 38 21 18 21 30 29 37 26 37 32 21 23 27 35 38 28 26 36 22 26 32 20 32 37 35 24 34 248 37 34 24 26 37 109 35 38 114 29 18 31 37 37 22 24 34 24 35 20 30 25 24 31 20 37 34 20 33 36 25 22 37 38
22 28 33 34 26 25 38 34 18 35 20 26 28 25 21 19 27 29 22 34 30 38 18 29 29 27 20 31 121 204 28 37 24 25 35 117 34 28 26 108 27 24 20 24 36 31 30 31 28 31 20 28 34 29 20 21 34 38 27 20 37 19 18 20
27 35 19 21 33 22 21 29 28 25 26 38 34 23 19 33 34 21 24 24 27 34 30 35 27 28 28 30 116 35 195 21 33 18 33 25 116 31 112 35 37 22 20 37 36 31 27 30 22 21 35 29 28 36 33 20 29 37 36 37 32 23 32 35
20 31 31 28 25 22 21 33 33 23 37 36 21 30 38 21 30 23 34 24 35 21 36 21 29 31 20 38 120 105 33 120 20 31 34 119 30 38 18 107 20 36 30 26 34 32 23 32 18 36 35 19 33 26 29 33 38 27 26 22 35 34 31 18
30 23 21 35 26 19 19 20 31 22 19 19 28 20 34 26 37 24 29 38 19 18 21 30 18 20 31 33 118 103 29 119 29 31 104 38 31 28 115 31 19 33 37 18 29 21 36 23 38 30 35 26 25 36 38 26 21 32 34 27 31 27 37 27
37 31 29 26 19 20 24 27 24 35 34 33 35 20 20 30 26 25 28 24 27 32 18 35 37 19 24 26 109 28 104 30 119 28 117 34 21 26 108 35 37 33 22 36 26 28 31 28 34 28 19 32 30 23 23 25 33 31 35 28 25 24 34 22
20 37 21 38 33 38 38 33 38 20 20 22 29 34 38 36 19 29 27 26 23 37 30 33 26 37 28 35 118 18 118 113 19 114 21 32 18 21 23 105 25 24 37 24 25 30 33 35 33 37 24 32 24 27 19 34 34 26 20 31 33 36 23 20
38 20 33 22 30 18 19 23 22 25 25 29 26 18 29 37 31 24 35 24 35 19 18 33 23 23 21 120 27 28 18 121 28 33 120 26 18 33 36 109 29 19 21 33 29 18 36 38 29 32 19 26 35 31 18 30 36 37 37 24 31 23 34 26
25 29 22 33 25 34 28 27 19 25 27 26 19 35 34 30 18 21 30 35 28 22 30 18 36 37 18 18 123 32 19 20 120 120 30 32 30 23 112 21 37 18 25 34 36 36 33 19 30 37 30 23 29 29 27 31 18 34 25 28 34 36 24 38
35 33 24 33 23 32 18 27 38 25 32 20 23 19 29 25 18 32 34 29 23 24 25 25 28 20 28 34 22 103 26 104 19 30 28 35 19 123 30 19 24 19 30 18 34 25 38 38 36 26 36 36 24 23 30 32 18 37 29 32 37 36 34 29
37 20 29 20 23 28 20 29 28 31 29 23 31 26 23 34 21 32 19 31 33 25 28 32 36 25 29 24 27 36 114 117 19 35 36 36 122 18 23 27 20 18 23 29 27 28 23 38 30 20 33 34 21 32 29 34 24 30 37 31 23 36 18 22
35 31 18 34 30 31 25 29 33 33 30 36 33 29 35 30 26 33 26 19 24 29 38 32 28 30 34 36 35 30 37 20 108 18 23 112 38 31 26 38 29 19 35 29 26 37 29 34 28 22 38 25 23 34 23 28 26 33 32 25 23 35 30 24
21 38 36 24 25 24 29 20 26 36 24 30 34 19 33 21 33 32 35 26 21 22 37 33 35 23 26 37 31 20 23 118 24 26 27 24 119 27 24 22 28 24 27 28 38 21 18 38 31 24 34 37 19 23 24 18 19 33 35 29 25 32 24 32
31 27 18 19 38 30 29 33 25 33 21 31 31 28 35 36 25 22 25 22 18 26 26 32 38 33 38 24 31 36 105 25 31 30 24 32 25 23 21 30 30 31 26 26 23 27 37 37 38 24 34 29 34 36 37 20 18 30 32 26 25 25 34 26
24 30 31 25 19 38 21 34 27 23 26 38 18 36 21 36 34 27 23 24 18 30 32 32 33 27 31 25 25 117 27 29 38 30 26 35 34 31 31 18 25 38 26 22 32 38 23 31 23 29 25 36 29 19 31 18 33 22 35 36 38 22 38 22
30 37 26 37 26 34 19 23 35 29 23 33 30 37 33 28 33 34 29 23 30 21 33 18 38 27 24 20 37 21 27 18 21 19 35 35 24 36 27 19 32 28 22 29 33 30 32 37 25 19 18 34 22 24 33 26 21 22 20 18 32 34 38 33
38 32 26 28 18 27 34 29 22 20 26 29 24 18 20 23 22 24 24 23 20 32 22 25 37 28 38 38 21 21 38 26 18 28 19 36 20 34 24 21 34 24 35 27 25 25 35 21 28 28 27 33 30 30 33 24 23 19 18 29 20 31 30 22
30 21 29 31 36 35 36 19 20 27 18 20 37 31 31 18 24 22 27 19 21 22 38 22 36 31 34 19 27 27 37 32 27 25 35 25 28 22 30 21 34 38 36 38 23 34 36 32 34 30 32 28 33 37 32 27 30 26 34 37 35 32 30 19
