P2
64 64
255
29 22 36 33 22 37 33 34 29 35 20 35 20 25 24 26 28 36 26 29 22 20 33 30 21 29 27 26 21 35 36 34 38 29 32 19 30 22 31 33 27 32 29 35 18 31 34 28 28 34 28 30 22 25 24 23 30 30 33 28 38 33 22 28
32 27 21 20 29 32 19 32 21 31 22 18 33 22 26 18 35 35 20 29 21 37 21 20 28 24 30 36 27 24 37 36 22 35 22 37 21 21 20 33 25 30 35 22 30 34 27 36 30 24 20 38 35 24 21 38 26 35 32 34 32 36 33 34
36 28 37 32 35 35 37 38 25 33 26 22 22 35 32 18 36 33 20 27 21 38 33 25 23 28 37 37 23 31 33 26 28 27 26 37 31 36 37 28 37 18 37 25 29 35 18 35 35 25 24 33 21 25 37 38 22 21 22 36 33 29 32 31
33 18 25 21 25 33 18 28 37 37 29 28 35 24 24 18 27 28 23 32 21 21 34 32 32 38 20 33 30 21 33 29 28 25 22 33 22 26 29 38 23 31 22 38 19 38 29 23 31 29 38 23 38 25 31 23 22 23 32 18 18 27 20 23
31 21 37 22 25 33 22 28 35 33 26 35 26 26 31 30 20 37 30 35 37 31 30 18 26 34 38 31 32 18 33 18 28 32 18 22 22 29 20 37 21 34 21 30 23 28 36 35 33 31 24 19 31 35 18 28 38 24 35 25 20 30 22 38
31 28 21 23 32 38 36 29 37 19 37 21 24 30 30 27 25 32 38 29 36 31 32 29 34 36 20 21 35 24 33 18 30 32 20 28 38 21 23 23 30 24 22 23 22 29 29 24 20 18 33 31 28 22 26 26 21 24 32 27 26 21 19 21
37 28 34 38 23 29 37 38 36 28 19 31 33 34 29 28 21 21 32 20 31 25 18 29 25 35 31 21 35 38 24 19 31 26 21 25 38 25 32 27 35 34 22 32 35 22 21 35 37 36 36 18 25 32 34 30 24 21 24 32 33 32 33 30
26 35 31 23 33 34 35 36 28 21 32 32 33 22 25 36 27 18 31 21 36 25 36 38 37 22 37 33 19 25 19 22 37 31 19 25 34 21 18 29 25 28 33 24 25 27 33 20 30 35 32 38 25 36 31 33 29 32 22 19 26 31 25 25
26 24 34 36 29 26 31 26 21 18 32 26 34 21 19 21 22 22 32 24 38 26 27 23 33 24 18 35 21 22 36 27 28 38 35 28 30 28 26 21 21 28 25 29 32 33 21 29 34 32 26 37 30 18 24 24 29 26 34 21 19 27 29 23
35 21 30 22 30 30 21 27 37 36 27 19 21 18 18 36 36 27 20 22 34 21 24 33 32 21 19 33 30 20 32 37 22 34 32 37 32 28 30 18 25 29 34 30 21 25 20 22 28 24 22 28 25 23 29 28 32 21 21 34 29 20 32 23
36 31 27 37 34 31 26 18 36 22 37 25 34 28 19 37 36 19 31 25 34 34 26 19 28 26 34 21 18 21 22 27 18 19 24 32 18 25 22 34 31 31 33 26 27 23 18 37 36 26 20 26 34 20 33 24 32 21 28 20 22 27 34 34
30 23 35 24 28 36 31 26 24 32 22 22 20 38 25 18 19 26 26 30 25 28 27 30 20 24 26 32 26 22 22 32 23 37 27 30 32 31 22 29 28 34 27 33 34 36 27 22 20 30 22 34 22 34 20 35 37 31 38 22 21 21 29 23
19 24 18 18 32 21 32 24 38 34 25 23 21 31 37 33 33 29 23 31 23 31 35 32 28 22 33 21 23 18 30 31 36 29 23 32 26 29 19 32 26 20 19 25 34 24 21 36 33 34 23 19 32 31 34 23 27 25 19 33 27 31 27 35
22 23 18 33 28 36 31 28 33 20 19 21 31 30 22 33 25 28 29 31 20 36 35 36 33 29 18 34 36 28 31 25 30 37 35 23 34 32 30 24 26 28 31 29 24 23 25 36 32 30 33 20 22 36 26 27 33 20 28 19 31 18 31 28
35 38 23 37 27 33 26 37 27 22 33 37 27 19 19 32 27 33 32 28 21 24 34 38 38 26 28 36 23 31 35 30 36 26 38 19 29 26 26 37 34 33 32 22 25 25 24 36 21 27 37 32 18 33 34 24 29 21 21 28 19 36 21 24
37 33 36 29 26 32 32 23 30 31 34 37 34 36 26 18 35 32 18 31 31 30 19 32 19 37 28 36 37 20 24 26 23 37 21 21 33 18 19 27 23 27 38 30 34 22 19 34 38 33 21 38 31 26 31 38 38 26 31 29 26 19 28 27
36 30 21 33 33 24 25 25 36 22 24 22 32 20 24 32 21 31 37 26 33 21 30 33 21 34 29 38 31 31 29 28 19 33 31 25 25 23 27 30 27 23 22 20 31 24 28 26 27 19 26 26 20 19 33 29 24 22 27 21 25 22 31 28
38 37 30 27 27 29 27 29 18 37 26 19 32 27 33 34 29 26 27 19 19 18 25 31 28 22 18 27 32 23 21 28 21 21 18 27 30 22 27 26 34 35 27 38 32 28 33 32 37 35 30 33 35 34 36 28 29 30 34 33 31 29 26 36
21 28 18 34 18 33 26 20 25 34 30 37 27 36 28 18 30 30 36 37 30 33 19 20 20 29 18 30 20 18 30 26 21 38 32 20 25 23 28 21 26 37 31 33 21 28 32 23 24 38 21 18 36 20 32 28 34 19 20 38 27 25 28 26
36 20 30 32 32 26 19 35 35 33 18 32 33 35 31 26 31 35 37 22 40 27 29 35 20 23 30 36 38 25 28 23 32 35 35 33 20 26 32 31 38 27 27 34 30 34 34 23 32 32 26 38 26 25 30 37 32 35 28 29 22 25 19 35
32 27 18 30 21 37 31 22 31 32 31 23 27 29 39 32 36 33 40 32 40 27 41 38 41 31 39 19 32 36 27 24 38 33 37 23 31 35 32 26 38 25 34 27 35 44 34 34 27 40 19 31 34 38 26 31 20 35 22 38 25 29 34 26
22 30 37 23 32 22 19 34 28 30 37 21 37 23 39 37 28 42 47 46 49 41 35 36 41 40 30 36 40 29 33 36 31 36 19 36 38 43 34 33 43 47 43 47 49 36 28 34 28 39 31 40 20 26 36 33 34 22 19 34 18 36 31 26
38 22 35 19 33 33 29 38 33 22 33 20 36 32 33 31 47 45 33 34 51 35 44 49 38 44 32 28 39 31 37 37 23 25 34 29 32 44 35 47 36 43 44 52 44 52 42 37 46 47 43 37 37 22 28 31 19 22 36 27 29 32 30 25
29 35 31 21 35 33 21 22 19 28 26 24 36 28 40 43 52 50 43 57 55 43 39 48 40 35 33 49 43 32 31 24 28 34 37 29 33 37 46 47 50 48 40 39 43 54 44 50 42 44 30 33 35 33 21 28 38 19 29 33 34 22 37 38
20 34 36 29 32 35 36 38 26 33 36 44 38 33 43 44 45 39 42 42 50 57 47 60 48 43 49 51 36 38 25 36 43 44 51 40 61 51 65 53 44 59 59 59 44 45 58 44 44 50 48 42 27 43 28 21 34 20 35 23 27 34 36 23
36 30 29 38 20 21 37 32 21 23 24 45 47 47 55 49 52 60 59 50 56 59 49 58 51 47 38 47 49 40 49 36 51 38 50 60 50 53 60 75 74 52 64 56 65 57 49 47 58 51 42 36 47 39 42 22 31 25 18 22 28 38 23 29
21 33 20 29 26 29 32 18 27 29 27 38 49 38 43 49 55 51 49 66 55 69 51 59 57 47 57 58 44 55 49 41 59 50 57 57 78 73 65 78 63 68 66 57 61 66 58 59 62 55 40 41 35 39 43 23 34 20 31 28 32 38 23 19
37 21 32 30 23 18 37 20 28 31 38 35 49 56 43 48 50 57 54 56 64 71 71 57 62 64 45 47 50 59 59 50 63 73 72 64 75 82 81 73 74 82 80 68 70 68 56 59 62 58 53 54 51 47 39 37 32 36 22 32 33 33 29 19
24 34 35 23 34 38 30 32 40 43 30 51 51 44 57 52 55 66 59 67 73 76 59 55 72 62 53 55 60 62 63 64 66 78 69 93 81 94 100 97 95 77 81 74 72 66 73 66 66 64 44 46 41 43 30 42 40 26 36 37 24 37 19 33
22 33 19 37 29 31 24 23 24 42 32 35 55 53 53 64 51 75 64 75 61 61 67 59 71 57 64 67 59 52 71 64 70 77 85 98 104 103 99 95 100 95 83 95 71 62 75 60 68 53 64 60 37 54 32 36 30 34 28 20 37 35 30 20
33 18 37 21 35 34 33 29 32 29 32 45 49 58 50 66 61 64 62 83 68 72 65 71 59 67 59 58 63 55 61 74 88 91 91 88 100 101 103 113 98 108 101 89 90 67 67 62 58 59 56 54 57 52 42 27 27 21 24 34 25 20 31 23
19 24 34 33 30 36 36 35 42 40 46 35 58 51 66 65 62 72 80 76 82 86 74 64 61 68 68 58 75 57 74 73 84 82 102 99 111 102 99 104 99 100 92 87 97 84 65 68 55 65 65 53 55 36 32 34 26 26 31 36 36 29 19 26
23 34 26 30 29 37 29 31 26 44 33 38 56 58 53 55 75 62 83 79 90 91 85 84 88 84 78 61 66 75 81 80 81 87 105 101 125 112 117 107 104 103 104 94 87 74 66 64 75 56 48 53 51 54 41 32 37 30 33 20 19 38 32 34
34 26 24 23 30 22 18 28 35 39 40 49 44 63 51 71 55 60 76 70 84 90 98 104 95 94 92 68 74 60 73 73 78 92 98 109 115 103 119 99 97 106 103 94 87 79 64 75 64 63 60 57 49 51 44 46 32 38 23 24 36 25 32 24
31 31 31 19 33 20 24 24 24 47 41 50 53 62 56 64 67 69 67 91 89 101 96 99 101 107 83 78 81 66 69 79 71 83 87 86 96 107 109 111 101 96 102 101 91 73 72 73 57 70 66 53 55 43 38 27 37 34 25 25 23 32 31 25
24 36 29 30 19 18 35 20 27 27 41 38 38 51 59 61 70 59 69 93 103 110 109 124 111 107 92 93 98 97 78 81 89 74 83 94 104 96 96 90 104 86 85 92 84 79 77 66 64 65 62 53 55 48 36 42 36 39 36 28 28 35 26 21
26 32 19 36 26 36 30 26 35 36 39 46 43 45 62 65 54 62 86 101 112 117 114 132 129 129 120 125 113 122 100 95 96 83 91 80 80 88 98 87 84 84 88 75 77 63 74 72 53 51 63 46 48 35 40 32 27 21 37 29 35 34 29 18
32 30 33 23 34 32 26 29 24 32 39 49 46 46 52 48 50 74 80 103 109 126 127 130 131 121 134 139 125 130 115 100 98 92 81 71 79 72 91 82 72 70 83 69 63 59 68 54 60 59 61 57 51 46 34 27 21 31 26 28 26 35 20 29
31 18 26 38 34 18 24 29 23 42 40 46 37 37 38 44 53 60 72 91 103 115 138 135 151 148 143 150 143 132 134 112 107 92 81 73 65 80 77 66 65 67 76 55 63 56 57 51 55 47 42 53 35 34 36 29 28 33 18 25 18 23 36 19
21 29 35 22 38 30 36 34 36 24 23 26 39 51 55 38 47 56 72 83 113 127 121 144 161 158 161 143 153 145 135 131 100 86 88 77 67 54 58 68 62 67 67 61 51 47 51 43 40 45 42 51 31 28 36 40 23 31 19 32 21 27 32 38
33 38 25 38 34 28 36 35 18 25 29 26 27 30 43 55 45 66 69 89 92 110 125 134 133 137 141 156 154 158 160 126 86 96 76 57 60 46 57 53 51 63 58 42 44 55 40 44 56 51 39 36 29 28 21 27 36 19 19 36 31 33 29 29
21 23 20 23 34 18 22 29 28 37 21 40 36 45 40 32 34 57 58 72 97 107 113 116 127 131 138 140 147 140 129 114 93 73 64 47 41 45 46 54 55 39 48 45 40 44 38 45 34 51 48 39 43 37 36 19 18 31 23 19 20 35 25 28
24 22 34 31 28 20 23 20 36 25 25 24 23 44 41 47 35 42 53 66 88 96 88 96 95 106 121 111 115 123 109 86 69 65 60 40 37 29 39 46 31 43 35 33 47 37 35 36 39 43 33 27 21 32 34 36 31 27 21 23 23 31 35 18
26 36 29 27 37 27 33 35 18 38 24 34 37 22 37 39 30 36 40 65 64 67 73 94 89 81 85 93 93 90 73 80 57 63 51 21 39 30 26 38 27 44 35 48 47 45 37 46 35 33 39 23 34 19 26 21 21 37 27 27 24 31 35 26
32 30 26 29 38 31 28 21 31 24 22 19 20 34 39 23 41 37 29 53 60 61 58 70 75 68 70 80 74 76 67 47 56 48 40 28 32 37 26 22 40 26 30 32 38 36 25 28 25 39 36 36 22 32 30 22 22 23 22 31 25 34 30 29
30 35 36 35 19 34 23 34 30 22 32 24 35 23 19 21 34 32 30 28 33 52 49 53 58 51 56 56 46 49 45 33 44 26 24 35 31 19 35 35 31 31 29 38 27 32 26 38 29 19 27 18 34 37 25 35 38 26 20 34 28 23 19 32
18 33 38 18 25 25 20 38 22 26 28 36 35 25 24 35 27 29 23 34 34 22 41 38 36 30 30 38 35 25 36 27 26 37 37 18 33 25 34 21 21 19 31 38 31 19 30 33 37 35 37 19 26 23 25 38 36 25 32 24 20 23 28 31
20 32 19 20 38 37 23 19 22 29 23 36 33 26 18 19 29 36 35 30 29 32 30 33 30 24 37 36 33 36 21 22 35 33 19 31 23 21 24 21 36 30 37 20 20 20 37 20 20 27 22 37 35 22 25 19 27 34 25 19 33 28 27 21
20 35 32 20 18 29 25 37 22 36 26 30 32 29 18 27 21 36 20 29 20 37 35 19 32 20 33 34 26 21 28 18 26 31 34 30 38 37 26 31 22 21 31 19 37 18 20 20 32 19 21 29 31 35 35 23 24 37 25 30 31 28 36 37
32 25 38 25 28 36 30 32 36 23 23 19 25 23 18 25 36 35 18 38 30 27 23 30 37 29 33 24 26 30 27 18 20 27 36 21 32 22 19 28 24 30 19 29 21 37 36 23 26 36 33 25 34 32 21 22 27 21 19 20 21 21 20 24
21 31 23 25 29 28 31 23 23 26 38 23 23 23 18 37 37 33 28 36 23 24 34 20 31 19 32 28 22 34 32 21 19 37 29 34 35 21 32 34 24 34 34 23 35 28 24 34 23 18 36 24 21 25 30 24 20 31 22 21 27 38 31 28
30 23 33 23 26 19 22 18 34 36 21 34 30 18 35 29 19 31 31 23 38 33 24 35 18 35 22 35 38 28 38 28 35 22 32 26 24 31 22 29 23 23 31 28 35 37 24 35 27 28 37 28 28 22 29 30 33 34 24 30 30 21 21 29
33 29 23 20 21 20 33 34 23 26 20 30 28 34 22 26 32 36 29 26 22 25 29 31 26 35 29 28 33 30 33 23 23 26 23 27 33 35 34 27 35 26 20 35 34 36 27 22 31 19 22 21 21 30 25 20 22 29 23 32 33 20 32 28
29 27 20 33 35 34 26 24 33 38 27 30 27 30 20 38 26 27 28 33 31 24 36 36 24 35 32 35 27 26 25 30 29 23 38 26 27 38 33 22 37 25 32 36 27 19 37 25 28 29 23 29 37 26 19 25 22 22 36 22 30 35 27 29
29 20 33 29 29 27 24 21 35 28 27 27 29 22 27 30 23 18 31 24 38 22 28 34 25 25 23 29 20 25 34 32 27 30 25 18 32 31 27 25 34 26 29 35 32 20 37 26 32 20 29 23 34 20 25 38 28 29 23 35 38 33 31 33
31 19 21 28 29 34 38 19 30 23 21 32 19 25 26 38 28 24 34 24 24 19 23 18 26 28 28 23 25 23 34 36 22 20 31 25 21 27 27 19 25 37 24 34 26 21 21 28 23 31 24 31 22 18 28 31 18 22 35 24 30 21 18 32
23 23 20 23 20 28 19 31 22 25 23 36 29 26 35 37 37 37 36 19 28 19 19 20 37 26 21 26 18 31 31 32 35 26 30 28 36 23 29 18 33 28 26 37 20 20 28 20 21 22 36 34 29 32 27 21 29 21 38 29 19 19 18 31
35 19 36 26 19 30 27 22 37 25 34 27 23 32 35 38 35 37 28 29 30 36 20 19 21 20 28 36 29 21 33 19 33 29 18 21 34 25 22 21 29 24 37 30 38 36 26 22 32 37 29 20 38 34 29 25 35 28 33 19 19 32 33 18
29 22 26 25 19 31 29 22 30 35 23 33 31 24 36 24 23 37 30 31 34 35 25 37 20 34 31 20 26 22 22 19 23 26 34 30 20 24 36 19 31 21 19 30 21 25 27 22 36 18 28 29 18 29 23 23 27 36 22 37 34 23 28 27
38 36 37 38 38 27 35 28 26 25 23 33 25 30 22 25 20 33 29 28 32 34 31 34 31 18 31 28 22 37 27 19 35 26 27 27 32 30 20 37 31 29 18 21 28 35 30 18 30 34 18 21 25 29 26 37 25 24 20 26 35 31 26 38
32 18 31 37 38 31 35 34 21 24 32 38 24 22 33 29 35 26 19 20 26 19 24 31 25 31 22 29 33 25 27 23 31 35 30 36 23 18 25 32 21 26 31 30 30 23 24 30 30 26 27 18 37 25 20 19 26 25 33 36 29 26 18 25
26 31 36 19 37 24 33 26 27 31 30 22 37 26 35 32 38 27 28 23 22 25 30 23 28 28 19 36 30 22 27 36 30 23 38 38 22 23 29 24 25 24 18 33 29 18 37 25 33 23 19 26 21 20 20 18 25 38 22 22 36 38 19 18
19 33 35 20 36 30 35 37 26 31 25 33 29 21 25 33 35 22 21 32 34 36 19 36 25 24 30 23 36 29 22 25 27 20 21 26 24 18 28 20 31 38 22 36 23 36 22 19 38 38 29 35 21 27 21 31 37 28 22 32 28 23 21 23
19 24 36 20 29 33 24 25 25 29 21 28 24 19 25 31 34 21 26 23 24 31 19 38 23 21 22 19 26 22 21 34 24 22 23 32 31 24 34 21 37 32 29 30 36 38 38 23 27 25 33 33 23 23 18 33 20 29 21 30 22 37 38 22
