P2
64 64
255
27 33 35 21 29 18 37 20 25 25 38 31 34 32 18 29 22 37 38 27 30 36 34 34 37 36 20 20 21 36 18 25 31 38 19 32 18 32 27 18 20 36 26 33 25 32 32 19 22 21 26 33 20 21 28 30 19 37 20 19 37 24 36 34
36 19 29 30 28 36 33 35 24 35 22 31 32 23 18 22 27 38 22 35 35 23 29 33 27 29 33 25 18 22 35 25 35 37 34 34 38 28 33 22 34 36 23 24 28 33 26 35 25 25 19 22 23 28 21 30 21 27 35 31 24 24 24 18
19 29 23 23 33 24 22 37 29 20 18 30 28 21 20 28 23 29 33 20 20 26 38 36 31 37 23 37 28 29 30 36 24 35 24 22 20 34 21 38 24 31 19 29 37 23 21 27 22 34 20 23 32 38 33 32 34 23 25 33 24 28 33 24
25 32 26 33 30 31 24 38 27 21 37 32 22 25 26 28 38 28 27 19 30 26 27 18 30 35 37 24 31 24 36 23 38 23 21 38 19 25 35 26 31 32 37 31 36 35 20 33 19 26 19 21 32 30 33 27 38 34 22 31 19 37 33 20
27 30 34 33 26 22 34 36 18 35 28 25 38 30 38 25 30 29 26 31 38 37 27 31 21 32 24 34 38 33 36 28 23 36 34 31 18 30 38 24 28 32 31 22 20 26 27 20 22 37 19 28 33 18 34 26 36 33 35 32 25 29 24 19
36 27 18 34 37 36 25 35 33 23 22 30 21 21 27 35 36 22 30 26 33 25 19 21 18 36 18 18 33 34 27 22 18 29 22 25 28 28 18 36 28 28 23 30 37 30 35 22 20 24 38 22 23 37 26 20 32 31 19 21 30 35 36 38
32 31 29 21 34 35 31 34 32 37 25 30 19 24 37 32 30 19 37 30 26 33 23 19 21 24 24 20 21 21 36 29 22 26 23 24 32 32 19 28 34 22 28 19 34 33 29 30 27 32 38 37 20 34 18 19 30 37 31 25 26 36 35 22
28 21 31 20 27 33 20 37 33 19 28 28 38 32 31 24 25 31 24 27 24 36 34 38 32 31 33 21 22 18 34 18 36 24 18 22 26 25 27 29 27 29 27 21 21 29 25 32 34 34 33 33 19 20 35 23 27 23 37 22 25 38 24 32
33 38 25 18 19 21 22 36 23 28 22 33 30 20 38 30 25 25 35 23 34 34 32 25 34 19 31 18 35 38 35 36 35 29 34 25 38 28 20 37 22 30 31 32 35 33 19 30 31 22 27 26 32 24 33 27 30 31 35 35 27 24 18 36
30 23 29 21 21 30 30 32 35 33 38 19 25 34 32 22 22 24 38 26 35 34 32 28 32 18 33 30 31 36 30 19 33 24 24 31 19 32 22 33 22 32 33 34 22 24 21 22 27 31 23 35 35 38 35 31 20 25 35 37 34 22 24 31
28 25 33 34 18 21 19 37 28 32 35 19 30 33 29 30 33 21 32 18 23 19 36 19 20 37 36 21 36 32 22 28 21 27 25 25 35 29 33 29 21 19 26 20 19 30 23 33 33 33 38 21 31 21 27 33 27 34 21 18 31 22 34 18
29 25 37 27 22 38 22 21 23 21 34 24 34 35 34 22 20 35 18 29 19 20 29 37 29 18 18 35 20 28 32 38 30 28 26 22 18 31 34 18 22 19 25 26 30 22 25 24 35 28 25 20 22 32 32 22 23 31 25 18 34 25 36 38
24 34 20 24 27 33 29 19 26 25 19 27 29 38 30 21 30 19 38 36 37 22 24 38 25 33 32 27 31 31 26 37 23 27 25 26 33 28 32 32 26 24 33 19 19 22 20 32 19 23 33 34 32 20 20 24 23 35 28 30 33 20 35 21
24 33 33 28 32 20 22 34 20 24 24 37 23 30 28 34 38 20 29 23 23 34 24 33 31 33 21 26 22 31 30 22 23 36 34 27 37 27 24 20 30 31 21 21 30 22 33 21 26 18 27 18 20 33 38 26 32 25 24 33 28 35 29 21
19 38 27 31 32 25 20 23 23 22 22 22 38 33 32 30 23 35 34 33 28 28 24 37 24 24 22 22 20 18 24 33 32 34 20 21 30 36 33 33 33 25 22 32 29 32 25 25 18 20 24 32 23 24 35 19 27 38 22 22 25 20 27 38
32 28 20 32 29 34 34 34 22 20 34 33 24 31 36 37 31 29 28 21 31 29 24 25 27 29 38 21 22 21 37 24 35 38 34 29 20 18 34 29 34 28 25 36 25 38 34 38 24 37 26 26 25 31 32 38 30 25 34 29 33 34 32 19
31 33 24 36 24 34 21 26 38 25 36 21 26 33 18 26 35 20 36 19 22 26 22 26 21 30 19 20 33 19 32 38 34 31 24 20 24 32 22 27 23 24 36 19 38 20 26 23 32 36 37 30 29 28 34 24 35 20 28 19 24 23 23 30
29 29 24 33 19 27 22 22 33 26 33 38 20 25 18 24 31 30 37 29 35 34 31 36 21 26 22 38 37 23 19 19 20 22 38 34 38 31 25 31 36 37 28 18 27 20 29 32 34 33 21 38 21 30 24 18 24 25 29 35 24 30 37 23
24 27 26 34 33 24 22 27 18 31 30 37 36 22 27 20 31 30 21 19 20 33 24 27 32 37 27 25 33 20 25 18 21 18 20 22 33 22 30 36 25 26 18 19 28 37 26 34 34 32 25 34 36 23 38 37 36 32 20 24 33 38 32 31
19 30 20 21 31 35 25 32 35 21 23 35 21 28 37 29 25 26 23 28 40 40 33 21 31 32 34 37 37 37 32 21 23 27 32 34 18 28 26 25 32 23 26 27 23 26 37 38 34 21 27 18 27 27 32 22 28 37 38 22 23 38 34 18
38 29 27 25 33 36 32 30 35 34 34 20 36 30 19 38 37 40 28 38 35 29 33 39 31 38 24 34 31 27 34 27 47 33 49 36 31 20 29 22 27 29 44 28 46 40 37 34 38 37 21 26 32 19 21 35 32 38 37 28 35 29 35 18
19 26 32 28 27 36 24 26 23 22 19 23 33 39 35 40 27 43 39 31 41 41 49 29 36 45 26 40 32 38 37 55 48 46 60 42 55 39 35 38 41 46 45 29 37 48 28 30 26 25 42 23 31 25 28 24 32 20 26 24 21 18 37 37
20 37 18 33 37 29 23 34 20 35 31 26 41 38 34 29 32 39 40 49 36 38 41 45 36 31 35 41 44 47 65 58 69 74 66 61 65 66 57 33 32 32 43 37 53 40 33 49 35 41 41 43 21 29 18 18 38 34 25 20 30 38 26 23
28 30 24 32 26 34 37 18 22 25 33 28 29 32 38 42 39 55 44 38 52 47 51 43 44 52 40 54 55 70 72 65 73 86 76 73 81 73 61 49 46 53 51 44 43 54 46 49 45 45 47 43 44 27 21 22 36 30 27 23 37 24 28 20
21 19 23 23 31 37 34 32 32 38 23 35 27 41 52 50 45 44 49 43 45 42 56 46 48 56 55 57 75 79 89 95 84 99 99 103 91 84 70 69 52 58 60 44 59 60 59 57 45 52 49 35 42 24 28 33 18 33 18 18 18 22 31 26
20 36 25 38 35 25 26 29 23 27 25 28 37 32 53 45 49 56 52 54 51 58 54 54 58 45 65 62 69 91 99 92 114 116 113 116 110 90 76 77 55 49 50 57 52 48 43 59 48 48 35 36 42 33 28 35 37 20 38 25 35 33 35 28
34 20 19 35 24 23 29 25 25 31 34 38 40 46 38 51 53 61 52 56 56 67 62 60 59 52 72 64 88 91 98 120 118 129 131 111 114 107 85 68 57 66 59 56 51 67 67 65 47 53 58 53 40 37 29 25 25 35 20 22 23 36 24 36
27 22 24 22 18 35 35 28 39 31 46 41 50 53 55 45 54 64 66 52 59 71 70 69 49 55 76 69 95 107 111 114 136 142 127 117 117 97 90 88 64 54 71 71 58 55 53 58 55 60 41 53 34 51 45 38 28 18 23 25 33 32 18 26
19 36 33 25 23 31 20 38 26 29 42 47 54 48 53 58 55 60 73 73 63 60 59 68 69 49 71 79 77 102 112 127 131 144 129 129 117 99 94 89 65 57 71 63 74 75 64 59 60 53 59 45 47 34 29 37 31 18 35 32 21 26 33 37
21 27 37 25 27 34 27 31 30 27 34 37 55 53 60 49 64 67 74 67 71 76 68 72 70 66 77 73 84 101 105 111 126 132 116 111 108 102 92 84 74 71 79 74 77 67 62 73 71 61 54 60 39 35 37 29 30 35 19 21 35 21 18 20
28 28 35 18 18 28 22 39 36 44 36 40 52 59 58 53 60 74 70 75 64 68 86 68 71 70 64 67 83 79 97 107 111 119 108 114 109 92 98 79 75 79 80 71 72 74 61 70 73 52 57 60 57 55 47 40 30 38 19 31 25 29 21 31
19 37 21 18 31 32 31 31 28 35 51 45 50 44 47 70 69 60 68 72 93 93 83 94 81 87 76 70 78 79 96 92 102 91 95 86 103 91 79 83 73 82 68 70 83 66 71 70 63 60 50 61 53 41 49 33 44 27 20 24 18 33 33 28
27 24 21 34 29 36 25 27 44 30 49 48 55 62 47 66 59 66 86 85 91 97 99 99 90 82 81 70 87 86 82 87 95 94 83 83 78 71 80 74 70 81 77 89 91 77 72 79 56 58 56 58 52 54 52 39 35 37 24 21 26 32 30 35
37 37 28 31 34 37 37 27 43 46 40 54 59 58 57 59 58 80 78 92 111 97 113 98 108 103 90 95 71 80 82 70 63 67 80 77 60 65 61 66 58 82 82 73 74 83 70 63 72 62 60 48 47 35 37 34 24 29 21 22 23 27 35 26
18 27 37 27 29 18 19 21 26 45 44 41 51 44 64 66 59 66 84 105 101 119 119 113 121 108 95 87 83 74 72 55 62 54 61 52 62 65 57 65 61 74 68 75 71 64 62 64 69 65 64 49 45 42 50 27 42 35 27 38 32 18 23 37
29 23 21 31 26 28 26 38 40 33 39 35 49 49 64 60 67 85 83 106 110 120 111 129 123 119 104 91 90 68 54 62 53 43 38 37 49 58 48 67 68 63 59 77 64 68 62 72 55 64 59 47 57 48 49 45 36 23 20 22 18 32 38 36
19 32 18 28 27 30 26 30 40 39 31 41 39 50 60 63 68 77 94 96 100 118 130 132 117 125 110 94 94 74 58 48 38 49 46 37 41 54 47 52 59 59 56 68 68 70 70 67 65 58 51 56 41 50 29 43 21 22 25 34 35 20 18 27
29 18 28 35 28 29 21 21 39 36 37 44 38 46 52 63 65 78 84 106 102 114 116 140 137 120 124 100 84 77 67 57 57 47 43 45 49 57 48 51 60 54 72 60 72 65 53 51 59 44 54 43 36 47 37 37 28 27 19 20 26 19 28 28
34 19 20 27 38 29 38 26 19 33 37 49 43 46 41 50 58 66 84 85 98 110 115 138 127 127 112 101 86 85 69 61 71 58 57 57 52 49 55 43 55 50 61 57 55 65 62 62 61 49 49 47 34 31 31 23 21 36 27 21 20 26 26 28
19 20 25 31 27 32 32 26 22 37 29 31 48 47 51 49 58 73 79 99 92 116 118 122 124 119 107 99 95 83 84 85 65 74 65 54 56 51 41 48 55 51 53 45 46 53 44 48 54 49 42 36 50 34 23 38 38 28 18 24 18 33 31 38
26 20 38 30 35 38 33 28 19 18 27 28 33 44 46 38 45 71 83 87 92 101 98 106 102 116 108 82 81 83 78 75 84 79 84 79 66 59 54 41 58 50 41 59 53 41 59 55 46 48 47 48 44 43 41 28 18 27 18 23 22 22 19 30
35 24 26 31 34 18 32 22 25 38 38 27 35 30 45 50 38 53 70 70 82 93 104 92 93 94 90 83 79 79 91 76 80 92 70 69 62 62 44 45 38 48 39 42 50 55 46 52 42 46 41 38 41 33 35 36 27 26 22 38 25 18 24 34
31 31 30 32 18 20 24 20 22 18 37 39 37 42 38 33 43 46 64 58 79 79 94 88 95 94 88 80 75 65 81 88 75 89 86 66 74 61 47 44 46 48 45 52 44 38 34 37 42 48 26 32 22 38 28 32 35 32 19 35 23 36 25 25
25 33 32 38 20 38 27 32 30 25 20 28 38 37 40 42 27 46 48 50 71 76 72 72 73 66 56 52 62 69 77 62 73 83 78 69 53 59 43 41 41 41 37 44 46 40 40 29 45 43 37 38 19 29 33 25 31 26 26 36 32 25 38 34
34 28 19 23 35 20 19 24 25 38 32 26 31 24 37 38 42 41 33 44 49 58 64 53 64 56 62 41 41 62 53 57 59 76 66 70 46 50 29 39 33 37 37 43 44 30 36 37 39 41 31 29 27 32 20 19 27 33 34 25 29 18 32 36
18 24 36 30 37 30 37 35 31 26 37 29 29 36 21 29 25 32 35 24 47 50 46 58 57 38 53 36 44 50 39 52 49 52 50 45 53 28 21 25 40 23 31 35 23 24 21 25 23 27 23 21 24 23 31 26 27 38 38 19 18 32 23 33
26 19 30 38 29 30 38 36 28 30 23 36 32 22 21 29 27 29 29 24 23 28 39 39 40 31 44 34 30 30 43 35 44 46 42 44 42 31 37 20 21 24 32 38 38 32 36 21 30 26 27 18 35 25 36 21 34 20 33 19 29 23 26 32
26 36 25 32 37 37 23 37 30 37 26 26 31 38 28 24 33 37 19 32 18 19 27 36 21 32 36 37 26 34 22 44 43 35 27 39 25 33 19 33 22 23 30 19 19 25 25 22 37 18 38 18 19 26 18 29 32 25 37 32 19 23 26 20
20 25 26 22 21 29 28 36 23 36 36 19 20 19 30 23 24 18 28 20 37 31 27 25 28 27 26 38 23 20 22 27 36 33 31 22 27 29 22 18 28 32 27 28 38 20 38 37 35 24 34 36 20 34 20 29 34 20 21 34 29 37 36 20
33 32 36 32 31 34 29 37 33 28 38 21 22 19 31 37 21 38 36 27 19 32 30 19 34 28 22 33 36 29 33 19 24 31 35 23 25 22 21 38 20 21 23 30 35 32 35 31 27 30 24 30 21 33 28 18 21 27 28 24 32 26 33 35
27 38 37 19 29 30 18 21 21 31 33 38 34 36 27 37 28 20 25 28 21 30 33 34 32 31 18 29 29 28 30 37 19 19 29 27 24 18 26 30 31 20 26 18 28 38 37 35 24 22 32 37 31 18 28 26 29 29 36 29 28 38 22 34
35 25 19 22 27 27 26 20 32 27 35 31 25 22 33 28 24 34 34 26 37 29 29 19 26 30 27 30 23 35 31 34 29 33 32 18 36 33 26 30 21 34 19 31 25 28 21 32 32 36 25 28 37 35 23 36 19 21 21 36 26 25 30 27
19 37 36 24 34 29 25 20 32 35 27 32 30 32 38 26 32 34 29 24 35 29 21 19 21 22 33 28 18 33 34 31 31 22 33 29 32 30 29 31 21 25 35 31 19 31 35 38 36 31 23 26 18 20 30 21 23 20 24 33 37 22 27 31
35 24 25 20 20 28 31 19 21 34 23 23 24 19 18 33 18 36 37 34 34 27 34 34 20 35 30 21 28 27 19 18 19 21 37 26 34 35 20 29 36 31 36 37 20 30 36 27 31 25 18 37 38 37 28 31 35 38 36 35 19 19 38 30
27 30 26 35 18 37 19 19 19 23 22 27 22 32 36 21 37 30 38 29 35 38 36 21 20 25 35 28 21 29 22 18 32 19 28 27 24 28 19 30 30 21 25 38 22 18 38 33 21 36 22 19 19 34 28 19 28 36 38 38 27 31 27 26
31 23 36 30 36 18 37 34 31 21 35 25 29 37 27 25 33 38 32 34 33 28 26 23 23 28 21 38 23 30 20 21 20 31 33 23 38 31 22 37 31 38 18 36 35 27 22 27 34 32 38 25 19 21 33 23 23 25 25 19 21 24 19 29
38 28 31 25 30 38 29 26 29 20 34 25 21 31 34 25 38 26 33 27 20 21 36 23 25 29 26 19 24 36 25 37 28 37 22 29 25 35 24 37 27 29 30 21 22 20 23 31 33 21 27 30 32 35 18 23 34 38 26 22 38 19 29 33
31 27 26 23 37 29 19 32 29 20 21 33 30 31 37 18 23 23 25 31 29 33 22 26 35 32 32 30 32 24 37 20 21 23 22 24 25 28 30 22 20 27 30 24 23 26 27 24 22 26 31 30 24 34 35 37 32 28 20 38 32 31 20 35
24 27 37 29 31 35 32 36 27 36 28 21 19 28 22 21 27 28 19 36 23 34 18 34 21 30 28 33 25 36 18 24 31 32 35 18 27 37 22 30 28 23 26 25 30 38 18 21 22 31 25 32 31 31 18 37 34 29 25 34 37 22 35 18
27 19 36 28 21 19 28 21 28 24 23 34 35 29 31 38 18 36 24 18 34 25 37 22 36 27 31 20 22 18 33 38 31 22 19 29 35 25 19 20 24 25 31 27 21 36 30 32 25 36 28 29 32 34 18 23 25 22 30 27 38 31 34 29
25 22 29 34 36 36 35 29 24 18 19 20 30 29 23 29 37 18 36 24 22 24 34 31 27 30 34 32 36 28 29 26 34 27 22 22 34 30 37 38 28 36 29 24 36 20 37 35 19 30 33 19 25 33 36 26 23 22 27 27 37 35 31 27
36 19 27 22 38 23 34 30 31 35 37 34 33 34 35 20 35 18 34 28 21 21 24 22 34 19 30 22 32 30 37 25 34 27 27 26 35 22 37 37 20 18 35 22 35 24 30 21 24 35 37 35 24 31 26 31 36 35 26 22 19 36 25 30
24 30 29 22 30 24 20 29 19 20 34 29 29 37 29 26 19 24 38 24 23 37 37 32 20 19 20 33 25 24 26 31 35 29 25 23 29 38 23 20 22 25 23 35 23 34 33 25 37 29 35 36 29 36 36 23 18 18 26 22 36 27 20 29
32 31 30 29 25 32 21 18 20 25 30 29 28 33 21 25 31 30 27 34 34 24 20 20 24 25 21 38 27 26 18 27 19 33 20 33 27 38 30 20 35 27 36 38 18 31 36 38 37 24 19 24 38 21 26 18 27 35 19 38 18 34 32 34
