P2
64 64
255
20 28 22 32 20 33 32 36 24 27 36 24 38 38 37 27 38 36 28 29 32 33 32 30 19 25 25 38 29 20 28 26 26 38 33 22 24 29 30 31 38 28 28 25 36 35 19 19 21 38 21 18 28 19 21 37 24 28 34 35 25 27 24 18
27 25 38 35 34 24 21 20 27 23 25 32 31 32 24 36 29 19 36 19 29 19 33 34 22 35 21 37 35 34 20 28 25 33 38 37 35 34 21 20 34 35 34 18 19 26 32 21 29 26 32 21 24 19 26 36 34 25 25 23 37 27 36 37
34 35 29 22 18 29 37 38 38 19 32 24 29 29 29 33 37 33 38 32 21 23 19 30 32 20 28 31 30 38 36 20 34 27 34 37 31 37 35 31 20 33 30 30 25 32 26 35 35 20 23 22 21 32 27 20 26 22 18 31 25 32 18 18
22 32 18 35 32 27 28 28 30 35 29 24 25 32 24 33 35 32 32 32 32 29 23 20 37 33 36 30 36 36 34 18 25 29 37 26 31 26 37 38 32 31 23 18 22 32 20 34 24 34 29 36 29 37 32 34 30 23 19 38 24 27 32 32
20 24 34 21 19 20 36 24 38 20 34 33 19 38 34 30 30 25 26 24 36 18 37 32 21 21 22 31 36 30 31 33 24 23 30 19 18 30 37 31 30 20 23 36 35 35 34 27 29 37 37 19 25 32 37 29 19 35 22 26 27 28 29 25
26 25 25 33 18 36 24 21 28 35 28 26 20 28 32 32 31 28 31 23 22 18 35 18 21 36 25 32 34 27 38 25 21 19 19 27 29 24 33 27 38 34 31 36 23 25 23 23 24 35 21 35 34 27 31 26 26 24 31 23 25 37 35 24
19 25 27 30 37 24 33 27 24 33 38 23 23 25 25 23 37 38 19 31 22 19 36 32 23 25 24 33 36 28 34 35 24 18 25 35 19 28 33 29 20 22 30 33 24 19 24 29 38 23 36 21 27 34 31 27 21 35 37 28 33 23 25 22
18 31 29 25 18 21 33 33 28 37 36 24 19 27 31 20 29 33 21 27 26 20 35 20 18 27 37 18 38 28 23 31 36 35 27 36 29 37 27 26 29 25 33 20 35 27 34 36 21 27 37 35 37 21 26 21 21 34 25 37 23 20 30 25
35 38 24 20 37 31 21 22 23 34 22 26 27 31 29 25 32 23 21 38 34 26 29 29 19 30 30 20 26 30 23 18 29 19 34 28 33 36 36 19 26 33 28 31 22 38 33 32 30 36 28 24 35 36 28 36 30 33 38 19 33 20 32 27
31 24 29 30 30 28 23 26 33 32 28 23 35 23 37 21 37 33 28 37 33 24 33 24 24 30 25 31 29 21 29 18 23 25 31 31 27 34 37 22 22 18 36 23 20 33 24 27 37 29 35 37 24 20 21 25 34 22 34 28 23 26 30 36
27 25 29 22 28 20 38 29 37 32 37 22 24 28 34 21 27 32 24 25 29 32 34 37 26 23 38 27 27 36 32 30 26 25 34 29 26 26 25 32 20 20 29 35 35 25 33 33 23 34 21 28 21 27 29 32 31 37 23 19 29 37 24 22
22 26 35 31 33 33 25 37 34 35 20 21 34 20 18 35 38 26 33 18 38 28 37 38 38 34 32 36 36 20 23 21 33 23 31 24 23 25 19 38 34 27 21 35 34 20 38 27 35 25 28 29 26 28 35 19 22 33 38 25 32 23 34 26
28 37 23 36 38 21 38 36 32 19 34 37 28 38 25 31 20 36 26 35 27 23 28 34 36 36 26 20 36 34 29 24 28 21 31 36 22 21 27 36 23 23 30 28 23 19 32 22 18 21 21 22 29 33 38 23 36 36 24 37 33 30 31 30
24 29 33 38 21 35 23 24 37 35 23 26 20 29 31 19 24 22 21 35 37 20 32 38 32 23 18 35 31 21 25 32 21 21 25 31 20 29 37 23 34 30 30 38 26 20 35 26 23 21 20 29 32 29 25 20 36 28 30 24 32 22 29 25
37 35 31 24 33 21 38 26 25 18 34 36 36 18 19 26 29 19 25 23 19 20 27 27 24 36 20 19 31 32 23 33 27 31 30 21 34 21 35 29 25 34 35 24 25 18 22 37 23 31 34 38 27 37 37 20 21 31 34 20 21 21 29 35
21 24 23 22 27 23 18 36 35 26 18 27 30 36 21 35 19 32 36 26 33 21 18 34 28 19 22 26 32 29 33 23 32 20 37 21 19 23 36 37 35 25 36 36 33 31 29 24 36 31 34 18 26 35 18 32 29 37 23 28 29 29 25 35
31 21 23 38 30 19 19 23 37 32 26 31 34 20 29 28 36 32 30 25 18 28 19 22 18 36 30 24 36 35 35 38 31 31 35 35 27 27 26 31 30 38 27 20 26 24 33 22 24 28 31 18 21 29 29 22 27 37 35 29 33 33 19 27
19 28 19 25 38 18 21 37 23 29 32 21 22 21 34 32 23 26 22 21 25 30 37 34 34 25 37 27 21 21 32 30 19 21 35 29 18 34 30 28 32 22 29 27 32 34 22 24 29 24 29 23 38 29 18 21 26 23 34 28 25 33 29 27
34 37 34 21 30 22 33 36 33 38 31 36 33 36 24 28 26 28 19 29 23 27 20 29 36 35 29 33 26 33 26 21 28 24 26 35 24 21 28 38 34 31 38 19 23 37 18 27 33 38 22 36 29 26 22 29 24 27 30 34 25 32 18 31
26 33 21 22 20 26 19 28 35 21 35 38 32 33 29 29 21 24 25 32 30 39 26 38 31 39 29 31 26 33 20 32 30 26 25 18 37 22 31 21 36 25 33 39 30 23 24 29 33 21 31 36 23 29 36 22 22 23 18 28 27 38 20 21
19 23 21 37 26 30 38 34 23 29 30 33 26 22 30 24 27 24 37 25 44 30 38 29 36 27 41 31 30 28 30 31 38 25 25 38 25 20 27 27 44 45 45 39 26 39 27 33 41 37 37 38 24 24 31 18 33 29 27 30 37 23 23 26
31 31 21 23 28 18 34 19 19 24 36 30 33 33 30 41 44 36 29 39 31 36 40 42 44 45 25 35 27 20 31 32 33 26 31 26 24 35 29 45 32 46 39 46 40 42 48 35 31 31 27 28 36 22 32 19 19 28 28 26 31 20 38 29
23 33 22 23 34 30 36 37 20 24 36 25 22 43 43 31 41 49 49 43 53 53 45 52 34 38 30 36 43 41 34 21 29 33 36 31 42 31 43 44 51 33 37 42 53 44 44 43 43 43 35 24 36 28 29 21 35 38 27 31 25 23 27 37
23 18 26 38 26 37 25 33 31 35 32 31 43 30 49 35 41 51 46 41 47 44 55 41 45 53 39 37 46 28 26 20 36 21 33 37 29 29 31 44 55 42 52 40 37 57 54 50 46 39 49 42 39 40 34 37 35 21 35 19 36 38 33 38
24 38 22 30 23 33 23 30 34 33 41 43 32 36 50 43 38 39 54 49 55 60 47 55 41 56 38 33 32 28 44 26 25 32 29 30 35 44 38 43 50 51 41 56 60 54 53 50 49 39 46 31 46 42 38 32 30 33 29 32 32 31 27 21
18 26 36 27 20 20 32 36 35 22 43 37 34 46 42 54 51 45 47 51 64 61 64 62 52 57 47 55 35 38 45 34 28 28 31 30 49 44 48 47 68 67 59 56 66 55 52 54 57 45 45 33 31 38 27 33 20 29 29 27 30 26 24 32
19 23 20 23 35 21 34 34 32 28 35 47 39 50 39 58 51 52 61 50 55 54 51 54 59 47 44 45 55 46 34 27 30 42 37 45 56 60 58 71 71 74 69 83 74 72 57 60 59 61 51 37 42 45 39 27 35 38 27 18 28 35 19 35
30 18 37 26 38 29 27 24 27 37 27 40 41 40 54 60 55 63 62 70 67 65 66 51 67 55 57 44 40 34 30 37 30 30 39 55 51 77 71 73 88 92 82 91 92 89 79 57 62 50 60 39 43 42 29 39 22 31 24 35 37 29 20 19
36 25 22 35 34 37 38 38 38 45 35 37 41 40 44 60 53 52 74 57 72 57 70 59 69 64 66 58 42 56 44 45 38 51 48 53 59 78 91 85 95 112 96 103 99 86 75 71 65 48 47 49 45 45 46 32 39 37 32 37 31 25 25 28
38 37 30 18 18 18 29 35 35 30 39 39 55 58 47 49 67 56 58 76 78 73 77 77 62 56 51 64 48 40 41 38 54 52 66 76 79 78 101 109 118 123 122 120 110 96 88 83 67 53 56 42 38 35 31 35 37 37 19 29 18 20 28 19
34 26 25 32 34 35 23 34 36 37 44 48 52 56 55 59 60 58 63 74 83 66 66 72 77 72 55 70 62 57 58 44 46 47 63 68 91 95 111 111 112 127 121 130 130 123 97 102 89 76 58 60 51 47 44 41 43 19 31 29 25 21 27 32
27 19 36 34 36 34 18 35 33 32 40 35 46 59 62 51 62 58 68 75 69 69 79 64 72 58 78 68 70 78 82 73 73 61 78 80 93 104 112 131 125 143 149 131 139 130 101 106 82 80 60 57 44 40 50 34 41 29 32 21 21 26 27 21
34 35 22 22 24 24 27 29 34 45 45 48 54 48 66 62 58 61 75 83 94 84 85 80 75 85 96 83 87 88 82 70 71 74 76 84 106 104 111 133 151 142 149 146 134 124 107 102 96 83 65 55 44 41 45 32 42 26 29 30 18 23 36 18
33 24 35 28 19 24 27 27 32 36 33 42 54 53 59 64 57 65 87 91 89 97 87 81 83 100 115 118 117 102 93 86 93 95 82 88 106 106 131 144 151 162 159 146 139 125 108 96 101 85 70 54 47 48 31 33 37 21 23 30 19 35 29 32
26 38 38 37 18 37 37 35 38 35 50 44 54 50 58 62 73 70 76 94 99 90 95 107 113 115 128 129 119 132 110 88 91 84 84 87 100 103 125 135 150 173 153 141 139 139 123 109 100 78 62 46 42 40 32 31 34 19 21 36 26 33 20 28
21 38 36 34 34 29 32 29 30 26 35 48 39 44 58 48 60 77 89 98 99 94 107 93 117 123 122 135 135 141 113 108 84 100 79 88 92 111 128 140 135 146 157 152 135 121 115 97 91 80 70 57 37 53 40 27 29 27 19 23 19 24 32 20
31 37 28 21 20 25 21 21 36 43 43 51 47 40 58 57 63 91 80 92 113 104 109 100 120 122 135 131 138 127 108 98 87 89 82 71 96 102 107 134 135 136 133 134 123 117 111 92 91 81 50 55 54 46 43 25 38 19 20 21 37 33 24 38
36 22 33 21 21 29 28 19 28 42 41 51 42 52 44 53 80 87 95 104 102 113 121 111 120 129 123 128 131 122 105 100 66 80 73 80 77 106 107 107 116 123 119 127 111 99 105 97 84 73 63 52 37 37 32 38 38 32 34 23 36 20 29 29
29 27 28 20 19 28 29 33 30 34 30 41 32 46 62 67 80 77 87 103 104 107 118 130 115 125 119 133 129 107 108 85 61 59 63 73 82 98 92 95 111 106 121 114 116 101 82 81 79 61 50 53 50 31 35 26 35 29 19 34 34 35 25 38
32 37 21 26 29 21 25 31 33 28 38 37 45 49 59 57 79 78 86 100 110 122 118 135 121 127 112 125 103 103 89 74 63 50 47 65 60 86 94 84 95 93 107 96 98 83 80 82 67 55 53 43 40 26 38 36 33 33 25 33 28 29 38 25
37 35 34 37 36 37 22 27 23 27 24 25 27 47 48 53 79 78 102 107 121 115 136 125 136 128 106 110 93 84 69 49 30 27 38 54 58 63 71 71 76 84 79 82 92 68 71 59 58 39 38 38 38 42 34 24 22 32 32 26 22 20 34 22
27 36 21 21 36 36 18 35 32 28 37 32 30 45 53 62 77 74 97 95 105 118 124 137 122 119 108 89 78 64 58 43 28 35 30 44 60 66 72 74 79 83 80 77 79 57 50 44 41 42 45 42 38 26 39 24 25 31 23 37 18 26 23 20
29 21 19 20 26 30 22 36 37 23 32 36 28 26 48 65 56 78 92 91 107 118 123 126 129 107 93 84 72 72 46 45 46 30 21 28 30 53 58 55 64 58 54 65 54 54 51 51 48 47 42 29 22 21 19 32 18 19 35 21 38 18 30 28
21 23 19 19 38 26 25 33 26 32 21 31 34 31 38 41 57 77 70 86 103 106 109 118 102 102 101 90 62 53 59 54 33 33 19 29 32 34 31 37 38 46 45 55 41 40 28 39 30 42 24 40 33 24 18 24 34 36 19 25 24 30 37 24
30 32 29 23 21 37 20 20 32 33 36 26 27 26 37 38 49 69 74 85 85 89 102 104 98 86 79 74 75 51 52 46 34 36 21 36 31 23 30 29 38 36 42 42 44 41 44 25 35 41 31 37 35 34 26 33 24 36 18 36 38 25 36 30
28 37 36 30 26 19 25 38 32 29 37 20 38 34 19 43 41 56 62 79 76 78 82 86 88 88 64 77 51 61 37 44 35 22 28 35 24 28 20 35 36 34 22 24 41 27 31 22 22 35 32 29 27 33 28 30 28 23 27 18 22 26 31 36
29 38 22 37 31 37 38 27 32 38 28 22 27 27 23 37 43 40 52 62 58 65 80 73 65 73 57 60 55 43 40 35 27 32 24 34 32 37 31 31 22 38 22 19 37 32 24 21 32 31 36 24 21 27 20 35 36 34 25 18 26 32 29 20
23 27 22 31 27 22 21 31 29 38 20 29 30 37 33 29 31 42 57 47 48 68 64 62 63 60 56 44 45 49 29 35 36 27 30 37 21 33 25 24 37 33 30 20 36 30 25 18 30 38 32 22 31 27 18 30 32 35 31 38 29 26 36 18
29 36 37 38 32 37 26 32 25 30 28 18 23 30 37 23 31 34 41 44 46 45 50 60 63 52 41 42 40 30 21 36 28 28 34 35 36 20 23 31 33 32 26 18 20 19 20 34 29 27 28 31 23 30 25 37 20 28 24 27 31 22 34 19
33 32 18 19 33 22 25 31 29 29 30 32 27 34 26 22 23 38 35 37 39 42 54 44 41 54 47 32 25 24 31 34 32 22 24 18 22 38 31 24 35 35 32 24 24 18 31 24 30 29 27 22 28 22 31 29 25 28 30 38 19 38 37 38
38 36 32 19 36 18 20 38 38 31 21 23 29 34 21 19 31 38 22 30 25 40 26 39 34 37 22 33 29 38 18 30 22 27 32 29 33 33 29 30 33 23 38 19 20 29 36 33 21 18 34 36 37 24 21 36 37 20 35 32 33 23 19 26
21 27 34 34 32 19 21 27 18 32 34 23 37 26 19 19 35 36 18 32 37 33 23 18 20 21 32 26 33 24 18 37 20 32 29 27 29 20 38 23 18 29 21 38 22 37 19 27 25 21 20 26 37 27 20 34 28 25 18 19 23 31 33 38
18 28 34 31 38 21 25 28 20 30 26 25 30 33 34 30 27 27 33 34 35 21 26 27 25 24 28 33 21 32 25 26 32 31 34 34 23 29 28 29 21 32 24 30 35 28 23 19 30 26 30 34 26 27 32 18 28 30 18 38 23 33 30 29
38 23 29 35 32 38 30 30 27 23 38 27 21 18 33 37 22 34 18 37 21 33 31 23 30 18 25 29 35 26 18 32 23 35 32 38 23 21 25 38 18 29 29 35 30 31 21 24 28 33 22 28 22 19 26 29 28 24 30 18 24 32 20 34
33 25 18 35 37 19 23 33 29 35 35 22 29 26 23 23 19 28 24 36 27 24 19 34 28 32 20 20 24 28 19 20 31 29 19 21 26 30 32 23 38 25 21 28 20 25 35 25 33 32 25 27 19 37 24 32 29 18 33 19 33 22 31 25
26 32 23 22 18 36 28 21 20 19 26 33 37 18 33 30 19 22 30 24 35 26 18 21 35 20 32 18 18 28 22 20 38 30 35 24 18 30 19 27 30 27 20 20 22 21 38 38 25 21 33 32 23 26 19 28 38 35 28 24 18 30 21 33
19 33 30 35 31 32 27 25 33 35 37 33 35 35 38 29 19 31 23 22 32 34 32 18 28 21 34 36 20 34 27 27 35 25 18 29 29 31 23 30 31 32 21 34 38 34 32 31 37 32 32 30 23 26 24 30 34 26 20 31 24 18 30 25
35 36 33 30 32 18 20 19 23 35 32 33 28 35 27 38 35 28 32 25 19 18 22 36 36 31 29 30 24 24 27 36 30 37 18 34 18 29 38 33 37 30 19 25 35 26 38 27 18 21 22 36 31 27 23 37 34 31 34 37 23 36 20 30
37 37 22 26 28 22 30 34 26 29 31 28 32 25 24 36 18 27 33 25 36 32 24 34 36 21 23 24 28 29 21 38 32 31 34 22 33 22 38 21 38 33 31 18 30 31 26 23 37 23 27 22 33 21 18 19 32 29 24 22 36 32 37 30
29 21 31 38 38 19 28 21 19 26 28 20 23 26 23 26 26 33 35 37 36 30 28 26 28 31 31 30 23 35 30 23 28 34 33 21 32 31 30 26 19 29 19 37 31 34 27 37 18 34 32 30 29 37 30 18 21 33 36 36 36 23 32 25
29 22 23 18 20 38 38 19 26 28 31 36 35 23 38 23 27 20 26 33 24 26 23 18 29 20 20 36 38 23 25 20 37 30 30 20 29 23 20 33 38 29 24 18 29 26 30 34 34 23 28 30 31 27 31 24 38 34 32 19 23 20 33 34
24 37 18 24 29 34 28 37 27 20 20 18 26 29 20 24 35 21 20 36 30 38 37 33 22 19 30 22 24 28 31 20 29 26 22 36 23 36 20 30 36 21 26 24 37 30 34 33 18 26 35 38 27 18 23 21 34 37 30 23 20 19 30 25
29 38 20 36 34 27 32 28 34 22 27 24 29 32 29 34 32 19 31 21 21 26 18 19 33 34 27 28 19 28 31 30 35 37 30 34 25 31 19 28 27 18 25 35 31 20 21 22 30 33 34 32 38 30 35 30 29 29 30 37 25 31 36 32
36 35 24 36 33 28 23 25 38 30 34 31 38 19 18 21 27 31 33 27 37 26 25 37 26 21 27 19 18 38 32 38 22 24 37 32 27 32 22 19 32 19 38 22 30 28 29 32 26 30 20 24 26 28 27 33 26 21 21 26 33 31 37 27
