P2
64 64
255
34 34 28 25 32 29 36 34 26 25 29 30 34 24 23 30 38 30 20 26 23 22 37 31 22 26 30 36 32 36 21 18 21 29 20 28 38 32 36 33 35 18 22 31 22 38 35 25 29 20 35 23 25 26 30 18 21 21 31 26 36 37 20 30
35 27 23 25 19 20 22 28 32 19 22 32 24 27 33 21 23 35 35 31 28 27 24 29 31 28 36 21 28 26 22 19 26 38 23 36 23 30 20 35 34 24 20 35 21 30 27 35 26 25 30 18 28 18 31 25 35 27 31 28 33 24 33 37
24 19 29 19 22 28 33 20 19 27 26 22 20 27 20 27 29 23 33 33 36 36 33 29 28 35 33 32 36 37 20 27 25 23 28 37 33 31 28 30 30 32 31 34 38 36 19 21 32 28 21 21 33 31 36 25 29 37 24 37 26 22 27 27
31 27 30 24 29 25 24 25 34 26 34 36 18 35 32 30 20 18 25 22 27 38 33 18 30 21 29 29 36 32 21 22 19 37 27 31 34 25 35 20 37 20 24 28 31 29 23 30 18 36 26 26 26 38 29 21 38 33 35 35 38 30 37 30
26 26 27 34 19 24 35 35 18 37 25 23 38 23 21 30 28 20 30 27 20 38 38 18 25 25 32 20 29 33 33 32 32 22 23 26 21 25 20 35 19 30 28 21 18 23 20 31 28 29 33 24 32 31 31 34 23 27 24 34 30 34 38 23
30 31 24 22 27 25 21 28 24 31 35 22 28 25 29 35 28 28 37 24 21 26 31 33 27 34 31 26 20 27 25 27 33 30 30 24 30 23 21 18 25 36 31 36 35 29 19 32 29 20 23 32 38 32 21 35 24 26 28 37 36 26 35 26
24 24 36 27 19 28 27 31 18 21 25 18 24 28 18 33 27 18 30 26 23 32 22 23 31 19 22 21 33 26 24 21 26 19 31 19 18 22 33 21 29 33 20 38 38 33 18 19 30 37 34 22 20 33 33 19 27 22 36 20 31 38 35 30
20 21 26 26 29 30 35 22 28 26 23 32 32 35 36 37 24 34 35 33 35 32 33 18 32 37 20 31 23 30 38 34 24 37 28 30 38 26 34 18 22 32 27 30 18 36 26 35 35 21 22 37 20 19 34 35 23 24 23 21 21 35 31 32
33 25 33 21 21 36 32 24 30 21 32 38 38 33 18 36 31 35 29 30 26 19 35 35 30 18 22 33 35 31 34 18 33 34 28 37 22 36 38 36 25 37 35 31 38 21 24 29 23 35 35 20 29 34 32 27 20 32 18 24 18 27 31 24
25 26 36 27 34 18 27 19 34 36 32 18 19 31 26 37 18 37 22 24 34 20 21 27 18 29 36 28 34 24 27 38 35 27 26 31 31 35 34 37 32 26 32 28 21 23 37 28 27 36 18 30 31 27 29 21 28 30 20 37 29 24 30 19
23 19 23 30 37 25 36 30 19 30 29 27 24 34 22 27 37 31 26 37 19 26 33 20 23 28 34 36 35 32 21 21 21 35 20 23 35 34 29 37 27 36 30 34 26 18 30 31 23 33 33 23 28 29 34 28 33 23 19 37 36 38 21 18
22 20 24 23 22 31 21 36 25 28 37 38 33 25 32 19 36 32 27 23 36 25 34 23 37 37 36 26 25 24 36 36 30 29 21 38 26 32 36 22 31 28 23 25 33 22 36 34 28 35 20 29 31 25 27 24 30 18 26 36 26 34 34 31
33 25 25 34 30 29 18 30 27 32 30 31 20 27 19 32 36 30 37 35 37 30 29 24 21 27 23 30 30 18 23 21 34 30 36 35 25 30 34 29 24 19 24 36 34 26 27 30 38 18 29 31 20 19 27 29 33 21 27 29 26 21 20 32
18 36 26 31 29 30 26 24 19 27 33 20 36 23 27 25 32 25 23 24 18 21 29 37 29 31 22 24 31 22 22 25 28 34 36 30 27 27 20 26 33 34 23 29 25 25 31 34 36 25 25 23 19 36 20 24 38 22 34 32 31 19 34 35
20 19 23 33 24 27 27 24 20 25 29 23 24 30 21 24 37 21 27 20 33 38 36 24 35 36 27 22 22 38 26 23 32 32 35 32 37 30 37 37 23 37 32 37 28 28 34 37 30 18 20 30 23 18 37 25 23 32 25 19 28 19 19 27
37 29 27 28 34 35 32 23 20 24 29 28 37 25 18 30 29 27 23 28 37 31 31 19 18 21 25 23 24 34 28 38 19 29 24 30 30 18 19 24 21 31 35 30 37 28 33 27 19 28 26 20 38 18 21 38 34 18 19 36 29 29 37 33
36 18 33 34 25 25 30 35 21 25 27 21 28 19 29 21 22 24 24 31 30 37 21 29 19 19 24 20 32 32 35 28 33 28 32 29 25 21 27 28 37 22 22 19 31 18 22 25 26 28 37 32 32 19 19 36 20 36 28 29 26 26 28 26
23 20 30 25 23 32 35 37 19 34 26 30 23 29 35 24 31 19 36 23 30 24 20 29 18 34 28 25 24 21 27 22 24 32 24 27 21 21 31 33 29 26 25 33 25 34 34 26 19 31 28 26 18 33 26 38 33 38 21 27 23 27 34 27
19 26 22 27 37 23 29 27 36 22 30 28 18 37 23 26 29 38 38 29 36 27 35 26 30 36 28 34 26 36 22 27 22 20 19 18 24 31 35 36 26 21 20 22 18 24 20 34 28 35 18 25 30 24 18 32 34 28 32 29 23 26 30 24
28 26 22 34 33 24 35 37 22 31 28 37 32 38 27 25 21 25 40 35 32 30 25 35 29 21 20 21 32 25 18 38 32 29 34 38 31 34 34 20 31 39 22 39 37 38 27 21 26 25 21 25 27 19 32 21 24 24 25 22 32 18 32 22
31 33 24 20 33 36 21 33 25 19 21 31 23 36 27 23 31 44 42 43 39 33 31 32 24 33 39 25 29 24 20 26 32 21 21 23 34 30 29 41 41 36 43 44 39 31 32 29 38 27 32 37 34 27 34 23 26 24 22 33 24 20 36 18
33 38 37 21 23 22 22 37 30 32 21 21 30 29 43 27 38 32 35 41 31 47 36 40 43 43 40 36 30 36 18 31 39 40 26 27 41 29 42 41 41 33 36 45 36 39 32 46 35 25 26 37 32 34 25 19 18 31 23 28 19 29 22 27
38 25 30 31 25 30 20 20 32 20 23 39 28 26 29 37 30 49 50 33 45 52 52 37 39 46 30 31 42 25 41 44 40 42 43 36 52 44 42 58 36 43 46 40 46 38 43 34 32 40 42 34 33 21 20 37 28 25 28 19 22 24 24 18
38 36 25 18 31 37 32 20 32 25 20 39 37 34 37 34 38 52 48 50 40 50 53 44 40 44 42 36 28 42 45 40 56 47 54 48 66 61 65 61 49 47 50 38 46 49 43 55 34 44 32 41 39 39 20 33 22 22 37 38 38 22 27 36
19 36 19 21 25 22 37 20 30 31 31 39 29 44 38 49 39 45 44 57 58 50 41 48 54 41 36 47 36 58 48 62 62 69 72 64 64 70 70 64 62 65 67 49 49 46 54 51 39 44 46 49 39 41 28 30 26 30 22 21 26 32 24 29
33 37 36 27 24 20 27 38 28 34 28 36 45 36 51 40 49 58 43 55 52 48 62 44 58 42 39 40 50 47 66 67 69 75 80 71 87 82 75 80 82 65 71 58 61 57 54 51 40 46 53 38 42 44 37 28 35 24 24 33 32 34 24 29
19 20 22 21 37 34 35 25 27 38 41 31 40 41 42 54 58 50 56 50 67 51 67 49 61 58 43 47 64 74 66 70 79 83 80 89 100 93 83 89 83 79 66 60 58 55 58 57 49 43 45 35 35 45 42 28 25 26 29 20 31 26 18 18
25 18 26 31 30 38 30 32 39 36 35 36 35 45 57 55 55 62 59 56 66 53 61 68 63 52 59 56 61 61 62 79 80 101 112 112 107 100 92 87 101 97 70 79 73 71 71 53 61 51 48 53 34 50 40 40 35 25 32 18 35 20 36 33
24 24 32 19 33 23 18 37 40 29 43 42 36 56 44 48 59 60 73 59 64 75 75 74 67 68 61 72 68 72 95 99 125 137 138 140 120 115 122 100 98 98 80 90 83 65 59 56 67 48 52 51 42 34 35 37 25 26 22 32 34 32 19 27
28 23 26 36 21 32 18 36 23 45 31 47 52 52 58 61 51 66 58 72 78 75 74 64 55 65 72 67 71 89 101 124 135 164 170 154 153 150 130 110 97 103 86 88 77 71 75 60 61 55 62 57 55 48 37 39 34 37 38 34 18 25 33 38
25 24 28 30 37 36 20 31 39 40 41 40 57 49 46 61 63 74 78 83 76 80 81 74 64 60 74 76 75 98 134 143 164 183 178 184 171 162 141 135 118 109 93 93 81 73 78 62 55 70 62 48 44 39 40 33 40 28 25 36 22 24 20 27
38 29 33 38 25 30 33 28 36 39 41 54 42 60 50 67 55 70 81 79 69 68 66 75 65 57 73 80 103 112 140 160 187 189 202 201 198 175 150 123 111 114 103 96 87 70 63 78 71 62 54 53 40 41 45 41 38 35 32 18 38 31 30 20
25 22 30 31 20 24 33 35 37 36 52 43 47 54 52 54 65 73 70 82 82 80 86 81 70 70 77 78 100 133 148 177 196 218 211 212 201 168 160 129 112 110 94 101 90 86 71 61 61 57 58 55 50 53 37 31 28 31 28 35 29 32 30 28
38 36 19 28 22 33 18 31 34 34 33 53 54 48 57 61 74 76 65 77 79 73 70 75 77 66 55 70 100 116 151 182 204 223 215 223 198 170 161 131 115 108 92 83 81 85 75 77 66 51 67 53 49 54 31 45 40 40 32 34 38 36 21 23
35 18 38 19 37 36 32 21 33 39 46 49 46 42 63 56 55 63 73 72 71 67 70 62 57 54 59 80 101 110 152 172 190 207 221 197 194 180 158 125 119 106 97 90 85 72 74 68 72 69 61 54 57 37 38 29 26 34 28 20 22 19 35 31
22 28 33 26 27 32 28 23 39 34 36 52 53 48 52 63 61 71 64 71 74 80 66 67 54 66 58 59 81 100 133 160 170 180 186 193 169 149 143 125 98 85 71 75 75 72 75 64 59 53 48 60 53 43 46 37 33 23 28 34 38 35 38 31
19 26 35 28 19 18 27 26 30 34 37 43 56 51 54 53 61 58 64 73 70 63 65 54 63 60 60 54 80 91 108 137 145 166 159 169 147 133 128 99 103 91 80 72 75 63 55 67 54 61 61 44 40 48 30 42 39 33 26 34 33 38 37 30
24 19 29 31 29 19 32 25 25 27 42 44 44 51 50 56 53 55 65 54 71 68 66 60 50 50 48 54 65 79 83 114 126 134 134 132 119 122 106 91 77 80 58 65 54 62 51 62 60 44 55 40 49 48 30 43 29 28 19 18 27 21 34 18
30 24 25 20 36 25 32 30 19 41 44 45 39 43 57 54 58 48 58 65 53 53 63 65 54 52 50 41 47 68 69 72 93 92 105 93 87 101 93 80 59 54 61 58 55 48 51 55 43 58 50 35 35 35 27 26 25 34 28 18 38 22 28 25
31 33 30 18 20 34 38 34 24 20 34 27 41 35 55 50 43 44 62 65 64 49 55 43 45 52 57 35 51 44 58 49 66 74 73 82 70 82 59 50 56 52 49 47 55 57 43 61 51 56 41 46 45 33 23 33 27 21 19 20 36 24 33 30
29 38 38 25 38 22 30 34 32 37 34 25 29 36 48 40 42 47 51 44 51 42 60 48 43 40 42 49 41 48 48 52 44 59 48 46 47 47 51 42 57 47 43 52 41 61 51 56 44 50 41 38 34 28 35 38 23 22 26 21 34 31 23 26
23 38 29 28 31 26 21 26 24 18 39 24 43 27 33 38 41 43 51 52 51 40 46 47 55 43 42 34 42 44 38 40 27 35 37 34 37 42 49 43 46 38 51 50 37 56 46 47 50 40 49 38 44 35 38 27 28 29 20 18 21 23 30 24
26 33 30 23 24 23 37 19 35 19 21 28 30 38 27 29 33 43 49 43 37 48 43 39 36 40 40 42 40 37 34 28 34 23 27 22 36 42 45 37 45 39 47 42 37 43 36 41 32 45 38 39 39 37 25 28 34 26 29 21 37 36 38 27
36 35 38 23 18 38 18 35 18 38 33 38 36 34 34 33 33 47 38 31 37 32 30 30 31 33 30 36 22 18 38 33 26 35 28 28 39 39 37 33 27 30 29 47 36 32 31 33 43 32 36 31 24 24 21 22 24 22 18 20 24 35 38 38
26 32 22 35 23 26 19 37 20 25 27 26 18 29 34 29 38 35 41 35 37 38 41 38 41 25 39 34 22 19 23 35 21 36 19 26 26 35 28 25 40 27 36 42 39 42 29 29 27 26 21 26 21 26 18 33 36 38 30 21 36 30 35 25
34 18 22 28 25 27 22 32 18 21 20 37 29 34 38 24 30 36 40 25 22 34 27 29 35 21 32 32 27 18 34 35 22 30 23 28 29 21 37 19 40 27 40 36 30 41 23 37 19 26 25 37 27 30 37 38 34 33 32 21 29 26 30 35
30 33 21 21 30 23 28 19 21 33 34 35 27 21 30 36 27 21 24 26 29 29 31 25 25 27 26 33 22 23 26 26 18 25 37 26 23 32 31 30 36 26 20 18 26 25 30 33 24 33 24 29 32 36 27 34 20 30 31 36 37 33 38 19
18 33 30 25 37 25 38 30 22 19 31 33 35 26 28 38 24 28 21 31 29 32 18 33 19 18 36 23 18 21 34 32 33 20 33 23 24 35 34 33 36 31 36 25 19 28 22 25 28 36 20 35 18 25 32 27 32 31 27 34 33 35 29 19
18 23 29 24 33 21 32 36 34 20 38 18 34 30 31 23 20 20 37 25 30 34 29 33 34 26 21 31 35 19 31 25 31 35 36 24 20 21 33 37 18 34 38 18 26 35 26 25 32 32 18 23 25 34 21 34 28 31 33 23 32 33 23 30
32 20 18 36 24 38 23 28 18 32 21 24 32 31 19 27 38 35 31 29 29 19 29 34 30 37 18 18 33 19 19 23 28 30 27 32 19 26 33 19 37 19 24 25 33 36 30 31 21 37 36 31 21 29 23 18 32 30 31 31 36 27 20 33
38 35 24 23 23 38 38 38 26 25 19 30 21 18 32 22 32 20 25 22 37 37 29 24 30 25 18 23 32 33 33 18 35 29 24 28 32 19 27 38 30 32 18 28 35 37 22 36 33 28 37 31 19 33 33 30 34 26 34 22 33 30 25 20
22 28 25 27 33 32 28 25 23 23 20 24 37 20 20 33 20 30 38 26 18 28 23 25 19 25 20 24 35 30 22 38 28 21 24 34 20 18 37 24 21 30 26 21 22 20 24 20 22 35 34 26 23 26 24 35 19 35 25 25 31 19 18 35
36 29 24 22 32 30 24 26 21 30 20 34 33 20 21 24 34 37 36 20 37 20 23 30 22 23 24 36 28 36 35 28 24 23 36 22 21 20 18 32 27 21 29 22 37 18 30 21 26 23 31 27 22 26 34 26 35 31 21 22 27 37 26 28
36 30 28 32 22 24 19 31 25 24 21 25 29 33 24 37 32 23 28 31 28 23 32 22 38 30 24 32 23 34 25 29 22 20 21 21 38 31 36 26 36 31 35 27 24 30 32 34 38 34 30 30 33 18 29 36 24 29 26 23 18 29 18 34
26 36 22 37 25 25 36 32 37 21 21 23 25 28 38 26 31 38 33 38 24 38 36 37 18 24 26 25 32 22 29 37 18 27 31 38 24 18 37 37 29 26 23 38 21 27 23 22 38 34 27 26 26 21 18 20 33 26 36 33 19 33 25 24
21 22 21 18 19 28 27 37 34 31 21 18 29 36 35 18 25 19 30 37 18 31 36 20 23 19 32 29 19 27 32 19 37 28 33 29 18 23 38 20 38 33 28 38 30 24 28 21 18 33 35 33 33 32 32 29 21 23 25 38 38 30 26 28
24 23 25 31 32 29 38 37 19 34 23 29 18 18 32 36 38 38 19 36 36 28 26 25 29 36 31 19 32 26 28 32 33 36 21 18 25 28 23 19 18 34 21 20 19 30 33 18 28 22 37 26 37 34 37 25 29 23 27 20 19 23 30 19
20 37 32 19 22 27 26 18 31 33 25 30 25 33 21 27 34 18 30 22 30 24 38 27 31 35 29 34 21 24 33 30 23 28 30 31 22 30 33 24 22 28 27 23 26 25 30 34 29 34 30 21 20 31 37 31 25 36 18 33 28 24 20 38
31 38 26 20 22 30 25 21 32 23 32 26 38 26 29 33 25 23 22 18 21 35 29 31 28 28 21 22 21 21 34 20 21 26 35 27 36 23 31 22 19 27 26 34 37 35 37 21 34 36 22 26 31 30 32 19 35 31 23 38 28 33 37 20
25 31 35 22 30 36 24 33 24 18 22 22 33 22 20 24 27 23 30 35 32 28 22 33 32 22 23 31 26 20 37 22 18 19 19 30 24 28 31 31 35 34 19 30 31 36 20 25 36 25 26 22 24 27 33 22 30 25 22 31 20 32 24 26
32 34 28 33 35 24 24 23 36 21 36 29 26 22 24 27 33 30 30 18 32 28 21 20 22 36 34 27 25 32 20 37 19 22 37 19 20 28 30 25 28 27 30 25 36 24 26 29 22 21 35 26 21 28 21 30 27 24 30 34 21 19 36 34
32 19 21 30 35 21 33 27 21 27 35 35 20 18 30 31 23 21 22 30 26 24 23 18 23 18 25 22 18 34 37 24 36 29 30 19 18 33 23 31 29 24 22 24 29 33 38 22 29 26 32 30 24 20 31 25 32 37 23 28 38 19 23 19
19 18 28 22 38 38 19 23 31 18 27 20 32 25 27 21 28 25 25 37 22 34 22 18 36 19 36 38 23 22 37 25 31 28 27 32 31 23 31 25 36 28 28 33 35 18 29 22 31 25 31 23 21 32 21 32 31 36 32 38 35 37 30 38
32 35 29 18 26 35 25 37 19 32 27 29 37 29 32 36 27 21 26 35 22 38 30 18 18 33 28 37 30 37 23 31 18 24 26 26 33 27 19 19 20 24 35 28 36 31 34 32 26 38 21 32 34 24 22 36 33 25 25 33 21 18 22 21
