P2
64 64
255
18 15 19 21 19 26 20 23 21 22 17 17 20 22 19 17 20 15 26 15 22 23 22 18 23 17 17 23 23 24 25 16 26 17 23 26 25 17 22 19 21 16 23 20 14 16 19 26 14 24 25 24 18 22 15 23 24 26 15 25 18 24 16 24
18 23 19 24 14 19 15 15 20 18 25 22 20 15 16 18 22 22 18 26 22 19 15 21 21 21 18 15 21 25 26 22 22 16 26 20 20 17 20 16 15 15 16 25 23 20 26 18 19 19 23 24 24 15 21 19 19 16 14 20 15 21 24 19
17 24 26 26 17 23 24 23 26 20 17 16 15 18 16 20 17 16 15 14 18 14 18 20 14 25 18 19 21 15 18 25 26 26 17 23 20 16 22 20 26 23 26 15 26 19 24 16 17 20 25 16 21 26 17 26 22 16 19 16 21 22 14 25
14 21 22 18 20 26 16 22 26 20 21 22 22 14 15 15 23 19 18 25 23 18 17 25 19 17 20 26 25 23 16 22 23 16 24 20 23 24 22 18 18 19 19 25 14 21 24 23 22 25 22 22 18 25 26 22 24 25 25 24 20 18 15 20
14 24 14 15 25 21 20 14 19 23 17 16 16 19 18 23 22 21 20 26 17 19 19 23 18 22 26 17 18 22 15 18 15 14 24 14 21 23 20 15 16 23 18 25 14 24 17 17 25 22 22 14 17 18 23 17 14 18 24 23 22 21 26 23
19 16 14 23 17 19 17 23 23 26 25 26 16 23 22 20 16 14 23 14 23 24 19 20 24 17 14 22 24 15 22 21 18 25 25 19 23 15 16 16 22 20 17 23 24 14 26 22 26 20 15 21 26 21 18 17 15 21 19 18 20 16 18 25
16 26 25 21 21 17 26 16 19 19 21 23 25 19 19 21 14 25 20 24 22 26 24 24 14 23 26 17 18 22 20 24 15 18 19 15 20 18 25 15 21 14 23 25 16 21 20 14 20 14 21 25 17 14 19 26 25 14 16 21 20 21 14 14
18 14 21 16 18 21 21 24 14 26 19 15 16 20 21 24 18 23 15 14 25 17 21 26 22 20 15 19 18 18 25 25 22 18 25 20 21 15 21 25 22 21 20 25 14 18 26 23 16 25 17 14 24 21 26 26 14 15 24 20 26 18 18 20
22 19 23 26 26 21 18 16 14 21 20 15 23 26 22 17 15 23 18 14 24 14 18 26 25 18 22 25 21 18 16 24 18 20 20 17 19 16 20 17 20 16 21 18 21 22 26 21 16 23 21 19 14 16 14 21 25 26 24 25 21 22 17 15
20 14 23 14 15 19 20 21 21 23 15 16 21 18 22 26 22 15 18 20 20 19 15 18 25 22 24 23 23 21 21 26 21 17 19 20 25 18 14 15 15 26 16 26 18 25 26 14 24 14 22 17 26 14 14 26 24 15 21 25 14 24 23 19
20 21 25 23 22 18 24 24 24 22 15 22 20 22 15 15 15 21 21 17 24 17 25 15 16 17 19 20 19 24 24 19 21 15 22 16 25 23 24 18 25 24 24 19 15 15 15 19 26 16 14 19 24 17 20 20 25 19 18 17 20 17 15 21
22 16 21 18 18 22 17 26 18 16 19 16 17 16 24 22 14 15 20 22 26 26 19 21 20 26 14 22 25 19 22 14 15 18 23 14 25 14 25 26 17 25 19 19 26 23 16 22 15 20 18 21 26 21 21 19 19 21 21 26 21 18 17 19
16 17 14 20 21 15 19 23 23 23 25 22 14 24 25 22 26 24 25 17 17 26 26 21 14 19 22 22 25 15 21 18 14 16 14 16 18 17 14 22 26 20 25 17 14 18 19 21 17 25 24 16 19 17 16 17 21 21 23 15 24 18 25 18
21 20 16 25 21 15 18 25 26 19 15 14 24 16 21 18 15 14 20 14 20 25 22 26 18 26 16 16 21 16 26 24 14 24 21 21 15 14 17 19 18 25 25 20 20 17 26 17 23 15 17 21 23 17 20 22 25 26 18 20 26 15 21 20
16 26 19 14 25 26 19 14 14 17 24 21 23 14 26 24 20 25 20 16 19 26 19 19 18 23 15 24 26 22 23 14 20 21 15 16 24 15 19 14 18 21 23 14 25 20 14 14 25 26 20 22 16 25 20 14 26 22 23 25 17 20 17 16
25 14 21 19 16 26 23 17 25 24 21 23 21 22 14 21 25 24 19 23 15 19 14 25 20 21 15 21 15 26 19 15 22 17 17 22 17 26 18 22 18 16 25 20 18 21 20 25 24 22 18 21 23 14 24 19 23 23 20 22 20 14 21 24
25 19 20 19 18 14 20 20 24 14 14 23 18 23 23 25 21 25 20 18 16 25 21 18 26 14 26 26 26 17 23 15 17 16 18 19 21 24 15 15 15 23 15 21 22 14 18 20 19 24 23 15 19 19 15 23 15 19 22 14 22 18 23 14
21 16 26 26 16 16 18 16 24 23 19 17 17 18 20 23 24 21 15 20 18 21 22 25 22 18 15 19 15 21 19 16 24 24 18 16 25 14 24 21 18 18 19 22 26 14 16 14 14 14 15 23 18 15 17 25 19 16 19 25 23 14 21 17
22 25 18 21 26 20 21 16 17 14 16 14 24 17 26 26 23 26 16 21 25 18 18 26 20 18 16 24 20 18 24 14 15 20 15 19 20 20 20 14 23 18 14 23 17 19 26 19 26 15 19 17 14 19 24 25 19 14 21 19 21 17 23 14
22 21 15 26 20 15 26 24 14 20 19 20 24 24 16 24 21 23 28 27 26 24 27 21 18 21 16 23 17 26 15 18 18 21 15 25 15 23 15 19 19 19 27 29 18 25 26 28 15 20 21 26 26 22 14 19 21 18 23 23 22 19 15 21
24 21 19 18 19 20 23 18 19 16 16 14 26 18 19 23 22 28 32 26 29 28 29 27 29 30 27 23 18 17 21 20 15 23 15 17 14 17 25 27 30 25 32 29 23 22 29 29 29 27 21 20 25 15 17 20 23 15 17 20 19 21 14 24
14 18 24 16 26 17 17 25 16 18 20 18 14 21 25 20 22 32 36 31 32 30 30 31 25 25 20 23 25 17 15 24 15 23 15 25 27 24 28 25 23 29 28 28 33 31 30 29 24 29 19 29 21 19 22 16 22 21 25 22 17 26 20 16
16 19 14 20 20 16 20 16 16 25 15 26 29 25 23 30 28 35 31 33 36 32 33 31 34 29 26 25 25 29 20 24 17 21 24 17 25 33 35 38 39 40 35 31 31 40 34 28 31 34 27 28 17 16 25 22 22 21 17 26 18 14 16 21
24 24 24 15 15 18 20 15 22 26 17 22 30 23 33 35 41 35 40 42 36 37 38 32 43 33 34 35 34 29 21 18 16 26 29 29 24 32 30 39 41 43 37 45 43 33 37 33 37 38 27 34 27 23 20 20 20 23 23 20 25 22 23 18
22 20 14 20 25 20 26 25 15 15 26 22 28 38 32 36 34 43 43 42 46 38 44 46 46 36 31 33 35 27 31 24 14 29 21 23 32 38 42 40 41 42 37 40 47 49 44 34 39 36 38 33 29 20 27 16 21 20 24 24 25 15 25 15
19 16 24 19 18 23 16 22 21 22 19 30 31 29 34 43 46 48 39 51 48 49 53 45 49 44 46 40 32 32 29 30 18 29 27 36 35 38 40 46 38 46 42 42 43 53 40 49 39 37 40 35 26 33 22 21 15 23 15 21 17 18 15 19
19 17 25 18 14 25 19 21 15 24 33 35 31 43 34 40 46 53 53 49 55 51 54 55 50 39 42 36 37 40 25 24 25 33 36 30 43 42 39 40 53 48 55 56 51 56 43 48 49 47 39 36 32 26 23 29 16 20 20 21 22 23 22 22
21 23 17 18 24 22 20 20 24 23 28 33 36 42 45 48 43 52 50 51 50 49 56 59 47 49 41 40 40 31 37 37 29 25 34 39 33 46 42 44 45 53 52 53 53 57 50 46 53 45 46 42 31 38 31 30 28 24 17 21 24 16 21 24
17 24 23 23 22 26 18 18 18 27 33 34 35 41 40 52 49 51 58 55 62 62 56 51 53 47 53 43 43 42 39 35 40 40 36 34 46 49 42 50 56 56 62 53 60 63 62 54 57 53 43 35 44 28 29 25 20 21 18 19 19 18 19 19
16 21 24 26 20 26 23 16 18 28 30 32 37 39 47 45 58 51 57 59 60 63 60 65 62 57 53 45 49 38 33 38 40 35 41 33 46 52 53 47 53 55 63 63 57 57 55 51 50 46 48 38 43 42 32 34 24 16 19 26 19 20 19 19
15 14 21 17 19 14 17 23 21 34 30 40 35 39 43 52 49 64 59 69 62 67 70 57 53 56 47 42 47 37 41 38 37 38 33 34 46 47 46 50 59 57 59 66 61 68 58 61 58 57 52 45 44 33 34 24 20 24 18 22 22 21 23 18
16 24 21 26 22 26 20 24 29 27 31 36 36 48 46 50 60 63 60 69 73 65 64 66 58 55 47 53 46 42 37 37 42 43 39 39 50 48 58 61 66 70 67 75 66 73 66 66 59 50 52 48 46 42 29 23 23 25 25 15 26 14 16 22
26 18 26 22 23 17 20 16 31 30 31 31 43 40 52 50 58 55 66 64 74 68 67 59 55 54 47 47 45 40 44 44 44 36 40 38 44 43 56 59 66 71 73 73 78 73 68 63 55 59 45 49 44 38 35 25 28 18 20 22 26 15 21 20
14 22 24 14 15 17 24 28 24 24 27 42 42 51 48 58 55 57 68 74 71 72 69 67 56 56 47 55 40 45 34 39 36 38 40 40 50 46 56 50 57 65 63 68 64 68 58 64 52 58 51 48 47 35 38 30 24 19 26 23 21 23 21 14
23 24 16 15 19 16 20 24 21 30 35 39 44 41 44 53 59 65 67 65 72 63 62 56 62 59 54 42 39 46 40 38 41 39 43 34 44 52 56 55 63 56 63 70 72 63 62 58 49 57 47 44 34 41 39 28 29 21 19 22 25 14 24 23
17 23 21 15 24 21 15 15 19 30 28 30 39 41 53 56 54 61 60 58 66 59 56 62 55 54 54 51 41 33 38 39 39 39 36 45 44 45 44 56 62 62 56 69 67 66 62 53 56 53 47 40 41 40 34 31 27 25 21 22 25 23 24 20
20 19 21 19 14 21 15 14 20 23 37 31 37 47 39 54 45 52 51 60 53 63 56 51 51 56 42 51 40 41 35 33 37 34 36 43 35 44 54 46 53 53 53 58 64 60 53 60 52 48 46 41 39 38 34 21 29 17 16 24 18 14 18 20
26 26 22 17 17 25 15 16 18 24 29 33 31 36 49 43 54 47 52 58 54 61 53 49 50 49 42 40 38 32 28 37 27 33 28 39 42 39 51 53 47 50 51 58 53 52 47 53 54 46 49 38 30 38 34 23 24 19 22 18 25 18 24 18
26 22 14 19 19 16 18 18 22 21 30 26 33 38 43 47 47 43 51 53 47 53 49 48 45 46 40 39 38 28 36 29 23 32 27 38 38 37 47 46 47 45 55 46 47 50 45 41 46 45 46 34 28 25 28 18 20 26 14 18 17 25 14 23
21 29 22 23 19 21 28 19 19 27 23 35 35 32 44 40 49 42 49 51 46 54 47 50 54 48 47 42 43 30 27 26 33 25 27 39 44 39 46 49 51 49 57 47 54 57 47 47 47 40 39 45 41 38 34 29 27 25 21 27 23 20 29 29
28 26 22 28 28 24 28 29 24 27 27 28 35 39 39 39 44 44 51 49 52 58 49 46 54 42 42 39 39 35 29 36 33 28 30 38 42 50 49 48 49 54 52 56 55 57 53 47 49 48 41 44 41 36 41 27 30 34 29 32 28 37 29 35
35 33 32 36 27 29 30 25 26 37 34 40 41 35 38 46 44 51 46 51 48 47 52 53 44 43 46 50 49 44 37 35 36 40 42 46 50 50 49 48 51 50 55 60 57 54 48 54 49 44 46 48 49 45 43 43 37 37 32 36 33 39 38 42
24 30 30 30 23 33 30 25 29 26 28 26 35 27 39 44 35 40 44 43 37 48 47 44 39 43 38 40 33 38 30 25 32 35 25 27 31 42 43 43 46 50 49 48 41 50 40 48 42 36 41 38 29 38 36 37 30 29 32 33 37 29 34 30
20 25 26 20 25 24 18 26 24 22 21 28 20 22 24 30 35 30 34 39 31 32 38 39 38 29 27 30 20 18 27 24 25 25 28 20 29 29 30 34 32 40 32 42 39 34 30 34 39 35 24 34 29 30 27 30 27 32 25 20 22 28 21 24
24 19 16 20 15 19 22 19 16 17 24 20 22 18 22 26 19 31 29 33 33 32 23 23 26 30 22 27 14 17 16 26 18 20 19 25 25 15 23 27 29 21 22 25 29 21 22 28 20 22 20 25 20 18 25 18 19 25 23 17 20 16 24 23
26 20 17 25 21 23 20 15 21 14 23 20 15 16 21 20 18 26 29 29 30 28 20 22 26 26 26 20 22 21 23 17 21 16 19 26 19 16 22 15 27 22 26 24 25 28 19 28 24 15 16 15 26 19 22 20 25 25 16 15 16 16 26 17
19 23 25 17 20 15 15 20 21 19 23 24 22 25 20 22 21 18 18 21 21 19 19 15 23 17 24 18 16 22 18 17 19 21 24 16 19 16 19 20 25 25 21 26 19 17 17 16 26 25 25 23 23 15 23 21 16 18 25 20 20 26 25 15
19 22 19 22 26 17 16 23 18 14 25 18 22 16 22 15 19 17 17 20 17 18 25 19 22 20 26 22 23 16 23 25 24 15 15 20 26 24 15 24 25 16 15 20 15 18 16 19 14 16 26 16 21 17 24 21 16 21 19 25 23 14 25 17
17 21 24 22 18 20 20 16 25 14 15 21 21 17 19 20 20 24 25 17 26 20 24 22 23 22 26 21 20 19 15 22 26 19 14 21 20 21 23 17 17 14 14 14 21 14 26 26 20 17 14 19 19 19 17 21 16 18 16 23 16 17 16 23
26 25 21 24 26 20 18 21 20 24 15 17 16 23 26 25 19 14 18 20 17 17 18 15 23 25 23 15 22 19 21 21 17 26 19 21 19 14 25 15 24 23 16 22 21 17 14 17 17 16 15 21 18 20 15 24 20 19 25 26 26 25 25 16
22 22 23 16 26 24 23 22 16 25 17 18 17 24 23 16 14 18 23 22 19 17 16 17 22 14 14 22 26 20 16 15 20 26 25 26 23 24 25 21 18 16 15 14 18 21 25 20 22 19 19 18 14 15 25 26 24 25 17 14 16 19 24 14
19 22 24 16 24 20 17 22 16 18 24 22 14 26 20 19 19 23 14 16 24 25 20 21 17 15 22 21 18 15 24 19 25 14 20 21 15 14 16 19 18 26 14 21 20 26 14 19 15 21 21 25 18 24 26 25 18 19 16 14 14 19 26 15
17 16 17 22 18 15 15 21 22 22 26 26 22 16 15 14 23 16 18 15 20 22 19 23 19 17 18 20 23 19 22 23 15 15 14 19 16 23 14 18 15 14 17 15 23 15 25 25 22 22 14 17 18 24 18 18 17 23 15 23 20 23 20 19
26 24 21 22 21 15 16 26 22 18 21 15 18 15 21 15 21 16 20 19 26 26 22 14 22 20 20 18 20 14 17 14 25 21 19 19 20 24 25 21 15 21 17 26 14 21 24 14 17 16 17 22 21 16 14 25 25 17 15 17 26 16 15 14
22 25 14 25 23 18 23 22 22 19 21 26 16 15 14 19 21 18 18 25 24 22 19 18 25 22 22 16 25 14 19 20 24 20 15 17 16 18 16 23 18 21 19 19 26 20 22 17 26 24 15 22 14 25 17 20 17 21 23 20 21 24 14 19
22 19 18 25 18 24 22 25 26 15 14 22 26 18 24 25 17 23 26 14 26 24 21 26 15 20 20 24 17 16 24 18 15 20 25 21 26 19 20 15 25 17 21 23 15 26 18 18 14 25 17 22 24 21 26 23 15 22 14 14 22 14 15 25
15 17 19 24 23 19 17 15 18 17 16 15 26 24 16 18 22 22 22 15 24 18 16 21 26 19 22 16 26 19 19 16 21 26 26 14 16 18 21 14 18 16 20 22 22 22 15 25 25 20 16 15 14 19 24 22 18 22 20 14 17 18 26 18
14 20 25 25 22 26 15 17 18 23 20 20 22 23 21 22 19 20 18 15 23 19 17 26 23 17 23 18 26 15 16 15 23 23 24 25 15 18 14 17 20 20 22 25 17 24 19 22 20 17 25 23 26 20 23 14 20 23 21 15 24 20 24 19
19 22 20 22 25 20 23 16 18 16 23 20 18 14 21 21 14 20 26 21 19 22 24 14 20 15 19 19 24 26 17 26 15 22 14 17 25 16 25 25 21 18 16 23 19 21 16 26 17 22 25 25 26 16 23 19 24 14 18 24 26 15 19 25
17 26 26 26 14 16 25 17 23 22 24 14 22 15 24 15 22 18 15 15 15 24 20 26 25 22 26 16 25 16 26 26 20 17 15 22 21 22 15 26 19 14 23 26 26 14 18 23 17 16 20 23 17 14 17 17 17 23 20 19 18 22 25 25
19 22 25 25 18 20 16 22 26 15 25 25 24 22 18 26 23 26 22 26 26 14 18 21 16 20 20 19 24 21 15 22 26 24 20 15 26 20 15 18 17 25 26 14 24 26 15 24 17 16 19 26 26 25 15 19 16 15 23 24 18 14 17 16
22 19 23 17 24 15 20 14 26 22 24 23 14 24 23 21 20 23 23 17 26 17 15 23 22 24 24 22 21 19 17 26 19 25 16 25 14 18 22 15 18 15 20 21 20 22 17 20 14 23 14 17 15 23 22 17 24 17 20 18 25 14 17 15
20 22 22 21 26 16 15 21 20 15 16 19 14 24 21 15 21 14 24 22 14 26 18 14 19 25 16 21 17 19 26 21 18 21 22 19 17 18 22 16 18 21 24 17 23 14 16 15 17 19 17 23 14 14 24 20 16 16 17 17 17 19 17 16
20 15 24 25 19 21 17 21 21 22 16 26 25 14 21 17 23 26 17 17 26 26 14 21 19 19 15 25 15 25 19 14 20 16 22 15 17 18 25 24 20 25 17 20 14 20 16 16 22 17 22 26 17 17 17 19 24 19 14 19 20 20 22 14
