P2
64 64
255
22 29 31 19 37 32 35 37 20 29 33 19 33 34 24 28 38 19 29 19 19 18 27 23 29 31 26 36 22 27 30 26 24 38 37 20 29 34 29 25 19 38 24 25 24 27 32 30 31 30 27 27 22 23 28 35 27 19 29 18 31 34 19 19
30 36 37 30 25 33 33 28 20 24 37 20 33 18 24 21 18 30 23 18 26 30 28 30 25 18 22 30 21 33 26 37 35 29 26 28 18 18 35 31 24 26 36 27 37 24 28 31 24 30 33 27 38 31 34 38 20 24 38 33 25 32 27 33
33 22 20 27 18 27 25 28 35 23 27 33 38 37 22 32 31 32 18 25 23 30 36 30 29 30 37 38 36 36 20 18 22 23 20 25 34 33 25 18 36 33 29 23 38 36 19 20 28 34 30 22 33 20 35 18 34 38 18 24 26 29 27 23
24 20 20 36 32 24 19 25 21 27 23 22 35 25 28 22 21 32 34 27 30 22 18 33 19 35 25 22 36 20 25 36 38 38 29 21 36 24 29 23 28 24 27 30 18 33 35 24 19 21 30 25 30 31 30 22 36 37 34 18 23 36 21 29
36 38 22 21 33 34 19 26 22 27 29 32 18 30 19 24 36 20 25 34 24 33 33 35 27 21 29 34 23 37 25 27 21 33 37 22 26 34 23 20 33 25 29 20 25 30 23 35 21 24 32 36 33 21 18 26 19 32 19 25 37 35 20 36
29 29 22 31 20 24 30 20 36 29 28 25 18 21 21 23 30 25 21 27 26 26 21 33 27 22 38 34 28 23 18 20 32 35 24 38 28 34 26 25 38 21 30 29 37 22 29 34 20 34 30 33 20 37 37 35 26 24 24 23 34 34 38 27
26 30 20 24 23 24 35 23 36 19 27 37 32 38 29 26 32 32 29 19 33 38 33 29 32 28 32 29 22 34 23 38 38 19 31 33 18 26 31 33 23 28 25 31 34 30 27 22 36 34 19 20 23 35 25 24 37 20 28 27 28 20 32 31
24 25 28 33 21 19 31 31 24 27 34 28 18 19 22 38 18 33 24 32 38 19 33 18 33 38 24 25 19 34 22 32 24 35 26 25 26 21 21 34 20 19 33 18 36 19 37 25 26 30 32 23 38 18 25 22 19 19 33 28 29 33 27 29
38 30 26 37 32 38 20 33 25 22 38 29 36 21 18 24 25 23 24 21 22 30 22 22 34 28 30 37 30 35 24 30 23 21 38 25 24 20 30 23 19 23 25 19 31 20 32 25 38 29 36 28 23 38 28 19 37 24 38 24 31 31 38 38
36 18 19 25 24 24 38 22 33 26 22 29 34 34 28 25 36 24 27 35 29 33 32 21 25 31 23 21 28 31 21 36 38 35 22 36 27 32 34 35 34 35 27 22 24 28 25 38 28 37 27 31 38 30 30 21 22 24 21 38 25 38 33 20
25 38 32 33 20 26 37 26 27 22 29 22 26 29 28 27 21 20 30 34 18 34 23 23 31 36 24 34 25 32 30 35 30 35 20 38 34 30 20 35 20 22 27 37 31 29 25 37 24 20 26 30 18 19 21 25 23 38 18 24 25 36 22 28
25 33 35 38 30 23 19 18 26 22 20 37 32 34 35 37 18 21 20 25 30 19 35 20 35 21 35 24 21 28 33 22 22 37 34 33 20 35 30 28 34 35 34 21 34 35 18 19 38 23 27 34 35 21 35 35 30 29 38 35 37 35 31 23
28 34 32 23 32 28 35 34 27 22 31 23 25 30 19 23 27 19 21 34 20 33 20 19 19 19 31 27 19 21 24 19 33 34 19 23 38 36 20 22 25 31 23 26 28 29 38 31 25 38 24 33 28 23 32 22 30 36 29 18 18 30 23 30
35 23 23 32 23 33 38 24 26 37 20 28 23 20 20 30 32 29 20 23 36 33 23 38 28 20 31 18 25 36 23 18 19 38 28 33 21 29 31 37 38 34 31 33 30 37 23 22 37 24 34 25 18 22 21 26 35 22 28 29 24 37 26 34
23 33 32 18 18 31 27 27 37 20 25 38 23 18 21 20 31 21 29 38 27 25 32 27 23 23 19 36 19 28 25 31 19 20 33 27 38 30 35 27 35 38 24 34 33 22 37 33 33 30 37 20 21 36 23 30 27 18 34 25 19 30 35 26
22 34 38 33 20 28 24 25 34 31 35 36 34 25 24 18 30 24 25 38 34 26 18 38 33 26 27 23 38 23 36 38 28 22 31 23 33 29 25 18 28 23 32 36 25 31 37 26 37 37 34 27 37 38 33 24 20 21 29 21 27 33 36 37
37 23 38 32 18 21 24 37 38 33 30 27 23 37 38 19 33 20 20 38 21 38 33 31 19 22 36 36 26 24 23 25 26 18 33 31 26 28 24 28 28 35 38 27 18 18 34 34 32 30 25 18 38 26 33 26 26 32 27 32 26 28 32 34
19 32 35 32 18 38 28 20 28 30 24 29 26 35 25 19 21 22 33 18 19 36 24 18 30 18 19 20 24 19 19 18 19 37 31 19 37 33 32 18 28 33 28 28 34 19 19 26 37 22 37 22 24 24 34 22 25 35 26 21 38 31 30 30
20 19 25 34 21 18 19 23 33 38 26 35 25 36 24 31 35 38 38 29 20 19 37 34 25 29 33 28 20 20 20 34 30 31 36 36 19 24 35 28 31 26 34 38 19 29 25 18 26 19 18 32 19 30 18 22 31 35 23 19 38 22 19 35
24 30 26 37 36 38 32 30 26 27 23 19 19 30 31 22 24 35 25 25 35 24 40 26 30 37 37 33 27 26 38 26 38 18 24 38 30 31 29 29 33 29 31 29 32 36 31 29 34 38 35 33 26 32 32 33 33 21 26 19 28 36 30 20
21 20 30 34 28 19 26 23 29 25 19 35 32 20 35 34 36 28 37 29 42 35 33 36 42 35 38 27 31 20 32 19 23 39 43 39 27 39 31 34 31 43 45 32 38 45 32 29 39 29 19 26 36 20 26 29 31 22 29 19 36 30 33 18
29 18 24 31 25 36 21 34 23 23 36 36 21 34 37 26 42 31 30 49 49 49 44 30 43 35 35 35 37 36 33 44 47 44 52 38 46 44 45 54 48 41 31 33 44 48 44 35 31 40 23 25 34 31 31 33 27 23 21 31 32 21 36 33
29 32 25 20 37 18 21 27 19 21 22 21 21 39 46 41 50 46 49 35 39 49 44 39 48 42 46 36 38 42 44 38 56 42 54 57 57 59 56 52 60 41 43 34 39 36 35 39 35 31 36 39 35 36 21 37 37 34 34 35 38 28 25 27
21 29 27 23 24 21 23 35 38 35 38 28 35 32 34 48 41 43 48 52 48 56 52 37 44 47 45 49 52 44 46 53 64 65 60 67 63 66 63 77 60 53 49 49 55 54 51 40 34 49 30 38 38 26 30 24 25 20 22 34 29 22 20 34
35 30 22 26 32 34 28 23 20 27 41 31 35 39 49 41 51 58 53 51 60 51 47 46 49 42 41 52 55 51 56 63 71 72 78 76 72 78 81 77 79 59 62 53 48 44 40 57 39 51 38 33 44 39 31 29 20 21 38 31 26 18 20 37
28 23 38 32 38 31 22 21 29 25 24 32 39 42 39 41 45 45 47 62 61 60 45 60 62 58 41 62 52 60 60 63 73 89 91 88 100 93 85 78 91 79 81 64 59 46 57 52 57 47 54 48 47 37 42 38 19 36 32 24 25 24 20 36
22 18 21 35 29 20 20 26 23 32 27 35 50 39 51 55 62 58 51 54 57 61 64 52 58 63 64 61 75 67 78 80 90 84 102 98 94 113 103 101 96 91 84 77 60 59 47 54 52 47 39 52 36 44 44 33 35 21 31 28 24 25 25 27
30 20 36 29 33 31 38 21 23 39 35 37 46 43 48 44 54 60 65 52 55 56 60 51 56 53 56 58 80 73 74 96 91 107 117 121 118 106 102 111 100 89 85 77 65 64 63 62 49 44 48 55 49 43 31 28 30 18 19 18 32 32 27 33
24 27 35 26 20 25 31 30 26 27 47 45 46 57 51 48 59 65 57 58 65 77 69 74 63 63 62 61 73 71 83 103 110 113 122 125 115 114 120 105 97 97 98 81 82 66 73 56 65 52 63 53 37 46 47 35 28 36 32 21 22 37 32 34
31 30 37 31 35 23 24 37 32 28 30 52 46 54 54 67 64 75 71 61 76 68 77 69 78 67 68 68 87 74 86 86 99 112 116 131 129 133 119 104 99 94 94 89 78 75 59 58 55 61 54 61 37 34 44 46 33 34 30 21 29 33 38 23
35 26 24 18 29 25 32 29 30 29 47 42 58 59 55 67 56 64 66 83 76 86 90 88 88 97 83 97 93 78 90 107 113 119 113 136 130 133 117 118 109 106 99 92 88 68 73 60 56 56 63 62 54 53 47 37 24 38 29 31 19 38 26 19
30 24 21 23 26 21 25 32 40 35 42 37 55 63 64 64 60 61 65 82 98 116 112 108 118 101 112 107 90 93 93 102 101 123 113 121 130 128 120 113 104 93 97 85 76 68 63 77 62 52 67 52 44 55 35 35 42 25 37 20 32 20 32 30
18 30 38 27 24 37 34 36 34 37 33 52 46 58 66 66 59 62 68 98 108 128 130 124 131 127 112 100 98 107 109 104 126 116 127 130 127 130 107 115 98 96 104 102 78 73 74 78 63 58 66 47 44 54 41 32 42 36 36 21 24 22 32 38
22 22 37 23 26 35 31 35 30 37 41 47 51 45 64 65 65 60 83 99 111 119 140 132 128 137 118 126 109 118 109 120 112 134 136 135 121 125 118 113 91 102 91 96 87 72 77 61 72 65 65 43 56 51 48 44 37 28 18 34 34 34 28 21
30 21 35 25 29 37 32 36 26 32 43 48 42 50 59 67 72 62 85 95 115 120 135 143 158 132 120 132 129 115 108 113 121 125 129 120 122 120 122 106 96 89 92 87 75 63 75 67 62 50 55 43 44 53 40 46 25 31 28 24 24 27 31 35
38 36 25 20 33 23 26 28 36 38 37 54 42 52 60 67 65 64 88 94 112 123 139 143 156 145 142 126 131 116 109 109 131 134 125 136 118 119 113 110 94 77 76 72 62 73 66 66 67 53 46 54 56 34 32 42 34 39 19 20 18 37 27 25
19 35 21 36 23 23 34 26 32 41 47 48 55 55 56 61 53 67 80 99 101 127 127 144 144 136 138 137 131 118 123 103 130 134 130 120 119 114 118 92 91 73 64 72 67 60 69 55 55 52 59 43 51 37 35 26 27 29 20 35 31 30 25 36
37 38 31 25 26 35 34 32 24 42 28 47 51 52 52 52 62 68 71 80 104 111 126 122 133 133 135 118 119 122 98 120 123 116 131 119 112 120 96 96 90 64 60 70 54 59 57 66 64 44 52 48 42 40 34 43 35 25 22 18 27 33 36 29
38 37 25 37 38 22 29 22 29 28 38 45 41 41 47 48 49 59 52 75 77 91 104 117 110 116 115 109 113 109 101 96 112 121 130 123 114 98 89 80 65 67 49 55 57 61 61 59 48 41 49 51 40 40 40 22 38 20 23 28 30 28 34 22
32 34 20 35 31 37 23 23 35 25 24 28 34 32 49 54 52 62 52 70 68 90 91 92 98 96 93 100 97 100 96 106 124 125 118 118 110 96 99 80 73 72 49 45 59 47 57 61 51 41 41 41 39 33 36 35 30 23 30 18 28 29 19 34
29 24 38 26 18 18 32 22 24 35 32 32 29 47 34 40 38 40 49 61 58 77 77 75 82 77 96 95 90 94 87 93 107 114 109 102 108 83 92 73 57 69 60 50 52 55 56 55 40 50 44 43 34 35 35 19 25 19 37 31 31 23 27 29
26 36 21 35 26 21 36 27 31 38 30 34 28 42 48 44 38 38 37 38 55 48 62 63 69 63 63 79 70 70 77 90 90 94 107 87 96 86 79 61 59 61 56 54 44 54 36 50 39 40 48 42 28 27 27 35 38 35 21 23 28 35 23 30
30 26 25 33 32 18 32 37 24 18 20 28 40 44 27 45 42 39 41 53 39 44 36 48 49 52 56 56 66 71 86 75 91 94 95 77 77 69 78 53 56 38 43 52 36 43 38 42 34 30 43 26 39 22 32 27 36 36 35 31 36 22 26 19
34 25 38 21 28 21 32 34 18 27 20 21 32 22 38 34 31 34 39 34 31 33 44 40 35 36 48 49 54 69 75 64 88 82 77 66 63 66 57 47 55 47 48 40 44 33 40 38 42 44 26 27 28 19 27 36 23 30 32 38 31 19 35 35
21 33 32 27 24 24 24 25 28 30 28 27 27 29 28 29 30 32 37 31 38 29 32 33 42 36 31 38 53 48 54 58 78 69 65 55 55 52 41 45 45 36 42 42 41 29 38 25 38 28 19 26 32 29 27 38 27 28 28 20 32 37 19 28
22 37 32 24 34 36 23 22 32 26 20 27 18 28 36 20 32 40 33 30 28 25 27 39 40 23 24 41 41 41 54 49 61 67 62 48 55 38 31 38 36 29 21 40 25 34 32 36 25 20 34 34 34 26 19 32 30 27 25 36 21 34 27 36
30 32 21 29 19 24 19 28 27 29 29 38 35 18 26 29 20 30 35 30 30 23 36 38 35 20 25 19 39 43 34 47 51 49 37 53 41 46 28 35 27 35 20 27 21 38 25 24 28 31 23 23 25 19 22 18 25 30 23 31 35 18 31 34
34 20 20 31 18 20 38 37 21 38 23 30 21 34 38 37 38 23 37 27 35 36 31 31 30 31 31 31 31 20 29 31 46 37 42 43 27 20 19 31 33 35 30 22 28 32 34 30 22 33 30 24 36 19 18 29 29 36 35 34 27 26 19 34
30 26 18 22 23 32 31 27 30 23 34 36 32 25 27 33 19 27 34 35 35 35 28 25 33 19 31 23 25 23 27 34 18 21 20 38 20 18 37 34 18 26 24 30 34 37 23 20 24 24 34 24 19 19 35 36 25 33 34 20 35 38 29 31
33 20 25 20 21 23 38 29 25 37 31 21 25 18 21 35 38 36 20 27 24 27 32 38 20 31 18 21 38 35 36 31 36 33 25 22 29 28 32 18 35 27 23 37 32 38 35 35 28 18 19 26 37 33 35 18 26 26 35 37 37 33 35 34
37 25 21 32 30 26 20 20 22 29 18 20 35 33 18 26 36 18 29 30 34 28 35 26 28 26 35 21 32 28 26 20 26 24 38 27 26 24 18 29 34 32 34 26 21 27 37 22 33 26 31 34 37 18 27 38 29 26 23 38 32 23 34 22
23 31 26 37 35 20 19 33 37 36 36 28 31 28 18 38 23 23 36 34 29 27 27 35 19 25 24 19 24 26 22 22 35 28 32 22 38 25 27 21 37 31 18 23 29 19 21 37 23 21 19 31 28 29 37 20 32 32 21 34 18 28 31 19
34 23 29 19 26 21 35 27 26 29 24 34 32 25 33 22 18 21 23 27 38 20 31 32 20 29 29 34 31 20 38 25 20 27 21 31 29 33 28 32 38 31 25 37 34 24 32 24 37 26 33 32 27 34 32 33 33 22 23 29 21 36 27 37
21 38 26 22 28 27 37 30 27 26 26 21 32 18 36 33 20 34 37 38 31 33 31 21 34 22 27 32 24 29 33 35 27 35 30 29 23 22 33 34 35 36 37 37 32 20 37 34 24 36 29 21 32 38 35 38 38 32 38 29 31 21 34 27
29 19 27 38 27 33 32 34 30 28 27 26 29 37 38 30 18 21 23 27 24 33 20 38 25 19 34 20 26 34 33 27 28 32 32 27 25 18 38 20 28 28 38 30 32 23 36 38 32 19 25 30 21 30 26 18 25 25 18 26 32 37 31 25
29 20 23 22 37 21 25 20 21 34 33 31 20 19 19 30 34 24 32 25 36 22 19 26 23 24 36 28 19 33 30 35 34 22 20 30 24 31 21 23 26 30 19 32 34 22 26 34 19 37 24 25 28 35 33 25 26 34 28 32 29 28 35 25
28 25 36 18 22 20 18 22 30 20 33 21 38 35 34 38 37 30 34 31 30 19 30 35 21 22 38 19 25 18 34 34 33 21 34 24 26 21 20 26 26 28 26 31 37 36 30 36 38 18 26 26 30 36 34 19 19 20 18 28 31 19 31 33
24 32 31 19 21 33 18 37 29 19 23 24 26 24 38 19 23 38 24 30 23 22 24 32 31 38 23 19 31 27 25 26 19 29 35 24 25 31 25 23 37 24 29 22 38 36 18 19 19 37 21 31 33 35 23 28 24 27 30 31 34 34 34 37
28 26 38 31 27 30 33 22 38 23 31 24 27 25 30 26 34 25 28 38 26 18 37 34 29 31 22 34 30 23 38 37 21 30 19 38 22 28 25 19 22 35 23 22 26 36 27 38 31 21 24 24 19 37 26 22 29 24 35 37 36 29 37 32
18 21 31 18 24 27 30 18 21 25 34 23 36 32 27 30 30 32 25 23 28 30 38 37 28 38 31 38 28 21 37 29 22 27 38 38 28 37 28 34 35 23 33 21 32 26 37 33 20 29 29 34 28 27 36 35 27 31 22 37 32 34 29 20
23 26 35 38 24 30 19 23 26 32 33 25 34 37 21 26 22 26 23 32 18 20 36 29 31 31 31 34 18 27 32 29 33 19 22 28 29 29 35 18 24 23 20 20 35 32 25 36 20 19 26 29 37 30 30 21 35 38 18 19 31 38 30 36
25 30 23 30 34 26 37 25 27 37 20 27 35 22 37 22 23 29 33 37 37 30 19 37 35 36 31 23 28 24 31 34 31 28 29 28 26 19 29 24 21 31 18 29 34 38 27 21 27 20 21 24 30 33 27 36 18 31 21 20 29 23 20 27
18 22 38 33 21 19 37 26 38 25 23 35 21 37 25 31 33 26 26 34 23 28 19 18 29 33 19 24 33 19 37 29 25 34 30 30 22 19 29 19 27 33 18 32 18 38 19 24 24 38 25 19 18 20 30 27 30 22 34 19 37 23 32 26
18 24 28 36 23 21 34 20 21 33 24 26 20 28 33 20 37 23 29 29 27 31 35 22 28 27 20 22 37 33 32 32 37 25 29 26 21 31 35 32 22 21 25 21 35 21 33 32 34 37 24 37 19 20 30 29 27 27 33 24 37 24 29 19
