P2
64 64
255
15 26 20 22 19 19 22 21 20 24 17 18 19 26 24 14 20 14 19 24 21 23 22 17 26 26 24 15 23 25 23 25 23 21 26 26 21 26 18 20 19 21 16 16 20 26 20 25 23 16 20 20 20 19 21 26 24 24 19 21 16 22 22 14
16 18 16 21 21 17 24 14 19 14 14 24 17 14 18 14 22 20 18 23 15 14 26 25 20 19 18 19 14 16 20 24 17 15 20 16 25 23 20 19 25 24 21 23 25 24 15 24 14 16 16 25 19 21 17 15 24 15 20 22 18 15 19 17
21 24 23 26 22 15 23 14 16 15 25 17 22 22 18 21 19 17 15 15 20 14 23 17 16 19 24 14 14 17 19 22 24 23 23 26 16 21 20 23 15 17 16 26 21 22 23 23 21 16 19 24 14 16 22 15 26 19 18 19 17 19 16 25
18 21 16 17 25 23 21 16 16 24 25 22 21 17 25 16 22 19 22 14 17 26 19 19 16 25 25 24 14 24 26 22 26 17 20 26 21 24 17 23 15 17 23 18 14 18 17 26 14 19 18 14 18 17 26 14 15 25 25 17 26 22 18 21
21 22 18 22 26 14 22 14 16 24 16 19 15 17 14 23 18 25 18 19 17 23 18 23 20 22 17 26 21 18 16 22 25 23 26 16 15 18 20 17 23 24 25 19 25 20 14 22 16 20 26 19 22 25 17 14 24 25 17 21 17 20 18 24
24 22 14 22 17 20 23 22 17 22 14 25 26 21 18 25 23 20 22 19 18 17 20 25 17 25 21 22 16 22 26 14 19 22 20 25 15 21 14 26 19 23 25 22 18 26 24 16 23 22 18 16 23 15 26 24 17 17 21 14 20 20 19 19
20 19 23 17 16 14 20 21 19 21 17 23 21 25 21 15 19 26 14 15 19 16 19 22 16 24 25 16 24 14 19 25 23 16 25 16 16 22 16 19 21 17 19 19 25 18 16 24 19 14 14 26 22 14 14 14 23 23 24 25 18 24 25 25
18 20 18 19 20 17 15 23 15 14 15 18 24 15 24 25 23 21 25 14 19 21 15 25 15 15 23 24 16 25 22 23 22 16 15 25 25 24 15 19 20 17 16 19 21 16 23 17 21 22 19 24 14 16 19 22 18 21 19 23 26 15 21 21
21 21 14 14 20 24 23 21 15 20 26 26 21 23 19 17 26 15 16 20 17 23 25 25 19 17 20 26 22 19 14 17 14 23 14 18 22 24 23 15 22 26 15 18 14 18 15 24 22 25 17 17 21 18 20 26 15 23 21 25 18 25 16 22
16 15 25 26 24 26 14 23 21 21 26 19 15 15 26 26 18 16 26 24 16 25 19 14 25 17 23 15 15 25 26 25 20 25 15 16 18 19 24 26 15 19 17 21 26 18 24 22 24 20 20 25 25 14 21 15 17 18 22 16 15 26 18 15
18 19 17 14 20 26 16 16 16 15 21 24 23 17 16 16 24 19 21 18 16 14 20 16 24 22 14 14 16 24 17 26 22 23 21 19 15 14 17 19 15 14 17 17 15 17 19 25 16 24 25 15 17 17 25 14 14 23 25 18 21 20 19 21
24 14 21 16 24 15 18 21 17 25 14 16 21 18 16 24 18 26 15 24 20 24 16 19 18 19 20 18 17 26 22 15 17 16 14 26 23 22 20 19 15 17 16 14 14 22 21 24 15 25 21 17 21 24 18 14 19 23 17 20 15 19 21 17
20 15 15 19 18 17 23 19 18 24 26 17 24 23 23 17 20 25 16 24 14 23 22 21 20 26 16 17 20 25 15 23 16 20 25 24 23 24 15 23 24 23 15 25 21 15 21 19 18 26 20 21 18 14 22 18 22 14 17 16 15 18 22 17
16 21 18 24 20 19 14 20 26 21 21 24 14 20 21 25 26 24 26 20 23 14 16 15 21 24 14 22 21 23 23 14 24 17 19 18 22 23 14 22 16 22 14 21 16 26 26 14 18 23 26 23 17 16 19 21 23 22 14 14 24 15 18 18
21 21 15 17 17 22 17 14 23 16 17 23 17 26 19 26 23 23 22 14 18 25 23 19 21 25 20 23 26 21 15 26 15 25 16 16 18 17 16 20 26 15 25 21 20 22 23 22 25 19 24 19 22 22 26 26 23 19 22 20 18 14 19 17
16 14 19 25 17 24 25 25 15 21 23 22 21 22 26 21 24 22 19 19 24 16 22 26 19 20 15 16 21 16 25 24 23 22 15 23 21 22 17 25 16 15 24 22 24 20 26 25 17 20 23 15 14 21 24 15 20 18 18 22 22 16 26 20
25 16 20 14 14 15 15 19 22 21 25 15 19 16 15 16 21 24 19 25 18 14 15 14 22 26 15 16 26 25 19 24 24 14 15 18 23 23 19 17 15 22 23 23 25 24 14 25 25 22 17 26 26 22 16 20 20 21 20 24 16 19 19 17
16 26 22 20 19 17 20 23 20 22 15 16 18 14 23 18 20 24 22 16 16 21 22 25 26 24 16 14 22 20 16 17 21 18 16 17 19 18 19 15 16 21 18 24 26 22 26 14 15 18 20 23 21 26 17 16 19 14 17 19 16 22 21 18
17 24 26 19 22 19 20 23 20 22 25 26 20 25 21 21 24 23 18 19 19 17 17 24 16 19 25 14 26 20 20 17 21 14 20 16 20 20 16 22 15 25 15 14 23 26 15 24 17 14 17 23 18 15 14 22 20 15 19 19 19 17 17 14
19 21 14 16 20 20 21 14 24 19 14 26 23 21 23 21 23 21 18 28 19 18 23 22 19 26 22 22 23 17 16 17 18 17 18 19 21 23 26 17 17 23 17 25 22 29 28 18 26 15 14 19 25 16 18 14 25 14 21 23 19 24 21 15
14 20 21 16 17 14 16 23 17 14 18 15 17 22 22 17 26 24 31 21 34 24 32 24 28 24 28 25 23 20 26 23 21 17 14 20 22 16 29 25 24 24 25 23 33 23 32 32 19 23 18 23 22 19 22 19 26 17 19 14 22 17 22 21
20 24 23 26 26 14 23 14 21 15 23 14 25 28 21 22 22 35 35 34 36 34 32 29 30 30 30 24 18 24 26 19 19 20 27 17 20 26 31 31 24 29 31 26 27 28 34 30 34 29 26 27 21 23 19 20 17 26 19 18 25 15 26 22
26 25 22 21 26 22 23 21 19 14 16 24 26 27 34 29 37 32 40 31 40 34 29 32 38 30 26 25 30 26 34 27 23 27 30 30 28 28 25 36 27 38 33 40 32 31 36 28 34 34 22 23 19 19 17 16 21 15 26 19 26 21 24 22
21 19 20 26 23 22 21 16 15 23 21 23 22 23 32 37 33 39 32 45 34 45 41 44 36 41 37 45 44 33 40 34 36 40 39 34 43 46 34 40 38 36 34 34 38 42 34 41 39 36 32 23 31 18 18 21 21 20 22 19 21 23 21 18
14 26 20 21 25 18 17 20 15 18 26 29 31 34 31 33 39 44 41 43 46 46 42 47 43 47 47 53 47 52 42 47 42 40 49 48 44 54 47 48 52 50 42 47 49 45 37 35 40 32 35 37 34 25 29 19 21 21 26 17 22 25 16 17
17 14 25 23 26 26 15 19 18 17 20 32 34 32 43 41 45 50 45 41 47 50 51 56 54 51 62 57 54 53 52 50 52 50 58 51 53 63 52 63 61 49 51 42 52 42 43 38 45 35 32 29 28 32 23 28 18 20 23 19 26 19 15 24
22 18 18 15 23 21 15 19 25 23 21 30 35 33 45 48 44 48 51 52 55 53 64 61 61 65 65 62 69 70 62 59 58 58 62 70 64 69 70 64 62 63 63 57 51 55 51 48 50 47 44 41 36 26 30 20 25 21 25 26 14 23 15 18
22 20 17 14 19 24 21 20 20 28 29 33 41 40 49 40 45 53 48 51 63 65 63 73 71 73 73 71 67 72 72 73 73 72 74 74 76 80 67 74 70 70 70 68 56 53 54 57 42 52 41 43 34 30 30 26 28 21 14 14 17 26 19 25
20 21 24 15 19 22 20 21 19 22 31 37 37 47 51 49 55 55 54 56 63 74 78 79 79 79 83 85 80 76 73 84 83 74 80 87 81 86 78 76 76 75 70 72 69 53 58 59 45 49 46 39 33 38 27 21 28 25 14 23 25 24 21 21
14 18 21 17 17 17 21 15 28 27 34 33 40 43 42 49 58 61 65 60 72 82 82 89 80 85 87 90 89 93 83 84 85 92 86 83 89 93 87 89 85 90 76 76 66 65 63 53 51 49 43 46 34 30 34 25 29 26 24 25 15 19 21 26
20 24 16 24 17 26 24 19 23 34 39 38 44 39 51 50 58 59 68 77 82 81 84 95 86 92 95 96 95 98 95 99 97 93 100 100 92 96 99 94 95 86 92 80 81 66 59 60 49 47 53 47 37 43 37 27 27 27 16 18 15 20 24 26
22 26 21 21 19 24 20 27 25 25 33 42 35 44 43 57 63 56 68 81 86 92 94 94 97 104 105 103 107 95 95 107 109 101 100 103 95 96 103 97 101 95 95 84 80 73 72 56 54 47 49 51 47 41 27 25 21 20 14 22 19 18 23 22
25 17 17 20 21 19 24 24 20 35 33 38 36 39 45 47 55 56 71 86 86 89 100 96 95 101 104 106 105 110 112 107 105 115 103 110 102 110 98 107 101 102 99 99 87 84 71 63 58 59 46 43 44 36 33 29 26 23 18 25 24 20 18 19
19 16 16 26 17 19 17 27 25 30 30 43 42 42 55 47 51 66 64 76 91 98 100 98 102 99 100 104 115 107 113 115 114 112 114 114 112 104 109 102 107 105 96 98 85 77 75 58 55 51 47 51 41 39 31 34 24 20 24 21 15 22 19 16
17 17 17 23 21 22 19 27 27 27 34 37 45 49 54 54 57 57 67 75 87 88 102 106 108 105 107 108 107 110 119 120 125 124 114 109 105 111 104 101 108 99 101 91 81 72 63 64 59 56 54 48 35 38 30 34 30 19 18 21 17 24 26 20
14 22 26 17 23 15 19 19 25 33 27 42 44 39 49 52 52 59 72 74 89 92 99 102 103 107 105 112 115 110 122 123 123 117 115 120 111 108 108 99 101 97 88 87 82 78 62 62 57 52 50 37 43 34 28 31 19 18 18 25 20 15 22 19
26 22 18 25 20 14 21 26 29 25 34 31 38 39 51 50 50 51 62 75 80 80 96 93 104 98 103 104 114 110 122 123 128 119 114 120 114 107 106 101 97 97 85 79 83 78 66 55 50 47 41 38 42 32 31 26 22 20 19 18 20 25 16 16
17 17 20 24 24 19 18 26 23 31 23 35 31 39 45 49 42 53 63 62 69 87 83 93 102 105 108 108 103 109 118 114 116 120 118 112 109 99 105 95 99 85 88 81 80 72 57 51 52 52 42 34 32 32 23 28 25 18 16 19 21 16 21 25
15 17 22 16 20 15 19 18 21 19 32 33 28 37 34 40 43 49 60 61 75 71 84 80 91 89 103 106 97 107 101 112 110 110 101 110 106 103 99 95 85 87 85 73 74 69 56 52 48 37 46 39 36 36 33 24 16 22 14 18 25 22 19 20
18 24 16 21 21 22 23 19 25 21 29 32 26 40 32 40 37 44 52 63 60 68 74 81 79 91 96 98 94 96 103 96 101 100 100 95 99 89 98 84 85 82 79 69 66 62 45 49 38 44 41 32 33 34 26 22 26 15 26 15 23 19 25 19
14 23 24 18 16 24 22 23 15 21 18 27 26 27 29 35 36 36 44 51 62 59 66 70 82 88 92 85 87 97 96 93 93 97 93 98 92 85 89 86 73 73 77 67 65 54 48 39 38 36 30 38 24 32 26 23 22 16 17 24 19 22 24 15
19 20 15 18 19 24 21 21 16 24 21 25 20 24 34 37 36 37 40 43 50 54 58 71 67 75 81 76 79 89 83 78 85 78 79 84 78 87 81 81 79 73 63 57 50 47 46 31 31 27 33 34 25 19 17 16 26 25 20 18 23 22 14 23
16 22 25 18 24 19 14 23 20 19 15 26 20 32 32 31 32 37 39 40 47 58 62 59 71 71 76 74 73 81 77 77 77 73 76 75 79 70 68 63 59 57 54 50 45 39 40 35 27 28 25 20 29 21 26 20 26 16 23 21 20 17 18 22
21 26 14 22 14 24 18 15 21 19 20 18 22 20 19 24 32 33 29 31 37 40 51 59 53 67 65 59 63 61 72 69 65 73 74 71 66 71 68 62 58 52 54 41 43 38 30 26 22 30 23 22 24 17 18 25 15 23 19 25 24 22 24 14
16 26 26 23 24 21 15 26 22 14 26 21 24 20 16 28 18 30 26 28 29 41 39 49 55 52 60 53 56 57 59 61 63 69 67 59 64 57 58 51 55 46 48 35 27 26 26 24 18 27 15 14 23 26 22 17 24 15 19 21 21 25 25 20
20 15 16 22 14 21 22 23 26 20 16 16 16 25 26 18 25 22 23 23 21 35 30 33 36 38 43 52 47 59 51 53 53 60 57 57 56 54 49 49 36 38 30 30 23 24 19 23 25 17 24 16 17 15 22 19 14 18 14 14 19 19 19 15
21 20 24 21 25 20 26 23 23 25 25 20 22 15 18 15 23 25 16 24 26 23 27 33 37 39 41 44 48 52 55 49 48 49 52 48 51 47 44 34 37 28 21 24 15 20 23 14 22 14 18 17 17 17 18 25 15 15 16 19 20 25 24 18
24 19 23 26 24 22 19 16 21 26 15 23 23 25 15 22 26 23 24 14 24 25 22 26 24 39 37 40 36 41 39 44 44 41 49 43 42 40 37 31 31 23 16 18 23 18 14 15 24 25 24 20 21 26 17 24 16 14 19 20 22 25 22 14
26 22 24 25 18 22 22 22 19 26 22 24 26 20 26 25 14 22 14 26 18 21 20 19 22 25 30 30 34 40 44 35 45 42 44 41 34 30 27 30 23 18 16 17 23 24 23 14 23 18 15 26 22 22 26 26 23 23 14 21 24 17 15 18
15 17 18 19 25 14 19 21 17 20 14 14 19 17 19 22 26 23 16 21 25 20 17 24 24 23 23 28 32 33 31 37 29 37 35 26 33 30 29 24 23 18 25 23 17 19 18 14 17 14 22 17 15 25 22 14 20 23 23 18 14 22 15 25
23 16 19 21 14 17 23 17 24 15 17 26 19 14 24 19 17 21 18 24 14 19 22 24 24 19 23 22 22 26 27 31 29 21 21 22 24 21 24 26 24 26 20 26 14 22 24 22 24 18 19 22 16 16 15 25 15 25 20 16 26 17 26 14
25 15 24 16 21 26 17 20 22 20 15 19 24 19 16 21 14 15 19 19 24 20 24 21 24 22 17 22 21 26 14 16 21 15 16 17 18 22 20 24 26 25 24 23 16 18 20 21 26 26 25 22 16 25 14 17 23 23 19 14 26 18 22 23
22 21 24 23 15 23 20 16 21 17 20 19 22 17 15 17 21 25 14 14 25 20 22 22 14 25 25 23 15 23 15 23 16 25 15 26 17 17 19 22 23 15 26 23 17 26 15 14 24 23 15 16 18 19 17 15 19 18 22 26 20 26 15 16
20 17 24 19 20 26 22 17 26 15 16 20 26 18 24 18 14 22 22 23 22 16 24 14 15 26 23 20 24 21 18 17 21 18 21 26 25 15 25 15 22 17 17 26 19 24 15 17 14 18 16 25 16 25 14 21 19 18 21 21 20 17 20 18
17 25 23 23 23 20 15 14 18 19 26 16 14 16 18 17 20 20 17 14 24 14 19 19 24 22 18 16 26 22 25 17 26 19 24 26 20 21 17 23 20 22 26 20 21 23 16 25 26 24 24 25 19 21 14 16 17 16 25 21 15 17 25 15
17 16 26 26 17 20 26 23 14 16 18 25 17 15 20 26 20 21 16 23 18 26 21 18 20 18 17 19 26 18 25 19 21 19 15 21 17 17 14 23 15 16 22 16 26 19 15 17 18 16 16 15 21 20 14 18 25 26 25 24 15 15 16 21
16 22 20 24 15 17 18 19 19 26 26 14 22 16 23 14 24 16 15 18 18 17 14 20 19 17 17 22 16 21 25 21 15 21 26 19 20 17 24 14 19 21 18 16 21 24 15 23 22 21 21 18 21 23 18 24 21 24 14 26 14 18 17 16
20 23 14 20 24 26 15 20 22 16 15 21 19 24 22 14 24 25 14 16 17 18 26 20 14 21 21 17 18 22 24 19 25 24 16 25 26 24 16 24 21 25 14 21 24 17 16 24 15 14 17 22 21 22 17 25 16 25 21 19 26 18 23 16
26 23 24 26 14 14 16 21 24 22 25 25 18 20 20 26 18 25 23 17 15 26 20 15 20 23 23 19 21 22 18 15 18 14 23 19 14 26 21 20 15 18 22 25 24 19 15 14 19 14 17 17 21 24 18 20 21 23 18 26 16 21 16 22
21 22 25 23 21 21 21 26 17 16 14 23 14 15 18 25 15 23 21 15 26 26 25 23 26 22 16 18 20 19 22 19 22 14 21 14 14 23 21 23 19 19 16 16 20 25 18 18 17 25 23 21 19 23 22 16 16 19 22 17 17 23 18 24
17 16 19 22 23 23 14 17 20 24 21 14 21 19 24 18 14 14 19 22 22 24 15 14 22 25 22 14 20 18 26 14 21 20 22 19 17 16 23 19 17 15 18 21 23 15 26 17 19 19 17 18 19 22 15 17 26 16 23 21 21 14 23 16
24 23 20 25 17 19 18 21 26 15 15 18 18 14 24 17 20 26 25 24 22 22 14 23 20 18 21 17 17 20 23 17 16 22 22 24 14 19 15 15 23 21 21 22 18 20 15 22 24 24 16 16 17 14 21 26 25 19 21 21 19 20 23 23
26 26 17 20 23 20 25 14 20 26 19 21 20 24 21 23 26 16 19 15 24 16 26 21 25 16 15 25 22 24 20 15 19 23 26 15 21 24 24 25 17 24 14 24 15 25 16 14 18 25 17 16 24 17 15 22 20 24 18 25 17 21 22 24
23 16 22 23 24 18 22 16 18 21 16 25 22 21 22 26 24 15 26 22 23 18 17 21 21 15 19 17 18 15 14 17 14 24 17 23 26 15 15 20 22 22 19 20 18 22 19 19 17 22 16 20 22 20 25 18 22 22 17 24 19 26 25 20
