P2
64 64
255
18 16 24 18 21 25 15 24 15 18 24 19 23 21 18 14 19 19 21 21 22 16 19 16 14 24 26 22 20 15 25 23 19 23 15 15 14 18 22 26 19 25 16 24 23 14 16 23 26 19 15 15 18 18 15 26 17 19 25 25 20 22 22 24
17 24 17 19 14 18 18 26 15 16 20 25 23 26 15 23 18 16 16 22 18 23 14 26 20 16 18 20 18 25 23 18 24 17 24 19 15 24 23 14 14 15 14 22 18 14 18 18 18 14 18 14 22 21 21 23 19 20 15 22 25 21 24 19
24 21 17 20 24 18 16 20 17 14 24 24 14 18 14 22 20 19 14 21 24 21 19 24 18 26 16 20 15 19 19 16 20 21 24 20 25 15 26 14 15 19 18 19 22 23 17 17 25 19 26 24 16 15 18 19 16 19 21 20 20 20 25 21
16 24 23 24 25 26 26 22 14 19 26 26 22 18 25 15 16 26 15 14 21 21 24 17 18 15 23 25 24 15 23 22 22 17 17 15 20 14 18 16 15 25 19 25 24 25 26 18 19 20 24 25 18 22 22 22 18 22 24 24 19 23 14 25
20 26 22 16 19 17 20 16 21 26 16 26 24 23 26 24 15 23 26 24 14 26 22 16 18 21 17 15 15 21 16 14 23 24 26 18 14 18 21 24 21 21 25 23 16 14 24 25 18 21 18 25 15 17 16 16 25 17 24 20 26 26 15 24
26 14 18 17 16 18 18 15 14 21 17 18 24 18 16 25 25 21 21 21 18 22 20 23 18 17 18 19 16 18 20 20 16 22 15 16 23 21 19 21 25 14 19 22 22 15 24 16 17 15 17 19 15 16 20 15 19 14 20 26 18 19 15 24
22 18 21 26 22 19 21 18 23 24 23 18 24 26 23 16 14 17 21 18 24 14 26 19 25 22 20 25 18 14 15 14 25 19 15 23 20 21 22 16 21 21 21 20 14 22 25 18 25 14 17 19 16 15 22 25 16 26 15 17 23 24 14 21
19 24 23 22 16 21 26 19 16 15 16 19 17 18 24 22 19 19 22 21 18 15 24 16 16 25 22 17 19 26 19 19 21 21 14 26 14 17 23 21 25 19 24 18 20 18 26 23 25 24 16 26 17 15 14 19 20 15 14 22 14 24 17 14
16 17 17 19 24 24 15 26 26 24 16 21 17 25 19 26 17 14 15 26 19 18 19 22 24 19 26 19 17 15 21 19 17 21 26 18 15 25 21 21 15 18 16 16 20 14 16 16 23 21 25 21 21 21 16 26 18 26 26 22 15 23 14 22
16 16 18 25 24 22 16 17 22 15 24 15 18 23 22 23 15 18 14 25 17 22 20 16 18 14 18 16 18 15 23 22 14 22 17 17 24 21 23 24 25 24 20 20 24 15 24 14 17 25 18 19 18 19 17 14 15 24 16 14 25 22 22 23
23 22 26 16 15 24 17 23 17 16 25 18 18 26 15 20 19 24 16 14 23 17 22 20 17 19 18 14 16 23 21 19 17 14 26 14 23 21 20 26 21 18 20 17 15 16 25 24 24 16 14 19 25 18 20 23 19 15 19 20 17 18 22 16
18 26 24 23 19 17 22 24 24 15 14 20 16 16 15 24 22 21 22 23 14 16 19 21 23 22 25 23 21 26 21 22 21 23 23 23 18 20 25 17 21 16 17 25 15 23 23 22 16 19 15 16 22 14 14 15 15 20 16 22 15 22 26 21
21 24 26 17 21 15 18 21 21 14 23 15 21 17 24 17 14 26 17 20 19 15 14 19 18 21 18 20 18 15 18 17 26 15 23 16 15 25 16 14 22 18 21 22 24 25 18 16 15 16 15 18 24 18 19 22 25 25 15 24 22 26 16 26
23 20 19 21 18 21 17 21 21 18 20 18 18 26 15 22 19 22 20 23 14 20 17 15 22 26 25 15 24 17 14 26 20 20 20 16 20 14 21 26 14 23 16 25 22 23 22 25 23 26 24 15 22 22 14 24 19 23 23 14 19 20 22 17
17 14 15 17 25 20 24 20 26 20 21 18 24 21 17 25 19 19 25 14 20 25 17 17 15 17 21 14 17 19 14 26 16 22 15 21 20 25 15 26 20 17 18 18 15 14 21 24 14 25 22 20 15 21 25 14 15 21 24 14 24 26 23 15
19 17 14 24 15 23 21 25 22 18 20 18 15 21 16 22 19 17 18 16 19 26 21 26 17 17 20 23 15 24 25 24 17 26 14 22 22 21 21 15 18 18 14 15 25 14 24 17 26 16 24 16 17 23 18 19 26 19 26 26 21 17 15 23
22 25 22 18 17 23 24 22 17 20 24 14 25 17 16 20 16 23 19 18 21 21 20 14 19 20 18 25 18 14 22 17 19 23 19 25 23 23 14 15 22 19 19 14 17 17 19 16 17 18 26 20 21 14 22 24 19 23 24 19 21 26 25 17
21 19 26 22 19 18 15 20 15 15 16 17 23 26 23 18 15 22 22 23 25 16 17 18 17 16 17 14 21 20 26 22 18 24 19 19 18 25 22 24 26 20 15 23 15 14 17 17 14 15 22 18 20 23 17 25 21 15 21 18 20 22 17 15
22 23 21 14 24 16 20 23 23 25 19 14 24 23 21 19 19 24 24 20 20 20 22 24 26 14 21 14 24 20 19 20 25 19 22 14 16 18 25 21 22 18 26 23 15 20 24 18 16 15 22 22 25 21 18 14 17 17 25 26 18 14 23 22
26 16 17 20 17 20 20 22 14 22 21 14 25 25 25 21 24 18 18 20 28 24 29 27 21 23 17 19 18 19 16 21 18 16 22 15 14 15 25 16 23 29 23 20 25 21 18 20 27 20 16 15 14 22 16 17 26 15 21 24 20 16 22 23
16 21 14 16 25 26 21 26 17 25 20 17 20 14 23 18 23 21 25 32 28 23 23 29 30 26 25 22 20 16 19 20 25 16 22 15 26 22 28 29 26 31 21 33 25 24 25 29 24 25 26 14 24 18 17 20 16 26 22 21 25 26 17 19
18 20 14 16 18 23 14 15 14 21 23 21 20 18 27 31 26 27 25 29 28 36 30 31 28 28 31 23 28 16 16 23 19 15 26 19 28 23 31 25 29 33 33 31 25 36 32 25 32 31 24 17 21 22 14 17 23 24 16 16 22 16 24 22
19 20 26 15 26 16 19 14 19 18 20 15 23 24 25 36 32 36 38 33 33 39 33 31 38 36 27 22 21 24 16 24 16 23 23 22 20 22 30 34 38 39 34 34 38 37 30 37 34 31 31 22 25 18 21 14 23 21 17 18 15 17 16 14
24 23 24 16 23 19 26 18 23 25 21 20 23 32 25 36 33 33 38 35 45 37 33 37 40 32 30 28 31 27 21 14 20 19 28 27 31 25 28 30 34 34 37 36 38 40 42 39 32 27 35 26 24 26 27 20 18 18 25 20 26 17 21 25
23 21 26 20 17 15 23 21 19 25 23 23 25 31 28 43 43 42 46 45 49 48 40 42 41 41 35 30 26 24 20 25 18 29 30 27 36 30 40 36 41 40 43 43 40 48 40 39 39 34 30 36 33 31 21 19 15 14 16 17 15 19 19 17
14 21 16 15 15 17 24 20 23 21 20 24 33 39 32 43 42 38 43 41 53 49 43 42 46 45 42 31 33 33 34 26 25 29 33 28 32 39 46 38 39 43 51 41 51 51 45 50 41 40 36 30 26 26 20 28 25 25 15 23 21 19 16 15
22 16 20 22 19 18 25 15 16 25 28 36 38 38 42 40 41 44 49 52 49 47 56 47 45 41 43 35 33 36 27 24 23 33 37 35 31 42 45 51 51 47 49 49 54 46 45 45 48 37 42 34 34 30 31 23 25 14 25 23 14 19 19 14
26 23 20 26 25 25 16 26 28 31 32 34 30 36 46 40 43 51 51 51 60 58 49 54 49 49 51 40 45 31 34 32 26 34 27 36 45 42 40 48 46 49 48 55 53 49 49 46 43 41 46 43 42 35 31 27 18 26 17 22 25 16 18 19
21 19 21 15 14 23 24 16 23 26 30 40 37 36 45 50 47 58 62 57 61 58 59 52 53 57 47 45 41 37 36 37 34 31 29 36 36 47 50 54 52 50 59 54 65 55 53 55 51 43 45 37 37 28 25 30 29 15 16 17 25 22 21 15
19 21 16 18 15 22 19 23 27 33 35 42 36 40 43 51 55 60 60 56 57 69 62 55 55 56 52 40 42 40 42 37 41 30 41 37 46 43 47 59 50 57 62 61 62 65 57 53 56 52 45 42 43 33 36 25 21 18 14 19 15 20 22 17
25 20 17 25 25 20 17 26 24 35 28 32 42 43 52 58 49 65 57 71 65 65 68 59 64 53 58 52 41 41 37 44 34 37 33 40 42 45 54 59 56 68 60 67 62 71 59 57 56 47 43 47 35 38 34 29 25 27 22 14 21 17 22 25
26 16 23 23 16 16 21 25 29 30 35 41 35 46 47 48 60 66 65 72 71 66 67 61 57 54 53 46 50 35 45 33 34 36 43 42 46 46 55 56 58 64 72 66 76 74 67 63 54 58 51 41 44 36 34 28 21 16 15 16 17 20 26 18
20 26 14 16 26 21 22 21 29 36 35 35 41 39 54 56 53 63 63 74 74 70 63 59 55 61 55 48 43 39 37 42 43 43 36 43 48 45 49 53 62 59 64 78 72 70 68 58 62 57 50 51 36 38 37 28 28 27 18 15 22 20 16 26
20 16 24 20 17 20 19 24 23 28 37 40 46 51 49 55 63 65 67 71 72 67 62 68 62 62 52 45 43 42 34 44 41 43 36 35 41 51 55 61 63 61 71 74 71 67 63 57 57 51 48 48 37 32 38 27 28 26 19 18 17 20 17 17
20 25 18 23 22 14 14 22 28 26 36 41 42 43 52 51 60 54 66 66 68 68 62 59 53 60 56 45 41 35 41 37 37 32 33 44 39 44 54 51 55 66 71 70 69 65 61 56 57 54 44 49 37 38 39 23 28 22 16 19 17 14 21 21
24 22 20 22 25 19 19 19 24 26 33 39 39 40 49 47 57 57 57 65 69 61 64 59 62 55 55 49 43 35 31 30 36 41 38 41 37 46 49 54 52 60 55 69 59 66 53 52 51 44 46 49 44 39 27 24 28 20 21 14 22 19 14 16
21 15 25 18 25 19 15 14 21 33 31 30 32 38 43 45 49 51 58 56 55 56 56 52 56 50 54 51 38 36 37 38 33 28 33 35 37 44 45 55 52 56 54 53 65 62 60 50 45 53 50 47 32 38 27 26 18 25 21 26 18 16 19 15
22 15 16 26 22 22 22 16 19 25 34 29 39 33 38 50 45 56 52 54 61 58 55 53 49 43 42 39 34 35 31 26 27 28 32 31 37 42 45 42 54 59 50 54 55 51 58 51 44 40 48 42 35 35 35 24 20 17 23 24 15 24 18 25
24 24 17 25 14 14 19 25 14 24 28 36 36 43 41 37 39 53 46 44 57 49 46 53 52 46 42 46 39 32 26 32 27 24 25 35 37 34 45 47 52 46 45 48 49 44 51 44 47 43 40 36 33 30 26 27 25 25 21 14 20 26 26 19
20 20 24 28 24 20 24 20 24 19 30 38 31 44 44 41 40 48 54 55 48 53 57 53 43 45 47 42 43 42 27 25 35 35 35 37 34 42 40 53 52 50 49 48 58 58 51 48 50 47 44 38 44 31 32 28 20 21 24 24 20 20 23 29
27 29 33 21 31 30 27 32 29 24 32 35 35 42 43 49 44 45 47 53 56 50 49 56 47 54 52 41 36 35 34 38 35 37 40 38 40 39 49 50 45 57 59 50 58 51 50 56 44 50 45 47 42 39 36 37 37 38 34 35 39 28 37 35
23 25 27 32 30 34 31 31 31 29 27 33 36 42 39 42 50 54 50 50 54 50 58 51 45 48 44 41 48 42 43 39 33 37 38 41 38 41 44 51 59 48 60 52 59 56 48 57 49 50 50 49 43 42 43 33 35 36 43 33 43 41 39 43
24 25 23 32 24 32 21 31 24 22 26 31 30 34 39 32 36 40 36 46 38 44 44 46 39 36 39 35 31 30 32 33 30 33 28 35 39 38 36 36 49 43 48 47 46 41 45 48 48 37 45 35 32 35 31 27 32 33 28 27 26 26 27 27
19 26 22 18 28 19 17 20 19 18 23 26 24 20 23 26 37 28 39 30 29 38 40 33 28 26 33 27 21 18 22 20 22 21 19 25 30 27 36 32 32 38 30 35 39 35 39 35 32 37 27 34 30 22 21 31 31 31 27 24 31 30 25 25
18 24 24 18 25 14 16 21 23 20 21 21 23 19 24 22 18 22 27 21 23 24 31 30 22 28 22 26 16 22 25 22 15 20 17 26 15 23 22 27 20 28 33 29 23 28 31 20 30 17 19 23 18 17 22 23 16 24 22 22 21 22 22 23
25 21 14 16 22 19 18 22 25 15 14 24 26 15 14 21 15 25 25 24 25 25 24 20 20 18 14 18 16 15 19 18 22 17 25 18 21 25 17 17 19 18 17 19 26 18 19 27 23 20 18 26 19 15 21 19 15 17 16 17 26 20 25 25
23 17 16 16 24 16 17 22 16 20 22 21 17 20 21 22 23 20 21 24 21 16 19 23 18 14 19 21 16 19 17 25 24 17 21 24 17 20 23 19 15 20 20 24 15 18 15 25 19 23 14 26 21 15 16 18 23 24 18 23 14 18 19 19
16 22 24 15 26 14 24 15 25 15 24 16 22 17 17 22 26 20 19 17 25 18 19 25 21 21 21 14 24 18 24 15 23 23 20 19 15 19 19 21 17 17 26 25 14 17 17 26 19 23 25 18 19 26 26 20 17 14 16 26 23 21 16 23
23 17 17 21 25 23 20 25 26 25 17 22 15 26 21 21 21 16 21 15 17 15 21 19 24 20 14 20 20 21 15 24 16 21 25 15 16 17 26 22 23 16 19 26 24 19 15 24 26 17 16 16 17 22 16 17 16 20 22 23 20 26 19 14
25 19 22 15 26 16 23 19 14 19 18 19 23 17 22 20 17 22 14 19 23 15 22 18 23 17 19 16 23 21 22 24 14 16 22 21 15 26 26 21 21 15 15 25 14 16 20 20 26 26 16 21 25 18 24 22 16 18 26 14 15 22 17 22
16 18 22 22 24 17 21 20 24 19 20 25 26 26 21 25 26 18 15 14 21 14 22 14 15 16 18 19 19 21 16 22 17 22 17 26 20 20 25 25 22 17 16 14 20 22 26 14 17 23 17 23 23 24 18 20 24 23 22 15 26 22 25 16
16 15 16 17 22 22 17 17 14 16 18 14 25 21 15 18 20 26 26 24 25 25 19 17 16 19 23 23 18 18 18 18 21 14 24 14 23 21 23 21 17 26 16 20 15 19 16 20 14 20 25 16 25 21 17 20 24 14 21 24 21 25 20 26
26 16 19 18 15 26 20 25 25 15 22 15 18 24 25 24 17 15 26 24 22 24 26 22 22 24 14 22 15 14 14 19 20 20 25 14 25 22 15 17 15 22 24 19 19 16 23 18 26 17 22 22 14 24 23 15 23 14 23 15 24 22 18 20
15 21 24 16 21 26 25 21 23 25 25 17 19 20 14 23 19 22 20 26 14 20 24 24 20 16 20 24 20 20 14 18 24 20 17 18 19 25 18 24 16 18 20 23 20 26 20 19 17 23 26 24 15 23 19 17 23 15 15 25 15 19 17 16
17 21 20 15 14 17 22 16 19 19 14 17 16 25 23 17 26 18 17 22 26 25 26 15 24 15 17 14 19 15 21 23 22 20 23 24 18 24 23 20 24 19 15 20 18 24 16 22 14 17 16 21 19 15 22 14 25 20 15 15 20 18 25 24
25 18 23 20 17 26 18 24 19 24 21 14 18 21 15 15 21 14 24 23 25 14 24 25 20 14 23 21 20 24 20 18 17 20 25 25 16 14 14 24 21 16 15 18 21 25 26 15 22 17 21 21 18 22 21 17 19 15 18 21 24 26 25 16
25 21 23 25 15 15 17 25 26 23 20 21 25 19 14 24 16 15 21 19 22 18 23 15 20 22 25 16 22 22 16 24 18 17 24 20 14 20 26 21 23 16 24 23 26 24 18 17 19 21 23 26 21 19 24 16 20 22 15 16 23 24 19 18
19 18 15 16 15 14 17 22 18 16 17 20 20 15 18 16 22 16 23 21 14 22 26 25 25 24 19 26 25 23 18 24 26 19 20 21 22 22 26 25 22 22 25 19 15 21 14 16 16 14 17 24 15 25 20 24 18 14 26 18 23 17 22 19
17 19 24 18 22 25 24 18 18 15 23 24 20 21 23 22 18 23 16 22 15 16 18 23 22 23 19 21 19 24 16 20 19 22 24 26 17 17 15 14 25 24 19 16 21 15 22 26 24 20 26 21 22 14 16 21 16 19 15 18 20 22 23 19
20 16 15 24 14 14 25 22 20 18 20 23 21 14 24 15 22 21 17 20 21 25 14 16 21 16 15 20 19 22 18 17 25 15 21 14 23 23 15 18 26 21 25 24 26 20 23 20 16 20 20 23 21 24 21 25 21 23 19 16 26 25 26 15
15 16 26 26 17 22 25 26 24 17 16 26 18 25 19 18 18 18 25 23 22 24 23 18 25 20 26 16 21 25 23 16 14 25 25 14 14 14 26 23 24 18 19 23 20 18 19 16 14 22 15 21 15 16 18 25 16 23 22 17 25 23 16 26
16 18 26 14 23 19 14 17 24 23 20 25 25 18 19 26 25 26 24 15 14 24 25 14 18 20 24 22 23 23 14 24 19 25 26 21 23 18 26 16 19 19 18 26 20 18 26 14 15 18 20 14 16 20 26 14 16 25 19 25 19 22 23 24
23 15 26 20 14 25 20 20 21 25 21 15 22 20 23 15 24 23 16 21 25 24 24 17 22 16 21 16 15 23 24 25 16 19 26 22 20 24 16 22 15 24 20 26 22 16 19 21 20 21 25 19 21 22 22 19 17 18 22 20 18 20 23 25
18 23 15 22 24 18 24 15 22 19 18 26 19 14 18 15 19 24 15 25 17 22 24 15 20 19 17 14 15 21 22 16 15 23 24 15 14 26 25 18 14 16 21 20 24 25 25 16 15 20 19 17 25 23 21 24 14 16 26 14 18 15 16 18
