P2
64 64
255
20 30 30 30 32 35 18 24 33 26 34 31 21 32 36 38 31 30 18 37 28 19 30 26 29 26 28 22 19 29 21 27 20 38 20 38 21 35 28 19 27 37 24 35 21 33 36 31 31 32 31 32 36 22 21 33 29 19 19 25 33 27 27 33
23 35 18 36 36 21 25 24 38 36 26 28 33 22 19 34 31 28 31 24 19 20 32 19 20 36 37 35 25 30 32 34 20 25 23 25 19 26 33 34 21 18 18 33 31 29 37 22 34 18 34 23 38 18 34 30 34 22 33 18 28 29 30 19
34 18 37 25 35 19 29 28 35 27 37 24 30 22 36 30 21 37 26 20 38 26 19 18 20 31 36 22 26 36 19 19 38 29 22 36 21 35 23 38 20 23 28 32 27 21 37 19 25 27 32 26 26 18 25 26 35 26 30 25 34 29 22 36
28 34 32 26 25 28 22 22 20 19 21 18 26 23 32 25 22 35 23 18 31 31 31 30 18 25 31 38 35 24 31 38 35 19 19 34 37 31 35 30 18 22 35 32 37 24 26 33 37 23 35 22 32 38 31 24 25 30 27 34 37 32 37 23
31 37 27 18 19 24 29 30 18 27 20 23 28 24 21 30 36 27 29 25 32 32 29 27 25 26 19 19 26 21 25 38 18 37 26 21 26 30 29 24 34 29 29 34 29 25 33 18 35 38 30 33 23 20 19 23 35 26 35 29 22 30 20 31
29 36 23 24 19 18 38 25 19 36 28 37 27 35 26 18 26 30 18 35 38 25 26 20 21 19 24 20 19 19 22 37 37 24 35 22 28 30 38 29 21 20 22 27 23 23 22 21 18 35 22 30 26 22 23 25 25 26 24 22 23 34 20 22
21 30 34 25 21 36 32 31 36 23 32 22 23 37 37 36 31 25 22 20 34 22 29 36 30 34 20 32 18 34 36 32 19 32 23 20 24 20 29 27 27 25 36 32 32 38 22 26 34 20 28 18 36 21 26 28 19 21 26 18 24 29 18 35
30 30 19 18 26 21 35 37 27 38 34 19 37 18 37 22 36 19 24 18 27 33 26 22 27 35 31 18 30 19 20 33 20 21 24 30 28 18 27 26 35 27 23 19 23 22 26 24 25 28 22 37 30 32 30 38 32 37 37 33 29 24 19 29
18 36 36 26 29 28 27 24 36 26 38 35 34 25 27 24 20 36 30 37 33 38 23 24 38 21 23 24 26 34 21 23 35 32 30 20 26 28 29 34 35 24 34 35 34 25 33 24 27 37 37 25 29 37 18 19 29 25 26 18 29 33 33 27
26 33 36 27 19 33 18 29 26 24 38 21 19 28 24 28 28 23 29 36 33 29 25 25 25 32 21 22 21 21 35 34 33 31 33 23 24 29 31 36 32 18 37 37 18 25 29 33 37 33 35 20 19 29 33 34 20 20 19 24 20 25 22 20
36 21 26 33 32 29 36 36 24 18 21 26 36 35 23 28 25 31 25 19 38 35 25 21 28 25 34 25 28 38 33 27 18 27 31 38 34 30 22 25 30 23 25 36 23 20 37 24 20 22 24 31 20 33 24 18 37 25 35 19 21 20 19 22
31 24 37 23 38 23 31 23 24 25 18 31 31 37 33 22 21 29 25 31 31 31 22 35 35 28 37 27 36 38 18 19 19 22 31 36 31 35 29 35 23 21 25 32 20 31 19 35 26 20 36 26 23 36 33 38 19 37 24 37 28 35 26 20
36 33 26 35 22 22 18 23 33 35 34 34 21 37 30 35 21 21 32 23 21 31 31 25 38 23 27 30 38 29 20 35 30 32 22 38 19 32 38 38 23 18 30 20 29 20 35 33 24 24 33 32 30 18 23 18 36 28 29 18 22 23 27 28
24 35 33 19 34 35 28 30 36 18 19 34 24 36 19 18 31 37 23 18 20 24 37 23 28 32 35 30 22 25 36 26 35 18 30 27 20 26 32 38 18 25 31 25 37 24 18 18 36 21 27 19 31 37 32 27 38 29 21 36 38 31 31 29
30 29 31 32 23 35 32 22 34 28 25 23 29 37 30 26 26 38 26 29 30 19 18 35 37 33 34 31 28 31 33 20 25 30 30 19 33 25 30 31 34 20 32 27 33 28 24 29 22 19 24 29 28 31 21 37 20 20 19 25 26 20 34 30
35 19 20 18 33 25 33 27 31 36 22 37 31 30 32 30 30 27 23 31 30 37 22 18 38 35 25 34 18 27 36 33 28 18 18 38 31 27 27 37 36 35 29 36 38 31 27 26 22 36 22 19 28 20 36 18 26 25 37 29 23 32 28 36
27 22 23 37 23 33 38 38 38 21 21 33 27 21 28 32 24 18 20 35 31 19 22 25 20 18 35 19 18 22 37 35 23 20 19 29 33 24 18 36 29 23 28 38 30 33 20 33 24 22 27 26 28 31 35 38 32 18 24 26 25 18 34 31
19 19 23 20 29 24 29 30 21 18 18 24 18 32 37 25 25 28 33 26 25 32 27 27 34 36 28 33 24 30 18 38 25 28 30 31 27 19 20 33 33 25 35 25 22 36 19 31 28 36 38 26 21 22 24 22 28 26 19 18 28 20 30 25
20 29 28 29 29 23 34 38 27 27 30 18 33 38 27 35 30 19 27 19 37 38 34 27 21 20 27 28 23 32 32 24 31 23 19 33 27 37 29 22 36 33 20 32 18 33 37 23 21 21 25 32 24 21 38 25 23 30 23 36 20 34 24 33
21 19 25 34 27 23 30 33 35 18 20 31 36 34 22 26 28 20 38 39 42 26 37 35 40 35 27 22 26 30 19 38 19 26 23 23 23 23 20 28 34 41 22 37 23 38 37 28 20 34 36 38 24 32 20 37 26 25 32 29 34 38 37 38
33 27 32 19 20 34 32 31 29 21 27 33 22 29 19 39 29 39 37 43 33 36 42 37 37 23 26 35 23 24 31 26 35 33 38 36 21 26 34 22 43 33 26 34 39 42 43 28 26 35 28 32 23 35 32 33 24 23 20 22 30 38 20 31
34 24 28 21 20 35 21 24 21 26 22 19 25 37 41 39 28 44 36 38 48 49 41 38 30 28 27 29 20 36 34 21 36 34 25 115 24 31 39 46 35 31 41 34 49 48 43 27 27 28 24 38 21 31 37 36 26 33 37 22 33 27 28 32
19 36 36 28 32 27 38 26 27 31 36 29 34 37 39 45 42 37 51 41 44 48 44 49 32 35 43 26 31 32 20 30 36 28 33 123 27 30 42 36 49 34 44 51 53 34 44 36 39 40 44 44 41 20 32 20 21 21 19 21 18 26 19 35
38 34 21 25 24 34 30 29 27 28 23 21 30 33 36 32 34 50 46 49 38 45 50 56 45 35 36 48 36 36 26 18 22 30 115 125 44 39 41 51 42 38 56 56 52 37 42 42 34 44 46 40 24 29 25 22 33 28 18 25 28 21 20 21
28 30 32 23 18 22 25 25 38 33 21 30 44 34 36 36 50 44 54 57 45 48 43 42 56 56 37 47 50 38 25 25 30 40 124 112 31 37 43 52 51 54 52 45 56 44 52 57 56 46 40 34 47 39 26 21 27 24 18 26 23 24 38 18
32 34 38 19 37 22 30 28 37 31 34 44 37 43 47 38 54 45 49 48 65 50 51 63 47 40 58 39 45 32 38 34 113 30 115 125 43 55 56 44 51 48 61 50 57 61 52 47 42 48 49 38 39 29 34 30 19 36 24 20 37 35 30 18
33 21 31 35 36 24 20 29 22 31 30 45 36 43 43 49 46 51 67 54 61 59 48 53 46 59 43 50 40 37 32 28 26 197 37 39 137 40 57 43 58 67 56 62 66 55 59 46 52 54 44 45 38 42 40 33 34 24 23 32 34 36 32 20
36 21 30 25 26 32 21 23 29 43 27 41 45 49 41 63 61 60 61 60 54 62 54 71 53 62 54 47 48 49 31 133 208 49 35 44 39 140 56 56 65 54 54 63 60 64 60 62 49 59 46 43 39 40 41 42 29 25 22 37 37 21 29 37
25 30 20 26 25 19 21 33 22 40 42 40 51 43 47 49 60 64 72 56 63 62 65 72 58 61 64 56 41 45 35 50 214 125 48 48 142 61 58 60 61 69 72 67 72 76 71 57 63 63 57 52 53 39 44 34 24 35 30 36 29 18 30 33
23 23 33 31 22 38 21 23 24 42 47 39 41 54 65 58 63 67 63 72 74 76 74 65 55 59 68 46 50 45 47 121 126 208 49 56 142 58 67 64 72 75 63 72 68 76 71 57 66 56 65 51 55 34 42 42 41 31 35 21 18 25 35 19
36 22 21 22 27 20 28 23 43 43 34 53 47 44 62 58 68 69 65 78 71 77 69 73 73 54 51 64 51 53 127 40 220 50 121 47 60 140 55 64 61 70 64 82 75 67 80 67 67 52 66 56 52 40 49 37 32 23 37 23 31 27 37 32
24 26 34 24 31 38 22 40 31 39 51 42 46 46 50 58 57 61 62 75 76 85 70 82 59 64 58 65 60 57 47 222 138 48 43 144 148 61 65 61 59 64 69 86 80 86 73 68 64 53 66 46 50 50 37 41 24 39 36 24 37 31 22 38
38 21 18 36 18 26 25 28 37 32 39 44 56 63 64 52 59 66 78 73 84 88 75 73 60 70 65 53 51 49 51 222 137 46 50 141 58 135 64 73 70 63 81 76 78 81 65 76 60 62 67 46 47 37 36 42 40 39 37 26 38 28 19 24
20 37 20 38 33 38 35 34 26 43 40 39 59 57 66 67 60 66 71 80 88 87 81 63 70 72 63 60 61 51 40 215 131 40 128 45 51 152 69 63 65 71 66 87 84 81 81 63 57 67 49 60 43 45 32 45 38 22 29 20 31 26 36 33
40 32 36 33 36 25 25 25 31 41 45 48 53 66 63 63 73 63 71 84 84 82 80 83 72 59 63 64 50 62 47 53 255 132 63 58 54 150 63 71 74 73 71 82 84 89 78 75 77 63 54 64 66 59 40 43 49 31 43 35 45 34 32 44
46 37 33 49 30 48 45 39 49 41 45 61 57 70 68 80 66 75 81 87 94 77 78 84 78 85 73 78 56 56 69 152 60 255 65 62 68 71 160 71 74 88 95 95 97 79 92 85 77 72 68 60 66 60 57 49 60 40 38 42 52 47 53 47
37 42 45 34 43 44 36 52 49 47 49 51 63 58 80 74 88 82 94 83 96 96 88 87 86 90 73 66 76 79 65 72 234 230 69 64 78 77 85 177 78 93 96 93 102 87 88 90 85 91 85 71 85 80 74 68 71 64 62 57 55 51 55 61
52 55 49 51 54 46 59 45 58 49 58 71 79 71 75 89 85 78 95 85 99 85 91 92 80 85 89 77 88 69 62 61 72 255 158 75 91 94 81 83 189 93 89 94 96 99 105 93 95 101 85 82 92 81 77 74 68 68 66 63 77 72 76 78
39 55 54 43 49 49 57 39 46 52 56 63 52 70 64 71 73 70 85 74 72 86 78 87 69 83 65 63 73 61 67 57 138 151 226 74 64 76 76 81 166 91 93 92 98 90 85 92 76 82 80 75 83 71 73 56 65 64 69 61 55 62 52 52
38 38 42 45 32 37 38 40 50 46 38 59 59 47 50 71 68 64 61 70 76 70 73 79 78 63 62 62 61 61 51 45 139 211 64 144 58 62 67 163 70 73 72 69 81 65 74 82 80 61 69 60 71 62 57 62 56 48 58 52 58 46 48 50
28 32 33 37 35 32 26 28 45 39 48 37 46 50 47 61 52 47 56 55 49 49 63 67 50 48 52 60 41 54 42 36 208 122 52 38 127 52 143 53 67 65 66 54 56 58 60 67 62 65 45 49 40 52 48 37 45 31 42 47 42 40 30 35
25 18 38 21 23 21 29 36 26 30 35 27 39 42 47 34 45 38 46 46 55 46 38 43 51 50 44 45 33 37 26 200 117 22 33 27 120 38 36 138 38 54 40 46 50 46 51 42 34 37 38 39 44 32 40 25 22 32 27 19 24 29 38 27
31 21 36 33 28 37 28 23 36 26 36 37 31 38 37 40 36 40 41 52 45 37 34 47 36 38 44 43 38 29 118 33 200 18 38 38 125 43 38 127 36 48 45 48 42 50 44 50 42 38 30 30 24 33 20 31 21 25 36 22 35 26 25 22
27 21 36 23 33 19 35 30 37 21 22 21 32 25 23 25 38 29 29 32 38 44 32 33 35 37 42 29 23 111 34 28 29 207 30 32 21 123 44 124 32 47 36 42 45 38 28 31 34 25 28 22 37 30 38 37 19 28 27 27 24 36 38 27
20 27 23 30 36 37 18 28 23 33 33 38 23 23 37 25 22 26 34 31 28 39 26 29 31 24 41 22 26 32 116 25 192 36 23 33 24 34 118 117 33 31 26 43 33 38 43 32 29 27 30 34 27 33 30 37 26 36 19 23 32 34 32 36
20 26 29 24 35 36 21 19 19 26 33 28 23 25 32 20 19 26 39 26 35 25 37 21 27 27 29 22 26 119 32 104 121 23 22 28 21 30 109 39 123 28 26 35 27 35 35 37 20 19 30 19 20 34 29 25 25 20 34 21 36 27 24 20
22 33 30 22 37 26 19 22 36 29 29 30 27 32 30 18 23 30 37 28 38 33 33 22 33 22 32 24 31 29 113 118 120 22 33 27 35 111 27 28 27 112 36 27 38 36 34 32 25 35 27 21 29 36 34 22 24 26 32 26 24 31 37 32
23 29 18 25 21 37 32 32 20 22 37 25 24 32 29 18 22 27 29 33 28 22 37 29 23 18 21 19 30 37 19 195 114 33 23 24 115 38 34 21 32 26 121 19 36 35 22 25 19 31 18 34 25 23 37 23 32 24 27 34 37 29 25 27
19 27 37 35 37 34 37 27 26 27 21 33 21 30 19 26 37 24 26 31 25 34 27 29 27 38 26 29 23 24 119 21 114 123 23 116 28 31 24 30 32 118 21 30 34 19 32 35 38 28 33 34 24 36 30 35 19 30 34 22 37 38 30 21
29 32 36 35 34 38 22 38 23 32 22 22 20 35 22 31 31 33 27 22 27 21 29 38 36 35 32 28 32 25 112 120 121 27 30 123 34 23 25 31 34 121 27 37 34 22 29 31 34 38 26 30 35 20 18 23 33 20 36 25 19 25 29 37
38 19 18 36 30 23 37 35 29 36 20 27 30 36 20 35 24 35 31 21 21 33 20 33 35 19 31 26 28 29 106 122 38 112 36 33 104 25 20 25 37 105 26 32 24 38 27 36 24 19 32 27 24 29 18 18 26 28 29 29 18 27 23 24
37 23 37 32 28 24 24 25 27 19 27 33 27 21 33 18 24 37 30 35 19 28 23 19 30 34 33 37 32 23 120 117 20 25 119 107 23 21 36 19 22 26 115 34 36 37 22 32 26 31 37 32 27 36 24 21 20 22 33 21 23 30 23 31
18 36 32 28 32 36 24 27 24 38 24 32 19 31 23 26 29 25 21 27 38 34 29 22 30 31 18 36 22 23 36 197 30 119 38 120 25 22 23 22 30 121 19 25 19 28 35 24 26 35 20 25 24 27 29 20 36 37 26 37 35 36 23 26
21 27 36 20 29 33 20 35 27 37 26 23 23 31 18 20 38 38 34 22 33 28 20 28 24 18 38 18 23 20 120 28 25 21 118 18 122 19 20 35 29 111 38 28 33 22 24 36 35 24 31 37 23 25 30 25 25 21 22 23 18 25 21 20
22 18 37 20 25 18 31 30 20 38 30 20 27 37 20 19 18 18 38 27 31 19 25 36 31 29 32 35 32 22 31 104 34 36 32 207 33 35 36 38 32 123 23 37 22 36 31 26 28 33 37 34 24 38 32 18 29 32 20 29 31 19 23 21
21 36 26 19 24 37 24 38 32 27 33 30 23 18 26 30 25 30 30 26 38 23 30 35 34 18 29 23 26 36 123 23 35 33 27 111 115 37 38 22 24 35 37 29 34 36 31 37 26 21 29 36 31 34 23 38 32 19 25 28 24 34 29 34
32 22 34 20 21 28 19 33 37 19 29 20 19 23 29 24 28 33 18 36 19 21 19 26 19 32 24 32 24 103 27 25 20 29 18 110 117 27 33 18 37 38 35 26 35 22 32 27 35 38 37 30 35 35 20 23 27 24 20 23 20 34 22 25
19 24 36 18 29 32 26 18 27 28 22 18 27 18 22 38 27 22 18 32 32 25 18 37 19 34 25 36 112 24 30 33 31 30 21 120 33 27 21 38 29 18 37 22 36 28 35 38 25 36 27 25 18 22 27 29 37 26 26 35 20 31 28 22
34 33 32 34 20 18 36 28 27 25 25 28 34 25 27 31 25 31 23 21 22 30 31 34 38 33 27 21 109 19 22 30 18 21 33 120 26 29 29 22 20 23 38 20 30 26 29 23 24 28 28 27 35 23 28 28 29 25 34 35 36 30 21 31
23 38 36 35 19 35 31 19 33 23 34 33 23 31 37 33 35 28 29 38 24 19 29 22 22 26 21 35 25 37 37 19 22 36 20 115 35 38 36 37 30 24 33 35 32 34 38 22 25 18 34 27 28 20 25 24 33 32 28 23 29 33 33 36
27 38 32 37 21 26 27 31 38 27 32 35 23 22 34 26 36 35 20 32 30 27 34 37 22 31 31 36 35 27 30 21 33 31 20 32 111 38 24 31 24 36 35 22 25 20 23 21 19 36 21 21 22 31 23 26 35 18 37 23 24 25 26 32
19 19 21 25 35 28 26 27 30 21 28 27 20 28 23 26 18 28 31 28 18 26 36 32 24 18 37 35 34 22 31 29 36 34 30 26 38 37 34 30 26 23 21 37 33 33 33 27 36 37 21 31 25 35 22 29 30 32 26 30 28 33 34 26
26 31 30 23 27 26 24 21 23 29 37 35 26 31 24 36 22 27 25 34 27 37 33 22 21 20 30 18 20 24 23 23 30 28 27 31 35 37 33 29 24 32 28 18 29 26 23 20 26 20 18 34 31 18 34 20 23 38 29 27 26 33 33 24
22 37 27 38 31 33 26 37 36 32 20 18 19 19 36 34 25 23 36 32 38 30 22 37 20 30 38 35 31 21 32 19 18 31 38 19 30 26 28 26 38 20 24 31 22 33 21 20 30 26 34 35 26 38 19 36 37 25 20 23 36 23 29 26
