P2
64 64
255
25 26 14 18 17 25 21 15 19 22 26 15 26 23 22 17 25 15 25 18 23 15 22 22 20 19 19 25 18 25 17 21 26 23 21 20 19 15 18 23 17 16 25 23 26 14 22 15 17 22 20 18 26 22 24 18 26 15 26 17 24 24 21 22
18 18 20 24 25 19 23 14 26 21 20 22 18 16 22 20 20 25 20 23 22 15 26 21 24 14 15 25 18 14 26 22 20 15 24 22 18 24 14 26 17 26 24 26 17 24 18 19 21 16 18 15 20 21 24 20 25 21 23 26 14 18 19 24
26 24 26 16 20 25 14 26 20 15 24 17 14 21 24 14 17 17 21 20 25 14 19 16 25 15 26 16 22 24 15 26 21 16 23 22 18 21 20 19 19 14 21 19 16 14 14 15 24 24 17 23 24 17 17 19 23 15 15 17 17 26 25 14
17 26 14 16 18 24 22 23 15 22 25 14 18 26 22 15 19 23 17 14 17 17 22 19 26 23 24 17 17 22 18 22 16 17 20 15 24 21 21 23 16 14 21 25 14 22 14 25 23 14 19 22 26 16 20 20 15 22 24 20 24 16 24 20
24 16 22 19 22 15 18 20 25 26 23 22 15 16 22 25 18 19 24 24 23 23 23 24 18 26 19 15 26 24 22 15 23 16 17 21 18 15 15 25 22 24 26 17 18 17 18 18 25 24 15 20 20 25 15 18 21 19 19 15 22 19 20 17
18 17 18 20 24 24 16 20 22 16 15 14 20 15 16 14 22 17 19 17 18 16 26 25 18 24 22 26 20 16 17 20 19 17 19 22 24 23 14 17 20 21 23 18 19 26 19 14 22 23 24 22 18 22 17 19 15 18 23 23 14 25 16 22
20 22 17 14 16 18 14 14 24 26 18 25 15 15 21 15 15 16 14 20 17 22 19 25 15 20 22 14 22 19 17 26 19 23 16 19 22 22 25 21 26 20 17 21 14 17 25 25 21 21 23 24 22 19 21 25 25 14 14 16 21 23 25 17
21 23 25 22 15 23 22 24 16 25 25 24 22 26 22 20 15 23 15 26 26 23 20 16 16 19 24 17 26 14 18 22 20 18 21 22 22 15 17 21 14 20 26 19 14 16 16 16 23 18 14 24 19 26 26 16 22 18 16 16 17 20 14 23
21 24 18 24 18 16 22 14 19 25 19 18 15 14 26 16 14 15 23 26 16 15 23 16 15 22 15 26 23 26 19 17 22 21 15 19 19 14 21 14 21 14 16 19 16 16 16 17 22 24 16 21 23 19 24 17 24 16 21 16 19 17 14 14
24 21 25 23 22 18 26 14 21 26 24 15 17 17 15 20 25 19 23 20 15 24 18 17 18 26 17 15 24 26 16 15 18 22 14 24 17 16 26 19 26 22 21 20 23 25 15 20 16 21 26 19 21 22 19 22 18 25 21 19 17 14 15 25
16 23 15 21 20 21 14 21 19 18 26 24 15 16 23 15 17 23 18 16 25 20 23 25 17 19 25 21 24 15 22 21 14 26 25 15 16 14 23 21 25 18 22 20 20 23 17 17 24 24 26 26 26 15 19 19 17 22 26 23 23 14 14 20
17 25 20 15 22 17 15 16 23 19 14 16 16 20 21 20 15 21 19 26 19 21 22 19 20 22 17 19 16 26 14 19 25 16 25 21 23 14 22 17 25 14 21 14 19 17 26 14 17 16 17 24 17 14 23 22 24 14 17 26 20 18 16 20
26 14 24 21 26 18 14 18 23 17 18 26 17 18 23 16 14 24 23 23 17 18 16 17 16 14 19 21 18 24 26 21 19 17 25 23 21 19 14 23 23 24 21 14 19 14 26 25 19 14 26 23 24 26 22 26 14 20 23 24 17 22 21 25
23 15 18 20 17 20 18 21 19 16 24 17 21 21 24 24 14 19 22 17 14 24 15 22 19 21 17 24 18 20 25 21 24 24 24 21 24 24 21 16 25 19 17 18 15 18 25 19 14 24 16 16 20 26 14 21 24 22 16 17 26 20 18 20
17 25 26 14 16 16 25 23 25 22 25 16 24 22 25 24 20 15 23 16 24 25 17 24 20 17 26 19 18 14 17 19 19 21 15 21 20 18 14 22 22 16 22 19 23 17 25 17 21 26 17 22 14 24 20 15 14 19 16 15 23 20 21 25
23 19 14 24 26 17 20 15 20 26 16 19 14 26 20 26 17 16 21 22 15 14 15 24 18 24 24 18 19 19 20 15 19 20 14 18 24 19 18 20 19 20 22 17 26 16 17 26 26 25 14 25 24 17 18 21 17 26 26 16 26 16 24 17
21 19 16 17 19 16 26 17 15 19 22 18 17 22 19 19 16 19 17 16 23 19 22 15 18 25 23 20 20 20 17 23 22 17 26 20 15 21 25 25 14 15 22 24 17 18 17 25 15 17 23 22 15 25 23 25 17 24 18 16 20 21 24 17
19 17 22 24 15 14 25 24 20 14 19 20 18 21 17 22 15 23 25 15 15 16 16 18 19 15 17 14 15 15 14 26 19 21 23 14 19 14 15 26 16 14 25 21 22 19 24 25 26 21 22 26 25 18 26 20 20 15 14 25 18 22 25 25
23 18 26 26 14 16 26 17 14 20 17 20 14 21 14 18 23 15 24 15 15 14 18 15 24 15 17 15 23 25 21 16 26 26 18 18 24 15 24 25 22 24 24 19 17 24 26 22 15 22 23 16 20 19 23 19 18 15 21 25 23 26 24 16
15 26 19 23 18 16 19 20 22 20 22 20 16 20 20 21 20 21 27 26 18 21 17 19 17 23 19 19 16 25 20 23 22 22 24 16 23 23 24 23 16 20 23 19 22 18 21 18 27 26 24 26 22 17 26 18 24 21 19 25 18 15 21 15
15 20 22 24 15 25 18 24 23 16 19 26 16 22 18 25 24 26 27 26 33 31 32 32 22 26 20 17 14 15 22 17 15 16 16 25 21 25 27 18 26 23 30 24 29 29 23 22 26 21 26 19 20 16 22 24 17 21 16 18 24 20 25 25
20 24 23 20 22 22 25 18 26 20 16 18 20 23 27 22 25 32 33 32 29 25 25 26 30 25 21 28 27 17 18 22 29 24 19 27 16 29 28 30 35 29 37 27 26 33 36 32 34 32 30 24 16 23 18 25 14 18 17 21 20 17 24 14
19 15 17 15 23 14 25 19 14 22 21 18 17 29 26 32 34 32 40 39 39 35 36 35 28 32 29 36 33 26 26 23 30 26 33 27 35 34 31 33 34 33 40 32 32 29 40 27 29 24 27 21 26 21 26 14 25 23 25 20 15 23 17 24
23 18 18 15 19 21 20 19 17 26 24 23 29 29 31 29 29 42 34 38 42 34 37 32 42 35 39 38 38 38 43 41 29 41 42 38 34 46 46 44 32 34 42 35 42 39 35 38 33 37 35 29 24 28 27 25 16 22 21 20 25 22 14 23
19 20 24 26 17 24 16 15 14 19 18 32 26 35 32 35 43 38 43 46 48 39 47 51 52 46 48 46 52 54 44 48 38 45 47 50 46 43 54 44 40 43 47 45 47 47 48 38 38 34 30 33 33 21 29 23 24 24 18 22 22 21 15 25
21 21 25 25 17 26 16 16 20 17 26 22 26 32 42 34 44 47 51 42 43 42 45 58 60 60 57 60 56 54 48 51 48 53 57 62 59 57 64 56 55 47 47 41 44 48 45 40 45 41 38 32 27 23 26 26 19 26 19 21 17 17 17 24
16 21 17 25 17 17 15 24 25 20 30 28 38 42 37 37 51 43 55 49 47 50 59 64 62 60 61 67 68 60 64 57 62 56 61 62 60 64 67 64 64 59 54 52 53 47 43 53 49 40 44 31 34 37 21 26 16 18 23 23 25 22 21 18
17 15 22 25 22 14 21 22 21 32 34 36 37 39 43 52 48 46 47 49 52 66 68 63 67 71 75 76 69 73 69 70 74 70 73 79 78 80 78 79 77 65 72 62 51 57 58 46 51 47 43 43 38 35 25 30 18 23 18 26 14 22 16 18
20 17 24 25 26 26 25 21 25 32 30 37 36 42 48 43 54 56 60 55 66 70 78 74 75 81 81 81 85 80 83 83 83 81 76 78 87 76 87 86 79 76 72 64 68 62 56 56 46 45 47 40 42 33 30 29 17 16 21 14 17 20 21 16
16 14 26 16 26 26 14 25 19 29 30 40 40 44 44 55 53 53 62 69 68 74 84 81 84 89 91 94 92 82 90 85 90 89 85 83 94 94 91 90 86 89 77 75 78 71 61 61 57 47 50 39 37 34 35 26 23 25 17 23 19 18 25 15
20 16 14 18 18 24 15 23 27 29 28 40 37 40 46 55 49 63 64 72 82 84 89 89 88 87 97 93 97 88 89 96 91 96 96 93 100 95 96 87 97 95 87 78 82 71 59 59 50 54 44 41 34 34 35 33 26 17 21 18 23 18 24 22
18 19 20 16 20 15 26 23 25 29 27 34 43 47 47 54 55 58 68 82 85 94 91 90 94 97 95 105 101 95 96 98 108 102 104 96 95 105 97 92 102 91 96 91 79 73 61 61 54 49 43 42 43 35 39 28 27 23 19 18 14 22 17 24
16 23 19 22 25 14 15 25 27 24 30 38 44 51 43 53 53 55 67 86 89 97 97 93 98 108 105 110 105 106 109 105 108 110 103 103 102 110 104 98 107 96 94 93 91 86 73 67 57 51 55 39 37 32 38 26 29 28 22 18 20 18 17 16
18 21 24 15 14 22 26 18 30 26 28 41 44 46 43 58 54 60 64 76 87 99 100 100 108 107 111 112 114 108 110 120 117 119 116 113 103 113 100 102 98 105 99 96 90 78 64 57 61 52 55 45 37 31 37 33 20 19 19 18 16 19 20 14
18 15 26 17 24 25 21 26 20 26 37 32 45 38 44 47 52 62 73 78 83 87 94 98 104 100 105 106 111 108 117 125 117 118 116 107 108 106 103 108 99 101 96 97 86 80 67 61 54 57 53 38 34 38 27 32 25 22 15 21 17 22 22 19
16 19 24 23 22 26 16 16 30 27 30 33 34 41 48 53 48 59 68 80 87 90 90 102 99 100 102 109 113 119 111 121 130 128 119 112 110 105 105 109 106 96 99 93 82 78 61 60 47 50 48 45 35 32 36 29 25 25 20 18 16 25 26 23
18 18 23 20 24 24 18 15 18 30 37 36 41 36 40 47 56 59 59 70 85 90 95 95 93 108 99 113 108 113 120 117 129 118 118 112 107 108 108 100 99 89 95 81 80 66 68 52 45 46 47 39 36 29 35 33 21 15 24 14 21 23 24 24
19 16 24 17 17 14 26 22 22 22 29 30 42 42 38 43 54 57 64 67 71 82 85 96 101 102 105 110 102 105 113 113 111 116 118 105 108 107 96 104 97 93 89 80 79 62 64 54 48 51 44 37 35 37 35 21 28 24 24 19 25 14 16 22
19 15 23 17 26 25 19 21 20 27 21 32 37 41 39 39 47 47 62 61 69 71 76 90 85 92 95 101 104 112 106 109 113 102 102 106 101 103 95 95 94 88 84 77 66 69 53 42 39 48 43 41 29 27 21 27 20 26 20 23 19 18 26 15
20 25 17 20 17 23 16 17 16 22 27 27 31 32 42 37 36 43 57 63 60 66 73 82 85 95 95 99 97 104 98 97 102 96 103 96 100 98 94 95 79 78 81 68 60 64 50 44 39 36 37 36 38 34 23 26 21 24 24 16 17 16 19 25
17 21 16 14 21 22 17 20 15 16 17 28 35 34 28 34 43 35 46 47 63 63 76 77 73 78 92 88 88 91 89 97 88 91 87 86 95 87 88 87 79 72 77 67 65 51 44 39 37 32 40 35 23 32 18 22 19 18 18 22 15 23 22 23
18 23 15 15 25 19 23 24 23 17 20 24 32 25 32 39 39 35 36 41 50 62 62 63 75 73 76 85 88 83 84 79 78 88 87 80 82 76 83 78 79 74 61 56 48 45 36 39 34 27 32 26 22 19 20 23 24 21 17 23 20 20 17 23
20 18 18 26 25 16 16 15 20 26 22 19 26 23 24 34 36 29 28 37 48 49 56 60 71 72 73 78 73 75 71 75 82 81 70 80 78 68 70 68 64 57 53 54 41 42 28 33 29 27 32 26 17 27 21 24 16 20 23 23 19 25 20 23
18 23 24 26 15 15 16 16 26 20 16 21 15 20 27 27 30 28 24 40 35 49 50 54 58 55 61 62 68 66 67 73 65 69 73 68 70 68 60 57 57 52 46 43 44 38 32 28 22 26 28 22 16 18 18 20 23 20 14 26 20 24 23 23
20 22 25 20 22 20 26 25 14 24 23 21 23 16 17 22 22 27 21 27 28 43 48 47 48 52 54 61 61 59 57 68 59 69 67 60 56 59 55 49 51 42 38 41 38 33 22 30 28 20 27 24 14 16 23 21 20 21 18 24 21 20 20 21
14 23 21 16 14 16 26 21 21 22 24 24 15 24 19 18 16 19 28 27 20 29 33 43 35 40 49 44 58 51 62 57 56 53 62 49 49 47 49 49 47 42 40 26 26 17 18 19 17 16 25 26 17 14 15 18 14 14 26 26 14 20 26 23
14 24 24 23 21 16 19 20 17 20 26 18 22 25 17 17 23 25 19 16 22 22 27 32 39 32 36 48 53 47 46 57 46 52 48 55 45 46 46 37 36 29 20 20 24 16 25 21 15 20 23 25 24 22 17 16 22 20 16 21 21 15 26 18
16 17 23 14 20 18 26 17 14 21 19 18 20 19 25 25 23 26 25 18 21 22 25 26 27 33 39 45 38 43 43 50 41 44 47 37 45 34 39 32 25 29 28 22 26 23 22 14 26 20 20 25 20 26 18 20 14 23 16 16 26 18 16 25
21 16 24 18 22 14 18 19 22 19 14 21 23 19 26 22 18 24 21 20 14 26 19 18 18 22 35 28 29 34 42 35 43 44 37 40 37 29 26 32 26 26 14 15 23 26 25 22 20 24 14 23 14 21 26 14 17 25 25 21 21 23 14 26
19 17 15 16 25 26 22 22 21 25 26 21 21 14 19 18 14 26 15 22 26 25 20 22 16 25 21 22 35 34 26 27 31 39 34 31 35 24 25 20 17 22 18 15 21 20 17 16 24 26 19 23 16 23 14 15 15 22 19 22 14 19 20 23
14 20 16 19 25 17 15 23 17 22 16 19 26 21 19 20 16 21 15 23 19 15 18 14 24 21 22 23 21 29 22 23 29 31 29 21 18 19 19 25 16 18 25 22 15 22 26 25 20 14 23 23 22 17 15 25 20 26 26 21 15 23 24 24
19 25 20 21 22 18 20 17 24 15 18 25 24 24 19 20 22 20 16 26 20 23 15 15 19 15 25 24 26 20 17 19 17 18 17 15 21 21 23 23 23 22 17 19 20 16 17 14 24 26 22 18 21 15 19 19 26 17 24 23 19 16 20 16
14 18 15 26 16 18 14 23 17 20 25 23 26 17 19 20 24 18 20 19 21 19 25 14 23 26 15 18 20 16 18 25 21 20 21 24 23 26 25 19 22 21 21 21 20 25 20 18 19 23 21 19 19 23 26 17 14 26 21 14 25 22 17 16
26 17 17 21 24 22 19 14 21 19 23 25 21 24 25 15 24 24 17 23 24 26 14 22 19 21 17 24 25 25 23 15 14 26 20 24 17 20 18 23 21 19 16 23 22 15 15 23 22 21 20 24 16 25 21 21 19 16 25 20 23 20 15 23
16 26 20 16 14 25 21 25 17 21 19 15 20 22 16 26 24 17 14 17 19 17 19 16 14 19 16 20 15 21 21 23 21 19 16 19 26 21 24 18 23 23 26 14 20 14 21 17 26 18 26 14 23 18 24 21 19 14 25 24 23 24 15 23
16 20 23 16 19 20 19 17 20 17 19 23 25 25 24 23 19 14 15 17 19 21 21 18 23 23 21 18 18 24 18 14 22 26 20 16 22 17 15 19 24 20 22 22 26 14 16 22 18 15 26 23 17 21 15 25 16 25 20 20 17 21 17 21
19 18 15 23 20 18 18 19 23 22 17 20 18 16 21 21 22 20 21 15 17 21 26 14 24 25 16 22 15 17 24 18 21 24 17 25 16 14 15 20 15 25 16 23 18 23 23 15 18 16 22 21 25 19 19 25 26 14 14 18 14 14 16 19
19 25 22 16 14 18 16 21 24 16 21 15 21 20 24 14 25 22 24 14 22 26 25 16 24 25 16 20 22 18 26 15 18 19 18 14 26 26 14 24 16 17 23 16 14 19 19 23 19 16 20 17 15 20 17 17 21 17 18 20 16 20 16 16
20 17 21 14 22 17 21 15 16 21 20 21 17 21 14 25 18 23 17 16 20 19 22 17 26 18 21 26 14 16 24 23 23 22 17 21 16 19 16 22 18 19 20 17 21 20 18 14 14 18 21 14 19 22 21 26 23 20 20 17 21 17 16 15
23 20 17 23 18 25 24 24 16 25 22 24 19 20 25 20 18 17 22 15 22 19 17 17 26 26 25 16 23 23 25 22 24 16 18 16 21 25 21 21 15 24 18 24 15 15 20 15 14 25 23 26 26 26 24 24 17 18 20 21 20 24 19 19
21 26 21 24 21 15 25 18 22 17 17 21 15 26 14 16 14 19 15 22 18 22 14 18 17 21 24 25 23 23 15 15 19 22 21 23 26 21 23 15 24 14 17 18 16 14 14 25 24 26 24 24 19 20 14 23 25 25 18 19 14 26 25 16
18 16 22 16 14 17 21 23 22 22 16 24 14 25 15 16 26 20 24 25 22 15 16 23 25 14 14 16 15 26 15 15 19 15 25 14 18 17 23 24 23 26 23 18 25 14 20 22 23 14 17 25 18 19 21 18 15 18 25 20 22 22 23 22
20 15 26 16 22 16 24 25 25 22 22 22 16 16 18 14 17 17 15 17 26 14 19 26 14 25 15 21 24 22 25 15 18 23 24 25 22 20 18 18 21 15 24 22 23 25 15 17 15 21 16 26 14 19 20 14 26 24 15 18 15 22 14 15
20 19 15 19 19 25 18 18 16 26 21 26 14 25 21 17 23 26 18 22 21 14 20 24 18 15 20 24 24 24 16 14 18 26 17 19 26 23 24 16 18 19 17 19 21 19 15 17 14 16 25 26 21 23 21 15 19 19 26 25 21 14 21 16
