P2
64 64
255
14 21 18 21 25 15 26 22 20 17 26 18 26 14 22 17 18 24 20 23 19 17 17 20 22 17 19 23 25 18 21 25 21 21 15 23 14 24 24 23 20 25 19 25 18 25 14 16 20 23 15 21 17 17 26 23 23 22 21 15 19 14 15 21
17 15 23 20 17 15 17 20 22 16 23 21 21 14 26 18 23 25 25 18 21 15 15 17 17 20 22 16 23 14 24 25 23 16 14 21 21 24 25 20 19 23 21 14 17 23 24 15 21 16 19 19 20 18 18 14 21 17 24 22 16 17 24 15
14 23 25 24 21 25 18 19 17 24 15 26 25 19 22 26 23 18 19 14 23 20 22 17 20 17 23 26 19 25 18 19 15 17 18 19 15 14 19 24 24 14 15 20 23 25 25 19 26 20 25 25 22 17 14 26 25 25 17 24 14 15 18 17
24 23 23 14 24 21 21 14 19 24 23 21 22 21 15 18 18 19 20 22 25 19 22 14 25 15 17 20 20 14 15 19 17 21 26 18 14 16 21 20 26 21 23 21 20 14 21 18 21 17 26 26 20 19 23 19 14 21 24 15 25 26 14 18
17 25 19 16 17 19 16 18 23 21 20 19 21 21 20 22 19 20 14 18 23 20 15 22 26 16 15 14 14 22 14 25 17 21 17 21 19 24 24 17 18 18 17 19 18 16 20 16 14 24 21 17 15 16 23 22 24 25 21 24 21 23 18 22
17 22 15 16 16 17 26 17 20 21 25 20 20 18 25 19 18 20 24 26 25 16 14 24 14 16 15 14 23 23 24 18 22 19 14 17 18 19 26 15 19 24 21 26 17 14 22 23 14 18 14 17 24 16 22 17 23 19 17 22 14 26 14 24
18 20 21 20 15 26 26 22 15 26 15 26 14 21 21 16 20 17 20 25 21 26 15 20 18 22 24 16 24 22 16 18 18 14 20 24 18 23 24 18 24 14 25 24 23 26 16 14 20 26 14 26 19 15 21 24 18 19 16 23 23 23 23 26
25 25 20 25 25 20 21 14 20 18 14 25 17 17 21 17 20 24 26 21 15 15 18 15 17 22 21 15 17 25 15 26 24 15 18 22 24 14 17 18 26 15 15 24 25 18 18 20 25 18 14 21 26 14 22 15 19 17 23 22 20 21 19 22
22 18 20 25 22 26 23 17 18 22 20 25 15 21 19 14 21 24 18 26 24 18 17 26 14 25 19 19 19 18 26 25 24 24 23 20 26 16 21 20 26 25 15 23 20 23 18 16 25 23 14 17 14 15 16 21 16 16 17 24 20 26 22 14
23 20 18 16 14 21 23 22 20 25 23 24 25 14 26 26 25 25 25 23 22 22 26 19 17 22 17 26 14 20 16 15 26 25 25 19 24 18 26 14 18 22 25 17 20 18 24 23 17 18 23 25 16 22 17 14 24 22 23 21 20 19 21 20
18 14 20 20 15 17 21 23 22 19 21 26 17 23 26 15 15 22 15 15 14 14 25 19 15 16 21 25 16 17 21 24 25 24 19 19 22 14 26 24 19 21 14 23 18 25 14 18 26 25 14 17 24 25 25 21 24 22 15 21 17 24 14 19
21 18 22 19 22 23 18 22 16 25 20 18 24 15 17 17 26 24 15 20 22 23 20 19 14 25 19 21 19 22 25 25 17 24 23 18 14 15 18 14 20 26 16 19 15 16 17 15 19 21 22 23 24 23 22 26 25 19 20 18 25 20 19 22
19 16 22 17 23 15 21 25 14 14 14 26 15 14 18 15 24 21 15 21 25 23 24 26 20 15 26 20 26 16 25 20 24 20 14 26 14 18 17 26 23 23 23 18 24 24 25 25 17 22 19 21 23 24 20 19 22 25 24 23 16 14 19 25
26 22 20 15 25 21 19 17 15 24 17 21 19 25 24 17 16 20 14 25 18 17 26 18 26 20 24 22 23 19 19 25 24 19 23 15 17 26 22 26 21 17 18 15 14 14 22 16 26 16 26 22 24 24 14 15 17 20 17 19 17 17 22 25
22 20 17 21 26 17 15 14 26 14 21 20 25 22 21 19 18 19 22 16 25 24 14 19 19 23 14 16 14 24 20 21 15 23 16 22 20 17 21 26 20 26 16 15 17 20 22 14 26 23 26 24 14 26 24 21 23 20 23 22 20 23 22 21
19 14 24 24 22 21 24 24 20 25 18 22 15 25 24 17 15 23 26 16 17 14 21 22 15 22 21 16 22 17 18 16 14 25 16 18 18 14 15 26 14 21 22 16 18 19 21 24 26 21 16 14 23 19 22 26 19 16 16 17 19 20 15 22
18 15 23 15 19 20 18 16 19 22 15 18 21 17 24 17 14 19 19 25 22 24 22 23 21 16 14 18 16 21 24 15 14 16 18 14 22 18 22 14 15 16 17 18 21 25 25 17 19 19 24 21 21 19 24 18 14 19 25 25 14 16 25 16
25 18 22 24 23 19 22 24 22 18 16 25 19 24 26 19 16 20 17 23 17 18 22 16 14 19 25 14 21 25 21 19 22 20 19 20 17 18 26 26 17 15 19 19 24 20 20 26 23 15 22 24 17 20 23 15 20 22 18 14 24 26 21 19
22 14 19 21 14 25 16 14 21 22 23 21 16 19 19 23 16 16 23 19 22 15 22 21 17 21 16 26 21 18 18 22 25 24 26 23 19 16 17 14 14 23 25 15 15 24 23 21 25 26 17 25 18 14 15 26 26 25 17 17 23 23 15 16
21 26 18 22 17 14 22 26 22 22 19 18 20 18 19 25 16 17 18 29 20 26 29 27 25 24 16 24 15 15 16 25 25 15 17 23 14 23 21 20 25 21 22 21 24 25 25 25 21 16 23 20 26 16 25 15 21 19 21 18 25 23 24 19
18 19 22 14 22 15 22 19 21 16 21 23 25 19 15 26 26 24 30 22 29 26 26 29 27 26 23 21 24 26 25 23 17 22 16 21 24 23 24 26 29 22 25 28 23 24 25 28 26 28 18 15 23 24 15 23 17 25 17 16 17 20 24 17
24 20 22 18 17 14 17 20 17 23 23 17 21 21 22 27 28 31 33 34 37 37 36 30 32 29 30 31 18 16 19 22 16 16 17 26 16 19 24 33 31 31 37 34 26 27 33 33 26 32 30 24 21 23 25 24 15 24 24 16 21 15 15 15
20 20 20 14 16 15 19 14 19 18 15 19 21 24 29 30 31 38 36 36 41 32 32 40 35 36 24 27 29 29 16 26 25 15 25 29 32 25 36 37 31 39 33 41 31 37 35 31 33 24 26 24 19 17 25 19 21 20 24 16 16 15 17 18
23 15 25 17 15 25 21 24 23 25 17 29 20 35 31 29 41 35 44 41 34 33 41 43 35 35 38 37 32 25 26 25 15 17 24 22 34 37 28 41 32 42 41 42 43 44 44 37 40 36 26 35 31 25 25 17 17 17 17 19 24 25 18 17
25 21 21 20 15 14 23 18 16 21 27 26 23 27 32 40 42 36 44 45 46 49 45 42 39 43 34 32 38 29 28 26 14 21 27 27 38 38 31 34 42 43 48 38 49 38 36 37 39 43 38 38 27 25 25 16 16 21 15 19 15 21 24 20
18 25 25 14 20 23 24 26 26 28 19 23 33 30 43 34 45 47 41 48 46 48 48 48 39 42 36 33 33 29 28 23 18 24 29 28 28 38 39 45 45 51 49 44 42 46 39 45 40 41 31 30 28 25 28 26 15 25 20 18 23 22 15 16
17 19 19 15 18 20 18 17 23 21 32 26 35 40 34 42 44 49 52 55 56 51 50 46 44 47 48 34 43 34 26 32 33 32 25 39 32 34 43 39 48 50 48 50 47 55 51 48 46 46 37 43 40 34 33 20 20 14 17 25 24 16 16 18
17 15 18 15 26 25 18 22 21 21 32 36 32 35 41 50 50 54 59 51 56 50 48 47 54 50 44 42 33 32 29 26 35 36 26 38 43 45 45 44 48 47 49 50 49 57 57 52 51 40 47 41 31 27 33 29 21 20 24 16 15 24 15 15
26 16 14 20 16 26 15 14 20 30 33 36 38 46 42 45 53 53 55 53 63 65 53 57 53 48 46 39 44 43 40 28 31 38 28 44 42 40 42 45 55 52 57 55 55 62 54 52 45 49 51 36 40 30 36 33 20 18 25 22 19 22 18 23
23 19 14 21 14 17 25 23 21 32 30 37 45 39 49 45 54 58 62 66 64 67 65 62 57 55 48 49 47 43 42 32 41 40 31 44 37 43 44 52 54 53 62 63 67 64 53 52 49 49 48 41 41 37 37 33 20 16 24 19 21 22 25 15
23 14 20 24 22 25 23 19 21 26 30 39 43 38 44 55 54 58 56 70 65 72 63 67 53 60 55 49 43 46 43 44 43 43 44 40 49 50 55 59 65 66 62 63 69 66 65 65 52 58 51 44 35 39 37 31 31 16 22 20 20 21 19 21
16 25 21 26 24 16 16 26 21 27 30 42 37 44 55 57 60 60 58 67 65 71 73 70 57 50 53 48 46 39 44 41 40 35 33 47 41 49 49 53 59 66 65 72 73 68 60 60 52 50 54 40 46 43 35 27 25 16 16 23 25 17 25 26
24 15 18 16 17 16 16 28 21 28 34 43 41 42 43 47 59 56 64 71 74 73 63 60 60 62 48 49 47 36 39 37 44 34 36 43 51 53 48 52 60 69 75 75 76 68 61 66 56 57 44 41 39 31 35 24 20 22 18 24 25 14 15 20
21 21 25 24 14 15 23 23 26 25 33 37 36 41 47 52 59 54 58 70 76 71 65 60 56 57 57 49 50 42 45 41 34 34 33 47 46 47 58 60 61 67 66 74 74 65 70 62 53 50 55 42 45 40 32 25 28 27 22 17 21 19 23 20
25 24 18 20 14 18 19 22 26 26 31 43 43 47 43 53 60 55 58 66 61 71 68 66 57 56 52 44 46 37 43 36 41 32 33 46 43 53 56 58 62 56 65 67 61 67 58 55 57 58 51 46 45 31 34 23 21 22 16 26 22 16 20 19
18 23 22 19 23 14 20 18 19 30 26 36 33 48 52 47 54 63 62 60 69 69 56 57 51 55 54 44 43 45 34 38 40 39 30 36 44 42 47 50 59 57 66 68 67 59 57 51 55 52 43 47 34 35 37 32 22 20 24 26 25 15 16 18
18 24 17 26 26 23 16 16 18 21 36 31 44 44 39 44 51 53 56 59 53 61 58 53 56 55 47 49 47 39 38 31 39 38 30 42 35 50 47 49 48 57 55 60 64 55 59 50 48 48 45 39 36 28 29 31 22 19 19 16 23 24 22 22
22 21 22 23 26 15 24 14 18 31 26 35 31 38 49 52 45 46 59 52 52 58 54 53 54 45 40 41 38 40 35 31 32 30 30 38 45 42 40 50 51 59 59 52 57 51 48 55 50 48 48 37 40 31 29 31 25 17 18 21 15 14 25 22
18 24 26 19 23 21 23 18 21 26 28 27 31 37 42 40 46 46 54 52 48 54 54 55 46 51 46 39 31 39 33 28 29 28 30 28 34 34 45 48 44 52 48 51 51 56 43 44 41 43 42 39 35 27 25 22 15 22 24 25 22 19 21 16
24 27 28 27 27 23 24 17 25 26 28 28 41 32 43 50 50 49 45 57 57 49 54 53 44 45 49 36 33 40 37 33 25 34 28 30 37 44 44 50 52 54 53 57 46 46 44 49 49 43 39 35 41 37 30 24 20 20 21 26 20 23 24 24
29 20 30 30 27 22 23 22 33 31 27 35 39 45 42 47 41 47 46 56 46 53 48 53 52 43 47 42 47 37 31 28 28 37 36 42 36 40 50 51 45 53 59 55 55 57 57 51 44 49 45 42 42 36 34 38 30 32 31 33 27 27 35 38
32 34 27 27 34 31 25 28 31 27 31 35 43 41 48 47 48 50 48 55 48 54 51 56 48 46 49 43 47 40 42 32 33 39 40 41 39 44 50 54 58 58 54 57 59 61 53 55 55 44 54 44 43 46 43 41 42 38 38 38 41 45 36 34
28 29 27 29 27 22 28 22 28 28 31 24 30 36 38 37 46 46 44 48 45 38 41 42 36 42 35 40 37 30 30 33 26 31 31 29 39 39 36 44 48 42 47 47 43 49 42 44 41 46 38 34 39 38 30 28 33 32 27 27 28 33 33 35
17 17 23 27 20 19 29 21 21 22 19 29 18 21 27 28 33 39 40 33 39 40 39 31 35 29 26 32 21 19 28 21 21 24 28 26 31 31 33 38 39 35 31 37 31 30 37 30 36 27 32 27 19 31 20 20 27 21 23 22 31 28 23 24
25 19 24 19 23 21 18 18 18 20 14 23 16 25 23 17 30 31 31 22 33 23 28 28 32 21 19 16 26 15 20 14 15 14 18 23 22 22 19 28 30 29 32 31 22 25 28 23 21 19 17 23 25 25 19 26 15 24 26 23 20 24 20 21
16 25 23 21 18 22 23 26 17 23 18 16 22 16 23 19 27 21 18 20 19 20 29 26 18 20 17 23 19 21 22 15 15 25 25 19 22 24 14 20 25 20 21 29 21 18 22 18 20 21 25 24 22 22 16 24 25 22 16 18 16 25 18 18
24 18 18 18 22 21 21 14 15 20 23 14 17 17 21 26 21 22 22 15 15 19 14 14 16 15 24 23 25 14 24 24 25 22 19 23 25 22 26 23 20 24 26 16 25 16 23 20 24 17 19 21 24 26 25 21 26 26 24 16 19 26 26 20
23 23 23 18 20 24 20 24 21 26 14 26 22 23 25 16 24 16 24 21 14 24 20 21 26 20 20 17 21 23 26 26 15 15 15 26 17 26 26 26 26 19 25 16 25 21 23 26 22 15 14 17 23 21 16 15 21 20 17 23 23 15 24 14
23 15 22 22 24 16 15 18 14 26 22 23 17 23 19 26 21 16 22 20 16 19 24 14 19 22 17 26 23 14 20 15 25 18 18 18 20 25 21 16 20 25 23 18 15 21 21 25 17 25 19 14 20 22 21 22 17 24 14 20 14 19 22 18
23 16 25 24 21 20 23 19 24 15 18 26 19 21 18 17 26 20 21 16 18 25 24 21 19 25 25 23 23 23 21 18 22 18 15 21 16 21 26 20 20 25 24 17 16 17 15 17 16 15 24 17 15 22 15 26 14 14 20 26 24 16 22 24
22 25 25 26 21 26 15 17 20 19 19 14 25 15 24 15 17 19 21 14 22 22 20 16 16 24 16 18 24 24 24 25 21 21 17 19 25 24 19 19 15 21 26 22 17 22 22 20 24 18 14 15 26 18 16 14 22 19 20 25 15 26 21 14
23 20 20 20 26 21 23 15 15 15 23 23 25 26 21 23 22 22 20 22 18 19 21 23 20 26 25 22 17 17 17 23 17 25 21 15 16 20 19 17 22 15 14 18 23 26 17 18 20 26 20 14 23 23 20 21 18 21 16 21 26 16 25 23
16 16 25 16 14 21 25 24 16 23 16 25 15 17 20 14 21 21 15 17 15 20 19 21 23 21 16 23 24 26 18 17 25 14 21 22 26 21 23 21 19 20 17 21 23 20 22 14 24 20 14 15 23 17 19 26 23 26 25 23 17 21 20 17
19 23 22 14 25 15 15 17 14 22 25 19 18 24 25 17 21 19 21 23 24 24 23 16 16 22 14 18 15 26 25 24 20 20 20 26 14 17 17 26 18 18 23 19 23 15 14 18 15 17 22 23 18 21 21 26 18 19 16 19 21 15 14 16
24 14 18 19 24 25 22 19 25 17 14 26 26 20 23 24 20 18 24 19 21 24 26 16 23 23 23 15 21 16 18 24 20 18 23 22 14 24 14 19 16 22 24 15 23 14 17 15 19 25 24 24 23 15 23 15 21 14 19 23 26 24 17 18
22 18 14 17 16 25 25 24 15 14 14 17 21 22 19 19 19 17 18 26 16 19 17 23 18 25 17 21 22 26 26 25 18 21 23 17 17 24 16 24 15 26 19 15 23 23 18 25 24 19 21 16 23 24 26 24 20 14 24 17 22 26 15 25
18 26 19 17 14 24 24 17 20 24 20 22 23 19 22 18 15 17 14 22 16 19 15 16 17 25 25 25 23 21 21 24 25 14 18 25 20 15 16 20 16 14 18 22 17 24 23 24 19 18 14 24 19 22 14 25 21 21 14 22 15 15 21 16
23 19 22 19 16 15 19 16 21 15 17 26 24 25 22 24 20 26 23 22 20 22 15 25 24 15 20 24 18 16 21 20 19 17 24 23 21 18 21 15 24 20 20 23 19 16 23 20 14 17 24 19 20 14 15 14 21 22 17 26 17 24 25 17
26 14 19 21 14 25 19 23 25 16 20 20 23 26 15 15 23 19 14 15 24 19 23 16 26 23 26 24 26 24 17 21 20 17 21 18 19 17 26 22 22 21 26 21 24 18 18 14 18 19 20 23 19 15 16 16 18 14 16 25 15 22 26 15
20 20 16 25 15 22 18 20 15 14 25 15 26 18 20 20 19 17 20 14 16 24 14 21 21 22 17 14 18 23 21 25 17 15 22 21 21 23 17 14 26 22 25 23 24 14 25 15 22 16 22 23 18 16 24 21 23 22 16 24 21 15 23 21
21 14 25 22 25 15 21 20 23 22 14 25 26 15 16 22 18 26 20 23 16 24 21 23 20 15 15 17 14 16 14 25 21 21 24 14 22 24 21 16 21 19 20 16 24 26 19 20 26 22 19 22 22 23 19 25 17 17 20 21 17 24 17 18
18 16 24 17 20 14 26 23 22 17 14 16 23 17 21 17 20 17 17 14 17 16 22 15 14 14 17 14 17 17 23 14 20 25 14 18 17 16 15 26 14 20 14 22 22 25 18 23 24 16 20 22 26 17 25 25 25 15 25 19 22 19 26 19
26 25 16 15 25 24 15 24 17 26 17 22 19 20 14 19 19 24 23 24 14 23 15 22 14 14 24 23 16 24 23 21 25 21 16 23 19 19 20 24 15 17 25 23 21 23 21 26 21 14 21 14 26 23 26 18 22 22 26 17 22 24 14 17
14 19 25 20 26 21 25 15 21 15 20 26 18 16 20 25 18 25 14 16 15 16 24 23 17 16 15 15 14 15 24 14 14 22 22 14 15 22 16 14 19 14 19 17 15 19 24 16 23 20 18 18 15 22 17 19 21 24 22 25 15 17 26 16
