P2
64 64
255
25 37 18 35 35 22 26 32 19 31 22 32 23 29 38 37 31 38 37 32 20 31 32 18 30 34 20 32 33 34 33 29 19 26 37 31 34 35 31 26 27 28 18 22 38 28 29 32 28 22 27 28 21 38 22 33 32 26 35 26 29 37 21 32
38 18 20 20 26 20 19 37 20 25 35 32 27 33 37 32 38 30 27 36 36 34 20 24 35 20 22 24 38 19 28 31 36 25 32 29 24 33 19 35 25 19 35 29 34 25 33 21 19 31 34 32 37 35 37 24 22 23 18 37 37 23 20 26
34 24 19 33 23 19 22 18 31 32 27 22 33 25 30 36 35 27 22 34 27 28 36 23 37 24 24 38 29 20 25 36 38 34 29 37 36 38 18 28 19 23 37 36 19 20 22 30 35 20 31 24 22 20 24 24 18 27 38 22 23 18 32 18
36 32 23 27 20 19 32 26 30 25 20 31 28 27 36 21 30 22 38 19 26 27 20 23 19 37 27 27 30 25 31 19 30 18 37 21 26 23 32 21 29 23 25 21 33 20 23 36 26 38 20 37 23 28 25 20 18 31 25 19 20 29 21 22
36 31 34 24 34 30 33 25 20 22 21 33 34 32 36 31 29 38 35 35 30 36 24 25 27 29 33 24 28 33 33 18 37 38 22 25 20 31 30 22 28 36 33 26 26 31 27 27 25 29 19 29 27 22 34 26 36 20 20 33 18 19 25 21
35 20 34 29 31 26 27 23 20 34 36 35 24 37 35 21 37 26 20 21 19 23 20 23 25 36 24 33 24 31 36 24 32 34 30 18 36 28 32 35 20 23 26 38 31 27 35 36 24 34 33 18 18 31 32 28 22 18 22 27 23 23 34 38
33 23 37 36 37 24 21 36 36 18 18 26 18 19 36 26 38 31 32 29 31 18 21 37 26 21 34 32 20 24 31 27 19 27 27 37 26 28 34 31 24 23 23 38 25 32 20 34 23 19 26 33 29 28 35 22 25 25 34 27 34 28 36 34
19 19 37 18 23 33 31 35 34 20 20 22 37 20 18 35 25 35 23 37 19 23 31 21 18 28 33 28 34 30 20 38 30 25 19 22 30 24 32 20 23 34 33 23 21 37 26 37 18 35 31 23 36 21 35 34 18 20 23 31 38 23 31 28
21 35 34 24 32 18 21 38 33 32 32 27 38 24 18 27 21 31 25 38 26 21 28 36 31 23 37 36 37 28 27 28 23 21 23 23 26 22 31 36 36 27 22 21 29 38 38 21 19 18 38 32 24 23 33 29 20 19 22 21 33 21 33 33
24 36 30 35 37 25 23 26 23 35 18 21 31 29 29 23 38 29 21 35 21 30 29 20 29 25 21 29 35 33 23 35 33 36 18 27 36 32 30 26 34 22 30 34 31 29 29 30 30 37 18 23 27 18 18 30 30 30 38 23 23 18 29 25
33 28 29 23 20 26 31 36 30 24 20 24 35 33 38 25 18 31 22 25 29 25 24 21 30 24 22 19 27 19 36 26 31 27 19 20 19 19 18 20 20 35 26 28 19 37 35 25 27 37 23 32 36 18 24 30 34 19 23 34 31 27 26 23
20 29 22 24 18 20 27 23 35 27 32 35 29 32 34 32 32 38 22 19 20 23 35 35 33 30 33 24 36 23 29 35 35 26 19 33 22 31 38 20 26 18 28 28 23 29 21 32 28 36 34 18 23 19 34 18 25 24 38 19 23 32 36 30
37 20 30 34 27 28 24 31 32 35 36 30 22 33 21 23 24 34 26 23 18 31 21 35 26 37 24 36 24 35 32 18 25 30 29 26 33 26 20 22 21 27 26 28 22 28 20 21 22 24 37 32 35 19 21 34 28 36 37 36 26 34 28 25
18 27 37 22 33 35 31 29 28 29 35 32 19 25 28 25 28 26 30 31 30 25 21 36 18 38 26 23 28 25 29 21 29 33 37 23 33 38 34 35 34 22 21 34 29 32 29 33 30 36 31 34 37 37 33 19 32 19 25 20 34 33 21 26
36 21 28 31 21 24 30 18 21 38 37 38 33 38 31 25 36 29 27 37 26 29 31 36 29 18 28 19 26 21 20 20 27 38 29 23 19 34 37 37 23 26 36 24 22 27 20 21 23 28 28 32 20 28 37 26 19 31 35 19 35 22 37 29
36 28 33 37 23 27 18 26 22 38 20 19 18 28 32 29 20 33 38 35 22 22 21 33 19 34 21 20 34 19 26 37 34 24 34 22 27 26 29 20 24 29 34 19 27 26 26 32 26 23 20 23 31 30 34 21 36 33 25 36 33 37 28 36
25 24 34 27 33 35 18 24 32 37 33 25 18 22 20 19 32 35 26 33 29 21 33 29 21 18 20 33 38 37 21 20 33 37 35 38 24 34 23 31 30 29 31 19 38 18 32 38 35 30 38 21 19 23 22 21 22 25 27 38 37 21 29 30
32 32 35 20 22 25 25 32 35 33 38 32 22 27 33 32 34 34 35 30 28 37 32 38 22 31 36 32 20 35 22 20 35 26 20 26 25 32 18 25 37 34 29 36 32 21 22 19 30 25 31 35 30 31 20 20 21 25 33 25 34 36 20 31
27 37 24 29 34 22 20 31 25 36 30 31 28 35 37 19 24 27 29 26 23 38 37 26 24 28 33 25 36 30 18 18 20 38 24 18 29 33 20 27 28 26 29 37 26 29 34 27 22 31 30 23 31 30 31 21 30 20 24 19 24 37 25 38
26 38 25 27 34 31 23 21 27 18 34 28 20 26 27 21 26 20 21 39 27 26 31 31 38 29 36 32 18 35 31 27 27 38 32 32 35 25 24 21 39 21 33 32 31 25 35 30 20 19 33 21 31 21 32 30 24 18 22 27 30 25 38 31
24 33 21 27 20 38 22 37 30 29 37 26 36 26 19 25 23 27 43 31 41 29 33 31 34 38 41 25 34 28 28 33 18 29 33 24 23 39 30 22 29 29 44 34 40 36 27 41 38 25 25 35 26 35 23 22 37 22 18 38 27 29 34 37
32 20 23 22 18 20 24 36 38 37 28 23 21 41 35 40 38 33 34 33 35 43 49 42 34 36 31 42 31 39 27 32 27 31 32 20 39 35 30 41 31 29 48 39 32 41 42 47 30 24 29 35 29 21 18 35 23 22 19 34 29 25 35 22
34 36 33 38 34 21 20 36 37 19 24 32 40 30 27 41 37 45 43 43 50 41 38 45 50 40 29 39 47 48 46 42 33 40 43 36 45 38 46 47 47 46 41 34 39 44 37 40 43 31 36 43 24 23 26 18 21 32 27 21 38 27 27 34
31 38 22 38 21 22 31 37 31 34 36 36 31 43 41 35 50 55 41 57 43 37 40 40 53 54 55 53 48 52 44 39 43 53 49 57 39 58 51 37 54 56 37 42 48 42 50 46 35 45 29 31 28 22 30 23 38 18 33 19 25 24 33 34
22 21 19 21 34 27 22 25 21 22 22 36 38 43 50 41 39 51 47 51 51 51 42 56 64 55 58 49 56 52 57 45 42 54 54 58 67 53 59 48 61 53 42 44 53 43 55 58 45 54 49 45 30 33 27 25 25 22 35 32 23 18 33 27
18 38 23 22 35 38 19 32 29 31 42 29 35 42 35 58 55 62 56 55 45 56 61 68 66 66 68 75 67 60 59 58 68 66 58 56 58 75 59 66 72 59 68 48 51 48 57 51 54 43 42 46 43 30 41 30 22 33 26 27 27 31 23 22
26 27 37 38 23 21 26 20 35 41 35 46 44 53 38 52 52 65 62 51 62 56 56 74 66 63 83 71 70 78 65 78 67 67 79 76 81 77 79 82 70 75 60 72 59 60 48 53 63 57 50 52 51 29 32 28 35 32 35 19 26 24 24 20
34 31 34 30 26 26 34 37 26 33 29 33 49 49 42 54 50 64 58 71 74 66 79 71 79 80 78 72 86 73 86 68 68 84 75 73 90 83 86 85 74 73 81 75 72 72 63 62 63 51 42 39 54 42 37 26 32 26 32 37 26 27 33 25
24 24 26 29 36 24 27 24 35 37 34 49 42 49 44 61 58 58 69 63 81 80 77 76 84 88 98 93 94 85 96 95 97 83 83 95 92 86 91 95 97 85 85 82 63 70 63 52 53 64 44 58 45 44 42 25 34 33 24 18 23 24 36 21
38 19 26 30 31 21 27 34 28 41 36 45 53 51 51 51 57 70 77 75 76 90 96 88 103 94 88 87 88 96 104 91 100 105 101 100 98 103 93 89 93 83 98 84 75 78 62 65 67 58 52 41 43 52 46 26 26 34 26 38 38 33 38 25
27 37 32 33 26 21 22 28 38 43 44 49 42 55 56 66 68 64 74 71 84 100 88 96 99 107 95 99 103 95 97 95 110 106 94 99 102 100 97 107 103 103 97 86 80 86 80 77 55 54 59 46 45 50 42 30 41 26 31 29 27 36 33 30
34 30 20 25 21 31 20 30 31 44 51 52 40 51 63 71 64 59 78 89 98 106 101 106 106 116 118 117 111 107 115 104 111 104 108 108 111 99 109 97 105 94 99 108 86 78 81 58 57 56 48 54 40 41 38 30 40 31 30 38 37 21 28 38
24 33 22 36 23 21 29 28 29 43 36 50 58 63 52 59 73 74 82 89 90 97 111 106 102 118 112 111 108 106 119 117 127 120 124 105 117 114 101 111 99 112 106 94 102 83 73 64 57 67 56 63 55 53 38 40 31 39 31 18 35 32 29 18
24 20 25 19 23 18 36 20 41 29 44 47 39 57 50 71 55 66 75 95 104 111 115 113 111 115 104 114 125 120 130 130 118 125 127 112 122 113 112 110 105 113 106 108 91 84 82 74 69 61 66 54 48 48 39 28 41 27 22 21 31 27 34 32
20 22 30 33 25 29 32 28 37 38 37 45 38 47 58 55 65 74 70 93 95 101 110 117 121 121 121 108 115 130 122 126 120 135 118 121 114 121 112 117 116 117 96 103 103 82 79 62 68 55 63 43 38 45 50 28 23 37 24 25 19 37 27 37
33 29 38 31 26 38 33 24 32 41 45 44 49 52 55 59 59 68 65 73 98 99 100 115 102 116 120 109 115 112 125 139 125 121 127 129 130 121 117 116 119 114 93 87 88 82 83 73 63 63 62 52 43 54 43 29 22 30 19 23 32 38 18 33
30 31 29 25 28 36 21 38 32 42 38 33 36 43 43 59 61 64 77 88 88 94 100 93 104 119 123 111 110 129 127 125 128 123 121 128 118 114 116 105 106 95 104 98 86 70 63 66 51 58 51 45 48 43 47 44 21 22 19 19 23 35 22 18
31 25 23 18 18 19 27 31 40 28 32 43 43 56 57 62 55 53 66 78 81 92 95 108 95 117 113 104 125 112 126 131 121 127 111 118 112 104 108 108 110 100 84 91 74 66 60 59 46 52 45 53 36 47 43 44 25 33 19 24 20 24 31 24
18 24 23 29 18 38 37 38 22 30 37 46 44 43 52 54 60 55 62 72 87 75 80 97 89 98 106 114 106 108 107 124 121 114 105 122 115 115 105 106 98 89 80 82 88 72 54 61 52 54 49 37 35 37 34 22 23 30 21 31 38 25 31 21
32 20 23 29 24 25 24 21 29 32 30 26 47 37 43 56 47 55 64 75 83 77 90 79 88 93 111 102 115 99 102 115 113 107 105 109 113 105 102 90 97 80 77 71 64 64 62 49 56 54 36 33 32 41 39 25 29 20 35 25 32 22 38 21
26 33 36 33 22 31 23 37 36 31 28 34 28 31 35 50 55 52 47 55 68 75 77 87 84 81 94 100 92 91 107 95 92 108 109 110 103 98 97 93 87 80 81 75 77 62 61 50 43 43 40 44 40 44 27 28 20 28 23 27 37 24 32 35
18 19 21 20 21 38 29 21 31 34 37 40 25 41 41 42 33 39 43 52 63 61 70 82 82 74 78 98 94 86 92 88 97 81 87 94 94 89 97 90 80 72 75 69 60 57 56 53 40 32 41 41 36 22 26 20 32 36 24 37 33 38 34 33
28 35 21 24 38 23 24 24 19 32 32 34 28 34 31 28 47 42 48 44 45 50 60 64 80 77 85 90 76 92 83 94 91 89 90 77 93 79 76 79 80 60 65 65 59 40 39 42 39 32 26 30 36 38 23 36 37 24 32 29 18 31 26 36
28 33 35 18 26 34 33 36 34 26 19 27 36 22 42 28 40 44 29 45 44 45 59 63 67 79 65 63 67 72 83 73 84 73 75 76 73 67 67 72 55 58 57 52 48 40 33 41 46 25 24 21 21 34 19 26 37 34 22 27 23 20 26 18
20 33 23 27 21 37 25 38 24 21 19 35 22 23 32 22 40 26 40 37 45 56 45 53 60 65 61 74 65 76 64 79 81 68 75 66 67 68 57 55 53 63 48 48 32 42 30 32 37 39 31 25 34 30 24 27 27 23 32 29 23 36 26 31
31 34 31 36 29 31 31 23 35 37 35 37 34 26 22 30 28 26 30 31 30 46 45 56 44 49 62 53 67 63 66 61 75 75 62 59 58 57 56 47 39 53 41 33 34 32 34 28 25 38 27 27 32 26 33 24 26 31 24 23 28 30 35 34
28 19 32 19 23 29 36 28 33 26 26 27 27 25 34 37 21 25 30 28 28 32 40 48 40 54 50 42 63 56 59 67 67 63 48 52 61 58 46 41 46 30 34 27 37 20 34 28 33 23 18 26 22 37 29 26 20 38 33 35 28 26 34 38
33 19 26 23 29 26 38 31 30 25 27 21 27 24 25 26 19 22 21 19 30 22 39 42 30 35 36 44 44 59 54 60 52 51 43 56 59 40 54 43 32 27 30 21 24 36 20 20 37 21 34 23 36 21 38 28 21 31 31 18 38 31 24 36
32 20 27 27 31 35 20 31 28 38 19 26 37 30 26 21 29 27 34 27 28 19 25 25 31 41 42 49 42 47 42 42 42 55 40 54 48 49 36 27 28 38 37 36 24 24 34 33 34 37 29 37 28 28 35 18 19 31 25 29 36 21 21 20
26 20 36 18 32 20 36 25 30 30 29 27 28 27 28 29 20 36 30 34 23 28 23 29 33 22 37 41 29 46 39 35 47 47 37 29 29 41 24 36 36 34 38 19 35 26 28 22 21 26 24 28 31 19 29 29 38 20 22 24 26 21 33 36
27 34 22 26 30 28 21 23 22 28 27 32 23 22 26 26 32 20 24 21 26 37 29 38 20 25 33 39 29 28 26 42 45 36 27 38 30 40 21 32 32 22 34 28 27 25 29 20 32 36 30 33 38 29 28 26 23 35 32 36 23 37 21 25
28 23 18 19 21 38 30 32 38 24 25 30 26 28 30 21 28 26 26 26 33 18 27 29 32 28 37 30 21 18 25 29 34 19 23 27 36 31 34 38 31 35 34 20 26 37 26 23 19 35 25 24 28 19 18 27 28 37 18 30 27 38 36 30
22 33 28 30 24 37 38 36 19 19 20 37 34 20 27 38 33 23 35 22 34 19 24 38 32 20 34 27 19 32 20 28 31 33 32 19 25 26 38 25 19 24 31 20 25 28 36 28 20 21 27 36 36 23 36 26 22 21 20 31 23 24 20 35
32 36 23 24 22 27 36 30 20 26 24 30 35 28 37 25 25 27 29 31 23 22 23 35 32 38 27 20 33 18 29 27 30 29 25 23 24 18 36 30 36 24 33 25 25 29 18 19 31 34 24 33 18 33 36 18 24 32 34 28 21 27 24 38
33 34 18 29 28 36 29 18 30 20 26 26 36 21 26 27 24 25 25 32 18 27 19 21 32 28 24 20 19 33 21 25 27 25 29 38 21 35 33 20 27 30 18 21 32 32 38 33 30 33 20 28 36 24 32 23 25 34 32 38 37 19 28 32
25 30 25 18 20 19 20 32 18 37 33 32 19 18 31 24 27 35 31 32 30 19 33 38 36 24 27 19 32 33 24 30 35 37 29 37 31 35 18 26 32 29 32 36 36 31 26 20 24 29 18 34 21 32 21 19 32 30 22 30 29 24 32 19
30 29 18 31 23 31 27 18 24 30 37 35 35 20 35 32 32 20 19 25 28 31 38 35 31 37 19 24 36 34 20 25 23 18 28 32 36 26 29 34 20 23 20 26 34 36 28 22 29 30 25 23 27 19 30 35 27 20 31 22 29 24 27 19
35 27 19 31 22 28 20 33 19 21 26 21 30 36 31 29 36 19 31 22 33 37 29 20 26 33 34 18 28 19 29 21 34 25 28 25 27 35 32 31 19 18 29 21 29 22 22 32 24 31 34 22 19 21 28 31 24 19 27 26 31 36 26 18
36 26 38 37 36 22 28 20 25 18 32 20 27 26 34 30 18 22 37 34 32 27 36 35 29 38 37 21 30 18 36 33 36 29 28 28 31 33 20 30 33 38 35 19 22 18 20 26 19 18 23 32 35 34 26 31 21 38 32 21 36 29 35 21
20 19 21 34 31 38 38 28 26 38 31 34 27 24 22 24 37 26 29 26 24 37 36 34 27 22 27 20 24 24 24 35 25 19 32 35 24 24 20 24 34 38 22 32 19 36 31 26 32 27 37 23 22 36 29 36 37 21 26 32 19 26 22 30
37 32 27 25 25 35 23 18 28 35 24 20 20 19 29 22 28 36 26 38 37 28 28 26 24 37 34 23 24 20 23 29 19 27 22 19 18 31 31 33 36 18 19 33 38 30 19 37 38 33 19 35 23 36 25 20 28 35 34 31 38 21 23 23
36 20 25 33 19 19 34 20 29 22 33 21 36 33 27 20 20 24 23 18 28 24 33 29 37 27 18 29 34 33 37 18 31 23 21 19 31 32 30 20 37 38 36 24 37 32 23 35 27 19 35 26 19 35 20 36 22 35 21 20 23 23 34 29
35 31 34 20 27 31 23 27 28 26 32 19 33 26 23 38 36 20 37 31 26 23 19 30 23 30 31 26 21 26 24 34 38 21 36 20 34 31 33 19 26 31 32 19 26 27 35 29 30 24 18 26 24 24 30 26 19 31 33 36 30 35 24 24
31 33 29 36 18 30 27 32 18 18 18 21 24 28 31 31 27 32 28 27 21 23 26 26 25 27 38 33 35 38 29 18 34 23 29 30 19 34 28 19 23 22 33 36 21 34 34 31 23 19 22 38 29 29 34 30 19 29 37 19 22 37 28 21
