P2
64 64
255
24 14 16 17 17 25 17 22 22 23 17 18 21 25 17 23 22 21 22 18 18 23 21 20 22 24 15 21 24 15 26 19 14 26 21 14 21 19 16 14 23 19 17 15 18 23 25 23 19 23 24 22 14 15 21 25 15 20 16 16 19 24 22 15
26 24 25 26 15 25 16 17 17 24 24 15 21 20 23 25 23 18 17 15 19 23 18 25 18 25 16 21 19 19 14 23 23 24 22 22 25 21 21 24 23 21 21 26 20 21 17 19 17 15 22 24 17 21 19 23 17 21 15 16 14 21 21 24
17 25 22 20 23 19 21 21 18 19 14 16 24 24 24 17 22 19 22 16 20 17 20 18 21 19 15 17 24 24 18 16 16 20 18 14 23 25 15 21 23 23 23 17 24 24 22 18 17 26 20 24 14 15 19 26 20 22 19 18 17 14 22 20
17 21 26 26 15 14 17 17 23 24 23 19 18 21 21 14 14 15 22 21 14 23 16 20 14 25 21 23 15 25 22 16 17 18 15 26 26 20 17 22 24 18 21 14 24 21 15 18 23 26 21 20 19 23 19 21 23 17 18 15 15 22 16 20
16 18 18 26 15 25 14 24 23 19 18 22 16 19 20 16 17 22 20 18 15 17 15 22 26 21 22 23 20 19 18 25 23 14 18 22 17 25 20 22 24 15 26 20 25 20 26 18 26 22 19 14 20 18 15 20 19 14 16 15 18 22 25 15
24 18 18 23 14 26 24 22 20 23 15 15 14 14 16 14 26 24 17 25 21 20 18 20 23 17 16 24 17 20 19 19 18 20 20 18 23 16 15 14 24 17 15 23 14 21 15 25 22 21 17 25 23 19 26 25 26 24 22 26 21 14 22 15
22 17 17 15 21 20 21 14 16 17 24 18 21 26 17 15 22 20 24 21 19 18 23 16 15 19 26 18 22 15 14 15 18 17 21 15 21 21 20 20 24 19 19 16 20 26 21 18 25 17 21 22 24 17 16 15 16 19 18 22 20 19 16 23
19 18 22 20 22 19 22 23 25 22 21 25 16 18 25 21 14 19 19 19 15 15 24 21 20 24 25 26 21 26 22 17 17 20 20 17 14 17 24 20 26 23 18 23 16 21 24 16 21 15 22 19 18 22 15 20 22 25 18 23 21 18 17 18
18 26 14 26 18 21 17 16 25 24 18 19 24 16 15 17 15 19 24 16 22 15 17 26 22 23 20 17 26 21 16 18 18 24 20 23 23 18 20 25 22 17 22 26 25 23 17 25 25 26 19 18 25 23 21 20 19 20 22 16 21 20 26 19
21 25 19 14 24 23 18 16 24 17 24 18 26 21 25 16 21 23 15 23 14 22 15 26 23 20 21 20 22 17 22 26 25 16 16 14 23 17 17 22 21 25 22 24 14 16 25 18 14 23 20 19 25 26 24 26 18 14 23 26 20 21 21 25
18 21 19 21 17 16 26 14 25 22 20 19 25 20 25 19 25 18 24 25 16 19 21 20 18 21 14 14 22 25 24 21 15 14 22 14 26 23 25 23 16 17 23 24 19 23 15 20 14 22 24 22 17 26 16 23 22 21 23 17 23 15 19 26
18 18 21 18 19 21 14 26 21 16 24 17 15 20 20 18 18 26 24 15 25 26 20 25 23 17 14 18 15 25 21 20 22 16 15 24 17 24 23 16 21 25 15 15 15 18 25 23 21 24 22 15 16 16 18 24 18 25 25 24 16 20 16 20
22 14 24 17 17 23 26 14 16 18 19 16 19 16 14 15 19 22 20 20 23 22 23 24 23 20 24 20 26 17 19 15 26 26 21 26 15 23 22 15 26 25 20 22 14 23 15 23 24 24 21 14 17 15 22 22 22 14 21 20 15 21 26 14
21 19 25 19 26 22 22 24 19 16 20 21 20 21 17 15 25 17 24 18 21 17 18 19 21 25 15 20 20 23 20 21 26 20 21 18 23 22 26 24 24 23 16 17 25 25 22 19 26 22 21 17 25 20 24 25 23 17 25 20 16 18 25 22
17 22 26 15 21 22 17 20 19 23 15 24 24 25 22 23 24 17 25 19 21 15 24 23 26 15 14 23 19 21 25 23 23 20 22 23 15 22 24 20 18 16 17 24 20 17 24 21 24 19 18 17 20 22 19 22 16 23 23 26 19 17 25 23
25 22 26 14 21 17 14 17 19 24 19 26 22 16 22 23 17 15 15 17 17 23 16 23 20 24 16 21 22 20 18 21 17 18 23 21 26 21 24 16 14 25 21 17 24 22 17 22 26 24 26 22 15 19 17 21 15 17 26 18 24 22 14 19
18 16 16 25 20 24 23 25 23 18 18 23 15 23 21 14 20 24 26 18 15 24 24 18 26 24 24 16 18 26 25 23 21 14 26 19 23 23 20 20 21 15 22 16 14 21 22 26 19 15 20 14 22 23 19 17 25 22 20 14 26 25 25 17
18 26 21 14 22 26 21 16 16 22 25 25 25 17 25 25 14 15 22 24 23 25 15 14 15 25 23 17 19 17 21 20 16 15 23 20 26 19 18 21 19 22 22 14 15 26 19 14 15 16 21 15 25 26 23 21 24 20 20 20 19 26 16 22
22 14 22 18 24 22 23 22 19 26 26 23 21 14 20 24 23 20 16 17 18 25 21 17 20 19 16 16 21 25 22 23 22 26 25 20 18 16 14 18 20 24 16 23 18 14 17 24 24 23 15 17 22 16 17 26 14 17 14 17 22 17 16 14
20 14 17 17 16 19 23 16 22 14 23 14 26 17 25 21 19 20 28 29 26 27 25 22 17 19 15 25 16 19 22 19 18 21 23 24 21 22 14 20 25 22 24 28 25 19 22 19 18 15 15 22 18 23 16 26 14 14 17 25 22 19 24 22
26 25 26 22 20 14 17 18 15 26 17 26 20 19 16 29 18 27 31 33 22 23 24 31 29 29 18 16 18 25 20 24 20 22 23 20 16 21 18 27 31 27 23 22 23 26 23 31 24 21 27 16 25 14 15 22 18 23 16 22 18 24 17 18
15 16 23 24 16 19 19 22 19 20 17 25 18 22 25 32 31 34 29 33 30 25 26 25 33 24 31 26 27 20 26 16 20 18 20 23 16 29 22 31 24 35 26 30 30 37 25 28 32 22 30 20 14 21 16 17 26 23 25 21 21 16 19 17
15 14 22 18 23 17 21 17 19 17 25 22 18 24 34 33 29 30 34 40 32 35 33 38 32 33 24 34 25 18 20 16 16 14 24 20 23 33 34 29 35 31 30 33 41 30 36 31 35 32 31 22 29 15 21 19 25 24 21 17 23 23 24 15
21 20 14 17 15 21 26 22 15 21 22 25 27 26 31 32 41 41 40 38 38 41 37 40 36 40 38 27 29 27 17 21 22 16 21 26 32 30 27 39 42 39 35 41 37 34 39 34 38 39 30 26 22 17 24 26 22 20 18 14 25 25 18 17
18 24 26 15 18 17 26 15 19 21 26 21 31 32 37 33 35 43 46 42 47 42 42 43 34 34 34 29 30 31 25 29 18 18 20 25 27 30 35 41 37 47 42 46 44 37 41 41 45 38 38 36 23 28 25 26 16 26 16 18 17 22 23 21
24 15 15 18 24 20 14 17 17 23 23 22 32 40 33 43 38 48 44 41 53 43 41 47 49 42 34 42 35 33 33 23 22 30 32 25 31 43 34 43 39 51 48 47 45 50 40 46 45 42 41 33 36 25 29 23 24 22 21 24 23 16 26 17
17 25 20 22 25 21 24 18 17 26 32 34 40 33 40 47 48 47 43 54 46 51 49 55 47 48 42 45 35 33 27 23 29 27 27 37 31 42 45 39 44 49 50 50 53 53 44 45 50 46 45 32 37 36 22 21 18 14 23 21 17 25 24 18
20 20 20 21 21 22 23 14 19 32 23 36 30 35 49 44 53 49 52 58 53 54 59 50 54 53 40 44 44 41 26 27 33 32 34 37 45 48 46 53 45 49 53 49 59 55 49 53 50 44 43 37 42 33 23 30 27 15 22 18 20 26 20 26
25 16 15 19 23 23 26 16 24 27 25 31 41 45 50 44 47 55 51 59 57 54 63 59 52 54 46 45 39 44 36 38 31 36 40 38 36 50 46 52 60 51 58 56 58 53 61 51 49 52 43 46 36 36 37 21 21 14 16 19 17 24 24 22
17 26 22 23 26 17 23 16 18 33 27 38 45 48 52 49 58 52 63 57 60 57 65 53 57 59 46 41 39 34 31 40 36 42 42 37 41 45 46 59 54 56 66 60 58 61 61 63 48 50 47 43 39 39 37 23 29 23 25 26 16 14 19 18
24 15 17 21 17 21 24 21 24 27 33 43 39 41 43 47 61 53 56 71 71 61 61 56 64 58 52 46 41 38 43 44 32 32 44 34 39 51 54 52 60 57 62 61 71 66 66 59 60 58 46 42 38 36 35 25 28 24 25 14 21 18 15 26
19 23 14 14 20 17 14 16 30 26 39 37 45 45 48 51 63 61 61 64 65 70 73 63 63 51 50 55 41 39 33 35 43 34 38 37 42 50 56 58 60 64 66 70 73 65 67 55 51 49 43 46 36 34 32 34 28 18 19 19 20 16 23 22
18 21 23 23 17 25 23 28 28 32 37 43 40 45 47 55 59 63 65 67 67 73 75 61 63 61 48 51 40 43 41 36 42 35 42 37 40 53 49 63 65 62 63 68 68 64 71 62 56 59 50 48 36 40 29 30 26 22 19 19 16 22 23 18
21 25 21 19 18 26 25 24 20 33 29 40 46 46 54 47 62 55 69 70 65 64 70 60 60 59 49 45 48 41 41 32 44 36 38 39 46 49 54 53 60 69 65 76 66 67 60 62 53 49 43 39 38 35 33 28 31 22 18 22 19 14 18 21
18 15 21 17 23 20 26 22 28 23 37 32 40 44 45 48 58 54 61 66 62 70 59 64 54 57 56 42 45 41 33 35 39 40 33 35 45 52 50 51 62 68 61 70 71 65 61 63 54 51 45 44 41 41 36 25 29 21 19 20 26 16 14 14
25 25 14 14 24 14 17 22 29 28 32 38 38 38 53 50 59 59 54 58 62 69 64 62 50 53 56 43 41 34 30 42 40 32 34 41 44 40 52 57 56 62 58 64 64 66 63 51 48 47 49 43 39 30 30 27 26 25 16 19 24 15 16 24
20 22 21 14 24 20 23 14 26 28 32 35 32 45 46 43 50 56 51 60 62 63 60 53 57 48 49 48 44 42 33 39 34 35 38 41 47 39 53 48 53 61 60 65 57 60 54 60 56 42 39 35 32 33 35 26 20 24 17 14 15 21 25 19
25 19 19 26 17 14 14 17 22 28 28 38 40 39 44 41 51 52 57 48 59 55 50 58 49 47 50 46 35 36 38 30 26 30 37 33 38 44 41 46 49 58 53 58 52 52 47 52 46 51 49 43 38 35 31 20 19 15 26 21 26 26 26 16
25 18 16 14 14 24 15 21 23 21 31 35 40 37 46 38 41 42 52 55 47 50 49 48 43 46 43 46 35 32 29 26 23 32 27 33 36 42 37 47 53 48 56 54 56 49 55 44 46 49 45 37 37 25 25 22 20 23 14 25 16 20 14 17
25 17 21 24 28 22 22 29 19 21 35 29 32 39 38 46 44 52 51 50 51 55 57 47 45 44 42 39 33 40 39 25 28 30 34 42 37 45 48 53 50 50 52 58 56 50 52 56 44 44 37 36 44 37 25 34 29 28 23 23 29 28 24 31
28 30 33 22 31 27 29 22 25 25 28 38 36 37 47 41 43 45 50 53 47 46 56 56 47 47 50 41 45 39 34 31 33 37 31 44 47 48 53 52 45 52 59 60 48 51 57 50 55 51 48 48 35 42 32 35 35 28 32 33 31 36 31 27
29 24 32 35 32 24 31 34 35 32 33 29 40 34 37 43 51 54 44 55 45 47 52 56 53 42 46 43 38 40 38 29 30 30 42 46 45 50 44 47 49 52 53 49 56 52 51 55 46 51 43 43 48 41 34 44 37 41 43 34 34 35 40 39
31 21 22 32 25 23 22 29 25 31 22 31 33 28 41 40 36 44 40 39 37 41 39 48 39 43 39 39 41 35 35 34 29 23 26 32 31 33 34 41 39 47 43 39 48 50 39 38 38 46 43 35 38 36 35 29 33 29 27 26 26 34 27 37
21 21 25 20 28 29 21 19 17 29 28 24 17 25 26 25 36 39 35 35 38 30 41 29 39 35 36 35 29 30 18 20 18 21 29 20 25 36 28 31 39 34 39 32 39 31 33 31 36 26 27 27 25 31 26 20 31 21 23 25 26 27 27 30
15 16 24 23 19 14 18 24 14 24 20 23 16 23 26 24 30 32 32 24 27 27 22 21 29 30 17 24 21 26 24 24 24 20 22 24 14 17 25 18 23 25 23 25 27 29 27 26 19 20 25 26 18 19 23 20 22 22 25 23 20 23 17 17
18 15 14 18 19 16 18 24 19 23 16 25 19 22 25 19 16 24 19 19 29 19 22 26 26 22 15 24 21 17 24 18 18 19 17 19 20 19 18 19 16 23 28 24 21 25 18 20 17 16 20 17 25 24 16 26 16 16 14 16 16 16 21 26
16 18 20 14 16 21 22 15 14 15 20 14 18 24 24 24 16 14 14 18 15 17 21 22 20 20 18 21 26 18 21 25 17 25 19 19 21 15 24 19 18 16 22 21 25 18 14 21 24 19 26 17 26 24 16 19 18 15 23 18 20 22 25 24
19 25 25 23 25 15 21 16 19 16 16 18 21 18 26 24 24 20 19 24 21 15 14 21 19 21 17 20 21 24 14 18 15 25 26 26 26 14 25 19 15 19 23 17 18 16 26 15 18 18 20 16 14 16 14 24 22 26 18 18 26 16 22 22
23 24 24 24 19 24 24 15 16 24 16 20 21 15 25 18 26 24 22 14 26 18 16 20 14 15 18 26 22 20 23 15 18 22 23 26 26 16 19 17 19 25 18 22 25 26 21 16 20 23 17 14 16 20 19 24 17 16 22 21 20 26 21 18
16 15 25 20 19 21 25 18 19 26 26 19 19 24 21 21 26 21 15 20 16 16 15 21 21 22 19 18 21 15 15 24 24 21 16 26 16 20 15 26 15 23 20 16 25 16 14 23 21 26 23 20 26 19 16 25 22 20 20 18 18 20 19 20
26 14 20 20 21 25 21 26 16 25 22 26 17 17 16 17 22 23 25 18 26 26 24 19 20 22 23 16 17 26 17 17 25 21 18 26 17 23 15 17 15 23 21 24 25 16 14 16 20 26 14 17 22 25 15 20 15 24 18 19 26 23 15 25
17 19 22 21 18 22 22 21 21 21 22 25 19 17 24 20 25 18 26 22 14 24 21 23 21 20 26 17 18 17 20 14 18 25 19 22 14 23 17 20 22 20 21 17 16 22 25 18 14 24 22 15 18 17 22 26 23 18 23 24 23 17 19 14
15 22 25 20 20 15 24 16 15 16 19 22 14 22 15 17 17 18 23 18 17 15 25 15 23 23 23 15 15 18 23 20 22 23 26 22 24 19 24 19 26 25 15 25 24 16 15 26 24 16 14 24 18 25 26 15 22 25 14 21 24 16 23 25
19 23 20 21 22 14 24 19 14 25 14 25 23 17 17 24 15 24 21 24 19 24 26 14 19 20 21 23 20 17 20 16 23 25 16 17 20 17 23 19 15 21 18 23 24 18 26 24 18 14 15 24 16 23 19 15 18 26 19 15 14 17 20 21
22 15 24 15 25 19 19 16 24 23 20 25 21 15 15 15 20 24 19 21 14 20 24 24 16 23 18 19 20 20 15 25 23 21 17 23 18 25 17 25 26 26 20 18 21 23 22 19 14 24 20 16 20 25 21 20 16 15 17 19 21 20 26 15
16 14 16 14 14 19 18 16 22 15 15 26 16 26 16 19 19 15 26 20 16 20 22 15 23 15 18 16 18 20 20 14 23 18 16 14 14 25 17 21 17 21 18 18 20 19 15 15 20 23 26 20 15 17 24 15 26 22 25 21 18 18 23 14
17 15 26 21 15 14 21 19 15 14 15 21 17 21 15 22 15 18 15 24 20 24 22 16 18 18 21 26 25 23 16 21 26 17 22 19 16 20 22 15 19 14 15 20 22 16 21 20 22 15 15 16 19 20 19 26 15 24 16 21 21 18 21 20
26 17 25 14 26 16 21 22 22 16 21 20 15 26 15 17 18 18 19 26 26 26 14 21 21 23 23 23 25 16 25 20 24 26 25 17 23 21 24 25 21 20 19 23 19 26 20 21 16 22 21 23 15 20 14 20 21 18 18 25 23 19 25 18
23 14 21 20 19 20 25 17 16 22 19 26 19 24 16 23 25 24 22 25 16 18 17 20 16 25 19 22 21 20 19 20 26 23 17 19 24 16 17 16 15 25 25 14 18 17 23 24 24 23 16 19 21 25 23 21 21 17 26 20 16 19 14 19
20 26 18 17 24 25 23 26 19 17 26 16 26 24 25 24 24 22 19 24 23 16 14 14 23 23 25 16 15 24 25 20 17 21 14 20 26 15 21 14 22 23 20 15 23 19 16 18 20 17 16 22 16 17 14 17 22 20 23 14 26 16 24 25
21 20 19 20 18 14 19 22 23 16 25 25 20 24 15 22 17 18 20 26 16 18 24 20 21 26 23 26 18 18 24 23 25 17 26 22 15 24 26 21 18 15 25 19 21 21 25 21 21 23 15 17 15 23 17 21 18 22 21 25 20 22 21 18
14 21 19 20 25 17 21 17 16 18 21 25 16 18 24 17 25 19 21 24 22 19 19 25 22 21 18 20 22 15 15 23 23 18 25 18 20 16 20 25 25 22 23 25 20 17 24 17 16 19 18 15 22 25 25 24 22 26 26 25 18 22 22 17
23 26 20 24 14 14 22 17 24 26 25 18 18 23 15 15 25 21 15 20 15 14 21 23 17 22 19 26 25 18 26 15 24 18 18 14 14 24 24 20 17 21 22 17 25 24 26 14 23 16 16 20 15 17 23 15 15 19 24 15 23 14 15 25
26 18 23 23 17 25 24 18 23 23 20 15 24 24 22 24 23 24 18 22 22 24 15 15 14 23 15 20 21 20 15 14 24 18 20 23 19 21 15 22 19 21 21 14 19 16 24 20 25 23 18 26 25 18 16 19 20 24 26 17 14 22 25 26
