P2
64 64
255
25 14 14 16 20 22 18 22 14 26 25 16 20 20 22 16 25 23 25 15 14 18 20 22 21 15 14 23 25 16 23 19 15 15 16 25 26 16 15 23 16 14 19 18 14 23 14 14 21 14 22 21 16 23 15 20 23 22 14 16 25 14 15 18
15 15 19 26 20 20 18 17 26 19 23 22 22 25 17 15 22 21 24 20 23 14 26 22 25 16 17 21 24 17 15 26 15 22 25 21 24 17 19 24 14 18 15 21 26 18 18 16 14 26 15 22 15 21 24 21 17 15 24 22 23 23 23 19
20 14 15 14 25 18 22 17 14 20 24 21 14 24 23 26 23 14 26 16 17 21 14 23 21 23 22 16 18 26 20 24 14 18 22 18 19 26 16 20 15 20 23 26 15 23 25 25 20 21 24 26 22 26 25 16 16 25 17 18 21 26 21 21
23 23 18 26 23 16 22 20 14 16 20 17 26 21 24 17 17 21 24 24 18 23 19 23 23 23 21 14 25 24 21 21 18 18 23 22 19 19 25 25 16 23 16 22 16 26 22 15 22 25 14 16 18 19 24 25 15 25 23 14 17 24 22 16
19 19 24 24 23 17 25 22 19 20 24 22 17 22 22 16 14 22 16 17 18 23 18 25 20 24 20 25 22 22 18 17 17 21 16 23 18 17 25 22 16 23 17 21 15 14 21 18 22 24 26 17 24 24 23 17 16 24 16 26 14 14 24 15
16 15 22 26 18 14 24 20 23 17 19 15 21 25 18 23 17 24 20 14 16 26 24 25 24 18 23 19 25 17 14 22 20 19 14 26 22 15 15 24 23 15 22 19 20 17 26 20 16 22 17 15 16 24 19 18 26 24 22 18 17 22 24 24
21 25 22 26 24 16 23 22 25 25 25 18 24 23 14 18 16 18 17 26 16 20 26 25 16 19 23 14 15 15 14 18 14 22 15 24 15 24 20 20 14 15 24 25 15 14 19 17 22 20 20 26 25 15 26 16 24 22 15 26 16 18 25 19
24 14 18 15 15 22 18 14 26 16 18 24 14 14 14 21 19 23 16 20 22 24 17 18 14 20 23 16 17 15 21 19 17 20 15 14 14 14 18 23 23 20 16 14 21 16 16 16 26 26 23 21 23 25 19 19 17 20 21 23 18 19 20 15
14 14 16 18 15 19 16 22 21 19 15 23 25 22 19 21 18 21 19 14 25 14 24 22 22 15 24 15 22 23 25 22 23 24 22 26 21 14 18 25 17 22 21 17 24 26 20 26 18 23 26 22 21 14 18 21 17 24 18 20 20 18 16 15
24 15 15 14 20 21 15 19 16 21 21 25 16 25 22 22 23 24 18 23 20 21 26 22 25 15 16 19 15 25 18 19 20 15 24 24 19 22 26 24 20 25 26 23 23 26 18 14 19 18 15 18 25 23 17 20 22 22 21 21 21 14 15 26
15 25 17 25 21 24 19 15 18 24 17 15 15 15 22 18 19 19 23 22 15 18 24 17 14 18 14 14 19 23 26 25 20 23 22 15 26 24 24 18 24 18 19 26 22 19 21 18 16 19 23 23 17 16 16 16 22 24 14 21 21 22 14 23
25 25 21 19 25 14 19 24 16 20 22 23 17 20 23 22 21 17 18 18 16 26 20 16 22 25 15 14 21 16 14 22 22 23 25 23 21 24 22 18 26 15 17 18 18 21 23 19 18 17 15 14 24 25 25 25 23 19 22 18 22 22 15 23
18 26 15 17 19 15 20 16 21 15 17 15 14 17 19 22 16 16 19 20 15 22 15 20 24 22 24 14 22 21 25 23 22 19 15 22 24 15 14 24 19 20 23 18 22 17 22 18 14 25 21 15 20 14 14 23 23 17 21 17 25 24 19 15
26 22 26 24 21 14 25 15 24 22 17 24 23 21 26 24 24 17 22 26 24 21 23 17 16 25 16 19 15 20 18 15 21 22 18 20 17 16 17 19 15 20 24 24 18 22 15 14 20 26 19 22 22 19 23 22 20 24 21 26 19 14 22 21
16 17 23 18 26 15 20 24 19 21 18 17 20 15 20 15 16 24 14 18 21 19 18 17 16 25 21 14 16 14 21 18 17 21 17 18 19 26 20 17 17 16 18 17 23 24 21 16 14 19 23 20 26 21 20 22 18 25 15 23 26 16 21 14
15 20 21 16 25 19 19 17 15 18 20 22 20 20 24 21 25 17 18 22 21 14 14 26 15 24 24 19 26 20 24 21 26 15 20 23 18 14 24 21 22 19 25 17 25 19 25 15 19 23 20 23 24 16 21 15 25 26 15 25 24 15 20 23
20 26 18 21 14 18 26 25 22 18 17 21 24 24 20 20 26 14 18 21 22 21 20 14 24 23 26 21 20 14 26 22 23 16 20 20 15 18 17 22 19 19 20 15 18 26 23 16 26 14 14 17 21 26 16 23 18 16 14 18 17 22 15 14
14 19 21 20 26 14 19 20 25 24 15 21 26 23 24 19 22 20 14 18 22 21 20 26 14 20 14 20 14 20 21 24 19 17 20 20 15 24 18 26 22 16 17 17 15 25 17 20 20 16 24 23 26 20 26 14 18 14 21 21 17 14 26 14
16 23 18 26 19 15 20 24 19 21 19 18 25 18 18 17 18 20 20 18 15 14 19 18 20 21 14 15 23 23 16 15 14 20 23 26 15 25 16 22 17 17 18 22 22 19 20 25 18 18 19 16 22 21 20 18 22 22 21 23 15 23 26 16
23 17 25 16 18 21 22 24 26 16 23 15 20 20 16 21 15 22 18 25 28 19 22 18 28 27 19 23 21 23 14 25 24 17 15 25 19 15 19 15 28 19 29 26 29 29 20 28 19 15 25 21 22 15 23 19 15 18 16 23 26 16 21 17
19 16 23 21 22 23 18 20 19 15 14 17 17 14 18 17 30 29 23 22 22 28 27 21 30 27 20 21 15 17 15 20 21 22 18 15 17 18 24 25 29 31 30 29 24 30 33 20 24 24 17 15 15 19 16 25 15 18 15 21 23 20 22 21
24 25 19 18 22 16 14 17 17 15 21 16 20 22 26 22 34 26 26 32 30 35 27 24 24 33 21 27 28 15 14 18 18 25 22 24 27 21 26 29 34 24 26 27 28 29 28 31 22 24 20 27 21 23 25 17 24 23 22 21 21 19 20 15
17 26 22 17 20 15 16 16 21 23 18 18 21 27 34 31 36 31 28 41 39 33 35 34 35 28 33 34 21 28 24 17 25 16 19 29 22 29 32 35 27 34 35 35 34 32 39 37 38 36 31 20 20 15 19 20 15 25 18 22 16 17 15 22
26 14 16 16 22 19 26 26 23 15 24 17 26 31 34 33 40 37 36 39 41 42 33 40 32 41 36 26 30 22 27 20 16 18 18 25 31 35 35 36 41 41 43 33 33 41 43 40 36 35 34 29 24 18 21 22 23 15 14 22 16 18 19 23
26 16 18 14 16 25 14 24 18 20 29 26 25 33 36 40 37 46 48 47 39 48 38 46 42 35 33 28 26 30 32 24 25 25 21 24 27 32 39 41 45 42 48 47 46 44 36 37 45 35 34 36 23 26 22 26 14 26 14 20 18 18 25 25
16 16 18 21 20 26 18 15 17 18 24 30 37 32 39 36 47 39 49 50 51 45 46 41 40 43 41 33 37 29 32 25 19 26 28 30 33 42 38 44 49 51 44 51 42 41 39 40 42 35 39 28 38 31 29 17 25 21 23 14 15 25 18 19
17 23 15 24 14 19 21 18 19 23 21 36 30 43 43 47 41 48 48 45 48 55 46 43 41 43 38 44 41 40 34 21 26 21 32 30 34 40 49 40 45 48 54 52 55 52 46 50 42 42 35 32 32 28 31 26 25 14 24 24 26 20 18 18
22 26 20 24 17 19 25 25 25 26 27 34 40 35 46 43 47 48 51 59 52 49 59 49 50 43 41 45 39 30 29 28 28 28 26 42 43 37 47 52 45 57 54 58 53 51 55 54 49 49 41 44 37 27 28 20 18 21 25 26 14 21 18 15
16 22 18 21 18 21 25 18 24 24 28 36 41 45 42 50 53 53 52 54 64 63 62 59 59 50 48 46 46 41 29 34 30 34 40 32 47 47 53 51 56 62 56 57 55 59 57 53 47 49 41 39 36 34 37 31 29 18 26 14 14 17 24 26
26 15 14 26 22 14 18 15 24 30 37 37 41 48 44 54 56 51 62 61 64 65 62 57 54 49 52 51 40 44 35 36 30 31 42 36 41 51 53 49 58 53 55 58 68 60 63 51 54 50 52 42 40 31 30 27 19 24 15 24 22 25 15 18
26 21 15 16 26 24 16 19 21 30 37 34 43 44 45 46 49 53 60 61 64 72 70 68 58 59 52 46 40 43 44 42 42 35 35 45 48 54 55 52 61 66 69 61 65 70 62 62 59 49 53 46 40 41 34 31 27 20 26 24 20 17 20 24
21 14 24 24 15 22 16 25 27 24 29 31 45 50 45 54 59 58 65 62 71 72 65 65 60 51 52 51 51 44 41 40 32 33 34 37 44 50 54 56 65 67 64 69 65 62 59 63 52 48 54 41 44 34 30 28 21 23 25 15 26 20 18 19
20 17 18 15 23 22 22 23 29 31 33 35 40 45 44 58 51 63 62 70 71 72 65 68 55 55 47 50 39 38 40 33 44 34 34 38 42 54 59 63 60 69 67 69 76 75 69 61 58 58 48 40 42 34 38 24 28 19 16 22 26 22 16 26
15 19 21 19 25 21 19 28 24 33 35 37 44 43 47 53 57 64 65 65 69 69 64 69 62 57 59 48 50 42 43 42 43 33 35 42 51 50 50 54 64 58 64 73 74 70 68 63 63 47 47 40 47 40 38 24 28 24 19 15 19 14 24 25
16 20 18 22 26 22 20 20 22 32 35 40 46 41 45 52 55 62 58 62 60 60 67 60 63 60 52 51 41 38 41 40 40 35 32 35 44 54 47 57 54 63 62 62 65 59 64 62 57 58 50 43 44 39 30 33 31 17 24 19 26 14 17 22
20 17 21 18 19 14 15 18 27 23 30 39 44 46 46 44 55 62 63 67 57 59 58 53 60 58 53 40 43 43 33 33 41 32 35 40 38 44 52 52 62 53 57 58 57 67 59 54 49 55 44 46 41 30 34 33 25 27 21 21 14 21 21 20
15 23 14 22 20 14 21 24 22 24 27 31 36 35 43 52 53 55 58 56 55 63 60 57 48 57 45 51 45 43 37 33 39 35 39 35 41 41 45 46 54 51 53 62 63 62 60 50 52 51 43 40 42 28 25 23 21 17 16 18 16 25 22 14
19 22 17 14 16 21 25 21 16 31 34 32 35 44 48 48 51 54 50 59 58 54 48 52 53 47 43 45 43 42 28 37 32 28 30 36 34 39 39 45 52 50 59 49 54 58 50 45 54 49 39 42 36 39 24 20 25 20 26 25 21 26 18 25
25 18 20 17 16 20 22 16 23 25 28 35 37 37 39 44 49 52 53 49 45 49 47 55 52 51 49 38 35 37 29 30 24 32 36 33 37 45 43 46 43 55 48 52 51 46 51 52 43 44 43 41 30 26 24 27 21 14 22 15 25 19 20 19
18 17 21 29 20 28 17 19 29 30 31 36 42 37 37 42 45 44 54 49 51 50 53 46 52 47 48 41 33 41 28 29 29 27 32 30 42 38 45 51 48 56 56 56 55 56 48 53 47 52 45 44 37 32 28 28 30 30 30 29 29 23 20 26
28 28 32 31 21 23 26 26 27 22 29 33 31 34 41 48 45 42 45 48 45 52 46 56 45 52 48 48 44 41 32 29 29 33 36 44 42 48 47 52 45 52 52 59 50 53 50 50 51 55 50 40 39 40 37 29 28 33 28 39 28 36 37 32
24 25 35 24 31 28 28 34 29 36 36 32 33 46 47 48 42 49 55 51 47 53 49 51 44 52 49 51 44 46 40 31 36 36 32 38 44 43 46 51 59 57 56 53 51 60 56 51 48 44 42 40 40 46 35 37 36 35 34 43 37 39 35 40
20 20 21 20 24 22 31 23 25 21 30 31 36 32 29 36 43 44 40 46 45 37 40 40 38 42 41 43 39 30 35 29 30 25 34 32 40 34 44 43 42 46 44 47 44 52 51 45 42 46 35 41 35 32 31 27 27 28 34 28 31 33 33 38
25 24 21 19 18 19 29 23 21 19 18 19 23 29 26 28 36 31 30 40 30 37 29 31 35 29 26 27 26 20 19 28 30 24 28 23 25 25 33 31 34 35 40 30 30 37 36 38 30 28 35 34 28 21 31 26 31 28 31 24 21 32 28 26
24 22 14 17 18 24 15 20 24 23 26 19 19 22 25 20 22 22 25 21 22 27 28 21 23 27 21 21 20 21 18 21 20 26 25 14 18 27 17 19 29 21 30 33 31 23 33 20 18 17 23 14 18 15 21 25 16 21 15 16 22 20 21 16
19 16 14 15 21 19 16 16 20 19 21 22 21 21 14 24 21 20 19 24 22 29 22 18 28 24 14 23 23 19 23 14 21 19 18 22 24 19 18 15 17 19 29 20 23 20 18 22 19 14 19 20 20 14 16 17 22 15 22 19 19 24 23 16
24 16 21 24 25 26 16 15 16 15 25 16 15 19 26 20 23 20 21 16 15 19 15 14 15 22 19 18 19 14 26 23 17 25 14 25 19 24 25 18 15 17 23 22 24 24 17 24 26 19 22 14 21 24 18 22 19 24 22 15 15 25 25 18
21 20 18 26 14 23 14 22 16 15 17 18 21 20 14 14 20 23 17 19 21 25 15 14 24 23 26 20 20 20 15 26 23 21 26 24 16 22 17 17 25 17 16 15 24 22 16 19 21 18 18 22 23 22 14 16 14 22 16 22 24 15 18 21
22 24 16 18 22 19 18 22 14 16 24 21 23 23 23 25 26 22 22 14 17 23 20 16 16 22 26 23 15 23 21 21 22 15 14 19 15 24 23 21 23 26 19 17 25 20 15 18 25 22 24 24 21 21 15 14 15 24 24 22 26 24 24 26
19 26 21 25 16 18 24 15 18 15 23 21 14 18 23 21 18 23 14 21 21 22 18 15 21 22 25 18 14 14 21 16 18 15 22 25 15 26 23 16 17 17 16 14 18 18 26 18 14 22 16 23 15 26 22 15 20 16 25 24 16 23 25 22
17 19 20 15 26 25 17 22 17 23 26 19 25 25 24 22 14 24 19 18 25 16 20 22 25 16 26 15 21 15 26 14 20 25 24 17 26 17 23 21 25 20 21 18 17 26 26 25 14 18 23 22 16 21 21 21 16 23 17 22 23 24 26 14
20 15 22 26 25 21 20 15 17 26 22 25 19 14 19 22 17 16 18 22 26 19 21 24 24 18 23 24 16 25 24 21 22 15 17 19 19 26 15 25 26 15 14 15 18 15 17 18 18 18 20 23 20 18 23 17 23 18 16 23 21 24 22 19
16 19 14 22 17 18 19 24 15 16 18 19 23 20 15 25 20 25 21 26 22 23 25 19 23 16 20 20 14 20 18 19 21 23 26 17 17 15 26 22 24 20 22 23 19 16 22 26 15 18 26 26 26 26 16 16 14 18 22 26 15 17 17 26
17 22 18 18 21 17 24 20 22 23 23 25 21 19 24 18 17 19 18 16 21 20 24 20 20 20 24 15 18 24 22 26 24 16 14 15 21 19 16 21 19 21 16 19 15 26 14 15 26 24 17 24 19 14 21 22 18 23 18 26 14 26 15 25
20 21 19 22 21 19 14 16 17 21 14 25 19 20 17 20 16 17 18 25 17 18 17 17 15 26 14 25 24 24 19 20 23 17 26 25 15 25 23 21 14 23 24 15 24 21 14 17 22 16 23 21 15 26 18 15 23 20 18 17 19 25 26 22
24 22 14 22 19 24 25 19 22 17 20 25 14 17 23 18 18 18 20 24 26 14 15 20 17 25 17 17 26 19 22 22 17 17 19 14 18 17 15 25 14 23 26 21 25 24 22 20 23 22 22 25 22 19 26 17 14 17 18 18 16 14 19 15
25 15 19 19 15 15 17 24 14 24 18 15 14 23 23 22 26 25 26 25 23 24 23 17 16 26 15 16 16 20 26 22 19 22 21 16 26 17 17 19 21 20 21 14 25 14 25 20 18 23 20 25 17 23 23 16 24 24 23 21 18 24 19 25
18 23 18 15 14 23 18 17 17 15 23 15 26 18 25 24 26 24 18 25 22 22 19 25 21 18 21 14 26 22 20 17 26 19 25 24 18 22 14 25 22 17 23 16 25 20 18 14 16 24 20 26 16 16 25 26 23 14 23 14 23 20 24 26
14 14 21 23 17 21 17 15 25 17 20 22 26 25 15 26 22 21 23 16 23 21 18 20 16 14 19 16 18 20 24 17 22 26 22 21 24 14 25 25 14 24 20 16 22 14 14 26 17 24 14 16 19 18 26 18 16 18 14 18 17 19 14 24
16 15 18 17 15 14 20 19 15 20 22 16 19 18 20 21 18 23 17 24 15 14 14 20 20 22 24 17 20 16 23 26 19 15 21 21 16 14 15 14 26 23 18 20 21 14 23 14 15 25 15 16 17 21 19 17 16 21 21 24 24 17 17 22
15 16 22 19 22 14 21 14 18 19 19 23 22 16 26 16 14 24 19 22 14 24 26 16 18 19 25 19 16 24 17 17 19 22 25 16 14 17 24 26 19 16 19 18 18 20 25 22 25 20 14 25 14 23 16 19 21 17 23 19 22 16 17 20
24 22 21 23 19 23 21 21 14 24 26 26 21 22 14 20 17 18 26 14 19 18 22 19 20 17 20 22 16 18 19 14 15 24 16 23 24 23 21 26 19 22 20 14 17 14 23 24 26 20 19 25 23 21 21 24 22 21 15 19 17 17 16 22
18 20 14 15 19 25 22 25 23 25 17 16 20 14 20 24 26 23 19 22 16 22 18 21 14 26 20 23 20 26 22 20 25 21 19 25 25 22 19 14 21 23 24 15 24 18 16 17 22 15 18 15 18 18 24 19 21 20 22 20 24 22 16 26
17 17 26 21 23 24 17 16 18 20 23 23 19 18 20 20 26 15 17 19 17 24 25 17 20 26 25 21 19 20 24 21 20 20 21 14 21 15 16 26 17 25 23 17 26 23 22 23 24 15 25 21 25 26 25 26 16 24 25 21 16 21 19 24
